; generated by PrusaSlicer 2.7.1+linux-x64-GTK3 on 2025-02-05 at 23:39:22 UTC

; 

; external perimeters extrusion width = 0.90mm
; perimeters extrusion width = 0.90mm
; infill extrusion width = 0.90mm
; solid infill extrusion width = 0.90mm
; top infill extrusion width = 0.80mm

;TYPE:Custom
G90 ; use absolute coordinates
M83 ; extruder relative mode
M104 S240 ; set extruder temp
M140 S80 ; set bed temp
M190 S80 ; wait for bed temp
M109 S240 ; wait for extruder temp
G28 ; home all
G1 Z2 F240
G1 X10 Y10 F3000
G1 Z0.28 F240
G92 E0.0
G1 Y40 E15.0 F1500.0 ; intro line
G1 X10.3 F5000
G1 Y10 E15.0 F1200.0 ; intro line
G92 E0.0
G21 ; set units to millimeters
G90 ; use absolute coordinates
M83 ; use relative distances for extrusion
; Filament gcode
M107
;LAYER_CHANGE
;Z:0.49
;HEIGHT:0.49
;BEFORE_LAYER_CHANGE
G92 E0
;0.49


G1 Z.49 F600
;AFTER_LAYER_CHANGE
;0.49
G1 X84.412 Y11.722
;TYPE:Skirt/Brim
;WIDTH:0.9
G1 X85.226 Y9.894 E.32402
G1 X88.155 Y6.965 E.67073
G1 X90.132 Y6.147 E.34644
G1 X139.782 Y6.147 E8.03955
G1 X141.758 Y6.965 E.3463
G1 X144.687 Y9.894 E.67073
G1 X145.506 Y11.871 E.34651
G1 X145.25 Y215.216 E32.92657
G1 X144.432 Y217.189 E.34585
G1 X141.503 Y220.118 E.67073
G1 X139.527 Y220.936 E.3463
G1 X80.218 Y220.933 E9.60358
G1 X78.242 Y220.115 E.3463
G1 X75.313 Y217.186 E.67073
G1 X74.494 Y215.209 E.34651
G1 X74.494 Y197.922 E2.79919
G1 X84.405 Y11.842 E30.17362
G1 X87.93 Y12.71
G1 X88.216 Y11.971 E.12831
G1 X88.492 Y11.51 E.087
G1 X89.562 Y10.4 E.24965
G1 X90.213 Y9.964 E.12687
G1 X90.866 Y9.7 E.11405
G1 X91.557 Y9.57 E.11385
G1 X138.44 Y9.578 E7.59151
G1 X139.058 Y9.704 E.10213
G1 X139.748 Y9.988 E.12082
G1 X140.208 Y10.281 E.08831
G1 X141.251 Y11.3 E.23611
G1 X141.689 Y11.952 E.12719
G1 X141.952 Y12.605 E.11399
G1 X142.082 Y13.296 E.11385
G1 X142.082 Y23.222 E1.60726
G1 X141.827 Y24.233 E.16883
G1 X141.827 Y213.779 E30.69215
G1 X141.729 Y214.374 E.09764
G1 X141.442 Y215.113 E.12837
G1 X141.166 Y215.574 E.087
G1 X140.097 Y216.683 E.24942
G1 X139.445 Y217.12 E.1271
G1 X138.792 Y217.383 E.11399
G1 X138.101 Y217.513 E.11385
G1 X81.651 Y217.51 E9.14064
G1 X81.057 Y217.411 E.09751
G1 X80.318 Y217.125 E.12831
G1 X79.857 Y216.849 E.087
G1 X78.748 Y215.779 E.24953
G1 X78.311 Y215.128 E.12696
G1 X78.048 Y214.475 E.11399
G1 X77.918 Y213.784 E.11385
G1 X77.934 Y199.19 E2.36313
G1 X78.069 Y198.587 E.10006
G1 X78.579 Y197.561 E.18553
G1 X79.857 Y196.282 E.29277
G1 X80.882 Y195.773 E.18531
G1 X81.646 Y195.621 E.12613
G1 X112.336 Y195.621 E4.96946
G1 X114.844 Y192.527 E.64492
G1 X114.844 Y43.771 E24.08724
G1 X111.039 Y39.076 E.97855
G1 X91.626 Y39.076 E3.14344
G1 X90.849 Y38.919 E.12836
G1 X90.05 Y38.557 E.14204
G1 X89.631 Y38.248 E.0843
G1 X88.722 Y37.339 E.20816
G1 X88.325 Y36.758 E.11394
G1 X88.049 Y36.11 E.11405
G1 X87.898 Y35.348 E.12579
G1 X87.831 Y13.304 E3.56948
G1 X87.91 Y12.828 E.07813
G1 X88.686 Y12.957
G1 X89.144 Y11.966 E.17678
G1 X90.1 Y10.986 E.22169
G1 X90.555 Y10.682 E.08861
G1 X91.063 Y10.471 E.08907
G1 X91.598 Y10.365 E.08831
G1 X138.394 Y10.372 E7.57742
G1 X138.851 Y10.472 E.07575
G1 X139.686 Y10.883 E.1507
G1 X140.666 Y11.839 E.22169
G1 X140.97 Y12.294 E.08861
G1 X141.181 Y12.802 E.08907
G1 X141.287 Y13.337 E.08831
G1 X141.287 Y23.183 E1.59431
G1 X141.032 Y24.078 E.15069
G1 X141.032 Y213.749 E30.71239
G1 X140.972 Y214.127 E.06197
G1 X140.514 Y215.118 E.17678
G1 X139.558 Y216.098 E.22169
G1 X139.104 Y216.401 E.08838
G1 X138.595 Y216.612 E.08922
G1 X138.06 Y216.718 E.08831
G1 X81.682 Y216.715 E9.12898
G1 X81.304 Y216.655 E.06197
G1 X80.313 Y216.197 E.17678
G1 X79.333 Y215.241 E.22169
G1 X79.03 Y214.787 E.08838
G1 X78.819 Y214.278 E.08922
G1 X78.713 Y213.743 E.08831
G1 X78.72 Y199.313 E2.33657
G1 X78.818 Y198.856 E.07568
G1 X79.23 Y198.018 E.15121
G1 X80.315 Y196.933 E.24846
G1 X80.639 Y196.734 E.06157
G1 X81.15 Y196.522 E.08958
G1 X81.685 Y196.416 E.08831
G1 X112.715 Y196.416 E5.02452
G1 X115.639 Y192.808 E.75199
G1 X115.639 Y43.489 E24.17841
G1 X111.418 Y38.281 E1.0855
G1 X91.665 Y38.281 E3.1985
G1 X91.128 Y38.173 E.08869
G1 X90.479 Y37.887 E.11484
G1 X89.313 Y36.806 E.25746
G1 X89.01 Y36.353 E.08825
G1 X88.799 Y35.844 E.08922
G1 X88.693 Y35.309 E.08831
G1 X88.626 Y13.334 E3.55831
G1 X88.667 Y13.075 E.04246
G1 X89.461 Y13.138
G1 X89.79 Y12.43 E.12642
G1 X90.636 Y11.574 E.19488
G1 X91.331 Y11.221 E.12622
G1 X91.637 Y11.16 E.05052
G1 X138.349 Y11.167 E7.56382
G1 X139.222 Y11.529 E.15303
G1 X140.078 Y12.375 E.19488
G1 X140.432 Y13.07 E.1263
G1 X140.493 Y13.376 E.05052
G1 X140.493 Y23.141 E1.58119
G1 X140.238 Y23.916 E.13211
G1 X140.197 Y213.945 E30.77036
G1 X139.868 Y214.653 E.12642
G1 X139.022 Y215.509 E.19488
G1 X138.327 Y215.863 E.1263
G1 X138.021 Y215.924 E.05052
G1 X81.486 Y215.88 E9.15441
G1 X80.778 Y215.551 E.12642
G1 X79.922 Y214.705 E.19488
G1 X79.568 Y214.01 E.1263
G1 X79.507 Y213.704 E.05052
G1 X79.507 Y199.427 E2.3118
G1 X79.568 Y199.121 E.05052
G1 X79.876 Y198.482 E.11486
G1 X80.779 Y197.58 E.20667
G1 X81.418 Y197.272 E.11486
G1 X81.724 Y197.211 E.05052
G1 X113.094 Y197.211 E5.07957
G1 X116.433 Y193.09 E.85883
G1 X116.433 Y43.208 E24.26957
G1 X111.796 Y37.486 E1.19257
G1 X91.704 Y37.486 E3.25339
G1 X90.899 Y37.211 E.13775
G1 X89.902 Y36.272 E.22177
G1 X89.548 Y35.576 E.12644
G1 X89.487 Y35.27 E.05052
G1 X89.487 Y23.446 E1.9146
G1 X89.421 Y23.151 E.04895
G1 X89.461 Y13.258 E1.60193
G1 X90.231 Y13.338
G1 X90.425 Y12.909 E.07624
G1 X91.17 Y12.164 E.1706
G1 X91.676 Y11.955 E.08865
G1 X138.237 Y11.955 E7.53937
G1 X138.743 Y12.164 E.08865
G1 X139.488 Y12.909 E.1706
G1 X139.698 Y13.415 E.08871
G1 X139.698 Y23.102 E1.56856
G1 X139.443 Y23.677 E.10185
G1 X139.427 Y213.745 E30.77667
G1 X139.233 Y214.174 E.07624
G1 X138.488 Y214.919 E.1706
G1 X137.982 Y215.129 E.08871
G1 X81.686 Y215.11 E9.1157
G1 X81.256 Y214.916 E.07639
G1 X80.512 Y214.171 E.17049
G1 X80.302 Y213.665 E.08871
G1 X80.302 Y199.466 E2.29917
G1 X80.512 Y198.96 E.08871
G1 X81.322 Y198.172 E.18299
G1 X81.763 Y198.006 E.0763
G1 X113.473 Y198.006 E5.13463
G1 X117.228 Y193.372 E.96578
G1 X117.228 Y42.926 E24.3609
G1 X112.175 Y36.691 E1.29952
G1 X91.743 Y36.691 E3.30844
G1 X91.237 Y36.482 E.08865
G1 X90.492 Y35.737 E.1706
G1 X90.282 Y35.231 E.08871
G1 X90.231 Y13.458 E3.52559
G1 X91.01 Y13.533
G1 X91.071 Y13.387 E.02562
G1 X91.648 Y12.81 E.13213
G1 X91.794 Y12.749 E.02562
G1 X138.119 Y12.749 E7.50115
G1 X138.265 Y12.81 E.02562
G1 X138.842 Y13.387 E.13213
G1 X138.903 Y13.533 E.02562
G1 X138.903 Y22.984 E1.53035
G1 X138.648 Y23.325 E.06895
G1 X138.648 Y213.55 E30.80209
G1 X138.587 Y213.696 E.02562
G1 X138.01 Y214.273 E.13213
G1 X137.864 Y214.334 E.02562
G1 X81.881 Y214.331 E9.06502
G1 X81.735 Y214.27 E.02562
G1 X81.158 Y213.693 E.13213
G1 X81.097 Y213.547 E.02562
G1 X81.097 Y199.584 E2.26095
G1 X81.158 Y199.438 E.02562
G1 X81.735 Y198.861 E.13213
G1 X81.881 Y198.8 E.02562
G1 X113.852 Y198.8 E5.17689
G1 X118.023 Y193.653 E1.07273
G1 X118.023 Y42.644 E24.45206
G1 X112.554 Y35.897 E1.40634
G1 X91.861 Y35.897 E3.3507
G1 X91.715 Y35.836 E.02562
G1 X91.138 Y35.259 E.13213
G1 X91.077 Y35.113 E.02562
G1 X91.011 Y13.653 E3.47492
G1 X91.805 Y13.777
G1 X92.038 Y13.544 E.05336
G1 X137.875 Y13.544 E7.42213
G1 X138.108 Y13.777 E.05336
G1 X138.108 Y22.741 E1.45149
G1 X137.853 Y22.996 E.05839
G1 X137.853 Y213.306 E30.81586
G1 X137.62 Y213.539 E.05336
G1 X82.125 Y213.536 E8.986
G1 X81.892 Y213.303 E.05336
G1 X81.892 Y199.828 E2.18193
G1 X82.125 Y199.595 E.05336
G1 X114.231 Y199.595 E5.19875
G1 X118.818 Y193.935 E1.17968
G1 X118.818 Y42.363 E24.54322
G1 X112.933 Y35.102 E1.51341
G1 X92.105 Y35.102 E3.37256
G1 X91.872 Y34.869 E.05336
G1 X91.806 Y13.897 E3.3959
G1 X98.217 Y19.956
;TYPE:Perimeter
;WIDTH:0.9
G1 X131.697 Y19.956 E5.42123
G1 X131.697 Y20.692 E.11918
G1 X131.669 Y20.894 E.03302
G1 X131.535 Y21.473 E.09623
G1 X131.463 Y22.018 E.08902
G1 X131.442 Y22.523 E.08184
G1 X131.442 Y207.127 E29.89191
G1 X116.777 Y207.127 E2.37462
;WIDTH:0.942374
G1 X116.537 Y207.105 E.04111
;WIDTH:0.984749
G1 X116.298 Y207.084 E.04299
;WIDTH:1.02712
G1 X116.059 Y207.063 E.04506
;WIDTH:1.0695
G1 X115.819 Y207.042 E.04733
;WIDTH:1.11187
G1 X115.58 Y207.021 E.0492
G1 X115.222 Y207.034 E.07347
;WIDTH:1.08564
G1 X114.445 Y207.045 E.15522
;WIDTH:1.06246
G1 X88.862 Y207.044 E4.98921
;WIDTH:1.06174
G1 X88.384 Y207.044 E.09315
G1 X88.384 Y206.088 E.1863
G1 X88.862 Y206.088 E.09315
;WIDTH:1.06246
G1 X114.445 Y206.088 E4.98921
;WIDTH:1.11187
G1 X115.493 Y206.021 E.21537
G1 X115.615 Y205.977 E.0266
;WIDTH:1.07464
G1 X115.736 Y205.933 E.02543
;WIDTH:1.0374
G1 X115.858 Y205.888 E.0247
;WIDTH:1.00017
G1 X116.076 Y205.805 E.04253
;WIDTH:0.966781
G1 X116.293 Y205.721 E.04084
;WIDTH:0.93339
G1 X116.511 Y205.637 E.03942
;WIDTH:0.9
G1 X117.134 Y205.366 E.11001
G1 X117.708 Y205.034 E.10737
G1 X118.225 Y204.655 E.1038
G1 X118.681 Y204.24 E.09984
G1 X119.077 Y203.799 E.09597
G1 X123.899 Y197.848 E1.24024
G1 X124.184 Y197.467 E.07704
G1 X124.672 Y196.611 E.15955
G1 X124.866 Y196.143 E.08203
G1 X125.022 Y195.651 E.08358
G1 X125.14 Y195.125 E.08729
G1 X125.206 Y194.622 E.08215
G1 X125.229 Y194.095 E.08542
G1 X125.229 Y42.203 E24.59503
G1 X125.206 Y41.676 E.08542
G1 X125.136 Y41.155 E.08512
G1 X125.022 Y40.647 E.0843
G1 X124.866 Y40.155 E.08358
G1 X124.443 Y39.244 E.16264
G1 X123.899 Y38.45 E.15585
G1 X117.779 Y30.898 E1.57398
G1 X117.239 Y30.316 E.12856
G1 X116.589 Y29.784 E.13601
G1 X115.837 Y29.331 E.14215
G1 X114.996 Y28.984 E.14731
G1 X114.089 Y28.765 E.15109
G1 X113.148 Y28.69 E.15285
G1 X98.283 Y28.69 E2.40701
G1 X98.283 Y22.523 E.99859
G1 X98.217 Y21.719 E.13063
G1 X98.217 Y20.076 E.26604
G1 X97.422 Y19.161
G1 X132.492 Y19.161 E5.67869
G1 X132.492 Y20.692 E.24791
G1 X132.492 Y20.964 E.04404
G1 X132.433 Y21.111 E.02565
G1 X132.317 Y21.613 E.08343
G1 X132.237 Y22.523 E.14792
G1 X132.237 Y207.922 E30.02064
G1 X87.508 Y207.92 E7.24272
G1 X87.508 Y205.212 E.43849
G1 X114.445 Y205.212 E4.36176
G1 X115.059 Y205.175 E.0996
G1 X115.659 Y205.067 E.09872
G1 X116.235 Y204.892 E.09748
G1 X116.776 Y204.656 E.09557
G1 X117.273 Y204.369 E.09293
G1 X117.721 Y204.041 E.08991
G1 X118.117 Y203.68 E.08677
G1 X118.459 Y203.298 E.08302
G1 X123.282 Y197.347 E1.24034
G1 X123.753 Y196.659 E.13501
G1 X124.12 Y195.869 E.14105
G1 X124.357 Y194.987 E.14788
G1 X124.434 Y194.095 E.14497
G1 X124.434 Y42.203 E24.59503
G1 X124.354 Y41.295 E.1476
G1 X124.12 Y40.428 E.14541
G1 X123.753 Y39.638 E.14105
G1 X123.282 Y38.95 E.13501
G1 X117.162 Y31.399 E1.57385
G1 X116.693 Y30.894 E.1116
G1 X116.13 Y30.433 E.11783
G1 X115.478 Y30.041 E.12319
G1 X114.749 Y29.74 E.12771
G1 X113.964 Y29.55 E.13078
G1 X113.148 Y29.485 E.13255
G1 X97.488 Y29.485 E2.53574
G1 X97.488 Y22.523 E1.12732
G1 X97.422 Y21.819 E.11449
G1 X97.422 Y19.281 E.41096
G1 X96.627 Y18.366
G1 X133.286 Y18.366 E5.93599
G1 X133.286 Y20.692 E.37664
G1 X133.286 Y21.105 E.06687
G1 X133.1 Y21.753 E.10916
G1 X133.031 Y22.523 E.12518
G1 X133.031 Y208.717 E30.14937
G1 X86.714 Y208.715 E7.49986
G1 X86.714 Y204.417 E.69595
G1 X114.445 Y204.417 E4.49033
G1 X114.964 Y204.386 E.08419
G1 X115.473 Y204.295 E.08373
G1 X115.96 Y204.146 E.08247
G1 X116.417 Y203.947 E.08071
G1 X116.838 Y203.704 E.07871
G1 X117.217 Y203.426 E.07611
G1 X117.841 Y202.798 E.14335
G1 X122.664 Y196.847 E1.24034
G1 X123.063 Y196.265 E.11426
G1 X123.373 Y195.596 E.11939
G1 X123.574 Y194.85 E.1251
G1 X123.64 Y194.095 E.12272
G1 X123.64 Y42.203 E24.59503
G1 X123.571 Y41.435 E.12486
G1 X123.373 Y40.701 E.1231
G1 X123.063 Y40.033 E.11925
G1 X122.664 Y39.451 E.11426
G1 X116.544 Y31.899 E1.57398
G1 X116.148 Y31.472 E.0943
G1 X115.672 Y31.082 E.09964
G1 X115.12 Y30.75 E.1043
G1 X114.503 Y30.495 E.1081
G1 X113.838 Y30.335 E.11075
G1 X113.148 Y30.28 E.11208
G1 X96.694 Y30.28 E2.66431
G1 X96.694 Y22.523 E1.25605
G1 X96.655 Y21.943 E.09413
G1 X96.627 Y21.918 E.00608
G1 X96.627 Y18.486 E.55572
G1 X95.832 Y17.571
G1 X134.081 Y17.571 E6.19345
G1 X134.081 Y20.692 E.50537
G1 X134.081 Y21.247 E.08987
G1 X133.962 Y21.546 E.05211
G1 X133.882 Y21.893 E.05766
G1 X133.826 Y22.523 E.10241
G1 X133.826 Y209.512 E30.2781
G1 X85.919 Y209.509 E7.75732
G1 X85.919 Y203.622 E.95325
G1 X114.445 Y203.622 E4.61906
G1 X114.87 Y203.597 E.06894
G1 X115.286 Y203.522 E.06845
G1 X116.059 Y203.238 E.13335
G1 X116.713 Y202.811 E.12647
G1 X117.224 Y202.297 E.11736
G1 X122.047 Y196.347 E1.24022
G1 X122.373 Y195.87 E.09355
G1 X122.627 Y195.323 E.09766
G1 X122.791 Y194.713 E.10228
G1 X122.845 Y194.095 E.10045
G1 X122.845 Y42.203 E24.59503
G1 X122.789 Y41.575 E.10209
G1 X122.627 Y40.974 E.10079
G1 X122.373 Y40.428 E.09751
G1 X122.047 Y39.951 E.09355
G1 X115.927 Y32.4 E1.57385
G1 X115.602 Y32.05 E.07734
G1 X115.213 Y31.731 E.08146
G1 X114.761 Y31.46 E.08534
G1 X114.257 Y31.251 E.08835
G1 X113.713 Y31.12 E.0906
G1 X113.148 Y31.075 E.09178
G1 X95.899 Y31.075 E2.79304
G1 X95.899 Y22.523 E1.38478
G1 X95.867 Y22.048 E.07709
G1 X95.832 Y22.018 E.00746
G1 X95.832 Y17.691 E.70065
G1 X95.037 Y16.776
G1 X134.876 Y16.776 E6.45091
G1 X134.876 Y20.692 E.6341
G1 X134.876 Y21.388 E.1127
G1 X134.665 Y22.033 E.10989
G1 X134.621 Y22.523 E.07966
G1 X134.621 Y210.307 E30.40683
G1 X85.124 Y210.304 E8.01478
G1 X85.124 Y202.827 E1.21071
G1 X114.445 Y202.827 E4.74779
G1 X115.099 Y202.749 E.10665
G1 X115.7 Y202.528 E.10369
G1 X116.209 Y202.197 E.09831
G1 X116.606 Y201.797 E.09126
G1 X121.429 Y195.846 E1.24034
G1 X121.683 Y195.476 E.07267
G1 X121.881 Y195.05 E.07607
G1 X122.007 Y194.584 E.07817
G1 X122.05 Y194.095 E.07949
G1 X122.039 Y41.957 E24.63487
G1 X121.953 Y41.477 E.07896
G1 X121.79 Y41.029 E.07719
G1 X121.429 Y40.452 E.11021
G1 X115.309 Y32.9 E1.57398
G1 X114.912 Y32.5 E.09126
G1 X114.403 Y32.169 E.09831
G1 X113.802 Y31.948 E.10369
G1 X113.148 Y31.87 E.10665
G1 X95.104 Y31.87 E2.92177
G1 X95.104 Y22.523 E1.51351
G1 X95.079 Y22.154 E.05989
G1 X95.037 Y22.117 E.00906
G1 X95.037 Y16.896 E.84541
G1 X94.242 Y15.981
G1 X135.671 Y15.981 E6.70837
G1 X135.671 Y20.692 E.76283
G1 X135.671 Y21.48 E.1276
G1 X135.492 Y21.98 E.08599
G1 X135.416 Y22.523 E.08878
G1 X135.416 Y211.102 E30.53556
G1 X84.329 Y211.099 E8.27224
G1 X84.329 Y202.032 E1.46817
G1 X114.445 Y202.032 E4.87652
G1 X114.788 Y202.003 E.05574
G1 X115.342 Y201.819 E.09452
G1 X115.705 Y201.582 E.0702
G1 X115.989 Y201.296 E.06526
G1 X120.812 Y195.346 E1.24022
G1 X120.993 Y195.081 E.05196
G1 X121.186 Y194.613 E.08197
G1 X121.255 Y194.095 E.08462
G1 X121.255 Y42.203 E24.59503
G1 X121.224 Y41.854 E.05673
G1 X121.069 Y41.364 E.08322
G1 X120.812 Y40.952 E.07863
G1 X114.692 Y33.401 E1.57385
G1 X114.408 Y33.115 E.06526
G1 X114.044 Y32.878 E.07033
G1 X113.615 Y32.72 E.07403
G1 X113.148 Y32.665 E.07614
G1 X94.309 Y32.665 E3.0505
G1 X94.309 Y22.523 E1.64224
G1 X94.291 Y22.259 E.04285
G1 X94.242 Y22.217 E.01045
G1 X94.242 Y16.101 E.99033
G1 X93.447 Y15.186
G1 X136.466 Y15.186 E6.96583
G1 X136.466 Y20.692 E.89156
G1 X136.466 Y21.9 E.1956
G1 X136.345 Y21.973 E.02288
G1 X136.256 Y22.197 E.03903
G1 X136.211 Y22.523 E.05329
G1 X136.211 Y211.897 E30.66429
G1 X83.534 Y211.894 E8.5297
G1 X83.534 Y201.238 E1.72547
G1 X114.445 Y201.238 E5.00525
G1 X114.725 Y201.204 E.04567
G1 X115.098 Y201.043 E.06578
G1 X115.371 Y200.796 E.05961
G1 X120.194 Y194.845 E1.24034
G1 X120.388 Y194.504 E.06353
G1 X120.46 Y194.095 E.06725
G1 X120.46 Y42.203 E24.59503
G1 X120.388 Y41.794 E.06725
G1 X120.194 Y41.453 E.06353
G1 X114.074 Y33.901 E1.57398
G1 X113.836 Y33.678 E.05281
G1 X113.517 Y33.518 E.05779
G1 X113.148 Y33.459 E.06051
G1 X93.514 Y33.459 E3.17923
G1 X93.514 Y22.523 E1.77081
G1 X93.504 Y22.365 E.02564
G1 X93.447 Y22.316 E.01217
G1 X93.447 Y15.306 E1.13509
G1 X92.653 Y14.392
;TYPE:External perimeter
G1 X137.261 Y14.392 E7.22313
G1 X137.261 Y20.692 E1.02012
G1 X137.261 Y22.212 E.24613
G1 X137.05 Y22.34 E.03996
G1 X137.006 Y22.523 E.03048
G1 X137.006 Y212.692 E30.79302
G1 X82.739 Y212.689 E8.78716
G1 X82.739 Y200.443 E1.98293
G1 X114.445 Y200.443 E5.13398
G1 X114.583 Y200.418 E.02271
G1 X114.754 Y200.296 E.03401
G1 X119.577 Y194.345 E1.24034
G1 X119.665 Y194.095 E.04292
G1 X119.664 Y42.168 E24.6007
G1 X119.577 Y41.953 E.03756
G1 X113.456 Y34.401 E1.57408
G1 X113.377 Y34.327 E.01753
G1 X113.148 Y34.254 E.03892
G1 X92.719 Y34.254 E3.30796
