(Created with grbl post processor 2025/01/12 19:41)
G21
(G-code generated with BlenderCAM and NC library)
G17G90
(Tool: D = 3.18 mm  type END flutes 2)
S1000M03
G00 Z1.0

G0X0Y0Z1
X112.851Y137.35
G1Z-0.1F50
X113.039Y137.235F100
X113.243Y137.151
X113.457Y137.099
X113.677Y137.082
X113.896Y137.099
X114.11Y137.151
X114.314Y137.235
X114.502Y137.35
X114.669Y137.493
X114.813Y137.661
X114.928Y137.848
X115.012Y138.052
X115.063Y138.266
X115.081Y138.486
X115.063Y138.706
X115.012Y138.92
X114.928Y139.123
X114.813Y139.311
X114.669Y139.479
X114.502Y139.622
X114.314Y139.737
X114.11Y139.821
X113.896Y139.873
X113.677Y139.89
X113.457Y139.873
X113.243Y139.821
X113.039Y139.737
X112.851Y139.622
X112.684Y139.479
X112.541Y139.311
X112.426Y139.123
X112.341Y138.92
X112.29Y138.706
X112.272Y138.486
X112.29Y138.266
X112.341Y138.052
X112.426Y137.848
X112.541Y137.661
X112.684Y137.493
X112.851Y137.35
G0Z1
X108.098Y123.159
G1Z-0.1F50
X107.825Y123.24F100
X107.543Y123.285
X107.258Y123.294
X106.974Y123.268
X106.696Y123.205
X106.428Y123.109
X106.159Y122.971
X106.014Y122.876
X105.863Y122.759
X105.724Y122.629
X105.533Y122.421
X105.184Y122.052
X105.152Y122.019
X105.118Y121.986
X105.083Y121.954
X105.048Y121.924
X104.653Y121.595
X104.616Y121.565
X104.578Y121.536
X104.54Y121.508
X104.5Y121.482
X104.067Y121.201
X104.026Y121.175
X103.984Y121.151
X103.941Y121.128
X103.898Y121.106
X103.434Y120.88
X103.392Y120.86
X103.349Y120.841
X103.306Y120.824
X103.262Y120.808
X102.777Y120.639
X102.733Y120.624
X102.689Y120.611
X102.644Y120.599
X102.599Y120.588
X102.104Y120.478
X102.058Y120.469
X102.012Y120.46
X101.965Y120.454
X101.918Y120.448
X101.42Y120.398
X101.373Y120.394
X101.326Y120.391
X101.279Y120.39
X101.232
X100.72Y120.399
X100.682Y120.401
X100.643Y120.403
X100.605Y120.406
X100.566Y120.41
X100.528Y120.415
X100.49Y120.42
X100.452Y120.427
X100.414Y120.435
X100.376Y120.443
X100.339Y120.453
X100.302Y120.463
X100.265Y120.475
X100.228Y120.487
X100.191Y120.5
X100.155Y120.514
X100.119Y120.529
X100.084Y120.545
X100.049Y120.561
X100.015Y120.579
X99.981Y120.597
X99.947Y120.616
X99.914Y120.636
X99.881Y120.656
X99.849Y120.678
X99.818Y120.7
X99.786Y120.723
X99.756Y120.747
X99.726Y120.771
X98.654Y121.671
X98.619Y121.701
X98.585Y121.732
X98.557Y121.759
X98.53Y121.787
X98.504Y121.815
X98.478Y121.844
X98.453Y121.873
X98.428Y121.903
X98.405Y121.934
X98.382Y121.965
X98.36Y121.997
X98.339Y122.029
X98.318Y122.062
X98.298Y122.095
X98.279Y122.128
X98.261Y122.163
X98.244Y122.197
X98.229Y122.23
X98.213Y122.265
X98.199Y122.299
X98.186Y122.334
X98.173Y122.369
X98.161Y122.405
X98.15Y122.441
X98.14Y122.477
X98.131Y122.513
X98.122Y122.549
X98.115Y122.586
X98.017Y123.088
X98.009Y123.134
X98.002Y123.181
X97.996Y123.228
X97.992Y123.274
X97.955Y123.774
X97.952Y123.821
X97.951Y123.868
Y123.915
X97.952Y123.963
X97.975Y124.469
X97.977Y124.515
X97.981Y124.561
X97.987Y124.607
X97.994Y124.653
X98.076Y125.159
X98.084Y125.205
X98.094Y125.251
X98.104Y125.297
X98.117Y125.342
X98.259Y125.838
X98.273Y125.884
X98.288Y125.93
X98.305Y125.976
X98.323Y126.021
X98.524Y126.496
X98.543Y126.539
X98.564Y126.583
X98.586Y126.625
X98.609Y126.667
X98.865Y127.112
X98.889Y127.153
X98.914Y127.192
X98.94Y127.231
X98.967Y127.269
X99.287Y127.699
X99.442Y127.9
X99.545Y128.06
X99.635Y128.229
X99.703Y128.389
X99.792Y128.677
X99.84Y128.958
X99.853Y129.243
X99.83Y129.527
X99.772Y129.806
X99.678Y130.075
X99.552Y130.331
X99.394Y130.568
X99.207Y130.784
X98.995Y130.974
X98.76Y131.136
X98.507Y131.267
X98.239Y131.366
X97.945Y131.433
X97.773Y131.454
X97.582Y131.46
X97.392Y131.451
X97.112Y131.414
X96.608Y131.356
X96.561Y131.351
X96.514Y131.348
X96.468Y131.346
X96.421Y131.345
X95.907Y131.347
X95.86
X95.812Y131.35
X95.764Y131.353
X95.717Y131.359
X95.205Y131.422
X95.166Y131.427
X95.128Y131.433
X95.09Y131.44
X95.052Y131.448
X95.014Y131.457
X94.514Y131.582
X94.468Y131.594
X94.423Y131.608
X94.379Y131.622
X94.335Y131.638
X93.855Y131.82
X93.812Y131.837
X93.77Y131.856
X93.728Y131.875
X93.686Y131.896
X93.237Y132.13
X93.195Y132.152
X93.154Y132.176
X93.114Y132.2
X93.074Y132.226
X92.661Y132.508
X92.622Y132.535
X92.585Y132.563
X92.548Y132.593
X92.512Y132.623
X92.126Y132.959
X92.097Y132.985
X92.069Y133.011
X92.041Y133.038
X92.014Y133.066
X91.988Y133.094
X91.963Y133.123
X91.938Y133.153
X91.914Y133.183
X91.89Y133.214
X91.868Y133.245
X91.846Y133.277
X91.825Y133.309
X91.805Y133.342
X91.785Y133.376
X91.767Y133.41
X91.749Y133.444
X91.732Y133.479
X91.716Y133.514
X91.7Y133.55
X91.686Y133.586
X91.673Y133.622
X91.66Y133.658
X91.648Y133.695
X91.637Y133.732
X91.628Y133.77
X91.619Y133.807
X91.61Y133.845
X91.603Y133.883
X91.36Y135.262
X91.353Y135.307
X91.347Y135.353
X91.343Y135.391
X91.34Y135.43
X91.337Y135.468
X91.336Y135.507
Y135.545
X91.337Y135.584
X91.338Y135.623
X91.341Y135.661
X91.344Y135.7
X91.349Y135.738
X91.354Y135.776
X91.36Y135.814
X91.367Y135.852
X91.376Y135.891
X91.384Y135.927
X91.394Y135.963
X91.404Y135.999
X91.416Y136.035
X91.428Y136.07
X91.441Y136.105
X91.454Y136.14
X91.469Y136.175
X91.484Y136.209
X91.5Y136.242
X91.517Y136.276
X91.535Y136.309
X91.783Y136.756
X91.806Y136.797
X91.831Y136.837
X91.857Y136.877
X91.884Y136.915
X92.176Y137.321
X92.204Y137.359
X92.234Y137.397
X92.264Y137.433
X92.295Y137.468
X92.638Y137.841
X92.67Y137.875
X92.703Y137.908
X92.736Y137.939
X92.771Y137.97
X93.159Y138.305
X93.195Y138.335
X93.232Y138.364
X93.27Y138.392
X93.308Y138.419
X93.736Y138.708
X93.776Y138.734
X93.818Y138.759
X93.86Y138.783
X93.903Y138.806
X94.362Y139.041
X94.405Y139.062
X94.448Y139.082
X94.492Y139.1
X94.537Y139.117
X95.019Y139.294
X95.063Y139.31
X95.108Y139.324
X95.153Y139.337
X95.198Y139.348
X95.72Y139.472
X95.968Y139.527
X96.15Y139.583
X96.327Y139.655
X96.482Y139.733
X96.735Y139.897
X96.953Y140.081
X97.146Y140.291
X97.311Y140.523
X97.445Y140.775
X97.547Y141.041
X97.614Y141.318
X97.646Y141.601
X97.641Y141.887
X97.601Y142.169
X97.526Y142.444
X97.416Y142.707
X97.274Y142.954
X97.092Y143.195
X96.973Y143.322
X96.831Y143.449
X96.68Y143.565
X96.442Y143.716
X96.018Y143.995
X95.979Y144.022
X95.941Y144.049
X95.904Y144.078
X95.868Y144.108
X95.475Y144.439
X95.439Y144.47
X95.404Y144.503
X95.37Y144.536
X95.337Y144.57
X94.986Y144.948
X94.953Y144.984
X94.922Y145.021
X94.891Y145.059
X94.862Y145.098
X94.559Y145.515
X94.532Y145.554
X94.507Y145.593
X94.482Y145.632
X94.459Y145.673
X94.208Y146.121
X94.186Y146.162
X94.165Y146.203
X94.146Y146.245
X94.127Y146.287
X93.933Y146.755
X93.915Y146.799
X93.899Y146.844
X93.884Y146.888
X93.871Y146.934
X93.735Y147.416
X93.723Y147.461
X93.712Y147.507
X93.703Y147.553
X93.695Y147.599
X93.615Y148.104
X93.61Y148.141
X93.605Y148.179
X93.601Y148.216
X93.599Y148.253
X93.597Y148.291
X93.596Y148.328
Y148.365
Y148.403
X93.598Y148.44
X93.6Y148.477
X93.604Y148.515
X93.608Y148.552
X93.613Y148.591
X93.62Y148.629
X93.627Y148.667
X93.635Y148.705
X93.644Y148.742
X93.654Y148.779
X93.665Y148.817
X93.676Y148.853
X93.689Y148.89
X93.702Y148.926
X93.717Y148.962
X93.732Y148.997
X93.748Y149.033
X93.765Y149.067
X93.786Y149.108
X93.809Y149.148
X94.509Y150.361
X94.528Y150.394
X94.549Y150.427
X94.57Y150.459
X94.592Y150.491
X94.615Y150.522
X94.639Y150.552
X94.663Y150.582
X94.688Y150.612
X94.714Y150.641
X94.74Y150.669
X94.768Y150.696
X94.795Y150.723
X94.824Y150.749
X94.853Y150.775
X94.883Y150.8
X94.913Y150.824
X94.944Y150.847
X94.976Y150.87
X95.007Y150.891
X95.04Y150.912
X95.073Y150.932
X95.106Y150.952
X95.14Y150.97
X95.174Y150.988
X95.209Y151.005
X95.244Y151.021
X95.28Y151.036
X95.316Y151.05
X95.793Y151.234
X95.838Y151.25
X95.882Y151.265
X95.927Y151.279
X95.972Y151.291
X96.458Y151.414
X96.504Y151.425
X96.55Y151.435
X96.597Y151.443
X96.643Y151.45
X97.145Y151.515
X97.191Y151.521
X97.238Y151.525
X97.284Y151.527
X97.33Y151.529
X97.843Y151.536
X97.89
X97.937Y151.534
X97.984Y151.531
X98.03Y151.527
X98.544Y151.473
X98.592Y151.468
X98.64Y151.46
X98.687Y151.452
X98.735Y151.442
X99.237Y151.326
X99.284Y151.315
X99.33Y151.302
X99.375Y151.288
X99.421Y151.272
X99.903Y151.098
X99.947Y151.081
X99.991Y151.063
X100.034Y151.044
X100.076Y151.024
X100.555Y150.784
X100.78Y150.666
X100.955Y150.592
X101.137Y150.533
X101.306Y150.494
X101.606Y150.457
X101.891
X102.174Y150.494
X102.449Y150.566
X102.714Y150.672
X102.963Y150.811
X103.193Y150.98
X103.399Y151.177
X103.579Y151.398
X103.729Y151.64
X103.848Y151.899
X103.934Y152.171
X103.984Y152.452
X103.999Y152.754
X103.989Y152.927
X103.963Y153.116
X103.921Y153.302
X103.836Y153.571
X103.691Y154.057
X103.678Y154.102
X103.667Y154.148
X103.656Y154.194
X103.648Y154.24
X103.56Y154.746
X103.553Y154.793
X103.547Y154.84
X103.542Y154.888
X103.539Y154.935
X103.512Y155.45
X103.51Y155.499
Y155.547
X103.511Y155.596
X103.514Y155.644
X103.55Y156.159
X103.554Y156.206
X103.56Y156.252
X103.566Y156.299
X103.574Y156.345
X103.67Y156.849
X103.68Y156.894
X103.69Y156.939
X103.702Y156.984
X103.716Y157.028
X103.867Y157.512
X103.882Y157.556
X103.899Y157.601
X103.916Y157.645
X103.935Y157.688
X104.14Y158.145
X104.16Y158.187
X104.182Y158.229
X104.204Y158.27
X104.227Y158.311
X104.491Y158.75
X104.511Y158.781
X104.531Y158.813
X104.552Y158.844
X104.574Y158.874
X104.597Y158.904
X104.62Y158.933
X104.644Y158.962
X104.669Y158.99
X104.694Y159.018
X104.72Y159.045
X104.746Y159.071
X104.774Y159.097
X104.803Y159.123
X104.832Y159.148
X104.862Y159.173
X104.892Y159.196
X104.923Y159.219
X104.955Y159.242
X104.987Y159.263
X105.02Y159.284
X105.053Y159.304
X105.086Y159.323
X105.12Y159.341
X105.155Y159.358
X105.19Y159.375
X105.225Y159.391
X105.268Y159.408
X105.31Y159.425
X106.626Y159.903
X106.663Y159.916
X106.699Y159.928
X106.736Y159.939
X106.774Y159.949
X106.811Y159.958
X106.849Y159.967
X106.887Y159.974
X106.925Y159.98
X106.963Y159.986
X107.002Y159.99
X107.04Y159.994
X107.079Y159.997
X107.117Y159.998
X107.156Y159.999
X107.195
X107.234Y159.998
X107.272Y159.996
X107.311Y159.993
X107.349Y159.989
X107.388Y159.985
X107.426Y159.979
X107.464Y159.972
X107.502Y159.965
X107.539Y159.956
X107.577Y159.947
X107.614Y159.936
X107.651Y159.925
X107.688Y159.913
X108.172Y159.746
X108.216Y159.731
X108.26Y159.713
X108.303Y159.695
X108.345Y159.675
X108.796Y159.458
X108.838Y159.436
X108.88Y159.414
X108.921Y159.39
X108.961Y159.366
X109.388Y159.093
X109.427Y159.068
X109.465Y159.041
X109.502Y159.013
X109.538Y158.984
X109.936Y158.66
X109.972Y158.63
X110.007Y158.599
X110.04Y158.566
X110.073Y158.533
X110.432Y158.162
X110.465Y158.127
X110.497Y158.091
X110.528Y158.053
X110.558Y158.015
X110.869Y157.603
X110.897Y157.565
X110.924Y157.525
X110.95Y157.485
X110.975Y157.444
X111.233Y157.001
X111.256Y156.96
X111.277Y156.918
X111.298Y156.876
X111.317Y156.833
X111.53Y156.341
X111.627Y156.106
X111.713Y155.937
X111.815Y155.775
X111.919Y155.636
X112.124Y155.415
X112.343Y155.232
X112.583Y155.079
X112.841Y154.957
X113.112Y154.868
X113.392Y154.814
X113.677Y154.796
X113.961Y154.814
X114.241Y154.868
X114.512Y154.957
X114.77Y155.079
X115.01Y155.232
X115.229Y155.415
X115.434Y155.636
X115.538Y155.775
X115.639Y155.937
X115.727Y156.107
X115.834Y156.367
X116.036Y156.833
X116.055Y156.876
X116.076Y156.918
X116.097Y156.96
X116.12Y157.001
X116.378Y157.444
X116.403Y157.485
X116.429Y157.525
X116.456Y157.565
X116.484Y157.603
X116.795Y158.015
X116.825Y158.053
X116.856Y158.091
X116.888Y158.127
X116.921Y158.162
X117.28Y158.533
X117.313Y158.566
X117.347Y158.599
X117.381Y158.63
X117.417Y158.66
X117.815Y158.984
X117.851Y159.013
X117.888Y159.041
X117.926Y159.068
X117.965Y159.093
X118.392Y159.366
X118.432Y159.39
X118.473Y159.414
X118.515Y159.436
X118.557Y159.458
X119.008Y159.675
X119.05Y159.695
X119.094Y159.713
X119.137Y159.731
X119.181Y159.747
X119.665Y159.913
X119.702Y159.925
X119.739Y159.936
X119.776Y159.947
X119.814Y159.956
X119.851Y159.965
X119.889Y159.972
X119.927Y159.979
X119.965Y159.985
X120.004Y159.989
X120.042Y159.993
X120.081Y159.996
X120.119Y159.998
X120.158Y159.999
X120.197
X120.236
X120.274Y159.997
X120.313Y159.994
X120.351Y159.99
X120.39Y159.986
X120.428Y159.98
X120.466Y159.974
X120.504Y159.967
X120.542Y159.958
X120.579Y159.949
X120.617Y159.939
X120.654Y159.928
X120.69Y159.916
X120.727Y159.904
X122.043Y159.425
X122.086Y159.408
X122.128Y159.391
X122.163Y159.375
X122.198Y159.358
X122.233Y159.341
X122.267Y159.323
X122.3Y159.304
X122.334Y159.284
X122.366Y159.263
X122.398Y159.242
X122.43Y159.219
X122.461Y159.196
X122.491Y159.173
X122.521Y159.148
X122.551Y159.123
X122.58Y159.097
X122.607Y159.071
X122.633Y159.045
X122.659Y159.018
X122.684Y158.99
X122.709Y158.962
X122.733Y158.933
X122.756Y158.904
X122.779Y158.874
X122.801Y158.844
X122.822Y158.813
X122.842Y158.781
X122.862Y158.75
X123.126Y158.311
X123.149Y158.27
X123.172Y158.229
X123.193Y158.187
X123.213Y158.145
X123.418Y157.688
X123.437Y157.645
X123.455Y157.601
X123.471Y157.556
X123.486Y157.511
X123.637Y157.028
X123.651Y156.984
X123.663Y156.939
X123.673Y156.894
X123.683Y156.849
X123.779Y156.345
X123.787Y156.299
X123.793Y156.252
X123.799Y156.206
X123.803Y156.159
X123.839Y155.644
X123.842Y155.596
X123.843Y155.547
Y155.499
X123.841Y155.451
X123.814Y154.935
X123.811Y154.888
X123.806Y154.84
X123.8Y154.793
X123.793Y154.746
X123.705Y154.24
X123.697Y154.194
X123.687Y154.148
X123.675Y154.102
X123.662Y154.057
X123.509Y153.544
X123.432Y153.302
X123.39Y153.116
X123.364Y152.927
X123.354Y152.754
X123.369Y152.452
X123.42Y152.171
X123.505Y151.899
X123.624Y151.64
X123.774Y151.398
X123.954Y151.177
X124.161Y150.98
X124.39Y150.811
X124.639Y150.672
X124.904Y150.566
X125.18Y150.494
X125.462Y150.457
X125.747
X126.047Y150.494
X126.216Y150.534
X126.398Y150.593
X126.573Y150.666
X126.823Y150.797
X127.277Y151.024
X127.319Y151.044
X127.362Y151.064
X127.406Y151.081
X127.45Y151.098
X127.933Y151.272
X127.978Y151.288
X128.023Y151.302
X128.069Y151.315
X128.116Y151.326
X128.618Y151.442
X128.666Y151.452
X128.714Y151.461
X128.762Y151.468
X128.81Y151.474
X129.323Y151.527
X129.369Y151.531
X129.416Y151.534
X129.463Y151.536
X129.51
X130.023Y151.529
X130.069Y151.527
X130.115Y151.525
X130.162Y151.521
X130.208Y151.515
X130.71Y151.45
X130.757Y151.443
X130.803Y151.435
X130.849Y151.425
X130.895Y151.414
X131.381Y151.291
X131.426Y151.279
X131.471Y151.265
X131.516Y151.25
X131.56Y151.234
X132.037Y151.051
X132.073Y151.036
X132.109Y151.021
X132.144Y151.005
X132.179Y150.988
X132.213Y150.97
X132.247Y150.952
X132.28Y150.933
X132.313Y150.912
X132.346Y150.891
X132.378Y150.87
X132.409Y150.847
X132.44Y150.824
X132.47Y150.8
X132.5Y150.775
X132.529Y150.749
X132.558Y150.723
X132.586Y150.696
X132.613Y150.669
X132.639Y150.641
X132.665Y150.612
X132.69Y150.583
X132.714Y150.553
X132.738Y150.522
X132.761Y150.491
X132.783Y150.459
X132.804Y150.427
X132.825Y150.394
X132.844Y150.361
X133.544Y149.148
X133.567Y149.108
X133.588Y149.067
X133.605Y149.033
X133.621Y148.998
X133.636Y148.962
X133.651Y148.926
X133.664Y148.89
X133.677Y148.853
X133.689Y148.817
X133.699Y148.78
X133.709Y148.742
X133.718Y148.705
X133.726Y148.667
X133.734Y148.629
X133.74Y148.591
X133.745Y148.552
X133.749Y148.515
X133.753Y148.477
X133.755Y148.44
X133.757Y148.403
X133.758Y148.365
X133.757Y148.328
X133.756Y148.29
X133.755Y148.253
X133.752Y148.216
X133.748Y148.179
X133.744Y148.141
X133.738Y148.104
X133.658Y147.599
X133.65Y147.553
X133.641Y147.507
X133.63Y147.461
X133.618Y147.416
X133.482Y146.934
X133.469Y146.889
X133.454Y146.844
X133.438Y146.799
X133.42Y146.755
X133.226Y146.287
X133.208Y146.245
X133.188Y146.203
X133.167Y146.162
X133.145Y146.121
X132.895Y145.673
X132.871Y145.633
X132.846Y145.593
X132.821Y145.554
X132.794Y145.515
X132.491Y145.098
X132.462Y145.059
X132.431Y145.021
X132.4Y144.984
X132.368Y144.948
X132.016Y144.571
X131.983Y144.536
X131.949Y144.503
X131.914Y144.47
X131.878Y144.439
X131.485Y144.108
X131.449Y144.078
X131.412Y144.049
X131.374Y144.022
X131.335Y143.995
X130.888Y143.701
X130.674Y143.565
X130.522Y143.449
X130.38Y143.322
X130.261Y143.195
X130.079Y142.954
X129.937Y142.707
X129.827Y142.444
X129.752Y142.169
X129.712Y141.887
X129.707Y141.602
X129.739Y141.318
X129.806Y141.041
X129.908Y140.775
X130.042Y140.523
X130.207Y140.291
X130.4Y140.081
X130.618Y139.897
X130.872Y139.733
X131.026Y139.655
X131.195Y139.587
X131.388Y139.526
X131.661Y139.466
X132.155Y139.348
X132.2Y139.337
X132.245Y139.324
X132.29Y139.31
X132.334Y139.294
X132.816Y139.117
X132.861Y139.1
X132.905Y139.082
X132.948Y139.062
X132.991Y139.041
X133.451Y138.806
X133.493Y138.783
X133.536Y138.759
X133.577Y138.734
X133.617Y138.708
X134.045Y138.419
X134.083Y138.392
X134.121Y138.364
X134.158Y138.335
X134.194Y138.305
X134.582Y137.97
X134.617Y137.939
X134.651Y137.908
X134.683Y137.875
X134.715Y137.841
X135.058Y137.468
X135.089Y137.433
X135.12Y137.397
X135.149Y137.36
X135.177Y137.322
X135.47Y136.915
X135.496Y136.877
X135.522Y136.837
X135.547Y136.797
X135.57Y136.757
X135.818Y136.309
X135.836Y136.276
X135.853Y136.243
X135.869Y136.209
X135.884Y136.175
X135.899Y136.14
X135.913Y136.106
X135.926Y136.07
X135.938Y136.035
X135.949Y135.999
X135.959Y135.963
X135.969Y135.927
X135.978Y135.89
X135.986Y135.853
X135.993Y135.815
X135.999Y135.777
X136.005Y135.738
X136.009Y135.7
X136.012Y135.661
X136.015Y135.623
X136.017Y135.584
Y135.546
Y135.507
X136.016Y135.468
X136.014Y135.43
X136.01Y135.391
X136.006Y135.353
X136Y135.307
X135.993Y135.262
X135.75Y133.883
X135.743Y133.845
X135.735Y133.807
X135.726Y133.77
X135.716Y133.732
X135.705Y133.695
X135.693Y133.659
X135.681Y133.622
X135.667Y133.586
X135.653Y133.55
X135.638Y133.514
X135.621Y133.479
X135.605Y133.445
X135.587Y133.41
X135.568Y133.376
X135.548Y133.342
X135.528Y133.31
X135.507Y133.277
X135.485Y133.245
X135.463Y133.214
X135.439Y133.183
X135.415Y133.153
X135.391Y133.123
X135.365Y133.094
X135.339Y133.066
X135.312Y133.038
X135.284Y133.011
X135.256Y132.985
X135.227Y132.959
X134.841Y132.623
X134.805Y132.593
X134.769Y132.564
X134.731Y132.535
X134.693Y132.508
X134.279Y132.227
X134.239Y132.201
X134.199Y132.176
X134.158Y132.152
X134.116Y132.13
X133.667Y131.896
X133.626Y131.875
X133.584Y131.856
X133.541Y131.838
X133.498Y131.821
X133.018Y131.639
X132.974Y131.623
X132.93Y131.608
X132.885Y131.595
X132.84Y131.583
X132.339Y131.457
X132.292Y131.446
X132.244Y131.437
X132.196Y131.429
X132.148Y131.422
X131.637Y131.359
X131.589Y131.354
X131.541Y131.35
X131.494Y131.348
X131.446Y131.347
X130.933Y131.345
X130.886Y131.346
X130.839Y131.348
X130.792Y131.351
X130.745Y131.356
X130.213Y131.417
X129.962Y131.451
X129.771Y131.46
X129.58Y131.454
X129.408Y131.433
X129.114Y131.366
X128.846Y131.267
X128.593Y131.136
X128.358Y130.974
X128.146Y130.784
X127.959Y130.568
X127.802Y130.331
X127.675Y130.076
X127.582Y129.806
X127.523Y129.527
X127.5Y129.243
X127.513Y128.958
X127.562Y128.677
X127.65Y128.389
X127.719Y128.229
X127.808Y128.06
X127.911Y127.9
X128.083Y127.677
X128.386Y127.269
X128.413Y127.231
X128.44Y127.192
X128.465Y127.153
X128.489Y127.112
X128.744Y126.667
X128.767Y126.625
X128.789Y126.583
X128.81Y126.54
X128.829Y126.496
X129.03Y126.021
X129.048Y125.976
X129.065Y125.93
X129.081Y125.884
X129.095Y125.838
X129.237Y125.342
X129.249Y125.297
X129.26Y125.251
X129.269Y125.206
X129.277Y125.16
X129.36Y124.653
X129.367Y124.607
X129.372Y124.561
X129.376Y124.515
X129.379Y124.469
X129.401Y123.962
X129.403Y123.915
Y123.868
X129.401Y123.821
X129.398Y123.774
X129.361Y123.274
X129.357Y123.228
X129.352Y123.181
X129.345Y123.135
X129.336Y123.088
X129.239Y122.586
X129.231Y122.549
X129.223Y122.513
X129.213Y122.477
X129.203Y122.441
X129.192Y122.405
X129.18Y122.369
X129.168Y122.334
X129.154Y122.299
X129.14Y122.265
X129.125Y122.231
X129.109Y122.197
X129.092Y122.163
X129.074Y122.129
X129.055Y122.095
X129.035Y122.062
X129.015Y122.029
X128.993Y121.997
X128.971Y121.965
X128.948Y121.934
X128.925Y121.903
X128.901Y121.873
X128.876Y121.844
X128.85Y121.815
X128.823Y121.787
X128.796Y121.759
X128.768Y121.732
X128.734Y121.701
X128.7Y121.671
X127.627Y120.771
X127.597Y120.747
X127.567Y120.723
X127.536Y120.7
X127.504Y120.678
X127.472Y120.657
X127.439Y120.636
X127.406Y120.616
X127.373Y120.597
X127.339Y120.579
X127.304Y120.561
X127.269Y120.545
X127.234Y120.529
X127.198Y120.514
X127.162Y120.5
X127.125Y120.487
X127.089Y120.475
X127.052Y120.463
X127.014Y120.453
X126.977Y120.443
X126.939Y120.435
X126.901Y120.427
X126.863Y120.42
X126.825Y120.415
X126.787Y120.41
X126.748Y120.406
X126.71Y120.403
X126.671Y120.401
X126.633Y120.399
X126.121Y120.39
X126.074
X126.027Y120.391
X125.98Y120.394
X125.934Y120.398
X125.435Y120.448
X125.388Y120.454
X125.342Y120.46
X125.295Y120.469
X125.249Y120.478
X124.754Y120.588
X124.709Y120.599
X124.665Y120.611
X124.62Y120.624
X124.576Y120.639
X124.092Y120.808
X124.048Y120.824
X124.004Y120.841
X123.961Y120.86
X123.919Y120.88
X123.455Y121.106
X123.412Y121.128
X123.369Y121.151
X123.327Y121.175
X123.286Y121.201
X122.853Y121.482
X122.814Y121.508
X122.775Y121.536
X122.737Y121.565
X122.7Y121.595
X122.306Y121.924
X122.27Y121.954
X122.235Y121.986
X122.201Y122.019
X122.169Y122.052
X121.801Y122.442
X121.63Y122.629
X121.49Y122.759
X121.339Y122.876
X121.194Y122.971
X120.925Y123.109
X120.657Y123.205
X120.379Y123.268
X120.095Y123.294
X119.81Y123.285
X119.529Y123.24
X119.255Y123.159
X118.994Y123.045
X118.749Y122.899
X118.525Y122.723
X118.324Y122.52
X118.151Y122.293
X118.008Y122.047
X117.891Y121.769
X117.84Y121.603
X117.801Y121.416
X117.777Y121.227
X117.765Y120.945
X117.735Y120.438
X117.731Y120.392
X117.726Y120.345
X117.72Y120.298
X117.712Y120.252
X117.622Y119.747
X117.613Y119.7
X117.602Y119.653
X117.59Y119.607
X117.577Y119.561
X117.426Y119.068
X117.411Y119.022
X117.394Y118.976
X117.377Y118.931
X117.358Y118.887
X117.148Y118.415
X117.128Y118.373
X117.107Y118.331
X117.085Y118.29
X117.061Y118.249
X116.799Y117.808
X116.775Y117.769
X116.749Y117.73
X116.723Y117.692
X116.695Y117.655
X116.387Y117.253
X116.358Y117.216
X116.327Y117.179
X116.296Y117.144
X116.263Y117.11
X115.914Y116.751
X115.881Y116.718
X115.846Y116.686
X115.811Y116.655
X115.775Y116.625
X115.378Y116.303
X115.347Y116.279
X115.316Y116.256
X115.285Y116.233
X115.253Y116.212
X115.22Y116.191
X115.187Y116.171
X115.154Y116.151
X115.12Y116.133
X115.086Y116.115
X115.051Y116.099
X115.016Y116.083
X114.98Y116.067
X114.944Y116.053
X114.907Y116.04
X114.871Y116.027
X114.834Y116.016
X114.797Y116.005
X114.759Y115.995
X114.722Y115.986
X114.684Y115.979
X114.646Y115.972
X114.608Y115.965
X114.569Y115.96
X114.531Y115.956
X114.492Y115.953
X114.454Y115.95
X114.415Y115.949
X114.377
X112.977
X112.931
X112.885Y115.951
X112.846Y115.954
X112.808Y115.958
X112.769Y115.962
X112.731Y115.968
X112.693Y115.974
X112.655Y115.981
X112.617Y115.99
X112.58Y115.999
X112.543Y116.009
X112.505Y116.02
X112.469Y116.032
X112.432Y116.045
X112.396Y116.058
X112.36Y116.073
X112.326Y116.088
X112.292Y116.104
X112.258Y116.12
X112.225Y116.137
X112.192Y116.156
X112.16Y116.174
X112.128Y116.194
X112.096Y116.214
X112.066Y116.235
X112.035Y116.257
X112.005Y116.28
X111.976Y116.303
X111.578Y116.625
X111.542Y116.655
X111.507Y116.686
X111.473Y116.718
X111.439Y116.751
X111.09Y117.11
X111.057Y117.144
X111.026Y117.18
X110.996Y117.216
X110.966Y117.253
X110.658Y117.655
X110.631Y117.692
X110.604Y117.73
X110.579Y117.769
X110.554Y117.808
X110.292Y118.249
X110.268Y118.29
X110.246Y118.331
X110.225Y118.373
X110.206Y118.415
X109.996Y118.887
X109.977Y118.931
X109.959Y118.976
X109.943Y119.022
X109.928Y119.068
X109.776Y119.561
X109.763Y119.607
X109.751Y119.653
X109.741Y119.7
X109.732Y119.747
X109.641Y120.252
X109.633Y120.298
X109.627Y120.345
X109.622Y120.392
X109.619Y120.438
X109.587Y120.973
X109.576Y121.227
X109.553Y121.416
X109.513Y121.602
X109.463Y121.769
X109.345Y122.047
X109.202Y122.293
X109.029Y122.52
X108.828Y122.723
X108.604Y122.899
X108.359Y123.045
X108.098Y123.159
G0Z1
X112.851Y137.35
G1Z-0.2F50
X113.039Y137.235F100
X113.243Y137.151
X113.457Y137.099
X113.677Y137.082
X113.896Y137.099
X114.11Y137.151
X114.314Y137.235
X114.502Y137.35
X114.669Y137.493
X114.813Y137.661
X114.928Y137.848
X115.012Y138.052
X115.063Y138.266
X115.081Y138.486
X115.063Y138.706
X115.012Y138.92
X114.928Y139.123
X114.813Y139.311
X114.669Y139.479
X114.502Y139.622
X114.314Y139.737
X114.11Y139.821
X113.896Y139.873
X113.677Y139.89
X113.457Y139.873
X113.243Y139.821
X113.039Y139.737
X112.851Y139.622
X112.684Y139.479
X112.541Y139.311
X112.426Y139.123
X112.341Y138.92
X112.29Y138.706
X112.272Y138.486
X112.29Y138.266
X112.341Y138.052
X112.426Y137.848
X112.541Y137.661
X112.684Y137.493
X112.851Y137.35
G0Z1
X108.098Y123.159
G1Z-0.2F50
X107.825Y123.24F100
X107.543Y123.285
X107.258Y123.294
X106.974Y123.268
X106.696Y123.205
X106.428Y123.109
X106.159Y122.971
X106.014Y122.876
X105.863Y122.759
X105.724Y122.629
X105.533Y122.421
X105.184Y122.052
X105.152Y122.019
X105.118Y121.986
X105.083Y121.954
X105.048Y121.924
X104.653Y121.595
X104.616Y121.565
X104.578Y121.536
X104.54Y121.508
X104.5Y121.482
X104.067Y121.201
X104.026Y121.175
X103.984Y121.151
X103.941Y121.128
X103.898Y121.106
X103.434Y120.88
X103.392Y120.86
X103.349Y120.841
X103.306Y120.824
X103.262Y120.808
X102.777Y120.639
X102.733Y120.624
X102.689Y120.611
X102.644Y120.599
X102.599Y120.588
X102.104Y120.478
X102.058Y120.469
X102.012Y120.46
X101.965Y120.454
X101.918Y120.448
X101.42Y120.398
X101.373Y120.394
X101.326Y120.391
X101.279Y120.39
X101.232
X100.72Y120.399
X100.682Y120.401
X100.643Y120.403
X100.605Y120.406
X100.566Y120.41
X100.528Y120.415
X100.49Y120.42
X100.452Y120.427
X100.414Y120.435
X100.376Y120.443
X100.339Y120.453
X100.302Y120.463
X100.265Y120.475
X100.228Y120.487
X100.191Y120.5
X100.155Y120.514
X100.119Y120.529
X100.084Y120.545
X100.049Y120.561
X100.015Y120.579
X99.981Y120.597
X99.947Y120.616
X99.914Y120.636
X99.881Y120.656
X99.849Y120.678
X99.818Y120.7
X99.786Y120.723
X99.756Y120.747
X99.726Y120.771
X98.654Y121.671
X98.619Y121.701
X98.585Y121.732
X98.557Y121.759
X98.53Y121.787
X98.504Y121.815
X98.478Y121.844
X98.453Y121.873
X98.428Y121.903
X98.405Y121.934
X98.382Y121.965
X98.36Y121.997
X98.339Y122.029
X98.318Y122.062
X98.298Y122.095
X98.279Y122.128
X98.261Y122.163
X98.244Y122.197
X98.229Y122.23
X98.213Y122.265
X98.199Y122.299
X98.186Y122.334
X98.173Y122.369
X98.161Y122.405
X98.15Y122.441
X98.14Y122.477
X98.131Y122.513
X98.122Y122.549
X98.115Y122.586
X98.017Y123.088
X98.009Y123.134
X98.002Y123.181
X97.996Y123.228
X97.992Y123.274
X97.955Y123.774
X97.952Y123.821
X97.951Y123.868
Y123.915
X97.952Y123.963
X97.975Y124.469
X97.977Y124.515
X97.981Y124.561
X97.987Y124.607
X97.994Y124.653
X98.076Y125.159
X98.084Y125.205
X98.094Y125.251
X98.104Y125.297
X98.117Y125.342
X98.259Y125.838
X98.273Y125.884
X98.288Y125.93
X98.305Y125.976
X98.323Y126.021
X98.524Y126.496
X98.543Y126.539
X98.564Y126.583
X98.586Y126.625
X98.609Y126.667
X98.865Y127.112
X98.889Y127.153
X98.914Y127.192
X98.94Y127.231
X98.967Y127.269
X99.287Y127.699
X99.442Y127.9
X99.545Y128.06
X99.635Y128.229
X99.703Y128.389
X99.792Y128.677
X99.84Y128.958
X99.853Y129.243
X99.83Y129.527
X99.772Y129.806
X99.678Y130.075
X99.552Y130.331
X99.394Y130.568
X99.207Y130.784
X98.995Y130.974
X98.76Y131.136
X98.507Y131.267
X98.239Y131.366
X97.945Y131.433
X97.773Y131.454
X97.582Y131.46
X97.392Y131.451
X97.112Y131.414
X96.608Y131.356
X96.561Y131.351
X96.514Y131.348
X96.468Y131.346
X96.421Y131.345
X95.907Y131.347
X95.86
X95.812Y131.35
X95.764Y131.353
X95.717Y131.359
X95.205Y131.422
X95.166Y131.427
X95.128Y131.433
X95.09Y131.44
X95.052Y131.448
X95.014Y131.457
X94.514Y131.582
X94.468Y131.594
X94.423Y131.608
X94.379Y131.622
X94.335Y131.638
X93.855Y131.82
X93.812Y131.837
X93.77Y131.856
X93.728Y131.875
X93.686Y131.896
X93.237Y132.13
X93.195Y132.152
X93.154Y132.176
X93.114Y132.2
X93.074Y132.226
X92.661Y132.508
X92.622Y132.535
X92.585Y132.563
X92.548Y132.593
X92.512Y132.623
X92.126Y132.959
X92.097Y132.985
X92.069Y133.011
X92.041Y133.038
X92.014Y133.066
X91.988Y133.094
X91.963Y133.123
X91.938Y133.153
X91.914Y133.183
X91.89Y133.214
X91.868Y133.245
X91.846Y133.277
X91.825Y133.309
X91.805Y133.342
X91.785Y133.376
X91.767Y133.41
X91.749Y133.444
X91.732Y133.479
X91.716Y133.514
X91.7Y133.55
X91.686Y133.586
X91.673Y133.622
X91.66Y133.658
X91.648Y133.695
X91.637Y133.732
X91.628Y133.77
X91.619Y133.807
X91.61Y133.845
X91.603Y133.883
X91.36Y135.262
X91.353Y135.307
X91.347Y135.353
X91.343Y135.391
X91.34Y135.43
X91.337Y135.468
X91.336Y135.507
Y135.545
X91.337Y135.584
X91.338Y135.623
X91.341Y135.661
X91.344Y135.7
X91.349Y135.738
X91.354Y135.776
X91.36Y135.814
X91.367Y135.852
X91.376Y135.891
X91.384Y135.927
X91.394Y135.963
X91.404Y135.999
X91.416Y136.035
X91.428Y136.07
X91.441Y136.105
X91.454Y136.14
X91.469Y136.175
X91.484Y136.209
X91.5Y136.242
X91.517Y136.276
X91.535Y136.309
X91.783Y136.756
X91.806Y136.797
X91.831Y136.837
X91.857Y136.877
X91.884Y136.915
X92.176Y137.321
X92.204Y137.359
X92.234Y137.397
X92.264Y137.433
X92.295Y137.468
X92.638Y137.841
X92.67Y137.875
X92.703Y137.908
X92.736Y137.939
X92.771Y137.97
X93.159Y138.305
X93.195Y138.335
X93.232Y138.364
X93.27Y138.392
X93.308Y138.419
X93.736Y138.708
X93.776Y138.734
X93.818Y138.759
X93.86Y138.783
X93.903Y138.806
X94.362Y139.041
X94.405Y139.062
X94.448Y139.082
X94.492Y139.1
X94.537Y139.117
X95.019Y139.294
X95.063Y139.31
X95.108Y139.324
X95.153Y139.337
X95.198Y139.348
X95.72Y139.472
X95.968Y139.527
X96.15Y139.583
X96.327Y139.655
X96.482Y139.733
X96.735Y139.897
X96.953Y140.081
X97.146Y140.291
X97.311Y140.523
X97.445Y140.775
X97.547Y141.041
X97.614Y141.318
X97.646Y141.601
X97.641Y141.887
X97.601Y142.169
X97.526Y142.444
X97.416Y142.707
X97.274Y142.954
X97.092Y143.195
X96.973Y143.322
X96.831Y143.449
X96.68Y143.565
X96.442Y143.716
X96.018Y143.995
X95.979Y144.022
X95.941Y144.049
X95.904Y144.078
X95.868Y144.108
X95.475Y144.439
X95.439Y144.47
X95.404Y144.503
X95.37Y144.536
X95.337Y144.57
X94.986Y144.948
X94.953Y144.984
X94.922Y145.021
X94.891Y145.059
X94.862Y145.098
X94.559Y145.515
X94.532Y145.554
X94.507Y145.593
X94.482Y145.632
X94.459Y145.673
X94.208Y146.121
X94.186Y146.162
X94.165Y146.203
X94.146Y146.245
X94.127Y146.287
X93.933Y146.755
X93.915Y146.799
X93.899Y146.844
X93.884Y146.888
X93.871Y146.934
X93.735Y147.416
X93.723Y147.461
X93.712Y147.507
X93.703Y147.553
X93.695Y147.599
X93.615Y148.104
X93.61Y148.141
X93.605Y148.179
X93.601Y148.216
X93.599Y148.253
X93.597Y148.291
X93.596Y148.328
Y148.365
Y148.403
X93.598Y148.44
X93.6Y148.477
X93.604Y148.515
X93.608Y148.552
X93.613Y148.591
X93.62Y148.629
X93.627Y148.667
X93.635Y148.705
X93.644Y148.742
X93.654Y148.779
X93.665Y148.817
X93.676Y148.853
X93.689Y148.89
X93.702Y148.926
X93.717Y148.962
X93.732Y148.997
X93.748Y149.033
X93.765Y149.067
X93.786Y149.108
X93.809Y149.148
X94.509Y150.361
X94.528Y150.394
X94.549Y150.427
X94.57Y150.459
X94.592Y150.491
X94.615Y150.522
X94.639Y150.552
X94.663Y150.582
X94.688Y150.612
X94.714Y150.641
X94.74Y150.669
X94.768Y150.696
X94.795Y150.723
X94.824Y150.749
X94.853Y150.775
X94.883Y150.8
X94.913Y150.824
X94.944Y150.847
X94.976Y150.87
X95.007Y150.891
X95.04Y150.912
X95.073Y150.932
X95.106Y150.952
X95.14Y150.97
X95.174Y150.988
X95.209Y151.005
X95.244Y151.021
X95.28Y151.036
X95.316Y151.05
X95.793Y151.234
X95.838Y151.25
X95.882Y151.265
X95.927Y151.279
X95.972Y151.291
X96.458Y151.414
X96.504Y151.425
X96.55Y151.435
X96.597Y151.443
X96.643Y151.45
X97.145Y151.515
X97.191Y151.521
X97.238Y151.525
X97.284Y151.527
X97.33Y151.529
X97.843Y151.536
X97.89
X97.937Y151.534
X97.984Y151.531
X98.03Y151.527
X98.544Y151.473
X98.592Y151.468
X98.64Y151.46
X98.687Y151.452
X98.735Y151.442
X99.237Y151.326
X99.284Y151.315
X99.33Y151.302
X99.375Y151.288
X99.421Y151.272
X99.903Y151.098
X99.947Y151.081
X99.991Y151.063
X100.034Y151.044
X100.076Y151.024
X100.555Y150.784
X100.78Y150.666
X100.955Y150.592
X101.137Y150.533
X101.306Y150.494
X101.606Y150.457
X101.891
X102.174Y150.494
X102.449Y150.566
X102.714Y150.672
X102.963Y150.811
X103.193Y150.98
X103.399Y151.177
X103.579Y151.398
X103.729Y151.64
X103.848Y151.899
X103.934Y152.171
X103.984Y152.452
X103.999Y152.754
X103.989Y152.927
X103.963Y153.116
X103.921Y153.302
X103.836Y153.571
X103.691Y154.057
X103.678Y154.102
X103.667Y154.148
X103.656Y154.194
X103.648Y154.24
X103.56Y154.746
X103.553Y154.793
X103.547Y154.84
X103.542Y154.888
X103.539Y154.935
X103.512Y155.45
X103.51Y155.499
Y155.547
X103.511Y155.596
X103.514Y155.644
X103.55Y156.159
X103.554Y156.206
X103.56Y156.252
X103.566Y156.299
X103.574Y156.345
X103.67Y156.849
X103.68Y156.894
X103.69Y156.939
X103.702Y156.984
X103.716Y157.028
X103.867Y157.512
X103.882Y157.556
X103.899Y157.601
X103.916Y157.645
X103.935Y157.688
X104.14Y158.145
X104.16Y158.187
X104.182Y158.229
X104.204Y158.27
X104.227Y158.311
X104.491Y158.75
X104.511Y158.781
X104.531Y158.813
X104.552Y158.844
X104.574Y158.874
X104.597Y158.904
X104.62Y158.933
X104.644Y158.962
X104.669Y158.99
X104.694Y159.018
X104.72Y159.045
X104.746Y159.071
X104.774Y159.097
X104.803Y159.123
X104.832Y159.148
X104.862Y159.173
X104.892Y159.196
X104.923Y159.219
X104.955Y159.242
X104.987Y159.263
X105.02Y159.284
X105.053Y159.304
X105.086Y159.323
X105.12Y159.341
X105.155Y159.358
X105.19Y159.375
X105.225Y159.391
X105.268Y159.408
X105.31Y159.425
X106.626Y159.903
X106.663Y159.916
X106.699Y159.928
X106.736Y159.939
X106.774Y159.949
X106.811Y159.958
X106.849Y159.967
X106.887Y159.974
X106.925Y159.98
X106.963Y159.986
X107.002Y159.99
X107.04Y159.994
X107.079Y159.997
X107.117Y159.998
X107.156Y159.999
X107.195
X107.234Y159.998
X107.272Y159.996
X107.311Y159.993
X107.349Y159.989
X107.388Y159.985
X107.426Y159.979
X107.464Y159.972
X107.502Y159.965
X107.539Y159.956
X107.577Y159.947
X107.614Y159.936
X107.651Y159.925
X107.688Y159.913
X108.172Y159.746
X108.216Y159.731
X108.26Y159.713
X108.303Y159.695
X108.345Y159.675
X108.796Y159.458
X108.838Y159.436
X108.88Y159.414
X108.921Y159.39
X108.961Y159.366
X109.388Y159.093
X109.427Y159.068
X109.465Y159.041
X109.502Y159.013
X109.538Y158.984
X109.936Y158.66
X109.972Y158.63
X110.007Y158.599
X110.04Y158.566
X110.073Y158.533
X110.432Y158.162
X110.465Y158.127
X110.497Y158.091
X110.528Y158.053
X110.558Y158.015
X110.869Y157.603
X110.897Y157.565
X110.924Y157.525
X110.95Y157.485
X110.975Y157.444
X111.233Y157.001
X111.256Y156.96
X111.277Y156.918
X111.298Y156.876
X111.317Y156.833
X111.53Y156.341
X111.627Y156.106
X111.713Y155.937
X111.815Y155.775
X111.919Y155.636
X112.124Y155.415
X112.343Y155.232
X112.583Y155.079
X112.841Y154.957
X113.112Y154.868
X113.392Y154.814
X113.677Y154.796
X113.961Y154.814
X114.241Y154.868
X114.512Y154.957
X114.77Y155.079
X115.01Y155.232
X115.229Y155.415
X115.434Y155.636
X115.538Y155.775
X115.639Y155.937
X115.727Y156.107
X115.834Y156.367
X116.036Y156.833
X116.055Y156.876
X116.076Y156.918
X116.097Y156.96
X116.12Y157.001
X116.378Y157.444
X116.403Y157.485
X116.429Y157.525
X116.456Y157.565
X116.484Y157.603
X116.795Y158.015
X116.825Y158.053
X116.856Y158.091
X116.888Y158.127
X116.921Y158.162
X117.28Y158.533
X117.313Y158.566
X117.347Y158.599
X117.381Y158.63
X117.417Y158.66
X117.815Y158.984
X117.851Y159.013
X117.888Y159.041
X117.926Y159.068
X117.965Y159.093
X118.392Y159.366
X118.432Y159.39
X118.473Y159.414
X118.515Y159.436
X118.557Y159.458
X119.008Y159.675
X119.05Y159.695
X119.094Y159.713
X119.137Y159.731
X119.181Y159.747
X119.665Y159.913
X119.702Y159.925
X119.739Y159.936
X119.776Y159.947
X119.814Y159.956
X119.851Y159.965
X119.889Y159.972
X119.927Y159.979
X119.965Y159.985
X120.004Y159.989
X120.042Y159.993
X120.081Y159.996
X120.119Y159.998
X120.158Y159.999
X120.197
X120.236
X120.274Y159.997
X120.313Y159.994
X120.351Y159.99
X120.39Y159.986
X120.428Y159.98
X120.466Y159.974
X120.504Y159.967
X120.542Y159.958
X120.579Y159.949
X120.617Y159.939
X120.654Y159.928
X120.69Y159.916
X120.727Y159.904
X122.043Y159.425
X122.086Y159.408
X122.128Y159.391
X122.163Y159.375
X122.198Y159.358
X122.233Y159.341
X122.267Y159.323
X122.3Y159.304
X122.334Y159.284
X122.366Y159.263
X122.398Y159.242
X122.43Y159.219
X122.461Y159.196
X122.491Y159.173
X122.521Y159.148
X122.551Y159.123
X122.58Y159.097
X122.607Y159.071
X122.633Y159.045
X122.659Y159.018
X122.684Y158.99
X122.709Y158.962
X122.733Y158.933
X122.756Y158.904
X122.779Y158.874
X122.801Y158.844
X122.822Y158.813
X122.842Y158.781
X122.862Y158.75
X123.126Y158.311
X123.149Y158.27
X123.172Y158.229
X123.193Y158.187
X123.213Y158.145
X123.418Y157.688
X123.437Y157.645
X123.455Y157.601
X123.471Y157.556
X123.486Y157.511
X123.637Y157.028
X123.651Y156.984
X123.663Y156.939
X123.673Y156.894
X123.683Y156.849
X123.779Y156.345
X123.787Y156.299
X123.793Y156.252
X123.799Y156.206
X123.803Y156.159
X123.839Y155.644
X123.842Y155.596
X123.843Y155.547
Y155.499
X123.841Y155.451
X123.814Y154.935
X123.811Y154.888
X123.806Y154.84
X123.8Y154.793
X123.793Y154.746
X123.705Y154.24
X123.697Y154.194
X123.687Y154.148
X123.675Y154.102
X123.662Y154.057
X123.509Y153.544
X123.432Y153.302
X123.39Y153.116
X123.364Y152.927
X123.354Y152.754
X123.369Y152.452
X123.42Y152.171
X123.505Y151.899
X123.624Y151.64
X123.774Y151.398
X123.954Y151.177
X124.161Y150.98
X124.39Y150.811
X124.639Y150.672
X124.904Y150.566
X125.18Y150.494
X125.462Y150.457
X125.747
X126.047Y150.494
X126.216Y150.534
X126.398Y150.593
X126.573Y150.666
X126.823Y150.797
X127.277Y151.024
X127.319Y151.044
X127.362Y151.064
X127.406Y151.081
X127.45Y151.098
X127.933Y151.272
X127.978Y151.288
X128.023Y151.302
X128.069Y151.315
X128.116Y151.326
X128.618Y151.442
X128.666Y151.452
X128.714Y151.461
X128.762Y151.468
X128.81Y151.474
X129.323Y151.527
X129.369Y151.531
X129.416Y151.534
X129.463Y151.536
X129.51
X130.023Y151.529
X130.069Y151.527
X130.115Y151.525
X130.162Y151.521
X130.208Y151.515
X130.71Y151.45
X130.757Y151.443
X130.803Y151.435
X130.849Y151.425
X130.895Y151.414
X131.381Y151.291
X131.426Y151.279
X131.471Y151.265
X131.516Y151.25
X131.56Y151.234
X132.037Y151.051
X132.073Y151.036
X132.109Y151.021
X132.144Y151.005
X132.179Y150.988
X132.213Y150.97
X132.247Y150.952
X132.28Y150.933
X132.313Y150.912
X132.346Y150.891
X132.378Y150.87
X132.409Y150.847
X132.44Y150.824
X132.47Y150.8
X132.5Y150.775
X132.529Y150.749
X132.558Y150.723
X132.586Y150.696
X132.613Y150.669
X132.639Y150.641
X132.665Y150.612
X132.69Y150.583
X132.714Y150.553
X132.738Y150.522
X132.761Y150.491
X132.783Y150.459
X132.804Y150.427
X132.825Y150.394
X132.844Y150.361
X133.544Y149.148
X133.567Y149.108
X133.588Y149.067
X133.605Y149.033
X133.621Y148.998
X133.636Y148.962
X133.651Y148.926
X133.664Y148.89
X133.677Y148.853
X133.689Y148.817
X133.699Y148.78
X133.709Y148.742
X133.718Y148.705
X133.726Y148.667
X133.734Y148.629
X133.74Y148.591
X133.745Y148.552
X133.749Y148.515
X133.753Y148.477
X133.755Y148.44
X133.757Y148.403
X133.758Y148.365
X133.757Y148.328
X133.756Y148.29
X133.755Y148.253
X133.752Y148.216
X133.748Y148.179
X133.744Y148.141
X133.738Y148.104
X133.658Y147.599
X133.65Y147.553
X133.641Y147.507
X133.63Y147.461
X133.618Y147.416
X133.482Y146.934
X133.469Y146.889
X133.454Y146.844
X133.438Y146.799
X133.42Y146.755
X133.226Y146.287
X133.208Y146.245
X133.188Y146.203
X133.167Y146.162
X133.145Y146.121
X132.895Y145.673
X132.871Y145.633
X132.846Y145.593
X132.821Y145.554
X132.794Y145.515
X132.491Y145.098
X132.462Y145.059
X132.431Y145.021
X132.4Y144.984
X132.368Y144.948
X132.016Y144.571
X131.983Y144.536
X131.949Y144.503
X131.914Y144.47
X131.878Y144.439
X131.485Y144.108
X131.449Y144.078
X131.412Y144.049
X131.374Y144.022
X131.335Y143.995
X130.888Y143.701
X130.674Y143.565
X130.522Y143.449
X130.38Y143.322
X130.261Y143.195
X130.079Y142.954
X129.937Y142.707
X129.827Y142.444
X129.752Y142.169
X129.712Y141.887
X129.707Y141.602
X129.739Y141.318
X129.806Y141.041
X129.908Y140.775
X130.042Y140.523
X130.207Y140.291
X130.4Y140.081
X130.618Y139.897
X130.872Y139.733
X131.026Y139.655
X131.195Y139.587
X131.388Y139.526
X131.661Y139.466
X132.155Y139.348
X132.2Y139.337
X132.245Y139.324
X132.29Y139.31
X132.334Y139.294
X132.816Y139.117
X132.861Y139.1
X132.905Y139.082
X132.948Y139.062
X132.991Y139.041
X133.451Y138.806
X133.493Y138.783
X133.536Y138.759
X133.577Y138.734
X133.617Y138.708
X134.045Y138.419
X134.083Y138.392
X134.121Y138.364
X134.158Y138.335
X134.194Y138.305
X134.582Y137.97
X134.617Y137.939
X134.651Y137.908
X134.683Y137.875
X134.715Y137.841
X135.058Y137.468
X135.089Y137.433
X135.12Y137.397
X135.149Y137.36
X135.177Y137.322
X135.47Y136.915
X135.496Y136.877
X135.522Y136.837
X135.547Y136.797
X135.57Y136.757
X135.818Y136.309
X135.836Y136.276
X135.853Y136.243
X135.869Y136.209
X135.884Y136.175
X135.899Y136.14
X135.913Y136.106
X135.926Y136.07
X135.938Y136.035
X135.949Y135.999
X135.959Y135.963
X135.969Y135.927
X135.978Y135.89
X135.986Y135.853
X135.993Y135.815
X135.999Y135.777
X136.005Y135.738
X136.009Y135.7
X136.012Y135.661
X136.015Y135.623
X136.017Y135.584
Y135.546
Y135.507
X136.016Y135.468
X136.014Y135.43
X136.01Y135.391
X136.006Y135.353
X136Y135.307
X135.993Y135.262
X135.75Y133.883
X135.743Y133.845
X135.735Y133.807
X135.726Y133.77
X135.716Y133.732
X135.705Y133.695
X135.693Y133.659
X135.681Y133.622
X135.667Y133.586
X135.653Y133.55
X135.638Y133.514
X135.621Y133.479
X135.605Y133.445
X135.587Y133.41
X135.568Y133.376
X135.548Y133.342
X135.528Y133.31
X135.507Y133.277
X135.485Y133.245
X135.463Y133.214
X135.439Y133.183
X135.415Y133.153
X135.391Y133.123
X135.365Y133.094
X135.339Y133.066
X135.312Y133.038
X135.284Y133.011
X135.256Y132.985
X135.227Y132.959
X134.841Y132.623
X134.805Y132.593
X134.769Y132.564
X134.731Y132.535
X134.693Y132.508
X134.279Y132.227
X134.239Y132.201
X134.199Y132.176
X134.158Y132.152
X134.116Y132.13
X133.667Y131.896
X133.626Y131.875
X133.584Y131.856
X133.541Y131.838
X133.498Y131.821
X133.018Y131.639
X132.974Y131.623
X132.93Y131.608
X132.885Y131.595
X132.84Y131.583
X132.339Y131.457
X132.292Y131.446
X132.244Y131.437
X132.196Y131.429
X132.148Y131.422
X131.637Y131.359
X131.589Y131.354
X131.541Y131.35
X131.494Y131.348
X131.446Y131.347
X130.933Y131.345
X130.886Y131.346
X130.839Y131.348
X130.792Y131.351
X130.745Y131.356
X130.213Y131.417
X129.962Y131.451
X129.771Y131.46
X129.58Y131.454
X129.408Y131.433
X129.114Y131.366
X128.846Y131.267
X128.593Y131.136
X128.358Y130.974
X128.146Y130.784
X127.959Y130.568
X127.802Y130.331
X127.675Y130.076
X127.582Y129.806
X127.523Y129.527
X127.5Y129.243
X127.513Y128.958
X127.562Y128.677
X127.65Y128.389
X127.719Y128.229
X127.808Y128.06
X127.911Y127.9
X128.083Y127.677
X128.386Y127.269
X128.413Y127.231
X128.44Y127.192
X128.465Y127.153
X128.489Y127.112
X128.744Y126.667
X128.767Y126.625
X128.789Y126.583
X128.81Y126.54
X128.829Y126.496
X129.03Y126.021
X129.048Y125.976
X129.065Y125.93
X129.081Y125.884
X129.095Y125.838
X129.237Y125.342
X129.249Y125.297
X129.26Y125.251
X129.269Y125.206
X129.277Y125.16
X129.36Y124.653
X129.367Y124.607
X129.372Y124.561
X129.376Y124.515
X129.379Y124.469
X129.401Y123.962
X129.403Y123.915
Y123.868
X129.401Y123.821
X129.398Y123.774
X129.361Y123.274
X129.357Y123.228
X129.352Y123.181
X129.345Y123.135
X129.336Y123.088
X129.239Y122.586
X129.231Y122.549
X129.223Y122.513
X129.213Y122.477
X129.203Y122.441
X129.192Y122.405
X129.18Y122.369
X129.168Y122.334
X129.154Y122.299
X129.14Y122.265
X129.125Y122.231
X129.109Y122.197
X129.092Y122.163
X129.074Y122.129
X129.055Y122.095
X129.035Y122.062
X129.015Y122.029
X128.993Y121.997
X128.971Y121.965
X128.948Y121.934
X128.925Y121.903
X128.901Y121.873
X128.876Y121.844
X128.85Y121.815
X128.823Y121.787
X128.796Y121.759
X128.768Y121.732
X128.734Y121.701
X128.7Y121.671
X127.627Y120.771
X127.597Y120.747
X127.567Y120.723
X127.536Y120.7
X127.504Y120.678
X127.472Y120.657
X127.439Y120.636
X127.406Y120.616
X127.373Y120.597
X127.339Y120.579
X127.304Y120.561
X127.269Y120.545
X127.234Y120.529
X127.198Y120.514
X127.162Y120.5
X127.125Y120.487
X127.089Y120.475
X127.052Y120.463
X127.014Y120.453
X126.977Y120.443
X126.939Y120.435
X126.901Y120.427
X126.863Y120.42
X126.825Y120.415
X126.787Y120.41
X126.748Y120.406
X126.71Y120.403
X126.671Y120.401
X126.633Y120.399
X126.121Y120.39
X126.074
X126.027Y120.391
X125.98Y120.394
X125.934Y120.398
X125.435Y120.448
X125.388Y120.454
X125.342Y120.46
X125.295Y120.469
X125.249Y120.478
X124.754Y120.588
X124.709Y120.599
X124.665Y120.611
X124.62Y120.624
X124.576Y120.639
X124.092Y120.808
X124.048Y120.824
X124.004Y120.841
X123.961Y120.86
X123.919Y120.88
X123.455Y121.106
X123.412Y121.128
X123.369Y121.151
X123.327Y121.175
X123.286Y121.201
X122.853Y121.482
X122.814Y121.508
X122.775Y121.536
X122.737Y121.565
X122.7Y121.595
X122.306Y121.924
X122.27Y121.954
X122.235Y121.986
X122.201Y122.019
X122.169Y122.052
X121.801Y122.442
X121.63Y122.629
X121.49Y122.759
X121.339Y122.876
X121.194Y122.971
X120.925Y123.109
X120.657Y123.205
X120.379Y123.268
X120.095Y123.294
X119.81Y123.285
X119.529Y123.24
X119.255Y123.159
X118.994Y123.045
X118.749Y122.899
X118.525Y122.723
X118.324Y122.52
X118.151Y122.293
X118.008Y122.047
X117.891Y121.769
X117.84Y121.603
X117.801Y121.416
X117.777Y121.227
X117.765Y120.945
X117.735Y120.438
X117.731Y120.392
X117.726Y120.345
X117.72Y120.298
X117.712Y120.252
X117.622Y119.747
X117.613Y119.7
X117.602Y119.653
X117.59Y119.607
X117.577Y119.561
X117.426Y119.068
X117.411Y119.022
X117.394Y118.976
X117.377Y118.931
X117.358Y118.887
X117.148Y118.415
X117.128Y118.373
X117.107Y118.331
X117.085Y118.29
X117.061Y118.249
X116.799Y117.808
X116.775Y117.769
X116.749Y117.73
X116.723Y117.692
X116.695Y117.655
X116.387Y117.253
X116.358Y117.216
X116.327Y117.179
X116.296Y117.144
X116.263Y117.11
X115.914Y116.751
X115.881Y116.718
X115.846Y116.686
X115.811Y116.655
X115.775Y116.625
X115.378Y116.303
X115.347Y116.279
X115.316Y116.256
X115.285Y116.233
X115.253Y116.212
X115.22Y116.191
X115.187Y116.171
X115.154Y116.151
X115.12Y116.133
X115.086Y116.115
X115.051Y116.099
X115.016Y116.083
X114.98Y116.067
X114.944Y116.053
X114.907Y116.04
X114.871Y116.027
X114.834Y116.016
X114.797Y116.005
X114.759Y115.995
X114.722Y115.986
X114.684Y115.979
X114.646Y115.972
X114.608Y115.965
X114.569Y115.96
X114.531Y115.956
X114.492Y115.953
X114.454Y115.95
X114.415Y115.949
X114.377
X112.977
X112.931
X112.885Y115.951
X112.846Y115.954
X112.808Y115.958
X112.769Y115.962
X112.731Y115.968
X112.693Y115.974
X112.655Y115.981
X112.617Y115.99
X112.58Y115.999
X112.543Y116.009
X112.505Y116.02
X112.469Y116.032
X112.432Y116.045
X112.396Y116.058
X112.36Y116.073
X112.326Y116.088
X112.292Y116.104
X112.258Y116.12
X112.225Y116.137
X112.192Y116.156
X112.16Y116.174
X112.128Y116.194
X112.096Y116.214
X112.066Y116.235
X112.035Y116.257
X112.005Y116.28
X111.976Y116.303
X111.578Y116.625
X111.542Y116.655
X111.507Y116.686
X111.473Y116.718
X111.439Y116.751
X111.09Y117.11
X111.057Y117.144
X111.026Y117.18
X110.996Y117.216
X110.966Y117.253
X110.658Y117.655
X110.631Y117.692
X110.604Y117.73
X110.579Y117.769
X110.554Y117.808
X110.292Y118.249
X110.268Y118.29
X110.246Y118.331
X110.225Y118.373
X110.206Y118.415
X109.996Y118.887
X109.977Y118.931
X109.959Y118.976
X109.943Y119.022
X109.928Y119.068
X109.776Y119.561
X109.763Y119.607
X109.751Y119.653
X109.741Y119.7
X109.732Y119.747
X109.641Y120.252
X109.633Y120.298
X109.627Y120.345
X109.622Y120.392
X109.619Y120.438
X109.587Y120.973
X109.576Y121.227
X109.553Y121.416
X109.513Y121.602
X109.463Y121.769
X109.345Y122.047
X109.202Y122.293
X109.029Y122.52
X108.828Y122.723
X108.604Y122.899
X108.359Y123.045
X108.098Y123.159
G0Z1
X112.851Y137.35
G1Z-0.3F50
X113.039Y137.235F100
X113.243Y137.151
X113.457Y137.099
X113.677Y137.082
X113.896Y137.099
X114.11Y137.151
X114.314Y137.235
X114.502Y137.35
X114.669Y137.493
X114.813Y137.661
X114.928Y137.848
X115.012Y138.052
X115.063Y138.266
X115.081Y138.486
X115.063Y138.706
X115.012Y138.92
X114.928Y139.123
X114.813Y139.311
X114.669Y139.479
X114.502Y139.622
X114.314Y139.737
X114.11Y139.821
X113.896Y139.873
X113.677Y139.89
X113.457Y139.873
X113.243Y139.821
X113.039Y139.737
X112.851Y139.622
X112.684Y139.479
X112.541Y139.311
X112.426Y139.123
X112.341Y138.92
X112.29Y138.706
X112.272Y138.486
X112.29Y138.266
X112.341Y138.052
X112.426Y137.848
X112.541Y137.661
X112.684Y137.493
X112.851Y137.35
G0Z1
X108.098Y123.159
G1Z-0.3F50
X107.825Y123.24F100
X107.543Y123.285
X107.258Y123.294
X106.974Y123.268
X106.696Y123.205
X106.428Y123.109
X106.159Y122.971
X106.014Y122.876
X105.863Y122.759
X105.724Y122.629
X105.533Y122.421
X105.184Y122.052
X105.152Y122.019
X105.118Y121.986
X105.083Y121.954
X105.048Y121.924
X104.653Y121.595
X104.616Y121.565
X104.578Y121.536
X104.54Y121.508
X104.5Y121.482
X104.067Y121.201
X104.026Y121.175
X103.984Y121.151
X103.941Y121.128
X103.898Y121.106
X103.434Y120.88
X103.392Y120.86
X103.349Y120.841
X103.306Y120.824
X103.262Y120.808
X102.777Y120.639
X102.733Y120.624
X102.689Y120.611
X102.644Y120.599
X102.599Y120.588
X102.104Y120.478
X102.058Y120.469
X102.012Y120.46
X101.965Y120.454
X101.918Y120.448
X101.42Y120.398
X101.373Y120.394
X101.326Y120.391
X101.279Y120.39
X101.232
X100.72Y120.399
X100.682Y120.401
X100.643Y120.403
X100.605Y120.406
X100.566Y120.41
X100.528Y120.415
X100.49Y120.42
X100.452Y120.427
X100.414Y120.435
X100.376Y120.443
X100.339Y120.453
X100.302Y120.463
X100.265Y120.475
X100.228Y120.487
X100.191Y120.5
X100.155Y120.514
X100.119Y120.529
X100.084Y120.545
X100.049Y120.561
X100.015Y120.579
X99.981Y120.597
X99.947Y120.616
X99.914Y120.636
X99.881Y120.656
X99.849Y120.678
X99.818Y120.7
X99.786Y120.723
X99.756Y120.747
X99.726Y120.771
X98.654Y121.671
X98.619Y121.701
X98.585Y121.732
X98.557Y121.759
X98.53Y121.787
X98.504Y121.815
X98.478Y121.844
X98.453Y121.873
X98.428Y121.903
X98.405Y121.934
X98.382Y121.965
X98.36Y121.997
X98.339Y122.029
X98.318Y122.062
X98.298Y122.095
X98.279Y122.128
X98.261Y122.163
X98.244Y122.197
X98.229Y122.23
X98.213Y122.265
X98.199Y122.299
X98.186Y122.334
X98.173Y122.369
X98.161Y122.405
X98.15Y122.441
X98.14Y122.477
X98.131Y122.513
X98.122Y122.549
X98.115Y122.586
X98.017Y123.088
X98.009Y123.134
X98.002Y123.181
X97.996Y123.228
X97.992Y123.274
X97.955Y123.774
X97.952Y123.821
X97.951Y123.868
Y123.915
X97.952Y123.963
X97.975Y124.469
X97.977Y124.515
X97.981Y124.561
X97.987Y124.607
X97.994Y124.653
X98.076Y125.159
X98.084Y125.205
X98.094Y125.251
X98.104Y125.297
X98.117Y125.342
X98.259Y125.838
X98.273Y125.884
X98.288Y125.93
X98.305Y125.976
X98.323Y126.021
X98.524Y126.496
X98.543Y126.539
X98.564Y126.583
X98.586Y126.625
X98.609Y126.667
X98.865Y127.112
X98.889Y127.153
X98.914Y127.192
X98.94Y127.231
X98.967Y127.269
X99.287Y127.699
X99.442Y127.9
X99.545Y128.06
X99.635Y128.229
X99.703Y128.389
X99.792Y128.677
X99.84Y128.958
X99.853Y129.243
X99.83Y129.527
X99.772Y129.806
X99.678Y130.075
X99.552Y130.331
X99.394Y130.568
X99.207Y130.784
X98.995Y130.974
X98.76Y131.136
X98.507Y131.267
X98.239Y131.366
X97.945Y131.433
X97.773Y131.454
X97.582Y131.46
X97.392Y131.451
X97.112Y131.414
X96.608Y131.356
X96.561Y131.351
X96.514Y131.348
X96.468Y131.346
X96.421Y131.345
X95.907Y131.347
X95.86
X95.812Y131.35
X95.764Y131.353
X95.717Y131.359
X95.205Y131.422
X95.166Y131.427
X95.128Y131.433
X95.09Y131.44
X95.052Y131.448
X95.014Y131.457
X94.514Y131.582
X94.468Y131.594
X94.423Y131.608
X94.379Y131.622
X94.335Y131.638
X93.855Y131.82
X93.812Y131.837
X93.77Y131.856
X93.728Y131.875
X93.686Y131.896
X93.237Y132.13
X93.195Y132.152
X93.154Y132.176
X93.114Y132.2
X93.074Y132.226
X92.661Y132.508
X92.622Y132.535
X92.585Y132.563
X92.548Y132.593
X92.512Y132.623
X92.126Y132.959
X92.097Y132.985
X92.069Y133.011
X92.041Y133.038
X92.014Y133.066
X91.988Y133.094
X91.963Y133.123
X91.938Y133.153
X91.914Y133.183
X91.89Y133.214
X91.868Y133.245
X91.846Y133.277
X91.825Y133.309
X91.805Y133.342
X91.785Y133.376
X91.767Y133.41
X91.749Y133.444
X91.732Y133.479
X91.716Y133.514
X91.7Y133.55
X91.686Y133.586
X91.673Y133.622
X91.66Y133.658
X91.648Y133.695
X91.637Y133.732
X91.628Y133.77
X91.619Y133.807
X91.61Y133.845
X91.603Y133.883
X91.36Y135.262
X91.353Y135.307
X91.347Y135.353
X91.343Y135.391
X91.34Y135.43
X91.337Y135.468
X91.336Y135.507
Y135.545
X91.337Y135.584
X91.338Y135.623
X91.341Y135.661
X91.344Y135.7
X91.349Y135.738
X91.354Y135.776
X91.36Y135.814
X91.367Y135.852
X91.376Y135.891
X91.384Y135.927
X91.394Y135.963
X91.404Y135.999
X91.416Y136.035
X91.428Y136.07
X91.441Y136.105
X91.454Y136.14
X91.469Y136.175
X91.484Y136.209
X91.5Y136.242
X91.517Y136.276
X91.535Y136.309
X91.783Y136.756
X91.806Y136.797
X91.831Y136.837
X91.857Y136.877
X91.884Y136.915
X92.176Y137.321
X92.204Y137.359
X92.234Y137.397
X92.264Y137.433
X92.295Y137.468
X92.638Y137.841
X92.67Y137.875
X92.703Y137.908
X92.736Y137.939
X92.771Y137.97
X93.159Y138.305
X93.195Y138.335
X93.232Y138.364
X93.27Y138.392
X93.308Y138.419
X93.736Y138.708
X93.776Y138.734
X93.818Y138.759
X93.86Y138.783
X93.903Y138.806
X94.362Y139.041
X94.405Y139.062
X94.448Y139.082
X94.492Y139.1
X94.537Y139.117
X95.019Y139.294
X95.063Y139.31
X95.108Y139.324
X95.153Y139.337
X95.198Y139.348
X95.72Y139.472
X95.968Y139.527
X96.15Y139.583
X96.327Y139.655
X96.482Y139.733
X96.735Y139.897
X96.953Y140.081
X97.146Y140.291
X97.311Y140.523
X97.445Y140.775
X97.547Y141.041
X97.614Y141.318
X97.646Y141.601
X97.641Y141.887
X97.601Y142.169
X97.526Y142.444
X97.416Y142.707
X97.274Y142.954
X97.092Y143.195
X96.973Y143.322
X96.831Y143.449
X96.68Y143.565
X96.442Y143.716
X96.018Y143.995
X95.979Y144.022
X95.941Y144.049
X95.904Y144.078
X95.868Y144.108
X95.475Y144.439
X95.439Y144.47
X95.404Y144.503
X95.37Y144.536
X95.337Y144.57
X94.986Y144.948
X94.953Y144.984
X94.922Y145.021
X94.891Y145.059
X94.862Y145.098
X94.559Y145.515
X94.532Y145.554
X94.507Y145.593
X94.482Y145.632
X94.459Y145.673
X94.208Y146.121
X94.186Y146.162
X94.165Y146.203
X94.146Y146.245
X94.127Y146.287
X93.933Y146.755
X93.915Y146.799
X93.899Y146.844
X93.884Y146.888
X93.871Y146.934
X93.735Y147.416
X93.723Y147.461
X93.712Y147.507
X93.703Y147.553
X93.695Y147.599
X93.615Y148.104
X93.61Y148.141
X93.605Y148.179
X93.601Y148.216
X93.599Y148.253
X93.597Y148.291
X93.596Y148.328
Y148.365
Y148.403
X93.598Y148.44
X93.6Y148.477
X93.604Y148.515
X93.608Y148.552
X93.613Y148.591
X93.62Y148.629
X93.627Y148.667
X93.635Y148.705
X93.644Y148.742
X93.654Y148.779
X93.665Y148.817
X93.676Y148.853
X93.689Y148.89
X93.702Y148.926
X93.717Y148.962
X93.732Y148.997
X93.748Y149.033
X93.765Y149.067
X93.786Y149.108
X93.809Y149.148
X94.509Y150.361
X94.528Y150.394
X94.549Y150.427
X94.57Y150.459
X94.592Y150.491
X94.615Y150.522
X94.639Y150.552
X94.663Y150.582
X94.688Y150.612
X94.714Y150.641
X94.74Y150.669
X94.768Y150.696
X94.795Y150.723
X94.824Y150.749
X94.853Y150.775
X94.883Y150.8
X94.913Y150.824
X94.944Y150.847
X94.976Y150.87
X95.007Y150.891
X95.04Y150.912
X95.073Y150.932
X95.106Y150.952
X95.14Y150.97
X95.174Y150.988
X95.209Y151.005
X95.244Y151.021
X95.28Y151.036
X95.316Y151.05
X95.793Y151.234
X95.838Y151.25
X95.882Y151.265
X95.927Y151.279
X95.972Y151.291
X96.458Y151.414
X96.504Y151.425
X96.55Y151.435
X96.597Y151.443
X96.643Y151.45
X97.145Y151.515
X97.191Y151.521
X97.238Y151.525
X97.284Y151.527
X97.33Y151.529
X97.843Y151.536
X97.89
X97.937Y151.534
X97.984Y151.531
X98.03Y151.527
X98.544Y151.473
X98.592Y151.468
X98.64Y151.46
X98.687Y151.452
X98.735Y151.442
X99.237Y151.326
X99.284Y151.315
X99.33Y151.302
X99.375Y151.288
X99.421Y151.272
X99.903Y151.098
X99.947Y151.081
X99.991Y151.063
X100.034Y151.044
X100.076Y151.024
X100.555Y150.784
X100.78Y150.666
X100.955Y150.592
X101.137Y150.533
X101.306Y150.494
X101.606Y150.457
X101.891
X102.174Y150.494
X102.449Y150.566
X102.714Y150.672
X102.963Y150.811
X103.193Y150.98
X103.399Y151.177
X103.579Y151.398
X103.729Y151.64
X103.848Y151.899
X103.934Y152.171
X103.984Y152.452
X103.999Y152.754
X103.989Y152.927
X103.963Y153.116
X103.921Y153.302
X103.836Y153.571
X103.691Y154.057
X103.678Y154.102
X103.667Y154.148
X103.656Y154.194
X103.648Y154.24
X103.56Y154.746
X103.553Y154.793
X103.547Y154.84
X103.542Y154.888
X103.539Y154.935
X103.512Y155.45
X103.51Y155.499
Y155.547
X103.511Y155.596
X103.514Y155.644
X103.55Y156.159
X103.554Y156.206
X103.56Y156.252
X103.566Y156.299
X103.574Y156.345
X103.67Y156.849
X103.68Y156.894
X103.69Y156.939
X103.702Y156.984
X103.716Y157.028
X103.867Y157.512
X103.882Y157.556
X103.899Y157.601
X103.916Y157.645
X103.935Y157.688
X104.14Y158.145
X104.16Y158.187
X104.182Y158.229
X104.204Y158.27
X104.227Y158.311
X104.491Y158.75
X104.511Y158.781
X104.531Y158.813
X104.552Y158.844
X104.574Y158.874
X104.597Y158.904
X104.62Y158.933
X104.644Y158.962
X104.669Y158.99
X104.694Y159.018
X104.72Y159.045
X104.746Y159.071
X104.774Y159.097
X104.803Y159.123
X104.832Y159.148
X104.862Y159.173
X104.892Y159.196
X104.923Y159.219
X104.955Y159.242
X104.987Y159.263
X105.02Y159.284
X105.053Y159.304
X105.086Y159.323
X105.12Y159.341
X105.155Y159.358
X105.19Y159.375
X105.225Y159.391
X105.268Y159.408
X105.31Y159.425
X106.626Y159.903
X106.663Y159.916
X106.699Y159.928
X106.736Y159.939
X106.774Y159.949
X106.811Y159.958
X106.849Y159.967
X106.887Y159.974
X106.925Y159.98
X106.963Y159.986
X107.002Y159.99
X107.04Y159.994
X107.079Y159.997
X107.117Y159.998
X107.156Y159.999
X107.195
X107.234Y159.998
X107.272Y159.996
X107.311Y159.993
X107.349Y159.989
X107.388Y159.985
X107.426Y159.979
X107.464Y159.972
X107.502Y159.965
X107.539Y159.956
X107.577Y159.947
X107.614Y159.936
X107.651Y159.925
X107.688Y159.913
X108.172Y159.746
X108.216Y159.731
X108.26Y159.713
X108.303Y159.695
X108.345Y159.675
X108.796Y159.458
X108.838Y159.436
X108.88Y159.414
X108.921Y159.39
X108.961Y159.366
X109.388Y159.093
X109.427Y159.068
X109.465Y159.041
X109.502Y159.013
X109.538Y158.984
X109.936Y158.66
X109.972Y158.63
X110.007Y158.599
X110.04Y158.566
X110.073Y158.533
X110.432Y158.162
X110.465Y158.127
X110.497Y158.091
X110.528Y158.053
X110.558Y158.015
X110.869Y157.603
X110.897Y157.565
X110.924Y157.525
X110.95Y157.485
X110.975Y157.444
X111.233Y157.001
X111.256Y156.96
X111.277Y156.918
X111.298Y156.876
X111.317Y156.833
X111.53Y156.341
X111.627Y156.106
X111.713Y155.937
X111.815Y155.775
X111.919Y155.636
X112.124Y155.415
X112.343Y155.232
X112.583Y155.079
X112.841Y154.957
X113.112Y154.868
X113.392Y154.814
X113.677Y154.796
X113.961Y154.814
X114.241Y154.868
X114.512Y154.957
X114.77Y155.079
X115.01Y155.232
X115.229Y155.415
X115.434Y155.636
X115.538Y155.775
X115.639Y155.937
X115.727Y156.107
X115.834Y156.367
X116.036Y156.833
X116.055Y156.876
X116.076Y156.918
X116.097Y156.96
X116.12Y157.001
X116.378Y157.444
X116.403Y157.485
X116.429Y157.525
X116.456Y157.565
X116.484Y157.603
X116.795Y158.015
X116.825Y158.053
X116.856Y158.091
X116.888Y158.127
X116.921Y158.162
X117.28Y158.533
X117.313Y158.566
X117.347Y158.599
X117.381Y158.63
X117.417Y158.66
X117.815Y158.984
X117.851Y159.013
X117.888Y159.041
X117.926Y159.068
X117.965Y159.093
X118.392Y159.366
X118.432Y159.39
X118.473Y159.414
X118.515Y159.436
X118.557Y159.458
X119.008Y159.675
X119.05Y159.695
X119.094Y159.713
X119.137Y159.731
X119.181Y159.747
X119.665Y159.913
X119.702Y159.925
X119.739Y159.936
X119.776Y159.947
X119.814Y159.956
X119.851Y159.965
X119.889Y159.972
X119.927Y159.979
X119.965Y159.985
X120.004Y159.989
X120.042Y159.993
X120.081Y159.996
X120.119Y159.998
X120.158Y159.999
X120.197
X120.236
X120.274Y159.997
X120.313Y159.994
X120.351Y159.99
X120.39Y159.986
X120.428Y159.98
X120.466Y159.974
X120.504Y159.967
X120.542Y159.958
X120.579Y159.949
X120.617Y159.939
X120.654Y159.928
X120.69Y159.916
X120.727Y159.904
X122.043Y159.425
X122.086Y159.408
X122.128Y159.391
X122.163Y159.375
X122.198Y159.358
X122.233Y159.341
X122.267Y159.323
X122.3Y159.304
X122.334Y159.284
X122.366Y159.263
X122.398Y159.242
X122.43Y159.219
X122.461Y159.196
X122.491Y159.173
X122.521Y159.148
X122.551Y159.123
X122.58Y159.097
X122.607Y159.071
X122.633Y159.045
X122.659Y159.018
X122.684Y158.99
X122.709Y158.962
X122.733Y158.933
X122.756Y158.904
X122.779Y158.874
X122.801Y158.844
X122.822Y158.813
X122.842Y158.781
X122.862Y158.75
X123.126Y158.311
X123.149Y158.27
X123.172Y158.229
X123.193Y158.187
X123.213Y158.145
X123.418Y157.688
X123.437Y157.645
X123.455Y157.601
X123.471Y157.556
X123.486Y157.511
X123.637Y157.028
X123.651Y156.984
X123.663Y156.939
X123.673Y156.894
X123.683Y156.849
X123.779Y156.345
X123.787Y156.299
X123.793Y156.252
X123.799Y156.206
X123.803Y156.159
X123.839Y155.644
X123.842Y155.596
X123.843Y155.547
Y155.499
X123.841Y155.451
X123.814Y154.935
X123.811Y154.888
X123.806Y154.84
X123.8Y154.793
X123.793Y154.746
X123.705Y154.24
X123.697Y154.194
X123.687Y154.148
X123.675Y154.102
X123.662Y154.057
X123.509Y153.544
X123.432Y153.302
X123.39Y153.116
X123.364Y152.927
X123.354Y152.754
X123.369Y152.452
X123.42Y152.171
X123.505Y151.899
X123.624Y151.64
X123.774Y151.398
X123.954Y151.177
X124.161Y150.98
X124.39Y150.811
X124.639Y150.672
X124.904Y150.566
X125.18Y150.494
X125.462Y150.457
X125.747
X126.047Y150.494
X126.216Y150.534
X126.398Y150.593
X126.573Y150.666
X126.823Y150.797
X127.277Y151.024
X127.319Y151.044
X127.362Y151.064
X127.406Y151.081
X127.45Y151.098
X127.933Y151.272
X127.978Y151.288
X128.023Y151.302
X128.069Y151.315
X128.116Y151.326
X128.618Y151.442
X128.666Y151.452
X128.714Y151.461
X128.762Y151.468
X128.81Y151.474
X129.323Y151.527
X129.369Y151.531
X129.416Y151.534
X129.463Y151.536
X129.51
X130.023Y151.529
X130.069Y151.527
X130.115Y151.525
X130.162Y151.521
X130.208Y151.515
X130.71Y151.45
X130.757Y151.443
X130.803Y151.435
X130.849Y151.425
X130.895Y151.414
X131.381Y151.291
X131.426Y151.279
X131.471Y151.265
X131.516Y151.25
X131.56Y151.234
X132.037Y151.051
X132.073Y151.036
X132.109Y151.021
X132.144Y151.005
X132.179Y150.988
X132.213Y150.97
X132.247Y150.952
X132.28Y150.933
X132.313Y150.912
X132.346Y150.891
X132.378Y150.87
X132.409Y150.847
X132.44Y150.824
X132.47Y150.8
X132.5Y150.775
X132.529Y150.749
X132.558Y150.723
X132.586Y150.696
X132.613Y150.669
X132.639Y150.641
X132.665Y150.612
X132.69Y150.583
X132.714Y150.553
X132.738Y150.522
X132.761Y150.491
X132.783Y150.459
X132.804Y150.427
X132.825Y150.394
X132.844Y150.361
X133.544Y149.148
X133.567Y149.108
X133.588Y149.067
X133.605Y149.033
X133.621Y148.998
X133.636Y148.962
X133.651Y148.926
X133.664Y148.89
X133.677Y148.853
X133.689Y148.817
X133.699Y148.78
X133.709Y148.742
X133.718Y148.705
X133.726Y148.667
X133.734Y148.629
X133.74Y148.591
X133.745Y148.552
X133.749Y148.515
X133.753Y148.477
X133.755Y148.44
X133.757Y148.403
X133.758Y148.365
X133.757Y148.328
X133.756Y148.29
X133.755Y148.253
X133.752Y148.216
X133.748Y148.179
X133.744Y148.141
X133.738Y148.104
X133.658Y147.599
X133.65Y147.553
X133.641Y147.507
X133.63Y147.461
X133.618Y147.416
X133.482Y146.934
X133.469Y146.889
X133.454Y146.844
X133.438Y146.799
X133.42Y146.755
X133.226Y146.287
X133.208Y146.245
X133.188Y146.203
X133.167Y146.162
X133.145Y146.121
X132.895Y145.673
X132.871Y145.633
X132.846Y145.593
X132.821Y145.554
X132.794Y145.515
X132.491Y145.098
X132.462Y145.059
X132.431Y145.021
X132.4Y144.984
X132.368Y144.948
X132.016Y144.571
X131.983Y144.536
X131.949Y144.503
X131.914Y144.47
X131.878Y144.439
X131.485Y144.108
X131.449Y144.078
X131.412Y144.049
X131.374Y144.022
X131.335Y143.995
X130.888Y143.701
X130.674Y143.565
X130.522Y143.449
X130.38Y143.322
X130.261Y143.195
X130.079Y142.954
X129.937Y142.707
X129.827Y142.444
X129.752Y142.169
X129.712Y141.887
X129.707Y141.602
X129.739Y141.318
X129.806Y141.041
X129.908Y140.775
X130.042Y140.523
X130.207Y140.291
X130.4Y140.081
X130.618Y139.897
X130.872Y139.733
X131.026Y139.655
X131.195Y139.587
X131.388Y139.526
X131.661Y139.466
X132.155Y139.348
X132.2Y139.337
X132.245Y139.324
X132.29Y139.31
X132.334Y139.294
X132.816Y139.117
X132.861Y139.1
X132.905Y139.082
X132.948Y139.062
X132.991Y139.041
X133.451Y138.806
X133.493Y138.783
X133.536Y138.759
X133.577Y138.734
X133.617Y138.708
X134.045Y138.419
X134.083Y138.392
X134.121Y138.364
X134.158Y138.335
X134.194Y138.305
X134.582Y137.97
X134.617Y137.939
X134.651Y137.908
X134.683Y137.875
X134.715Y137.841
X135.058Y137.468
X135.089Y137.433
X135.12Y137.397
X135.149Y137.36
X135.177Y137.322
X135.47Y136.915
X135.496Y136.877
X135.522Y136.837
X135.547Y136.797
X135.57Y136.757
X135.818Y136.309
X135.836Y136.276
X135.853Y136.243
X135.869Y136.209
X135.884Y136.175
X135.899Y136.14
X135.913Y136.106
X135.926Y136.07
X135.938Y136.035
X135.949Y135.999
X135.959Y135.963
X135.969Y135.927
X135.978Y135.89
X135.986Y135.853
X135.993Y135.815
X135.999Y135.777
X136.005Y135.738
X136.009Y135.7
X136.012Y135.661
X136.015Y135.623
X136.017Y135.584
Y135.546
Y135.507
X136.016Y135.468
X136.014Y135.43
X136.01Y135.391
X136.006Y135.353
X136Y135.307
X135.993Y135.262
X135.75Y133.883
X135.743Y133.845
X135.735Y133.807
X135.726Y133.77
X135.716Y133.732
X135.705Y133.695
X135.693Y133.659
X135.681Y133.622
X135.667Y133.586
X135.653Y133.55
X135.638Y133.514
X135.621Y133.479
X135.605Y133.445
X135.587Y133.41
X135.568Y133.376
X135.548Y133.342
X135.528Y133.31
X135.507Y133.277
X135.485Y133.245
X135.463Y133.214
X135.439Y133.183
X135.415Y133.153
X135.391Y133.123
X135.365Y133.094
X135.339Y133.066
X135.312Y133.038
X135.284Y133.011
X135.256Y132.985
X135.227Y132.959
X134.841Y132.623
X134.805Y132.593
X134.769Y132.564
X134.731Y132.535
X134.693Y132.508
X134.279Y132.227
X134.239Y132.201
X134.199Y132.176
X134.158Y132.152
X134.116Y132.13
X133.667Y131.896
X133.626Y131.875
X133.584Y131.856
X133.541Y131.838
X133.498Y131.821
X133.018Y131.639
X132.974Y131.623
X132.93Y131.608
X132.885Y131.595
X132.84Y131.583
X132.339Y131.457
X132.292Y131.446
X132.244Y131.437
X132.196Y131.429
X132.148Y131.422
X131.637Y131.359
X131.589Y131.354
X131.541Y131.35
X131.494Y131.348
X131.446Y131.347
X130.933Y131.345
X130.886Y131.346
X130.839Y131.348
X130.792Y131.351
X130.745Y131.356
X130.213Y131.417
X129.962Y131.451
X129.771Y131.46
X129.58Y131.454
X129.408Y131.433
X129.114Y131.366
X128.846Y131.267
X128.593Y131.136
X128.358Y130.974
X128.146Y130.784
X127.959Y130.568
X127.802Y130.331
X127.675Y130.076
X127.582Y129.806
X127.523Y129.527
X127.5Y129.243
X127.513Y128.958
X127.562Y128.677
X127.65Y128.389
X127.719Y128.229
X127.808Y128.06
X127.911Y127.9
X128.083Y127.677
X128.386Y127.269
X128.413Y127.231
X128.44Y127.192
X128.465Y127.153
X128.489Y127.112
X128.744Y126.667
X128.767Y126.625
X128.789Y126.583
X128.81Y126.54
X128.829Y126.496
X129.03Y126.021
X129.048Y125.976
X129.065Y125.93
X129.081Y125.884
X129.095Y125.838
X129.237Y125.342
X129.249Y125.297
X129.26Y125.251
X129.269Y125.206
X129.277Y125.16
X129.36Y124.653
X129.367Y124.607
X129.372Y124.561
X129.376Y124.515
X129.379Y124.469
X129.401Y123.962
X129.403Y123.915
Y123.868
X129.401Y123.821
X129.398Y123.774
X129.361Y123.274
X129.357Y123.228
X129.352Y123.181
X129.345Y123.135
X129.336Y123.088
X129.239Y122.586
X129.231Y122.549
X129.223Y122.513
X129.213Y122.477
X129.203Y122.441
X129.192Y122.405
X129.18Y122.369
X129.168Y122.334
X129.154Y122.299
X129.14Y122.265
X129.125Y122.231
X129.109Y122.197
X129.092Y122.163
X129.074Y122.129
X129.055Y122.095
X129.035Y122.062
X129.015Y122.029
X128.993Y121.997
X128.971Y121.965
X128.948Y121.934
X128.925Y121.903
X128.901Y121.873
X128.876Y121.844
X128.85Y121.815
X128.823Y121.787
X128.796Y121.759
X128.768Y121.732
X128.734Y121.701
X128.7Y121.671
X127.627Y120.771
X127.597Y120.747
X127.567Y120.723
X127.536Y120.7
X127.504Y120.678
X127.472Y120.657
X127.439Y120.636
X127.406Y120.616
X127.373Y120.597
X127.339Y120.579
X127.304Y120.561
X127.269Y120.545
X127.234Y120.529
X127.198Y120.514
X127.162Y120.5
X127.125Y120.487
X127.089Y120.475
X127.052Y120.463
X127.014Y120.453
X126.977Y120.443
X126.939Y120.435
X126.901Y120.427
X126.863Y120.42
X126.825Y120.415
X126.787Y120.41
X126.748Y120.406
X126.71Y120.403
X126.671Y120.401
X126.633Y120.399
X126.121Y120.39
X126.074
X126.027Y120.391
X125.98Y120.394
X125.934Y120.398
X125.435Y120.448
X125.388Y120.454
X125.342Y120.46
X125.295Y120.469
X125.249Y120.478
X124.754Y120.588
X124.709Y120.599
X124.665Y120.611
X124.62Y120.624
X124.576Y120.639
X124.092Y120.808
X124.048Y120.824
X124.004Y120.841
X123.961Y120.86
X123.919Y120.88
X123.455Y121.106
X123.412Y121.128
X123.369Y121.151
X123.327Y121.175
X123.286Y121.201
X122.853Y121.482
X122.814Y121.508
X122.775Y121.536
X122.737Y121.565
X122.7Y121.595
X122.306Y121.924
X122.27Y121.954
X122.235Y121.986
X122.201Y122.019
X122.169Y122.052
X121.801Y122.442
X121.63Y122.629
X121.49Y122.759
X121.339Y122.876
X121.194Y122.971
X120.925Y123.109
X120.657Y123.205
X120.379Y123.268
X120.095Y123.294
X119.81Y123.285
X119.529Y123.24
X119.255Y123.159
X118.994Y123.045
X118.749Y122.899
X118.525Y122.723
X118.324Y122.52
X118.151Y122.293
X118.008Y122.047
X117.891Y121.769
X117.84Y121.603
X117.801Y121.416
X117.777Y121.227
X117.765Y120.945
X117.735Y120.438
X117.731Y120.392
X117.726Y120.345
X117.72Y120.298
X117.712Y120.252
X117.622Y119.747
X117.613Y119.7
X117.602Y119.653
X117.59Y119.607
X117.577Y119.561
X117.426Y119.068
X117.411Y119.022
X117.394Y118.976
X117.377Y118.931
X117.358Y118.887
X117.148Y118.415
X117.128Y118.373
X117.107Y118.331
X117.085Y118.29
X117.061Y118.249
X116.799Y117.808
X116.775Y117.769
X116.749Y117.73
X116.723Y117.692
X116.695Y117.655
X116.387Y117.253
X116.358Y117.216
X116.327Y117.179
X116.296Y117.144
X116.263Y117.11
X115.914Y116.751
X115.881Y116.718
X115.846Y116.686
X115.811Y116.655
X115.775Y116.625
X115.378Y116.303
X115.347Y116.279
X115.316Y116.256
X115.285Y116.233
X115.253Y116.212
X115.22Y116.191
X115.187Y116.171
X115.154Y116.151
X115.12Y116.133
X115.086Y116.115
X115.051Y116.099
X115.016Y116.083
X114.98Y116.067
X114.944Y116.053
X114.907Y116.04
X114.871Y116.027
X114.834Y116.016
X114.797Y116.005
X114.759Y115.995
X114.722Y115.986
X114.684Y115.979
X114.646Y115.972
X114.608Y115.965
X114.569Y115.96
X114.531Y115.956
X114.492Y115.953
X114.454Y115.95
X114.415Y115.949
X114.377
X112.977
X112.931
X112.885Y115.951
X112.846Y115.954
X112.808Y115.958
X112.769Y115.962
X112.731Y115.968
X112.693Y115.974
X112.655Y115.981
X112.617Y115.99
X112.58Y115.999
X112.543Y116.009
X112.505Y116.02
X112.469Y116.032
X112.432Y116.045
X112.396Y116.058
X112.36Y116.073
X112.326Y116.088
X112.292Y116.104
X112.258Y116.12
X112.225Y116.137
X112.192Y116.156
X112.16Y116.174
X112.128Y116.194
X112.096Y116.214
X112.066Y116.235
X112.035Y116.257
X112.005Y116.28
X111.976Y116.303
X111.578Y116.625
X111.542Y116.655
X111.507Y116.686
X111.473Y116.718
X111.439Y116.751
X111.09Y117.11
X111.057Y117.144
X111.026Y117.18
X110.996Y117.216
X110.966Y117.253
X110.658Y117.655
X110.631Y117.692
X110.604Y117.73
X110.579Y117.769
X110.554Y117.808
X110.292Y118.249
X110.268Y118.29
X110.246Y118.331
X110.225Y118.373
X110.206Y118.415
X109.996Y118.887
X109.977Y118.931
X109.959Y118.976
X109.943Y119.022
X109.928Y119.068
X109.776Y119.561
X109.763Y119.607
X109.751Y119.653
X109.741Y119.7
X109.732Y119.747
X109.641Y120.252
X109.633Y120.298
X109.627Y120.345
X109.622Y120.392
X109.619Y120.438
X109.587Y120.973
X109.576Y121.227
X109.553Y121.416
X109.513Y121.602
X109.463Y121.769
X109.345Y122.047
X109.202Y122.293
X109.029Y122.52
X108.828Y122.723
X108.604Y122.899
X108.359Y123.045
X108.098Y123.159
G0Z1
X112.851Y137.35
G1Z-0.4F50
X113.039Y137.235F100
X113.243Y137.151
X113.457Y137.099
X113.677Y137.082
X113.896Y137.099
X114.11Y137.151
X114.314Y137.235
X114.502Y137.35
X114.669Y137.493
X114.813Y137.661
X114.928Y137.848
X115.012Y138.052
X115.063Y138.266
X115.081Y138.486
X115.063Y138.706
X115.012Y138.92
X114.928Y139.123
X114.813Y139.311
X114.669Y139.479
X114.502Y139.622
X114.314Y139.737
X114.11Y139.821
X113.896Y139.873
X113.677Y139.89
X113.457Y139.873
X113.243Y139.821
X113.039Y139.737
X112.851Y139.622
X112.684Y139.479
X112.541Y139.311
X112.426Y139.123
X112.341Y138.92
X112.29Y138.706
X112.272Y138.486
X112.29Y138.266
X112.341Y138.052
X112.426Y137.848
X112.541Y137.661
X112.684Y137.493
X112.851Y137.35
G0Z1
X108.098Y123.159
G1Z-0.4F50
X107.825Y123.24F100
X107.543Y123.285
X107.258Y123.294
X106.974Y123.268
X106.696Y123.205
X106.428Y123.109
X106.159Y122.971
X106.014Y122.876
X105.863Y122.759
X105.724Y122.629
X105.533Y122.421
X105.184Y122.052
X105.152Y122.019
X105.118Y121.986
X105.083Y121.954
X105.048Y121.924
X104.653Y121.595
X104.616Y121.565
X104.578Y121.536
X104.54Y121.508
X104.5Y121.482
X104.067Y121.201
X104.026Y121.175
X103.984Y121.151
X103.941Y121.128
X103.898Y121.106
X103.434Y120.88
X103.392Y120.86
X103.349Y120.841
X103.306Y120.824
X103.262Y120.808
X102.777Y120.639
X102.733Y120.624
X102.689Y120.611
X102.644Y120.599
X102.599Y120.588
X102.104Y120.478
X102.058Y120.469
X102.012Y120.46
X101.965Y120.454
X101.918Y120.448
X101.42Y120.398
X101.373Y120.394
X101.326Y120.391
X101.279Y120.39
X101.232
X100.72Y120.399
X100.682Y120.401
X100.643Y120.403
X100.605Y120.406
X100.566Y120.41
X100.528Y120.415
X100.49Y120.42
X100.452Y120.427
X100.414Y120.435
X100.376Y120.443
X100.339Y120.453
X100.302Y120.463
X100.265Y120.475
X100.228Y120.487
X100.191Y120.5
X100.155Y120.514
X100.119Y120.529
X100.084Y120.545
X100.049Y120.561
X100.015Y120.579
X99.981Y120.597
X99.947Y120.616
X99.914Y120.636
X99.881Y120.656
X99.849Y120.678
X99.818Y120.7
X99.786Y120.723
X99.756Y120.747
X99.726Y120.771
X98.654Y121.671
X98.619Y121.701
X98.585Y121.732
X98.557Y121.759
X98.53Y121.787
X98.504Y121.815
X98.478Y121.844
X98.453Y121.873
X98.428Y121.903
X98.405Y121.934
X98.382Y121.965
X98.36Y121.997
X98.339Y122.029
X98.318Y122.062
X98.298Y122.095
X98.279Y122.128
X98.261Y122.163
X98.244Y122.197
X98.229Y122.23
X98.213Y122.265
X98.199Y122.299
X98.186Y122.334
X98.173Y122.369
X98.161Y122.405
X98.15Y122.441
X98.14Y122.477
X98.131Y122.513
X98.122Y122.549
X98.115Y122.586
X98.017Y123.088
X98.009Y123.134
X98.002Y123.181
X97.996Y123.228
X97.992Y123.274
X97.955Y123.774
X97.952Y123.821
X97.951Y123.868
Y123.915
X97.952Y123.963
X97.975Y124.469
X97.977Y124.515
X97.981Y124.561
X97.987Y124.607
X97.994Y124.653
X98.076Y125.159
X98.084Y125.205
X98.094Y125.251
X98.104Y125.297
X98.117Y125.342
X98.259Y125.838
X98.273Y125.884
X98.288Y125.93
X98.305Y125.976
X98.323Y126.021
X98.524Y126.496
X98.543Y126.539
X98.564Y126.583
X98.586Y126.625
X98.609Y126.667
X98.865Y127.112
X98.889Y127.153
X98.914Y127.192
X98.94Y127.231
X98.967Y127.269
X99.287Y127.699
X99.442Y127.9
X99.545Y128.06
X99.635Y128.229
X99.703Y128.389
X99.792Y128.677
X99.84Y128.958
X99.853Y129.243
X99.83Y129.527
X99.772Y129.806
X99.678Y130.075
X99.552Y130.331
X99.394Y130.568
X99.207Y130.784
X98.995Y130.974
X98.76Y131.136
X98.507Y131.267
X98.239Y131.366
X97.945Y131.433
X97.773Y131.454
X97.582Y131.46
X97.392Y131.451
X97.112Y131.414
X96.608Y131.356
X96.561Y131.351
X96.514Y131.348
X96.468Y131.346
X96.421Y131.345
X95.907Y131.347
X95.86
X95.812Y131.35
X95.764Y131.353
X95.717Y131.359
X95.205Y131.422
X95.166Y131.427
X95.128Y131.433
X95.09Y131.44
X95.052Y131.448
X95.014Y131.457
X94.514Y131.582
X94.468Y131.594
X94.423Y131.608
X94.379Y131.622
X94.335Y131.638
X93.855Y131.82
X93.812Y131.837
X93.77Y131.856
X93.728Y131.875
X93.686Y131.896
X93.237Y132.13
X93.195Y132.152
X93.154Y132.176
X93.114Y132.2
X93.074Y132.226
X92.661Y132.508
X92.622Y132.535
X92.585Y132.563
X92.548Y132.593
X92.512Y132.623
X92.126Y132.959
X92.097Y132.985
X92.069Y133.011
X92.041Y133.038
X92.014Y133.066
X91.988Y133.094
X91.963Y133.123
X91.938Y133.153
X91.914Y133.183
X91.89Y133.214
X91.868Y133.245
X91.846Y133.277
X91.825Y133.309
X91.805Y133.342
X91.785Y133.376
X91.767Y133.41
X91.749Y133.444
X91.732Y133.479
X91.716Y133.514
X91.7Y133.55
X91.686Y133.586
X91.673Y133.622
X91.66Y133.658
X91.648Y133.695
X91.637Y133.732
X91.628Y133.77
X91.619Y133.807
X91.61Y133.845
X91.603Y133.883
X91.36Y135.262
X91.353Y135.307
X91.347Y135.353
X91.343Y135.391
X91.34Y135.43
X91.337Y135.468
X91.336Y135.507
Y135.545
X91.337Y135.584
X91.338Y135.623
X91.341Y135.661
X91.344Y135.7
X91.349Y135.738
X91.354Y135.776
X91.36Y135.814
X91.367Y135.852
X91.376Y135.891
X91.384Y135.927
X91.394Y135.963
X91.404Y135.999
X91.416Y136.035
X91.428Y136.07
X91.441Y136.105
X91.454Y136.14
X91.469Y136.175
X91.484Y136.209
X91.5Y136.242
X91.517Y136.276
X91.535Y136.309
X91.783Y136.756
X91.806Y136.797
X91.831Y136.837
X91.857Y136.877
X91.884Y136.915
X92.176Y137.321
X92.204Y137.359
X92.234Y137.397
X92.264Y137.433
X92.295Y137.468
X92.638Y137.841
X92.67Y137.875
X92.703Y137.908
X92.736Y137.939
X92.771Y137.97
X93.159Y138.305
X93.195Y138.335
X93.232Y138.364
X93.27Y138.392
X93.308Y138.419
X93.736Y138.708
X93.776Y138.734
X93.818Y138.759
X93.86Y138.783
X93.903Y138.806
X94.362Y139.041
X94.405Y139.062
X94.448Y139.082
X94.492Y139.1
X94.537Y139.117
X95.019Y139.294
X95.063Y139.31
X95.108Y139.324
X95.153Y139.337
X95.198Y139.348
X95.72Y139.472
X95.968Y139.527
X96.15Y139.583
X96.327Y139.655
X96.482Y139.733
X96.735Y139.897
X96.953Y140.081
X97.146Y140.291
X97.311Y140.523
X97.445Y140.775
X97.547Y141.041
X97.614Y141.318
X97.646Y141.601
X97.641Y141.887
X97.601Y142.169
X97.526Y142.444
X97.416Y142.707
X97.274Y142.954
X97.092Y143.195
X96.973Y143.322
X96.831Y143.449
X96.68Y143.565
X96.442Y143.716
X96.018Y143.995
X95.979Y144.022
X95.941Y144.049
X95.904Y144.078
X95.868Y144.108
X95.475Y144.439
X95.439Y144.47
X95.404Y144.503
X95.37Y144.536
X95.337Y144.57
X94.986Y144.948
X94.953Y144.984
X94.922Y145.021
X94.891Y145.059
X94.862Y145.098
X94.559Y145.515
X94.532Y145.554
X94.507Y145.593
X94.482Y145.632
X94.459Y145.673
X94.208Y146.121
X94.186Y146.162
X94.165Y146.203
X94.146Y146.245
X94.127Y146.287
X93.933Y146.755
X93.915Y146.799
X93.899Y146.844
X93.884Y146.888
X93.871Y146.934
X93.735Y147.416
X93.723Y147.461
X93.712Y147.507
X93.703Y147.553
X93.695Y147.599
X93.615Y148.104
X93.61Y148.141
X93.605Y148.179
X93.601Y148.216
X93.599Y148.253
X93.597Y148.291
X93.596Y148.328
Y148.365
Y148.403
X93.598Y148.44
X93.6Y148.477
X93.604Y148.515
X93.608Y148.552
X93.613Y148.591
X93.62Y148.629
X93.627Y148.667
X93.635Y148.705
X93.644Y148.742
X93.654Y148.779
X93.665Y148.817
X93.676Y148.853
X93.689Y148.89
X93.702Y148.926
X93.717Y148.962
X93.732Y148.997
X93.748Y149.033
X93.765Y149.067
X93.786Y149.108
X93.809Y149.148
X94.509Y150.361
X94.528Y150.394
X94.549Y150.427
X94.57Y150.459
X94.592Y150.491
X94.615Y150.522
X94.639Y150.552
X94.663Y150.582
X94.688Y150.612
X94.714Y150.641
X94.74Y150.669
X94.768Y150.696
X94.795Y150.723
X94.824Y150.749
X94.853Y150.775
X94.883Y150.8
X94.913Y150.824
X94.944Y150.847
X94.976Y150.87
X95.007Y150.891
X95.04Y150.912
X95.073Y150.932
X95.106Y150.952
X95.14Y150.97
X95.174Y150.988
X95.209Y151.005
X95.244Y151.021
X95.28Y151.036
X95.316Y151.05
X95.793Y151.234
X95.838Y151.25
X95.882Y151.265
X95.927Y151.279
X95.972Y151.291
X96.458Y151.414
X96.504Y151.425
X96.55Y151.435
X96.597Y151.443
X96.643Y151.45
X97.145Y151.515
X97.191Y151.521
X97.238Y151.525
X97.284Y151.527
X97.33Y151.529
X97.843Y151.536
X97.89
X97.937Y151.534
X97.984Y151.531
X98.03Y151.527
X98.544Y151.473
X98.592Y151.468
X98.64Y151.46
X98.687Y151.452
X98.735Y151.442
X99.237Y151.326
X99.284Y151.315
X99.33Y151.302
X99.375Y151.288
X99.421Y151.272
X99.903Y151.098
X99.947Y151.081
X99.991Y151.063
X100.034Y151.044
X100.076Y151.024
X100.555Y150.784
X100.78Y150.666
X100.955Y150.592
X101.137Y150.533
X101.306Y150.494
X101.606Y150.457
X101.891
X102.174Y150.494
X102.449Y150.566
X102.714Y150.672
X102.963Y150.811
X103.193Y150.98
X103.399Y151.177
X103.579Y151.398
X103.729Y151.64
X103.848Y151.899
X103.934Y152.171
X103.984Y152.452
X103.999Y152.754
X103.989Y152.927
X103.963Y153.116
X103.921Y153.302
X103.836Y153.571
X103.691Y154.057
X103.678Y154.102
X103.667Y154.148
X103.656Y154.194
X103.648Y154.24
X103.56Y154.746
X103.553Y154.793
X103.547Y154.84
X103.542Y154.888
X103.539Y154.935
X103.512Y155.45
X103.51Y155.499
Y155.547
X103.511Y155.596
X103.514Y155.644
X103.55Y156.159
X103.554Y156.206
X103.56Y156.252
X103.566Y156.299
X103.574Y156.345
X103.67Y156.849
X103.68Y156.894
X103.69Y156.939
X103.702Y156.984
X103.716Y157.028
X103.867Y157.512
X103.882Y157.556
X103.899Y157.601
X103.916Y157.645
X103.935Y157.688
X104.14Y158.145
X104.16Y158.187
X104.182Y158.229
X104.204Y158.27
X104.227Y158.311
X104.491Y158.75
X104.511Y158.781
X104.531Y158.813
X104.552Y158.844
X104.574Y158.874
X104.597Y158.904
X104.62Y158.933
X104.644Y158.962
X104.669Y158.99
X104.694Y159.018
X104.72Y159.045
X104.746Y159.071
X104.774Y159.097
X104.803Y159.123
X104.832Y159.148
X104.862Y159.173
X104.892Y159.196
X104.923Y159.219
X104.955Y159.242
X104.987Y159.263
X105.02Y159.284
X105.053Y159.304
X105.086Y159.323
X105.12Y159.341
X105.155Y159.358
X105.19Y159.375
X105.225Y159.391
X105.268Y159.408
X105.31Y159.425
X106.626Y159.903
X106.663Y159.916
X106.699Y159.928
X106.736Y159.939
X106.774Y159.949
X106.811Y159.958
X106.849Y159.967
X106.887Y159.974
X106.925Y159.98
X106.963Y159.986
X107.002Y159.99
X107.04Y159.994
X107.079Y159.997
X107.117Y159.998
X107.156Y159.999
X107.195
X107.234Y159.998
X107.272Y159.996
X107.311Y159.993
X107.349Y159.989
X107.388Y159.985
X107.426Y159.979
X107.464Y159.972
X107.502Y159.965
X107.539Y159.956
X107.577Y159.947
X107.614Y159.936
X107.651Y159.925
X107.688Y159.913
X108.172Y159.746
X108.216Y159.731
X108.26Y159.713
X108.303Y159.695
X108.345Y159.675
X108.796Y159.458
X108.838Y159.436
X108.88Y159.414
X108.921Y159.39
X108.961Y159.366
X109.388Y159.093
X109.427Y159.068
X109.465Y159.041
X109.502Y159.013
X109.538Y158.984
X109.936Y158.66
X109.972Y158.63
X110.007Y158.599
X110.04Y158.566
X110.073Y158.533
X110.432Y158.162
X110.465Y158.127
X110.497Y158.091
X110.528Y158.053
X110.558Y158.015
X110.869Y157.603
X110.897Y157.565
X110.924Y157.525
X110.95Y157.485
X110.975Y157.444
X111.233Y157.001
X111.256Y156.96
X111.277Y156.918
X111.298Y156.876
X111.317Y156.833
X111.53Y156.341
X111.627Y156.106
X111.713Y155.937
X111.815Y155.775
X111.919Y155.636
X112.124Y155.415
X112.343Y155.232
X112.583Y155.079
X112.841Y154.957
X113.112Y154.868
X113.392Y154.814
X113.677Y154.796
X113.961Y154.814
X114.241Y154.868
X114.512Y154.957
X114.77Y155.079
X115.01Y155.232
X115.229Y155.415
X115.434Y155.636
X115.538Y155.775
X115.639Y155.937
X115.727Y156.107
X115.834Y156.367
X116.036Y156.833
X116.055Y156.876
X116.076Y156.918
X116.097Y156.96
X116.12Y157.001
X116.378Y157.444
X116.403Y157.485
X116.429Y157.525
X116.456Y157.565
X116.484Y157.603
X116.795Y158.015
X116.825Y158.053
X116.856Y158.091
X116.888Y158.127
X116.921Y158.162
X117.28Y158.533
X117.313Y158.566
X117.347Y158.599
X117.381Y158.63
X117.417Y158.66
X117.815Y158.984
X117.851Y159.013
X117.888Y159.041
X117.926Y159.068
X117.965Y159.093
X118.392Y159.366
X118.432Y159.39
X118.473Y159.414
X118.515Y159.436
X118.557Y159.458
X119.008Y159.675
X119.05Y159.695
X119.094Y159.713
X119.137Y159.731
X119.181Y159.747
X119.665Y159.913
X119.702Y159.925
X119.739Y159.936
X119.776Y159.947
X119.814Y159.956
X119.851Y159.965
X119.889Y159.972
X119.927Y159.979
X119.965Y159.985
X120.004Y159.989
X120.042Y159.993
X120.081Y159.996
X120.119Y159.998
X120.158Y159.999
X120.197
X120.236
X120.274Y159.997
X120.313Y159.994
X120.351Y159.99
X120.39Y159.986
X120.428Y159.98
X120.466Y159.974
X120.504Y159.967
X120.542Y159.958
X120.579Y159.949
X120.617Y159.939
X120.654Y159.928
X120.69Y159.916
X120.727Y159.904
X122.043Y159.425
X122.086Y159.408
X122.128Y159.391
X122.163Y159.375
X122.198Y159.358
X122.233Y159.341
X122.267Y159.323
X122.3Y159.304
X122.334Y159.284
X122.366Y159.263
X122.398Y159.242
X122.43Y159.219
X122.461Y159.196
X122.491Y159.173
X122.521Y159.148
X122.551Y159.123
X122.58Y159.097
X122.607Y159.071
X122.633Y159.045
X122.659Y159.018
X122.684Y158.99
X122.709Y158.962
X122.733Y158.933
X122.756Y158.904
X122.779Y158.874
X122.801Y158.844
X122.822Y158.813
X122.842Y158.781
X122.862Y158.75
X123.126Y158.311
X123.149Y158.27
X123.172Y158.229
X123.193Y158.187
X123.213Y158.145
X123.418Y157.688
X123.437Y157.645
X123.455Y157.601
X123.471Y157.556
X123.486Y157.511
X123.637Y157.028
X123.651Y156.984
X123.663Y156.939
X123.673Y156.894
X123.683Y156.849
X123.779Y156.345
X123.787Y156.299
X123.793Y156.252
X123.799Y156.206
X123.803Y156.159
X123.839Y155.644
X123.842Y155.596
X123.843Y155.547
Y155.499
X123.841Y155.451
X123.814Y154.935
X123.811Y154.888
X123.806Y154.84
X123.8Y154.793
X123.793Y154.746
X123.705Y154.24
X123.697Y154.194
X123.687Y154.148
X123.675Y154.102
X123.662Y154.057
X123.509Y153.544
X123.432Y153.302
X123.39Y153.116
X123.364Y152.927
X123.354Y152.754
X123.369Y152.452
X123.42Y152.171
X123.505Y151.899
X123.624Y151.64
X123.774Y151.398
X123.954Y151.177
X124.161Y150.98
X124.39Y150.811
X124.639Y150.672
X124.904Y150.566
X125.18Y150.494
X125.462Y150.457
X125.747
X126.047Y150.494
X126.216Y150.534
X126.398Y150.593
X126.573Y150.666
X126.823Y150.797
X127.277Y151.024
X127.319Y151.044
X127.362Y151.064
X127.406Y151.081
X127.45Y151.098
X127.933Y151.272
X127.978Y151.288
X128.023Y151.302
X128.069Y151.315
X128.116Y151.326
X128.618Y151.442
X128.666Y151.452
X128.714Y151.461
X128.762Y151.468
X128.81Y151.474
X129.323Y151.527
X129.369Y151.531
X129.416Y151.534
X129.463Y151.536
X129.51
X130.023Y151.529
X130.069Y151.527
X130.115Y151.525
X130.162Y151.521
X130.208Y151.515
X130.71Y151.45
X130.757Y151.443
X130.803Y151.435
X130.849Y151.425
X130.895Y151.414
X131.381Y151.291
X131.426Y151.279
X131.471Y151.265
X131.516Y151.25
X131.56Y151.234
X132.037Y151.051
X132.073Y151.036
X132.109Y151.021
X132.144Y151.005
X132.179Y150.988
X132.213Y150.97
X132.247Y150.952
X132.28Y150.933
X132.313Y150.912
X132.346Y150.891
X132.378Y150.87
X132.409Y150.847
X132.44Y150.824
X132.47Y150.8
X132.5Y150.775
X132.529Y150.749
X132.558Y150.723
X132.586Y150.696
X132.613Y150.669
X132.639Y150.641
X132.665Y150.612
X132.69Y150.583
X132.714Y150.553
X132.738Y150.522
X132.761Y150.491
X132.783Y150.459
X132.804Y150.427
X132.825Y150.394
X132.844Y150.361
X133.544Y149.148
X133.567Y149.108
X133.588Y149.067
X133.605Y149.033
X133.621Y148.998
X133.636Y148.962
X133.651Y148.926
X133.664Y148.89
X133.677Y148.853
X133.689Y148.817
X133.699Y148.78
X133.709Y148.742
X133.718Y148.705
X133.726Y148.667
X133.734Y148.629
X133.74Y148.591
X133.745Y148.552
X133.749Y148.515
X133.753Y148.477
X133.755Y148.44
X133.757Y148.403
X133.758Y148.365
X133.757Y148.328
X133.756Y148.29
X133.755Y148.253
X133.752Y148.216
X133.748Y148.179
X133.744Y148.141
X133.738Y148.104
X133.658Y147.599
X133.65Y147.553
X133.641Y147.507
X133.63Y147.461
X133.618Y147.416
X133.482Y146.934
X133.469Y146.889
X133.454Y146.844
X133.438Y146.799
X133.42Y146.755
X133.226Y146.287
X133.208Y146.245
X133.188Y146.203
X133.167Y146.162
X133.145Y146.121
X132.895Y145.673
X132.871Y145.633
X132.846Y145.593
X132.821Y145.554
X132.794Y145.515
X132.491Y145.098
X132.462Y145.059
X132.431Y145.021
X132.4Y144.984
X132.368Y144.948
X132.016Y144.571
X131.983Y144.536
X131.949Y144.503
X131.914Y144.47
X131.878Y144.439
X131.485Y144.108
X131.449Y144.078
X131.412Y144.049
X131.374Y144.022
X131.335Y143.995
X130.888Y143.701
X130.674Y143.565
X130.522Y143.449
X130.38Y143.322
X130.261Y143.195
X130.079Y142.954
X129.937Y142.707
X129.827Y142.444
X129.752Y142.169
X129.712Y141.887
X129.707Y141.602
X129.739Y141.318
X129.806Y141.041
X129.908Y140.775
X130.042Y140.523
X130.207Y140.291
X130.4Y140.081
X130.618Y139.897
X130.872Y139.733
X131.026Y139.655
X131.195Y139.587
X131.388Y139.526
X131.661Y139.466
X132.155Y139.348
X132.2Y139.337
X132.245Y139.324
X132.29Y139.31
X132.334Y139.294
X132.816Y139.117
X132.861Y139.1
X132.905Y139.082
X132.948Y139.062
X132.991Y139.041
X133.451Y138.806
X133.493Y138.783
X133.536Y138.759
X133.577Y138.734
X133.617Y138.708
X134.045Y138.419
X134.083Y138.392
X134.121Y138.364
X134.158Y138.335
X134.194Y138.305
X134.582Y137.97
X134.617Y137.939
X134.651Y137.908
X134.683Y137.875
X134.715Y137.841
X135.058Y137.468
X135.089Y137.433
X135.12Y137.397
X135.149Y137.36
X135.177Y137.322
X135.47Y136.915
X135.496Y136.877
X135.522Y136.837
X135.547Y136.797
X135.57Y136.757
X135.818Y136.309
X135.836Y136.276
X135.853Y136.243
X135.869Y136.209
X135.884Y136.175
X135.899Y136.14
X135.913Y136.106
X135.926Y136.07
X135.938Y136.035
X135.949Y135.999
X135.959Y135.963
X135.969Y135.927
X135.978Y135.89
X135.986Y135.853
X135.993Y135.815
X135.999Y135.777
X136.005Y135.738
X136.009Y135.7
X136.012Y135.661
X136.015Y135.623
X136.017Y135.584
Y135.546
Y135.507
X136.016Y135.468
X136.014Y135.43
X136.01Y135.391
X136.006Y135.353
X136Y135.307
X135.993Y135.262
X135.75Y133.883
X135.743Y133.845
X135.735Y133.807
X135.726Y133.77
X135.716Y133.732
X135.705Y133.695
X135.693Y133.659
X135.681Y133.622
X135.667Y133.586
X135.653Y133.55
X135.638Y133.514
X135.621Y133.479
X135.605Y133.445
X135.587Y133.41
X135.568Y133.376
X135.548Y133.342
X135.528Y133.31
X135.507Y133.277
X135.485Y133.245
X135.463Y133.214
X135.439Y133.183
X135.415Y133.153
X135.391Y133.123
X135.365Y133.094
X135.339Y133.066
X135.312Y133.038
X135.284Y133.011
X135.256Y132.985
X135.227Y132.959
X134.841Y132.623
X134.805Y132.593
X134.769Y132.564
X134.731Y132.535
X134.693Y132.508
X134.279Y132.227
X134.239Y132.201
X134.199Y132.176
X134.158Y132.152
X134.116Y132.13
X133.667Y131.896
X133.626Y131.875
X133.584Y131.856
X133.541Y131.838
X133.498Y131.821
X133.018Y131.639
X132.974Y131.623
X132.93Y131.608
X132.885Y131.595
X132.84Y131.583
X132.339Y131.457
X132.292Y131.446
X132.244Y131.437
X132.196Y131.429
X132.148Y131.422
X131.637Y131.359
X131.589Y131.354
X131.541Y131.35
X131.494Y131.348
X131.446Y131.347
X130.933Y131.345
X130.886Y131.346
X130.839Y131.348
X130.792Y131.351
X130.745Y131.356
X130.213Y131.417
X129.962Y131.451
X129.771Y131.46
X129.58Y131.454
X129.408Y131.433
X129.114Y131.366
X128.846Y131.267
X128.593Y131.136
X128.358Y130.974
X128.146Y130.784
X127.959Y130.568
X127.802Y130.331
X127.675Y130.076
X127.582Y129.806
X127.523Y129.527
X127.5Y129.243
X127.513Y128.958
X127.562Y128.677
X127.65Y128.389
X127.719Y128.229
X127.808Y128.06
X127.911Y127.9
X128.083Y127.677
X128.386Y127.269
X128.413Y127.231
X128.44Y127.192
X128.465Y127.153
X128.489Y127.112
X128.744Y126.667
X128.767Y126.625
X128.789Y126.583
X128.81Y126.54
X128.829Y126.496
X129.03Y126.021
X129.048Y125.976
X129.065Y125.93
X129.081Y125.884
X129.095Y125.838
X129.237Y125.342
X129.249Y125.297
X129.26Y125.251
X129.269Y125.206
X129.277Y125.16
X129.36Y124.653
X129.367Y124.607
X129.372Y124.561
X129.376Y124.515
X129.379Y124.469
X129.401Y123.962
X129.403Y123.915
Y123.868
X129.401Y123.821
X129.398Y123.774
X129.361Y123.274
X129.357Y123.228
X129.352Y123.181
X129.345Y123.135
X129.336Y123.088
X129.239Y122.586
X129.231Y122.549
X129.223Y122.513
X129.213Y122.477
X129.203Y122.441
X129.192Y122.405
X129.18Y122.369
X129.168Y122.334
X129.154Y122.299
X129.14Y122.265
X129.125Y122.231
X129.109Y122.197
X129.092Y122.163
X129.074Y122.129
X129.055Y122.095
X129.035Y122.062
X129.015Y122.029
X128.993Y121.997
X128.971Y121.965
X128.948Y121.934
X128.925Y121.903
X128.901Y121.873
X128.876Y121.844
X128.85Y121.815
X128.823Y121.787
X128.796Y121.759
X128.768Y121.732
X128.734Y121.701
X128.7Y121.671
X127.627Y120.771
X127.597Y120.747
X127.567Y120.723
X127.536Y120.7
X127.504Y120.678
X127.472Y120.657
X127.439Y120.636
X127.406Y120.616
X127.373Y120.597
X127.339Y120.579
X127.304Y120.561
X127.269Y120.545
X127.234Y120.529
X127.198Y120.514
X127.162Y120.5
X127.125Y120.487
X127.089Y120.475
X127.052Y120.463
X127.014Y120.453
X126.977Y120.443
X126.939Y120.435
X126.901Y120.427
X126.863Y120.42
X126.825Y120.415
X126.787Y120.41
X126.748Y120.406
X126.71Y120.403
X126.671Y120.401
X126.633Y120.399
X126.121Y120.39
X126.074
X126.027Y120.391
X125.98Y120.394
X125.934Y120.398
X125.435Y120.448
X125.388Y120.454
X125.342Y120.46
X125.295Y120.469
X125.249Y120.478
X124.754Y120.588
X124.709Y120.599
X124.665Y120.611
X124.62Y120.624
X124.576Y120.639
X124.092Y120.808
X124.048Y120.824
X124.004Y120.841
X123.961Y120.86
X123.919Y120.88
X123.455Y121.106
X123.412Y121.128
X123.369Y121.151
X123.327Y121.175
X123.286Y121.201
X122.853Y121.482
X122.814Y121.508
X122.775Y121.536
X122.737Y121.565
X122.7Y121.595
X122.306Y121.924
X122.27Y121.954
X122.235Y121.986
X122.201Y122.019
X122.169Y122.052
X121.801Y122.442
X121.63Y122.629
X121.49Y122.759
X121.339Y122.876
X121.194Y122.971
X120.925Y123.109
X120.657Y123.205
X120.379Y123.268
X120.095Y123.294
X119.81Y123.285
X119.529Y123.24
X119.255Y123.159
X118.994Y123.045
X118.749Y122.899
X118.525Y122.723
X118.324Y122.52
X118.151Y122.293
X118.008Y122.047
X117.891Y121.769
X117.84Y121.603
X117.801Y121.416
X117.777Y121.227
X117.765Y120.945
X117.735Y120.438
X117.731Y120.392
X117.726Y120.345
X117.72Y120.298
X117.712Y120.252
X117.622Y119.747
X117.613Y119.7
X117.602Y119.653
X117.59Y119.607
X117.577Y119.561
X117.426Y119.068
X117.411Y119.022
X117.394Y118.976
X117.377Y118.931
X117.358Y118.887
X117.148Y118.415
X117.128Y118.373
X117.107Y118.331
X117.085Y118.29
X117.061Y118.249
X116.799Y117.808
X116.775Y117.769
X116.749Y117.73
X116.723Y117.692
X116.695Y117.655
X116.387Y117.253
X116.358Y117.216
X116.327Y117.179
X116.296Y117.144
X116.263Y117.11
X115.914Y116.751
X115.881Y116.718
X115.846Y116.686
X115.811Y116.655
X115.775Y116.625
X115.378Y116.303
X115.347Y116.279
X115.316Y116.256
X115.285Y116.233
X115.253Y116.212
X115.22Y116.191
X115.187Y116.171
X115.154Y116.151
X115.12Y116.133
X115.086Y116.115
X115.051Y116.099
X115.016Y116.083
X114.98Y116.067
X114.944Y116.053
X114.907Y116.04
X114.871Y116.027
X114.834Y116.016
X114.797Y116.005
X114.759Y115.995
X114.722Y115.986
X114.684Y115.979
X114.646Y115.972
X114.608Y115.965
X114.569Y115.96
X114.531Y115.956
X114.492Y115.953
X114.454Y115.95
X114.415Y115.949
X114.377
X112.977
X112.931
X112.885Y115.951
X112.846Y115.954
X112.808Y115.958
X112.769Y115.962
X112.731Y115.968
X112.693Y115.974
X112.655Y115.981
X112.617Y115.99
X112.58Y115.999
X112.543Y116.009
X112.505Y116.02
X112.469Y116.032
X112.432Y116.045
X112.396Y116.058
X112.36Y116.073
X112.326Y116.088
X112.292Y116.104
X112.258Y116.12
X112.225Y116.137
X112.192Y116.156
X112.16Y116.174
X112.128Y116.194
X112.096Y116.214
X112.066Y116.235
X112.035Y116.257
X112.005Y116.28
X111.976Y116.303
X111.578Y116.625
X111.542Y116.655
X111.507Y116.686
X111.473Y116.718
X111.439Y116.751
X111.09Y117.11
X111.057Y117.144
X111.026Y117.18
X110.996Y117.216
X110.966Y117.253
X110.658Y117.655
X110.631Y117.692
X110.604Y117.73
X110.579Y117.769
X110.554Y117.808
X110.292Y118.249
X110.268Y118.29
X110.246Y118.331
X110.225Y118.373
X110.206Y118.415
X109.996Y118.887
X109.977Y118.931
X109.959Y118.976
X109.943Y119.022
X109.928Y119.068
X109.776Y119.561
X109.763Y119.607
X109.751Y119.653
X109.741Y119.7
X109.732Y119.747
X109.641Y120.252
X109.633Y120.298
X109.627Y120.345
X109.622Y120.392
X109.619Y120.438
X109.587Y120.973
X109.576Y121.227
X109.553Y121.416
X109.513Y121.602
X109.463Y121.769
X109.345Y122.047
X109.202Y122.293
X109.029Y122.52
X108.828Y122.723
X108.604Y122.899
X108.359Y123.045
X108.098Y123.159
G0Z1
X112.851Y137.35
G1Z-0.5F50
X113.039Y137.235F100
X113.243Y137.151
X113.457Y137.099
X113.677Y137.082
X113.896Y137.099
X114.11Y137.151
X114.314Y137.235
X114.502Y137.35
X114.669Y137.493
X114.813Y137.661
X114.928Y137.848
X115.012Y138.052
X115.063Y138.266
X115.081Y138.486
X115.063Y138.706
X115.012Y138.92
X114.928Y139.123
X114.813Y139.311
X114.669Y139.479
X114.502Y139.622
X114.314Y139.737
X114.11Y139.821
X113.896Y139.873
X113.677Y139.89
X113.457Y139.873
X113.243Y139.821
X113.039Y139.737
X112.851Y139.622
X112.684Y139.479
X112.541Y139.311
X112.426Y139.123
X112.341Y138.92
X112.29Y138.706
X112.272Y138.486
X112.29Y138.266
X112.341Y138.052
X112.426Y137.848
X112.541Y137.661
X112.684Y137.493
X112.851Y137.35
G0Z1
X108.098Y123.159
G1Z-0.5F50
X107.825Y123.24F100
X107.543Y123.285
X107.258Y123.294
X106.974Y123.268
X106.696Y123.205
X106.428Y123.109
X106.159Y122.971
X106.014Y122.876
X105.863Y122.759
X105.724Y122.629
X105.533Y122.421
X105.184Y122.052
X105.152Y122.019
X105.118Y121.986
X105.083Y121.954
X105.048Y121.924
X104.653Y121.595
X104.616Y121.565
X104.578Y121.536
X104.54Y121.508
X104.5Y121.482
X104.067Y121.201
X104.026Y121.175
X103.984Y121.151
X103.941Y121.128
X103.898Y121.106
X103.434Y120.88
X103.392Y120.86
X103.349Y120.841
X103.306Y120.824
X103.262Y120.808
X102.777Y120.639
X102.733Y120.624
X102.689Y120.611
X102.644Y120.599
X102.599Y120.588
X102.104Y120.478
X102.058Y120.469
X102.012Y120.46
X101.965Y120.454
X101.918Y120.448
X101.42Y120.398
X101.373Y120.394
X101.326Y120.391
X101.279Y120.39
X101.232
X100.72Y120.399
X100.682Y120.401
X100.643Y120.403
X100.605Y120.406
X100.566Y120.41
X100.528Y120.415
X100.49Y120.42
X100.452Y120.427
X100.414Y120.435
X100.376Y120.443
X100.339Y120.453
X100.302Y120.463
X100.265Y120.475
X100.228Y120.487
X100.191Y120.5
X100.155Y120.514
X100.119Y120.529
X100.084Y120.545
X100.049Y120.561
X100.015Y120.579
X99.981Y120.597
X99.947Y120.616
X99.914Y120.636
X99.881Y120.656
X99.849Y120.678
X99.818Y120.7
X99.786Y120.723
X99.756Y120.747
X99.726Y120.771
X98.654Y121.671
X98.619Y121.701
X98.585Y121.732
X98.557Y121.759
X98.53Y121.787
X98.504Y121.815
X98.478Y121.844
X98.453Y121.873
X98.428Y121.903
X98.405Y121.934
X98.382Y121.965
X98.36Y121.997
X98.339Y122.029
X98.318Y122.062
X98.298Y122.095
X98.279Y122.128
X98.261Y122.163
X98.244Y122.197
X98.229Y122.23
X98.213Y122.265
X98.199Y122.299
X98.186Y122.334
X98.173Y122.369
X98.161Y122.405
X98.15Y122.441
X98.14Y122.477
X98.131Y122.513
X98.122Y122.549
X98.115Y122.586
X98.017Y123.088
X98.009Y123.134
X98.002Y123.181
X97.996Y123.228
X97.992Y123.274
X97.955Y123.774
X97.952Y123.821
X97.951Y123.868
Y123.915
X97.952Y123.963
X97.975Y124.469
X97.977Y124.515
X97.981Y124.561
X97.987Y124.607
X97.994Y124.653
X98.076Y125.159
X98.084Y125.205
X98.094Y125.251
X98.104Y125.297
X98.117Y125.342
X98.259Y125.838
X98.273Y125.884
X98.288Y125.93
X98.305Y125.976
X98.323Y126.021
X98.524Y126.496
X98.543Y126.539
X98.564Y126.583
X98.586Y126.625
X98.609Y126.667
X98.865Y127.112
X98.889Y127.153
X98.914Y127.192
X98.94Y127.231
X98.967Y127.269
X99.287Y127.699
X99.442Y127.9
X99.545Y128.06
X99.635Y128.229
X99.703Y128.389
X99.792Y128.677
X99.84Y128.958
X99.853Y129.243
X99.83Y129.527
X99.772Y129.806
X99.678Y130.075
X99.552Y130.331
X99.394Y130.568
X99.207Y130.784
X98.995Y130.974
X98.76Y131.136
X98.507Y131.267
X98.239Y131.366
X97.945Y131.433
X97.773Y131.454
X97.582Y131.46
X97.392Y131.451
X97.112Y131.414
X96.608Y131.356
X96.561Y131.351
X96.514Y131.348
X96.468Y131.346
X96.421Y131.345
X95.907Y131.347
X95.86
X95.812Y131.35
X95.764Y131.353
X95.717Y131.359
X95.205Y131.422
X95.166Y131.427
X95.128Y131.433
X95.09Y131.44
X95.052Y131.448
X95.014Y131.457
X94.514Y131.582
X94.468Y131.594
X94.423Y131.608
X94.379Y131.622
X94.335Y131.638
X93.855Y131.82
X93.812Y131.837
X93.77Y131.856
X93.728Y131.875
X93.686Y131.896
X93.237Y132.13
X93.195Y132.152
X93.154Y132.176
X93.114Y132.2
X93.074Y132.226
X92.661Y132.508
X92.622Y132.535
X92.585Y132.563
X92.548Y132.593
X92.512Y132.623
X92.126Y132.959
X92.097Y132.985
X92.069Y133.011
X92.041Y133.038
X92.014Y133.066
X91.988Y133.094
X91.963Y133.123
X91.938Y133.153
X91.914Y133.183
X91.89Y133.214
X91.868Y133.245
X91.846Y133.277
X91.825Y133.309
X91.805Y133.342
X91.785Y133.376
X91.767Y133.41
X91.749Y133.444
X91.732Y133.479
X91.716Y133.514
X91.7Y133.55
X91.686Y133.586
X91.673Y133.622
X91.66Y133.658
X91.648Y133.695
X91.637Y133.732
X91.628Y133.77
X91.619Y133.807
X91.61Y133.845
X91.603Y133.883
X91.36Y135.262
X91.353Y135.307
X91.347Y135.353
X91.343Y135.391
X91.34Y135.43
X91.337Y135.468
X91.336Y135.507
Y135.545
X91.337Y135.584
X91.338Y135.623
X91.341Y135.661
X91.344Y135.7
X91.349Y135.738
X91.354Y135.776
X91.36Y135.814
X91.367Y135.852
X91.376Y135.891
X91.384Y135.927
X91.394Y135.963
X91.404Y135.999
X91.416Y136.035
X91.428Y136.07
X91.441Y136.105
X91.454Y136.14
X91.469Y136.175
X91.484Y136.209
X91.5Y136.242
X91.517Y136.276
X91.535Y136.309
X91.783Y136.756
X91.806Y136.797
X91.831Y136.837
X91.857Y136.877
X91.884Y136.915
X92.176Y137.321
X92.204Y137.359
X92.234Y137.397
X92.264Y137.433
X92.295Y137.468
X92.638Y137.841
X92.67Y137.875
X92.703Y137.908
X92.736Y137.939
X92.771Y137.97
X93.159Y138.305
X93.195Y138.335
X93.232Y138.364
X93.27Y138.392
X93.308Y138.419
X93.736Y138.708
X93.776Y138.734
X93.818Y138.759
X93.86Y138.783
X93.903Y138.806
X94.362Y139.041
X94.405Y139.062
X94.448Y139.082
X94.492Y139.1
X94.537Y139.117
X95.019Y139.294
X95.063Y139.31
X95.108Y139.324
X95.153Y139.337
X95.198Y139.348
X95.72Y139.472
X95.968Y139.527
X96.15Y139.583
X96.327Y139.655
X96.482Y139.733
X96.735Y139.897
X96.953Y140.081
X97.146Y140.291
X97.311Y140.523
X97.445Y140.775
X97.547Y141.041
X97.614Y141.318
X97.646Y141.601
X97.641Y141.887
X97.601Y142.169
X97.526Y142.444
X97.416Y142.707
X97.274Y142.954
X97.092Y143.195
X96.973Y143.322
X96.831Y143.449
X96.68Y143.565
X96.442Y143.716
X96.018Y143.995
X95.979Y144.022
X95.941Y144.049
X95.904Y144.078
X95.868Y144.108
X95.475Y144.439
X95.439Y144.47
X95.404Y144.503
X95.37Y144.536
X95.337Y144.57
X94.986Y144.948
X94.953Y144.984
X94.922Y145.021
X94.891Y145.059
X94.862Y145.098
X94.559Y145.515
X94.532Y145.554
X94.507Y145.593
X94.482Y145.632
X94.459Y145.673
X94.208Y146.121
X94.186Y146.162
X94.165Y146.203
X94.146Y146.245
X94.127Y146.287
X93.933Y146.755
X93.915Y146.799
X93.899Y146.844
X93.884Y146.888
X93.871Y146.934
X93.735Y147.416
X93.723Y147.461
X93.712Y147.507
X93.703Y147.553
X93.695Y147.599
X93.615Y148.104
X93.61Y148.141
X93.605Y148.179
X93.601Y148.216
X93.599Y148.253
X93.597Y148.291
X93.596Y148.328
Y148.365
Y148.403
X93.598Y148.44
X93.6Y148.477
X93.604Y148.515
X93.608Y148.552
X93.613Y148.591
X93.62Y148.629
X93.627Y148.667
X93.635Y148.705
X93.644Y148.742
X93.654Y148.779
X93.665Y148.817
X93.676Y148.853
X93.689Y148.89
X93.702Y148.926
X93.717Y148.962
X93.732Y148.997
X93.748Y149.033
X93.765Y149.067
X93.786Y149.108
X93.809Y149.148
X94.509Y150.361
X94.528Y150.394
X94.549Y150.427
X94.57Y150.459
X94.592Y150.491
X94.615Y150.522
X94.639Y150.552
X94.663Y150.582
X94.688Y150.612
X94.714Y150.641
X94.74Y150.669
X94.768Y150.696
X94.795Y150.723
X94.824Y150.749
X94.853Y150.775
X94.883Y150.8
X94.913Y150.824
X94.944Y150.847
X94.976Y150.87
X95.007Y150.891
X95.04Y150.912
X95.073Y150.932
X95.106Y150.952
X95.14Y150.97
X95.174Y150.988
X95.209Y151.005
X95.244Y151.021
X95.28Y151.036
X95.316Y151.05
X95.793Y151.234
X95.838Y151.25
X95.882Y151.265
X95.927Y151.279
X95.972Y151.291
X96.458Y151.414
X96.504Y151.425
X96.55Y151.435
X96.597Y151.443
X96.643Y151.45
X97.145Y151.515
X97.191Y151.521
X97.238Y151.525
X97.284Y151.527
X97.33Y151.529
X97.843Y151.536
X97.89
X97.937Y151.534
X97.984Y151.531
X98.03Y151.527
X98.544Y151.473
X98.592Y151.468
X98.64Y151.46
X98.687Y151.452
X98.735Y151.442
X99.237Y151.326
X99.284Y151.315
X99.33Y151.302
X99.375Y151.288
X99.421Y151.272
X99.903Y151.098
X99.947Y151.081
X99.991Y151.063
X100.034Y151.044
