(Created with grbl post processor 2025/01/20 06:12)
G21
(G-code generated with BlenderCAM and NC library)
G17G90
(Tool: D = 3.18 mm  type END flutes 2)
S1000M03
G00 Z1.0

G0X0Y0Z1
X250.415Y137.75
G1Z-0.1F50
X250.53Y137.562F100
X250.674Y137.394
X250.841Y137.251
X251.029Y137.136
X251.233Y137.052
X251.447Y137
X251.666Y136.983
X251.886Y137
X252.1Y137.052
X252.304Y137.136
X252.492Y137.251
X252.659Y137.394
X252.802Y137.562
X252.917Y137.75
X253.002Y137.953
X253.053Y138.167
X253.07Y138.387
X253.053Y138.607
X253.002Y138.821
X252.917Y139.025
X252.802Y139.212
X252.659Y139.38
X252.492Y139.523
X252.304Y139.638
X252.1Y139.722
X251.886Y139.774
X251.666Y139.791
X251.447Y139.774
X251.233Y139.722
X251.029Y139.638
X250.841Y139.523
X250.674Y139.38
X250.53Y139.212
X250.415Y139.025
X250.331Y138.821
X250.28Y138.607
X250.262Y138.387
X250.28Y138.167
X250.331Y137.953
X250.415Y137.75
G0Z1
X237.541Y130.232
G1Z-0.1F50
X237.384Y130.469F100
X237.197Y130.685
X236.985Y130.875
X236.75Y131.037
X236.497Y131.168
X236.229Y131.267
X235.935Y131.334
X235.763Y131.355
X235.572Y131.361
X235.381Y131.352
X235.102Y131.315
X234.598Y131.257
X234.551Y131.252
X234.504Y131.249
X234.457Y131.247
X234.41Y131.246
X233.897Y131.248
X233.849Y131.249
X233.802Y131.251
X233.754Y131.255
X233.707Y131.26
X233.195Y131.323
X233.147Y131.33
X233.099Y131.338
X233.051Y131.347
X233.004Y131.358
X232.503Y131.484
X232.458Y131.496
X232.413Y131.509
X232.369Y131.524
X232.325Y131.54
X231.845Y131.722
X231.802Y131.739
X231.759Y131.757
X231.717Y131.776
X231.676Y131.797
X231.226Y132.031
X231.185Y132.053
X231.144Y132.077
X231.104Y132.102
X231.064Y132.128
X230.65Y132.409
X230.612Y132.436
X230.574Y132.465
X230.538Y132.494
X230.502Y132.524
X230.116Y132.86
X230.087Y132.886
X230.059Y132.912
X230.031Y132.939
X230.004Y132.967
X229.978Y132.995
X229.952Y133.024
X229.928Y133.054
X229.904Y133.084
X229.88Y133.115
X229.858Y133.146
X229.836Y133.178
X229.815Y133.211
X229.795Y133.243
X229.775Y133.277
X229.756Y133.311
X229.739Y133.346
X229.722Y133.38
X229.706Y133.415
X229.69Y133.451
X229.676Y133.487
X229.662Y133.523
X229.65Y133.559
X229.638Y133.596
X229.627Y133.633
X229.617Y133.671
X229.608Y133.708
X229.6Y133.746
X229.593Y133.784
X229.35Y135.163
X229.343Y135.208
X229.337Y135.254
X229.333Y135.292
X229.329Y135.331
X229.327Y135.369
X229.326Y135.408
Y135.447
Y135.485
X229.328Y135.524
X229.331Y135.562
X229.334Y135.601
X229.338Y135.639
X229.344Y135.678
X229.35Y135.716
X229.357Y135.754
X229.365Y135.792
X229.374Y135.828
X229.384Y135.864
X229.394Y135.9
X229.405Y135.936
X229.417Y135.971
X229.43Y136.007
X229.444Y136.041
X229.459Y136.076
X229.474Y136.11
X229.49Y136.144
X229.507Y136.177
X229.525Y136.21
X229.773Y136.658
X229.796Y136.698
X229.821Y136.738
X229.847Y136.778
X229.873Y136.816
X230.166Y137.223
X230.194Y137.261
X230.223Y137.298
X230.254Y137.334
X230.285Y137.369
X230.628Y137.742
X230.66Y137.776
X230.692Y137.809
X230.726Y137.84
X230.761Y137.871
X231.149Y138.206
X231.185Y138.236
X231.222Y138.265
X231.26Y138.293
X231.298Y138.32
X231.726Y138.609
X231.766Y138.635
X231.808Y138.661
X231.85Y138.685
X231.893Y138.707
X232.352Y138.942
X232.395Y138.963
X232.438Y138.983
X232.482Y139.001
X232.527Y139.018
X233.009Y139.195
X233.053Y139.211
X233.098Y139.225
X233.143Y139.238
X233.188Y139.249
X233.709Y139.373
X233.958Y139.428
X234.14Y139.484
X234.317Y139.556
X234.471Y139.634
X234.725Y139.798
X234.943Y139.982
X235.136Y140.192
X235.301Y140.424
X235.435Y140.676
X235.537Y140.942
X235.604Y141.219
X235.636Y141.503
X235.631Y141.788
X235.591Y142.07
X235.516Y142.345
X235.406Y142.608
X235.264Y142.855
X235.082Y143.096
X234.963Y143.223
X234.821Y143.351
X234.669Y143.466
X234.431Y143.617
X234.008Y143.896
X233.969Y143.923
X233.931Y143.95
X233.894Y143.979
X233.857Y144.009
X233.465Y144.34
X233.429Y144.371
X233.394Y144.404
X233.36Y144.437
X233.327Y144.472
X232.976Y144.849
X232.943Y144.885
X232.912Y144.922
X232.881Y144.96
X232.852Y144.999
X232.549Y145.416
X232.522Y145.455
X232.496Y145.494
X232.472Y145.534
X232.448Y145.574
X232.198Y146.022
X232.176Y146.063
X232.155Y146.104
X232.135Y146.146
X232.117Y146.189
X231.923Y146.656
X231.905Y146.7
X231.889Y146.745
X231.874Y146.79
X231.861Y146.835
X231.725Y147.317
X231.713Y147.362
X231.702Y147.408
X231.693Y147.454
X231.685Y147.5
X231.605Y148.006
X231.599Y148.043
X231.595Y148.08
X231.591Y148.117
X231.588Y148.154
X231.587Y148.192
X231.586Y148.229
X231.585Y148.266
X231.586Y148.304
X231.588Y148.341
X231.59Y148.379
X231.594Y148.416
X231.598Y148.454
X231.603Y148.492
X231.609Y148.53
X231.617Y148.568
X231.625Y148.606
X231.634Y148.643
X231.644Y148.681
X231.654Y148.718
X231.666Y148.754
X231.679Y148.791
X231.692Y148.827
X231.707Y148.863
X231.722Y148.899
X231.738Y148.934
X231.755Y148.968
X231.776Y149.009
X231.798Y149.049
X232.499Y150.262
X232.518Y150.295
X232.539Y150.328
X232.56Y150.36
X232.582Y150.392
X232.605Y150.423
X232.629Y150.454
X232.653Y150.484
X232.678Y150.513
X232.704Y150.542
X232.73Y150.57
X232.757Y150.597
X232.785Y150.624
X232.814Y150.65
X232.843Y150.676
X232.873Y150.701
X232.903Y150.725
X232.934Y150.748
X232.965Y150.771
X232.997Y150.792
X233.03Y150.813
X233.063Y150.834
X233.096Y150.853
X233.13Y150.871
X233.164Y150.889
X233.199Y150.906
X233.234Y150.922
X233.27Y150.937
X233.306Y150.951
X233.783Y151.135
X233.827Y151.151
X233.872Y151.166
X233.917Y151.18
X233.962Y151.192
X234.448Y151.315
X234.494Y151.326
X234.54Y151.336
X234.586Y151.344
X234.633Y151.351
X235.135Y151.416
X235.181Y151.422
X235.228Y151.426
X235.274Y151.428
X235.32Y151.43
X235.833Y151.437
X235.88
X235.927Y151.435
X235.974Y151.432
X236.02Y151.428
X236.533Y151.375
X236.581Y151.369
X236.629Y151.362
X236.677Y151.353
X236.725Y151.343
X237.227Y151.227
X237.274Y151.216
X237.32Y151.203
X237.365Y151.189
X237.41Y151.173
X237.893Y150.999
X237.937Y150.983
X237.981Y150.965
X238.024Y150.945
X238.066Y150.925
X238.544Y150.685
X238.77Y150.567
X238.945Y150.494
X239.127Y150.435
X239.296Y150.395
X239.595Y150.358
X239.881
X240.163Y150.395
X240.439Y150.467
X240.704Y150.573
X240.953Y150.712
X241.182Y150.881
X241.389Y151.078
X241.569Y151.299
X241.719Y151.541
X241.838Y151.8
X241.923Y152.073
X241.974Y152.353
X241.989Y152.655
X241.979Y152.824
X241.953Y153.018
X241.91Y153.203
X241.825Y153.472
X241.68Y153.958
X241.668Y154.003
X241.656Y154.049
X241.646Y154.095
X241.638Y154.141
X241.55Y154.647
X241.543Y154.694
X241.536Y154.741
X241.532Y154.789
X241.529Y154.836
X241.502Y155.351
X241.5Y155.4
Y155.449
X241.501Y155.497
X241.504Y155.546
X241.54Y156.06
X241.544Y156.107
X241.55Y156.153
X241.556Y156.2
X241.564Y156.246
X241.66Y156.75
X241.67Y156.795
X241.68Y156.84
X241.692Y156.885
X241.705Y156.93
X241.857Y157.413
X241.872Y157.458
X241.888Y157.502
X241.906Y157.546
X241.925Y157.589
X242.13Y158.046
X242.15Y158.088
X242.171Y158.13
X242.194Y158.171
X242.217Y158.212
X242.481Y158.651
X242.501Y158.682
X242.521Y158.714
X242.542Y158.745
X242.564Y158.775
X242.587Y158.805
X242.61Y158.834
X242.634Y158.863
X242.658Y158.891
X242.684Y158.919
X242.71Y158.946
X242.736Y158.972
X242.764Y158.998
X242.792Y159.024
X242.822Y159.049
X242.852Y159.074
X242.882Y159.098
X242.913Y159.121
X242.945Y159.143
X242.977Y159.164
X243.009Y159.185
X243.042Y159.205
X243.076Y159.224
X243.11Y159.242
X243.145Y159.259
X243.179Y159.276
X243.215Y159.292
X243.257Y159.309
X243.3Y159.326
X244.616Y159.805
X244.652Y159.817
X244.689Y159.829
X244.726Y159.84
X244.763Y159.85
X244.801Y159.86
X244.839Y159.868
X244.877Y159.875
X244.915Y159.882
X244.953Y159.887
X244.991Y159.892
X245.03Y159.895
X245.068Y159.898
X245.107Y159.9
X245.146
X245.185
X245.223Y159.899
X245.262Y159.897
X245.301Y159.894
X245.339Y159.89
X245.377Y159.886
X245.416Y159.88
X245.454Y159.873
X245.491Y159.866
X245.529Y159.857
X245.567Y159.848
X245.604Y159.837
X245.641Y159.826
X245.678Y159.814
X246.161Y159.648
X246.206Y159.632
X246.249Y159.614
X246.292Y159.596
X246.335Y159.576
X246.786Y159.359
X246.828Y159.338
X246.87Y159.315
X246.911Y159.291
X246.951Y159.267
X247.378Y158.994
X247.417Y158.969
X247.455Y158.942
X247.492Y158.914
X247.528Y158.886
X247.926Y158.561
X247.961Y158.531
X247.996Y158.5
X248.03Y158.468
X248.063Y158.434
X248.422Y158.063
X248.455Y158.028
X248.487Y157.992
X248.518Y157.954
X248.548Y157.916
X248.859Y157.504
X248.887Y157.466
X248.914Y157.426
X248.94Y157.386
X248.964Y157.345
X249.222Y156.902
X249.245Y156.861
X249.267Y156.819
X249.288Y156.777
X249.307Y156.734
X249.52Y156.242
X249.616Y156.008
X249.703Y155.838
X249.805Y155.676
X249.909Y155.537
X250.114Y155.316
X250.333Y155.133
X250.573Y154.98
X250.831Y154.858
X251.102Y154.769
X251.382Y154.715
X251.666Y154.697
X251.951Y154.715
X252.231Y154.769
X252.502Y154.858
X252.759Y154.98
X253Y155.133
X253.219Y155.316
X253.424Y155.537
X253.528Y155.676
X253.629Y155.838
X253.716Y156.008
X253.824Y156.268
X254.026Y156.734
X254.045Y156.777
X254.066Y156.819
X254.087Y156.861
X254.11Y156.902
X254.368Y157.346
X254.393Y157.386
X254.419Y157.427
X254.446Y157.466
X254.474Y157.504
X254.785Y157.916
X254.814Y157.954
X254.845Y157.992
X254.878Y158.028
X254.911Y158.064
X255.269Y158.434
X255.302Y158.468
X255.336Y158.5
X255.371Y158.531
X255.407Y158.561
X255.805Y158.886
X255.841Y158.914
X255.878Y158.942
X255.916Y158.969
X255.955Y158.994
X256.382Y159.267
X256.422Y159.292
X256.463Y159.315
X256.504Y159.338
X256.547Y159.359
X256.998Y159.576
X257.04Y159.596
X257.083Y159.614
X257.127Y159.632
X257.171Y159.648
X257.655Y159.814
X257.692Y159.826
X257.729Y159.837
X257.766Y159.848
X257.803Y159.857
X257.841Y159.866
X257.879Y159.873
X257.917Y159.88
X257.955Y159.886
X257.994Y159.89
X258.032Y159.894
X258.071Y159.897
X258.109Y159.899
X258.148Y159.9
X258.187
X258.226
X258.264Y159.898
X258.303Y159.895
X258.341Y159.892
X258.38Y159.887
X258.418Y159.882
X258.456Y159.875
X258.494Y159.868
X258.532Y159.86
X258.569Y159.85
X258.606Y159.84
X258.644Y159.829
X258.68Y159.817
X258.717Y159.805
X260.032Y159.326
X260.075Y159.309
X260.118Y159.292
X260.153Y159.276
X260.188Y159.26
X260.223Y159.242
X260.257Y159.224
X260.29Y159.205
X260.323Y159.185
X260.356Y159.164
X260.388Y159.143
X260.42Y159.121
X260.451Y159.098
X260.481Y159.074
X260.511Y159.049
X260.54Y159.024
X260.569Y158.998
X260.597Y158.972
X260.623Y158.946
X260.649Y158.919
X260.674Y158.891
X260.699Y158.863
X260.723Y158.834
X260.746Y158.805
X260.769Y158.775
X260.79Y158.745
X260.812Y158.714
X260.832Y158.683
X260.852Y158.651
X261.115Y158.212
X261.139Y158.172
X261.161Y158.13
X261.183Y158.088
X261.202Y158.046
X261.408Y157.589
X261.427Y157.546
X261.444Y157.502
X261.461Y157.457
X261.476Y157.413
X261.627Y156.929
X261.641Y156.885
X261.652Y156.84
X261.663Y156.795
X261.672Y156.75
X261.768Y156.246
X261.776Y156.2
X261.783Y156.153
X261.789Y156.107
X261.793Y156.06
X261.829Y155.545
X261.831Y155.497
X261.833Y155.449
X261.832Y155.4
X261.831Y155.352
X261.804Y154.837
X261.801Y154.789
X261.796Y154.741
X261.79Y154.694
X261.783Y154.647
X261.695Y154.141
X261.686Y154.095
X261.676Y154.049
X261.665Y154.004
X261.652Y153.958
X261.499Y153.445
X261.422Y153.203
X261.38Y153.017
X261.353Y152.828
X261.344Y152.655
X261.359Y152.353
X261.409Y152.073
X261.495Y151.801
X261.613Y151.541
X261.764Y151.299
X261.944Y151.078
X262.15Y150.881
X262.38Y150.712
X262.629Y150.574
X262.893Y150.467
X263.169Y150.395
X263.452Y150.359
X263.737Y150.358
X264.037Y150.395
X264.206Y150.435
X264.387Y150.494
X264.563Y150.568
X264.813Y150.698
X265.267Y150.925
X265.309Y150.946
X265.352Y150.965
X265.396Y150.983
X265.439Y150.999
X265.922Y151.173
X265.967Y151.189
X266.013Y151.203
X266.059Y151.216
X266.105Y151.227
X266.608Y151.343
X266.656Y151.353
X266.703Y151.362
X266.751Y151.369
X266.799Y151.375
X267.313Y151.428
X267.359Y151.433
X267.406Y151.435
X267.453Y151.437
X267.5
X268.013Y151.43
X268.059Y151.429
X268.105Y151.426
X268.151Y151.422
X268.197Y151.417
X268.7Y151.351
X268.746Y151.344
X268.793Y151.336
X268.839Y151.326
X268.885Y151.315
X269.37Y151.192
X269.416Y151.18
X269.461Y151.166
X269.505Y151.151
X269.549Y151.135
X270.027Y150.952
X270.063Y150.937
X270.099Y150.922
X270.134Y150.906
X270.168Y150.889
X270.203Y150.872
X270.237Y150.853
X270.27Y150.834
X270.303Y150.813
X270.335Y150.793
X270.367Y150.771
X270.399Y150.748
X270.43Y150.725
X270.46Y150.701
X270.49Y150.676
X270.519Y150.65
X270.548Y150.624
X270.575Y150.597
X270.603Y150.57
X270.629Y150.542
X270.655Y150.513
X270.68Y150.484
X270.704Y150.454
X270.728Y150.423
X270.751Y150.392
X270.773Y150.36
X270.794Y150.328
X270.814Y150.295
X270.834Y150.262
X271.534Y149.05
X271.557Y149.009
X271.578Y148.969
X271.595Y148.934
X271.611Y148.899
X271.626Y148.863
X271.641Y148.827
X271.654Y148.791
X271.667Y148.755
X271.678Y148.718
X271.689Y148.681
X271.699Y148.643
X271.708Y148.606
X271.716Y148.568
X271.723Y148.53
X271.73Y148.492
X271.735Y148.453
X271.739Y148.416
X271.743Y148.379
X271.745Y148.341
X271.747Y148.304
Y148.266
Y148.229
X271.746Y148.192
X271.744Y148.154
X271.742Y148.117
X271.738Y148.08
X271.733Y148.043
X271.728Y148.005
X271.648Y147.5
X271.64Y147.454
X271.631Y147.408
X271.62Y147.362
X271.608Y147.317
X271.472Y146.835
X271.459Y146.79
X271.444Y146.745
X271.427Y146.7
X271.41Y146.656
X271.216Y146.189
X271.197Y146.146
X271.178Y146.104
X271.157Y146.063
X271.135Y146.022
X270.884Y145.574
X270.861Y145.534
X270.836Y145.494
X270.81Y145.455
X270.783Y145.416
X270.48Y144.999
X270.451Y144.96
X270.421Y144.922
X270.39Y144.885
X270.357Y144.849
X270.006Y144.472
X269.973Y144.437
X269.939Y144.404
X269.904Y144.371
X269.868Y144.34
X269.475Y144.009
X269.439Y143.979
X269.402Y143.95
X269.364Y143.923
X269.325Y143.897
X268.878Y143.602
X268.663Y143.466
X268.511Y143.351
X268.37Y143.223
X268.251Y143.096
X268.069Y142.855
X267.927Y142.608
X267.817Y142.345
X267.742Y142.07
X267.701Y141.788
X267.697Y141.503
X267.729Y141.219
X267.796Y140.942
X267.898Y140.676
X268.032Y140.424
X268.197Y140.192
X268.39Y139.982
X268.608Y139.798
X268.861Y139.634
X269.016Y139.556
X269.193Y139.484
X269.375Y139.428
X269.651Y139.367
X270.144Y139.25
X270.19Y139.238
X270.235Y139.225
X270.28Y139.211
X270.324Y139.195
X270.806Y139.018
X270.85Y139.001
X270.895Y138.983
X270.938Y138.963
X270.981Y138.942
X271.44Y138.707
X271.483Y138.685
X271.525Y138.661
X271.567Y138.635
X271.607Y138.609
X272.035Y138.32
X272.073Y138.293
X272.111Y138.265
X272.148Y138.236
X272.184Y138.206
X272.572Y137.871
X272.607Y137.841
X272.641Y137.809
X272.673Y137.776
X272.705Y137.742
X273.048Y137.369
X273.079Y137.334
X273.109Y137.298
X273.139Y137.261
X273.167Y137.223
X273.459Y136.816
X273.486Y136.778
X273.512Y136.738
X273.537Y136.698
X273.56Y136.658
X273.808Y136.21
X273.826Y136.177
X273.843Y136.144
X273.859Y136.11
X273.874Y136.076
X273.889Y136.041
X273.902Y136.007
X273.915Y135.972
X273.927Y135.936
X273.939Y135.901
X273.949Y135.865
X273.959Y135.828
X273.968Y135.792
X273.976Y135.754
X273.983Y135.716
X273.989Y135.678
X273.994Y135.639
X273.999Y135.601
X274.002Y135.563
X274.005Y135.524
X274.006Y135.485
X274.007Y135.447
Y135.408
X274.006Y135.37
X274.003Y135.331
X274Y135.292
X273.996Y135.254
X273.99Y135.208
X273.983Y135.163
X273.74Y133.784
X273.733Y133.746
X273.725Y133.708
X273.716Y133.671
X273.706Y133.634
X273.695Y133.596
X273.683Y133.56
X273.671Y133.523
X273.657Y133.487
X273.643Y133.451
X273.627Y133.416
X273.611Y133.38
X273.594Y133.346
X273.577Y133.311
X273.558Y133.277
X273.538Y133.244
X273.518Y133.211
X273.497Y133.178
X273.475Y133.146
X273.453Y133.115
X273.429Y133.084
X273.405Y133.054
X273.38Y133.024
X273.355Y132.995
X273.329Y132.967
X273.302Y132.939
X273.274Y132.912
X273.246Y132.886
X273.217Y132.86
X272.831Y132.524
X272.795Y132.494
X272.758Y132.465
X272.721Y132.437
X272.682Y132.41
X272.268Y132.128
X272.229Y132.102
X272.189Y132.077
X272.148Y132.053
X272.106Y132.031
X271.657Y131.797
X271.615Y131.777
X271.573Y131.757
X271.531Y131.739
X271.488Y131.722
X271.008Y131.54
X270.964Y131.524
X270.92Y131.509
X270.875Y131.496
X270.829Y131.484
X270.329Y131.359
X270.282Y131.348
X270.234Y131.338
X270.186Y131.33
X270.138Y131.323
X269.626Y131.26
X269.579Y131.255
X269.531Y131.251
X269.484Y131.249
X269.436Y131.248
X268.922Y131.246
X268.876Y131.247
X268.829Y131.249
X268.782Y131.252
X268.735Y131.257
X268.203Y131.319
X267.951Y131.352
X267.761Y131.362
X267.57Y131.355
X267.398Y131.334
X267.104Y131.267
X266.836Y131.169
X266.583Y131.037
X266.348Y130.875
X266.136Y130.685
X265.949Y130.469
X265.791Y130.232
X265.665Y129.977
X265.571Y129.707
X265.513Y129.428
X265.49Y129.144
X265.503Y128.859
X265.551Y128.578
X265.64Y128.29
X265.708Y128.13
X265.798Y127.962
X265.901Y127.801
X266.073Y127.578
X266.376Y127.17
X266.403Y127.132
X266.429Y127.093
X266.455Y127.054
X266.478Y127.013
X266.734Y126.568
X266.757Y126.526
X266.779Y126.484
X266.8Y126.441
X266.819Y126.397
X267.02Y125.922
X267.038Y125.877
X267.055Y125.831
X267.071Y125.786
X267.085Y125.739
X267.226Y125.243
X267.239Y125.198
X267.25Y125.152
X267.259Y125.107
X267.267Y125.061
X267.35Y124.554
X267.356Y124.508
X267.362Y124.462
X267.366Y124.416
X267.369Y124.37
X267.391Y123.864
X267.393Y123.816
Y123.769
X267.391Y123.722
X267.388Y123.675
X267.351Y123.175
X267.347Y123.129
X267.341Y123.082
X267.334Y123.036
X267.326Y122.99
X267.228Y122.487
X267.221Y122.451
X267.212Y122.414
X267.203Y122.378
X267.193Y122.342
X267.182Y122.306
X267.17Y122.271
X267.157Y122.235
X267.144Y122.2
X267.13Y122.166
X267.115Y122.132
X267.099Y122.098
X267.082Y122.064
X267.064Y122.03
X267.045Y121.996
X267.025Y121.963
X267.004Y121.93
X266.983Y121.898
X266.961Y121.866
X266.938Y121.835
X266.915Y121.804
X266.89Y121.774
X266.865Y121.745
X266.84Y121.716
X266.813Y121.688
X266.786Y121.661
X266.758Y121.634
X266.724Y121.603
X266.689Y121.573
X265.617Y120.673
X265.587Y120.648
X265.557Y120.624
X265.525Y120.601
X265.494Y120.579
X265.462Y120.558
X265.429Y120.537
X265.396Y120.517
X265.362Y120.498
X265.328Y120.48
X265.294Y120.462
X265.259Y120.446
X265.224Y120.43
X265.188Y120.415
X265.151Y120.401
X265.115Y120.388
X265.078Y120.376
X265.041Y120.364
X265.004Y120.354
X264.967Y120.345
X264.929Y120.336
X264.891Y120.328
X264.853Y120.322
X264.815Y120.316
X264.777Y120.311
X264.738Y120.307
X264.7Y120.304
X264.661Y120.302
X264.622Y120.301
X264.111Y120.291
X264.064
X264.017Y120.293
X263.97Y120.295
X263.923Y120.299
X263.425Y120.349
X263.378Y120.355
X263.331Y120.362
X263.285Y120.37
X263.239Y120.379
X262.744Y120.489
X262.699Y120.5
X262.654Y120.512
X262.61Y120.526
X262.566Y120.54
X262.082Y120.709
X262.038Y120.725
X261.994Y120.743
X261.951Y120.761
X261.909Y120.781
X261.445Y121.007
X261.402Y121.029
X261.359Y121.052
X261.317Y121.077
X261.276Y121.102
X260.843Y121.383
X260.804Y121.409
X260.765Y121.437
X260.727Y121.466
X260.69Y121.496
X260.295Y121.825
X260.26Y121.856
X260.225Y121.887
X260.191Y121.92
X260.158Y121.954
X259.791Y122.343
X259.62Y122.53
X259.48Y122.66
X259.329Y122.777
X259.184Y122.872
X258.915Y123.01
X258.647Y123.107
X258.369Y123.169
X258.085Y123.195
X257.8Y123.186
X257.518Y123.141
X257.245Y123.061
X256.984Y122.946
X256.739Y122.8
X256.515Y122.624
X256.314Y122.421
X256.141Y122.195
X255.998Y121.948
X255.881Y121.67
X255.83Y121.504
X255.79Y121.317
X255.767Y121.128
X255.755Y120.846
X255.724Y120.339
X255.721Y120.293
X255.716Y120.246
X255.71Y120.2
X255.702Y120.153
X255.612Y119.648
X255.603Y119.601
X255.592Y119.554
X255.58Y119.508
X255.567Y119.462
X255.416Y118.969
X255.401Y118.923
X255.384Y118.877
X255.367Y118.832
X255.348Y118.788
X255.137Y118.316
X255.118Y118.274
X255.097Y118.232
X255.075Y118.191
X255.051Y118.15
X254.789Y117.709
X254.764Y117.67
X254.739Y117.631
X254.712Y117.593
X254.685Y117.556
X254.377Y117.154
X254.348Y117.117
X254.317Y117.081
X254.286Y117.045
X254.253Y117.011
X253.904Y116.652
X253.871Y116.619
X253.836Y116.587
X253.801Y116.556
X253.765Y116.526
X253.367Y116.204
X253.337Y116.18
X253.306Y116.157
X253.275Y116.134
X253.243Y116.113
X253.21Y116.092
X253.177Y116.072
X253.144Y116.053
X253.11Y116.034
X253.075Y116.016
X253.041Y116
X253.005Y115.984
X252.97Y115.969
X252.934Y115.954
X252.897Y115.941
X252.86Y115.928
X252.824Y115.917
X252.786Y115.906
X252.749Y115.896
X252.711Y115.888
X252.674Y115.88
X252.636Y115.873
X252.597Y115.867
X252.559Y115.861
X252.521Y115.857
X252.482Y115.854
X252.444Y115.852
X252.405Y115.85
X252.366
X250.966
X250.921
X250.874Y115.852
X250.836Y115.855
X250.797Y115.859
X250.759Y115.863
X250.721Y115.869
X250.683Y115.875
X250.645Y115.883
X250.607Y115.891
X250.57Y115.9
X250.532Y115.91
X250.495Y115.921
X250.459Y115.933
X250.422Y115.946
X250.386Y115.959
X250.35Y115.974
X250.315Y115.989
X250.281Y116.005
X250.248Y116.021
X250.215Y116.039
X250.182Y116.057
X250.15Y116.075
X250.118Y116.095
X250.086Y116.115
X250.055Y116.136
X250.025Y116.158
X249.995Y116.181
X249.966Y116.204
X249.568Y116.526
X249.532Y116.556
X249.497Y116.587
X249.462Y116.619
X249.429Y116.652
X249.08Y117.011
X249.047Y117.045
X249.016Y117.081
X248.985Y117.117
X248.956Y117.154
X248.648Y117.556
X248.62Y117.593
X248.594Y117.631
X248.568Y117.67
X248.544Y117.709
X248.282Y118.15
X248.258Y118.191
X248.236Y118.232
X248.215Y118.274
X248.196Y118.316
X247.985Y118.788
X247.966Y118.832
X247.949Y118.877
X247.932Y118.923
X247.917Y118.969
X247.766Y119.462
X247.753Y119.508
X247.741Y119.555
X247.73Y119.601
X247.721Y119.648
X247.631Y120.153
X247.623Y120.199
X247.617Y120.246
X247.612Y120.293
X247.609Y120.339
X247.577Y120.874
X247.566Y121.128
X247.542Y121.317
X247.503Y121.504
X247.452Y121.67
X247.335Y121.948
X247.192Y122.194
X247.019Y122.421
X246.818Y122.624
X246.594Y122.8
X246.349Y122.946
X246.088Y123.06
X245.815Y123.141
X245.533Y123.186
X245.248Y123.195
X244.964Y123.169
X244.686Y123.107
X244.418Y123.01
X244.149Y122.872
X244.004Y122.777
X243.853Y122.66
X243.714Y122.53
X243.523Y122.322
X243.174Y121.953
X243.142Y121.92
X243.108Y121.887
X243.073Y121.855
X243.038Y121.825
X242.643Y121.496
X242.606Y121.466
X242.568Y121.437
X242.529Y121.409
X242.49Y121.383
X242.057Y121.102
X242.016Y121.077
X241.974Y121.052
X241.931Y121.029
X241.888Y121.007
X241.424Y120.781
X241.382Y120.761
X241.339Y120.742
X241.295Y120.725
X241.251Y120.709
X240.767Y120.54
X240.723Y120.525
X240.679Y120.512
X240.634Y120.5
X240.589Y120.489
X240.094Y120.379
X240.048Y120.37
X240.001Y120.361
X239.955Y120.355
X239.908Y120.349
X239.41Y120.299
X239.363Y120.295
X239.316Y120.292
X239.269Y120.291
X239.222
X238.71Y120.3
X238.672Y120.302
X238.633Y120.304
X238.595Y120.307
X238.556Y120.311
X238.518Y120.316
X238.48Y120.321
X238.442Y120.328
X238.404Y120.336
X238.366Y120.344
X238.329Y120.354
X238.291Y120.364
X238.255Y120.376
X238.218Y120.388
X238.181Y120.401
X238.145Y120.415
X238.109Y120.43
X238.074Y120.446
X238.039Y120.462
X238.004Y120.48
X237.97Y120.498
X237.937Y120.517
X237.904Y120.537
X237.871Y120.558
X237.839Y120.579
X237.807Y120.601
X237.776Y120.624
X237.746Y120.648
X237.716Y120.672
X236.644Y121.572
X236.609Y121.602
X236.575Y121.634
X236.547Y121.66
X236.52Y121.688
X236.493Y121.716
X236.468Y121.745
X236.443Y121.774
X236.418Y121.804
X236.395Y121.835
X236.372Y121.866
X236.35Y121.898
X236.328Y121.93
X236.308Y121.963
X236.288Y121.996
X236.269Y122.03
X236.251Y122.064
X236.234Y122.098
X236.218Y122.132
X236.203Y122.166
X236.189Y122.2
X236.175Y122.235
X236.163Y122.27
X236.151Y122.306
X236.14Y122.342
X236.13Y122.378
X236.121Y122.414
X236.112Y122.45
X236.104Y122.487
X236.007Y122.989
X235.998Y123.036
X235.991Y123.082
X235.986Y123.129
X235.982Y123.175
X235.945Y123.675
X235.942Y123.722
X235.94Y123.769
Y123.817
X235.942Y123.864
X235.964Y124.37
X235.967Y124.416
X235.971Y124.462
X235.977Y124.508
X235.983Y124.554
X236.066Y125.06
X236.074Y125.106
X236.083Y125.152
X236.094Y125.198
X236.106Y125.243
X236.248Y125.739
X236.262Y125.786
X236.278Y125.832
X236.295Y125.877
X236.313Y125.922
X236.514Y126.397
X236.533Y126.44
X236.554Y126.484
X236.576Y126.526
X236.599Y126.568
X236.854Y127.013
X236.878Y127.054
X236.903Y127.093
X236.93Y127.132
X236.957Y127.17
X237.277Y127.6
X237.432Y127.801
X237.535Y127.961
X237.624Y128.13
X237.693Y128.29
X237.781Y128.578
X237.83Y128.859
X237.843Y129.144
X237.82Y129.428
X237.761Y129.707
X237.668Y129.977
X237.541Y130.232
G0Z1
X250.415Y137.75
G1Z-0.2F50
X250.53Y137.562F100
X250.674Y137.394
X250.841Y137.251
X251.029Y137.136
X251.233Y137.052
X251.447Y137
X251.666Y136.983
X251.886Y137
X252.1Y137.052
X252.304Y137.136
X252.492Y137.251
X252.659Y137.394
X252.802Y137.562
X252.917Y137.75
X253.002Y137.953
X253.053Y138.167
X253.07Y138.387
X253.053Y138.607
X253.002Y138.821
X252.917Y139.025
X252.802Y139.212
X252.659Y139.38
X252.492Y139.523
X252.304Y139.638
X252.1Y139.722
X251.886Y139.774
X251.666Y139.791
X251.447Y139.774
X251.233Y139.722
X251.029Y139.638
X250.841Y139.523
X250.674Y139.38
X250.53Y139.212
X250.415Y139.025
X250.331Y138.821
X250.28Y138.607
X250.262Y138.387
X250.28Y138.167
X250.331Y137.953
X250.415Y137.75
G0Z1
X237.541Y130.232
G1Z-0.2F50
X237.384Y130.469F100
X237.197Y130.685
X236.985Y130.875
X236.75Y131.037
X236.497Y131.168
X236.229Y131.267
X235.935Y131.334
X235.763Y131.355
X235.572Y131.361
X235.381Y131.352
X235.102Y131.315
X234.598Y131.257
X234.551Y131.252
X234.504Y131.249
X234.457Y131.247
X234.41Y131.246
X233.897Y131.248
X233.849Y131.249
X233.802Y131.251
X233.754Y131.255
X233.707Y131.26
X233.195Y131.323
X233.147Y131.33
X233.099Y131.338
X233.051Y131.347
X233.004Y131.358
X232.503Y131.484
X232.458Y131.496
X232.413Y131.509
X232.369Y131.524
X232.325Y131.54
X231.845Y131.722
X231.802Y131.739
X231.759Y131.757
X231.717Y131.776
X231.676Y131.797
X231.226Y132.031
X231.185Y132.053
X231.144Y132.077
X231.104Y132.102
X231.064Y132.128
X230.65Y132.409
X230.612Y132.436
X230.574Y132.465
X230.538Y132.494
X230.502Y132.524
X230.116Y132.86
X230.087Y132.886
X230.059Y132.912
X230.031Y132.939
X230.004Y132.967
X229.978Y132.995
X229.952Y133.024
X229.928Y133.054
X229.904Y133.084
X229.88Y133.115
X229.858Y133.146
X229.836Y133.178
X229.815Y133.211
X229.795Y133.243
X229.775Y133.277
X229.756Y133.311
X229.739Y133.346
X229.722Y133.38
X229.706Y133.415
X229.69Y133.451
X229.676Y133.487
X229.662Y133.523
X229.65Y133.559
X229.638Y133.596
X229.627Y133.633
X229.617Y133.671
X229.608Y133.708
X229.6Y133.746
X229.593Y133.784
X229.35Y135.163
X229.343Y135.208
X229.337Y135.254
X229.333Y135.292
X229.329Y135.331
X229.327Y135.369
X229.326Y135.408
Y135.447
Y135.485
X229.328Y135.524
X229.331Y135.562
X229.334Y135.601
X229.338Y135.639
X229.344Y135.678
X229.35Y135.716
X229.357Y135.754
X229.365Y135.792
X229.374Y135.828
X229.384Y135.864
X229.394Y135.9
X229.405Y135.936
X229.417Y135.971
X229.43Y136.007
X229.444Y136.041
X229.459Y136.076
X229.474Y136.11
X229.49Y136.144
X229.507Y136.177
X229.525Y136.21
X229.773Y136.658
X229.796Y136.698
X229.821Y136.738
X229.847Y136.778
X229.873Y136.816
X230.166Y137.223
X230.194Y137.261
X230.223Y137.298
X230.254Y137.334
X230.285Y137.369
X230.628Y137.742
X230.66Y137.776
X230.692Y137.809
X230.726Y137.84
X230.761Y137.871
X231.149Y138.206
X231.185Y138.236
X231.222Y138.265
X231.26Y138.293
X231.298Y138.32
X231.726Y138.609
X231.766Y138.635
X231.808Y138.661
X231.85Y138.685
X231.893Y138.707
X232.352Y138.942
X232.395Y138.963
X232.438Y138.983
X232.482Y139.001
X232.527Y139.018
X233.009Y139.195
X233.053Y139.211
X233.098Y139.225
X233.143Y139.238
X233.188Y139.249
X233.709Y139.373
X233.958Y139.428
X234.14Y139.484
X234.317Y139.556
X234.471Y139.634
X234.725Y139.798
X234.943Y139.982
X235.136Y140.192
X235.301Y140.424
X235.435Y140.676
X235.537Y140.942
X235.604Y141.219
X235.636Y141.503
X235.631Y141.788
X235.591Y142.07
X235.516Y142.345
X235.406Y142.608
X235.264Y142.855
X235.082Y143.096
X234.963Y143.223
X234.821Y143.351
X234.669Y143.466
X234.431Y143.617
X234.008Y143.896
X233.969Y143.923
X233.931Y143.95
X233.894Y143.979
X233.857Y144.009
X233.465Y144.34
X233.429Y144.371
X233.394Y144.404
X233.36Y144.437
X233.327Y144.472
X232.976Y144.849
X232.943Y144.885
X232.912Y144.922
X232.881Y144.96
X232.852Y144.999
X232.549Y145.416
X232.522Y145.455
X232.496Y145.494
X232.472Y145.534
X232.448Y145.574
X232.198Y146.022
X232.176Y146.063
X232.155Y146.104
X232.135Y146.146
X232.117Y146.189
X231.923Y146.656
X231.905Y146.7
X231.889Y146.745
X231.874Y146.79
X231.861Y146.835
X231.725Y147.317
X231.713Y147.362
X231.702Y147.408
X231.693Y147.454
X231.685Y147.5
X231.605Y148.006
X231.599Y148.043
X231.595Y148.08
X231.591Y148.117
X231.588Y148.154
X231.587Y148.192
X231.586Y148.229
X231.585Y148.266
X231.586Y148.304
X231.588Y148.341
X231.59Y148.379
X231.594Y148.416
X231.598Y148.454
X231.603Y148.492
X231.609Y148.53
X231.617Y148.568
X231.625Y148.606
X231.634Y148.643
X231.644Y148.681
X231.654Y148.718
X231.666Y148.754
X231.679Y148.791
X231.692Y148.827
X231.707Y148.863
X231.722Y148.899
X231.738Y148.934
X231.755Y148.968
X231.776Y149.009
X231.798Y149.049
X232.499Y150.262
X232.518Y150.295
X232.539Y150.328
X232.56Y150.36
X232.582Y150.392
X232.605Y150.423
X232.629Y150.454
X232.653Y150.484
X232.678Y150.513
X232.704Y150.542
X232.73Y150.57
X232.757Y150.597
X232.785Y150.624
X232.814Y150.65
X232.843Y150.676
X232.873Y150.701
X232.903Y150.725
X232.934Y150.748
X232.965Y150.771
X232.997Y150.792
X233.03Y150.813
X233.063Y150.834
X233.096Y150.853
X233.13Y150.871
X233.164Y150.889
X233.199Y150.906
X233.234Y150.922
X233.27Y150.937
X233.306Y150.951
X233.783Y151.135
X233.827Y151.151
X233.872Y151.166
X233.917Y151.18
X233.962Y151.192
X234.448Y151.315
X234.494Y151.326
X234.54Y151.336
X234.586Y151.344
X234.633Y151.351
X235.135Y151.416
X235.181Y151.422
X235.228Y151.426
X235.274Y151.428
X235.32Y151.43
X235.833Y151.437
X235.88
X235.927Y151.435
X235.974Y151.432
X236.02Y151.428
X236.533Y151.375
X236.581Y151.369
X236.629Y151.362
X236.677Y151.353
X236.725Y151.343
X237.227Y151.227
X237.274Y151.216
X237.32Y151.203
X237.365Y151.189
X237.41Y151.173
X237.893Y150.999
X237.937Y150.983
X237.981Y150.965
X238.024Y150.945
X238.066Y150.925
X238.544Y150.685
X238.77Y150.567
X238.945Y150.494
X239.127Y150.435
X239.296Y150.395
X239.595Y150.358
X239.881
X240.163Y150.395
X240.439Y150.467
X240.704Y150.573
X240.953Y150.712
X241.182Y150.881
X241.389Y151.078
X241.569Y151.299
X241.719Y151.541
X241.838Y151.8
X241.923Y152.073
X241.974Y152.353
X241.989Y152.655
X241.979Y152.824
X241.953Y153.018
X241.91Y153.203
X241.825Y153.472
X241.68Y153.958
X241.668Y154.003
X241.656Y154.049
X241.646Y154.095
X241.638Y154.141
X241.55Y154.647
X241.543Y154.694
X241.536Y154.741
X241.532Y154.789
X241.529Y154.836
X241.502Y155.351
X241.5Y155.4
Y155.449
X241.501Y155.497
X241.504Y155.546
X241.54Y156.06
X241.544Y156.107
X241.55Y156.153
X241.556Y156.2
X241.564Y156.246
X241.66Y156.75
X241.67Y156.795
X241.68Y156.84
X241.692Y156.885
X241.705Y156.93
X241.857Y157.413
X241.872Y157.458
X241.888Y157.502
X241.906Y157.546
X241.925Y157.589
X242.13Y158.046
X242.15Y158.088
X242.171Y158.13
X242.194Y158.171
X242.217Y158.212
X242.481Y158.651
X242.501Y158.682
X242.521Y158.714
X242.542Y158.745
X242.564Y158.775
X242.587Y158.805
X242.61Y158.834
X242.634Y158.863
X242.658Y158.891
X242.684Y158.919
X242.71Y158.946
X242.736Y158.972
X242.764Y158.998
X242.792Y159.024
X242.822Y159.049
X242.852Y159.074
X242.882Y159.098
X242.913Y159.121
X242.945Y159.143
X242.977Y159.164
X243.009Y159.185
X243.042Y159.205
X243.076Y159.224
X243.11Y159.242
X243.145Y159.259
X243.179Y159.276
X243.215Y159.292
X243.257Y159.309
X243.3Y159.326
X244.616Y159.805
X244.652Y159.817
X244.689Y159.829
X244.726Y159.84
X244.763Y159.85
X244.801Y159.86
X244.839Y159.868
X244.877Y159.875
X244.915Y159.882
X244.953Y159.887
X244.991Y159.892
X245.03Y159.895
X245.068Y159.898
X245.107Y159.9
X245.146
X245.185
X245.223Y159.899
X245.262Y159.897
X245.301Y159.894
X245.339Y159.89
X245.377Y159.886
X245.416Y159.88
X245.454Y159.873
X245.491Y159.866
X245.529Y159.857
X245.567Y159.848
X245.604Y159.837
X245.641Y159.826
X245.678Y159.814
X246.161Y159.648
X246.206Y159.632
X246.249Y159.614
X246.292Y159.596
X246.335Y159.576
X246.786Y159.359
X246.828Y159.338
X246.87Y159.315
X246.911Y159.291
X246.951Y159.267
X247.378Y158.994
X247.417Y158.969
X247.455Y158.942
X247.492Y158.914
X247.528Y158.886
X247.926Y158.561
X247.961Y158.531
X247.996Y158.5
X248.03Y158.468
X248.063Y158.434
X248.422Y158.063
X248.455Y158.028
X248.487Y157.992
X248.518Y157.954
X248.548Y157.916
X248.859Y157.504
X248.887Y157.466
X248.914Y157.426
X248.94Y157.386
X248.964Y157.345
X249.222Y156.902
X249.245Y156.861
X249.267Y156.819
X249.288Y156.777
X249.307Y156.734
X249.52Y156.242
X249.616Y156.008
X249.703Y155.838
X249.805Y155.676
X249.909Y155.537
X250.114Y155.316
X250.333Y155.133
X250.573Y154.98
X250.831Y154.858
X251.102Y154.769
X251.382Y154.715
X251.666Y154.697
X251.951Y154.715
X252.231Y154.769
X252.502Y154.858
X252.759Y154.98
X253Y155.133
X253.219Y155.316
X253.424Y155.537
X253.528Y155.676
X253.629Y155.838
X253.716Y156.008
X253.824Y156.268
X254.026Y156.734
X254.045Y156.777
X254.066Y156.819
X254.087Y156.861
X254.11Y156.902
X254.368Y157.346
X254.393Y157.386
X254.419Y157.427
X254.446Y157.466
X254.474Y157.504
X254.785Y157.916
X254.814Y157.954
X254.845Y157.992
X254.878Y158.028
X254.911Y158.064
X255.269Y158.434
X255.302Y158.468
X255.336Y158.5
X255.371Y158.531
X255.407Y158.561
X255.805Y158.886
X255.841Y158.914
X255.878Y158.942
X255.916Y158.969
X255.955Y158.994
X256.382Y159.267
X256.422Y159.292
X256.463Y159.315
X256.504Y159.338
X256.547Y159.359
X256.998Y159.576
X257.04Y159.596
X257.083Y159.614
X257.127Y159.632
X257.171Y159.648
X257.655Y159.814
X257.692Y159.826
X257.729Y159.837
X257.766Y159.848
X257.803Y159.857
X257.841Y159.866
X257.879Y159.873
X257.917Y159.88
X257.955Y159.886
X257.994Y159.89
X258.032Y159.894
X258.071Y159.897
X258.109Y159.899
X258.148Y159.9
X258.187
X258.226
X258.264Y159.898
X258.303Y159.895
X258.341Y159.892
X258.38Y159.887
X258.418Y159.882
X258.456Y159.875
X258.494Y159.868
X258.532Y159.86
X258.569Y159.85
X258.606Y159.84
X258.644Y159.829
X258.68Y159.817
X258.717Y159.805
X260.032Y159.326
X260.075Y159.309
X260.118Y159.292
X260.153Y159.276
X260.188Y159.26
X260.223Y159.242
X260.257Y159.224
X260.29Y159.205
X260.323Y159.185
X260.356Y159.164
X260.388Y159.143
X260.42Y159.121
X260.451Y159.098
X260.481Y159.074
X260.511Y159.049
X260.54Y159.024
X260.569Y158.998
X260.597Y158.972
X260.623Y158.946
X260.649Y158.919
X260.674Y158.891
X260.699Y158.863
X260.723Y158.834
X260.746Y158.805
X260.769Y158.775
X260.79Y158.745
X260.812Y158.714
X260.832Y158.683
X260.852Y158.651
X261.115Y158.212
X261.139Y158.172
X261.161Y158.13
X261.183Y158.088
X261.202Y158.046
X261.408Y157.589
X261.427Y157.546
X261.444Y157.502
X261.461Y157.457
X261.476Y157.413
X261.627Y156.929
X261.641Y156.885
X261.652Y156.84
X261.663Y156.795
X261.672Y156.75
X261.768Y156.246
X261.776Y156.2
X261.783Y156.153
X261.789Y156.107
X261.793Y156.06
X261.829Y155.545
X261.831Y155.497
X261.833Y155.449
X261.832Y155.4
X261.831Y155.352
X261.804Y154.837
X261.801Y154.789
X261.796Y154.741
X261.79Y154.694
X261.783Y154.647
X261.695Y154.141
X261.686Y154.095
X261.676Y154.049
X261.665Y154.004
X261.652Y153.958
X261.499Y153.445
X261.422Y153.203
X261.38Y153.017
X261.353Y152.828
X261.344Y152.655
X261.359Y152.353
X261.409Y152.073
X261.495Y151.801
X261.613Y151.541
X261.764Y151.299
X261.944Y151.078
X262.15Y150.881
X262.38Y150.712
X262.629Y150.574
X262.893Y150.467
X263.169Y150.395
X263.452Y150.359
X263.737Y150.358
X264.037Y150.395
X264.206Y150.435
X264.387Y150.494
X264.563Y150.568
X264.813Y150.698
X265.267Y150.925
X265.309Y150.946
X265.352Y150.965
X265.396Y150.983
X265.439Y150.999
X265.922Y151.173
X265.967Y151.189
X266.013Y151.203
X266.059Y151.216
X266.105Y151.227
X266.608Y151.343
X266.656Y151.353
X266.703Y151.362
X266.751Y151.369
X266.799Y151.375
X267.313Y151.428
X267.359Y151.433
X267.406Y151.435
X267.453Y151.437
X267.5
X268.013Y151.43
X268.059Y151.429
X268.105Y151.426
X268.151Y151.422
X268.197Y151.417
X268.7Y151.351
X268.746Y151.344
X268.793Y151.336
X268.839Y151.326
X268.885Y151.315
X269.37Y151.192
X269.416Y151.18
X269.461Y151.166
X269.505Y151.151
X269.549Y151.135
X270.027Y150.952
X270.063Y150.937
X270.099Y150.922
X270.134Y150.906
X270.168Y150.889
X270.203Y150.872
X270.237Y150.853
X270.27Y150.834
X270.303Y150.813
X270.335Y150.793
X270.367Y150.771
X270.399Y150.748
X270.43Y150.725
X270.46Y150.701
X270.49Y150.676
X270.519Y150.65
X270.548Y150.624
X270.575Y150.597
X270.603Y150.57
X270.629Y150.542
X270.655Y150.513
X270.68Y150.484
X270.704Y150.454
X270.728Y150.423
X270.751Y150.392
X270.773Y150.36
X270.794Y150.328
X270.814Y150.295
X270.834Y150.262
X271.534Y149.05
X271.557Y149.009
X271.578Y148.969
X271.595Y148.934
X271.611Y148.899
X271.626Y148.863
X271.641Y148.827
X271.654Y148.791
X271.667Y148.755
X271.678Y148.718
X271.689Y148.681
X271.699Y148.643
X271.708Y148.606
X271.716Y148.568
X271.723Y148.53
X271.73Y148.492
X271.735Y148.453
X271.739Y148.416
X271.743Y148.379
X271.745Y148.341
X271.747Y148.304
Y148.266
Y148.229
X271.746Y148.192
X271.744Y148.154
X271.742Y148.117
X271.738Y148.08
X271.733Y148.043
X271.728Y148.005
X271.648Y147.5
X271.64Y147.454
X271.631Y147.408
X271.62Y147.362
X271.608Y147.317
X271.472Y146.835
X271.459Y146.79
X271.444Y146.745
X271.427Y146.7
X271.41Y146.656
X271.216Y146.189
X271.197Y146.146
X271.178Y146.104
X271.157Y146.063
X271.135Y146.022
X270.884Y145.574
X270.861Y145.534
X270.836Y145.494
X270.81Y145.455
X270.783Y145.416
X270.48Y144.999
X270.451Y144.96
X270.421Y144.922
X270.39Y144.885
X270.357Y144.849
X270.006Y144.472
X269.973Y144.437
X269.939Y144.404
X269.904Y144.371
X269.868Y144.34
X269.475Y144.009
X269.439Y143.979
X269.402Y143.95
X269.364Y143.923
X269.325Y143.897
X268.878Y143.602
X268.663Y143.466
X268.511Y143.351
X268.37Y143.223
X268.251Y143.096
X268.069Y142.855
X267.927Y142.608
X267.817Y142.345
X267.742Y142.07
X267.701Y141.788
X267.697Y141.503
X267.729Y141.219
X267.796Y140.942
X267.898Y140.676
X268.032Y140.424
X268.197Y140.192
X268.39Y139.982
X268.608Y139.798
X268.861Y139.634
X269.016Y139.556
X269.193Y139.484
X269.375Y139.428
X269.651Y139.367
X270.144Y139.25
X270.19Y139.238
X270.235Y139.225
X270.28Y139.211
X270.324Y139.195
X270.806Y139.018
X270.85Y139.001
X270.895Y138.983
X270.938Y138.963
X270.981Y138.942
X271.44Y138.707
X271.483Y138.685
X271.525Y138.661
X271.567Y138.635
X271.607Y138.609
X272.035Y138.32
X272.073Y138.293
X272.111Y138.265
X272.148Y138.236
X272.184Y138.206
X272.572Y137.871
X272.607Y137.841
X272.641Y137.809
X272.673Y137.776
X272.705Y137.742
X273.048Y137.369
X273.079Y137.334
X273.109Y137.298
X273.139Y137.261
X273.167Y137.223
X273.459Y136.816
X273.486Y136.778
X273.512Y136.738
X273.537Y136.698
X273.56Y136.658
X273.808Y136.21
X273.826Y136.177
X273.843Y136.144
X273.859Y136.11
X273.874Y136.076
X273.889Y136.041
X273.902Y136.007
X273.915Y135.972
X273.927Y135.936
X273.939Y135.901
X273.949Y135.865
X273.959Y135.828
X273.968Y135.792
X273.976Y135.754
X273.983Y135.716
X273.989Y135.678
X273.994Y135.639
X273.999Y135.601
X274.002Y135.563
X274.005Y135.524
X274.006Y135.485
X274.007Y135.447
Y135.408
X274.006Y135.37
X274.003Y135.331
X274Y135.292
X273.996Y135.254
X273.99Y135.208
X273.983Y135.163
X273.74Y133.784
X273.733Y133.746
X273.725Y133.708
X273.716Y133.671
X273.706Y133.634
X273.695Y133.596
X273.683Y133.56
X273.671Y133.523
X273.657Y133.487
X273.643Y133.451
X273.627Y133.416
X273.611Y133.38
X273.594Y133.346
X273.577Y133.311
X273.558Y133.277
X273.538Y133.244
X273.518Y133.211
X273.497Y133.178
X273.475Y133.146
X273.453Y133.115
X273.429Y133.084
X273.405Y133.054
X273.38Y133.024
X273.355Y132.995
X273.329Y132.967
X273.302Y132.939
X273.274Y132.912
X273.246Y132.886
X273.217Y132.86
X272.831Y132.524
X272.795Y132.494
X272.758Y132.465
X272.721Y132.437
X272.682Y132.41
X272.268Y132.128
X272.229Y132.102
X272.189Y132.077
X272.148Y132.053
X272.106Y132.031
X271.657Y131.797
X271.615Y131.777
X271.573Y131.757
X271.531Y131.739
X271.488Y131.722
X271.008Y131.54
X270.964Y131.524
X270.92Y131.509
X270.875Y131.496
X270.829Y131.484
X270.329Y131.359
X270.282Y131.348
X270.234Y131.338
X270.186Y131.33
X270.138Y131.323
X269.626Y131.26
X269.579Y131.255
X269.531Y131.251
X269.484Y131.249
X269.436Y131.248
X268.922Y131.246
X268.876Y131.247
X268.829Y131.249
X268.782Y131.252
X268.735Y131.257
X268.203Y131.319
X267.951Y131.352
X267.761Y131.362
X267.57Y131.355
X267.398Y131.334
X267.104Y131.267
X266.836Y131.169
X266.583Y131.037
X266.348Y130.875
X266.136Y130.685
X265.949Y130.469
X265.791Y130.232
X265.665Y129.977
X265.571Y129.707
X265.513Y129.428
X265.49Y129.144
X265.503Y128.859
X265.551Y128.578
X265.64Y128.29
X265.708Y128.13
X265.798Y127.962
X265.901Y127.801
X266.073Y127.578
X266.376Y127.17
X266.403Y127.132
X266.429Y127.093
X266.455Y127.054
X266.478Y127.013
X266.734Y126.568
X266.757Y126.526
X266.779Y126.484
X266.8Y126.441
X266.819Y126.397
X267.02Y125.922
X267.038Y125.877
X267.055Y125.831
X267.071Y125.786
X267.085Y125.739
X267.226Y125.243
X267.239Y125.198
X267.25Y125.152
X267.259Y125.107
X267.267Y125.061
X267.35Y124.554
X267.356Y124.508
X267.362Y124.462
X267.366Y124.416
X267.369Y124.37
X267.391Y123.864
X267.393Y123.816
Y123.769
X267.391Y123.722
X267.388Y123.675
X267.351Y123.175
X267.347Y123.129
X267.341Y123.082
X267.334Y123.036
X267.326Y122.99
X267.228Y122.487
X267.221Y122.451
X267.212Y122.414
X267.203Y122.378
X267.193Y122.342
X267.182Y122.306
X267.17Y122.271
X267.157Y122.235
X267.144Y122.2
X267.13Y122.166
X267.115Y122.132
X267.099Y122.098
X267.082Y122.064
X267.064Y122.03
X267.045Y121.996
X267.025Y121.963
X267.004Y121.93
X266.983Y121.898
X266.961Y121.866
X266.938Y121.835
X266.915Y121.804
X266.89Y121.774
X266.865Y121.745
X266.84Y121.716
X266.813Y121.688
X266.786Y121.661
X266.758Y121.634
X266.724Y121.603
X266.689Y121.573
X265.617Y120.673
X265.587Y120.648
X265.557Y120.624
X265.525Y120.601
X265.494Y120.579
X265.462Y120.558
X265.429Y120.537
X265.396Y120.517
X265.362Y120.498
X265.328Y120.48
X265.294Y120.462
X265.259Y120.446
X265.224Y120.43
X265.188Y120.415
X265.151Y120.401
X265.115Y120.388
X265.078Y120.376
X265.041Y120.364
X265.004Y120.354
X264.967Y120.345
X264.929Y120.336
X264.891Y120.328
X264.853Y120.322
X264.815Y120.316
X264.777Y120.311
X264.738Y120.307
X264.7Y120.304
X264.661Y120.302
X264.622Y120.301
X264.111Y120.291
X264.064
X264.017Y120.293
X263.97Y120.295
X263.923Y120.299
X263.425Y120.349
X263.378Y120.355
X263.331Y120.362
X263.285Y120.37
X263.239Y120.379
X262.744Y120.489
X262.699Y120.5
X262.654Y120.512
X262.61Y120.526
X262.566Y120.54
X262.082Y120.709
X262.038Y120.725
X261.994Y120.743
X261.951Y120.761
X261.909Y120.781
X261.445Y121.007
X261.402Y121.029
X261.359Y121.052
X261.317Y121.077
X261.276Y121.102
X260.843Y121.383
X260.804Y121.409
X260.765Y121.437
X260.727Y121.466
X260.69Y121.496
X260.295Y121.825
X260.26Y121.856
X260.225Y121.887
X260.191Y121.92
X260.158Y121.954
X259.791Y122.343
X259.62Y122.53
X259.48Y122.66
X259.329Y122.777
X259.184Y122.872
X258.915Y123.01
X258.647Y123.107
X258.369Y123.169
X258.085Y123.195
X257.8Y123.186
X257.518Y123.141
X257.245Y123.061
X256.984Y122.946
X256.739Y122.8
X256.515Y122.624
X256.314Y122.421
X256.141Y122.195
X255.998Y121.948
X255.881Y121.67
X255.83Y121.504
X255.79Y121.317
X255.767Y121.128
X255.755Y120.846
X255.724Y120.339
X255.721Y120.293
X255.716Y120.246
X255.71Y120.2
X255.702Y120.153
X255.612Y119.648
X255.603Y119.601
X255.592Y119.554
X255.58Y119.508
X255.567Y119.462
X255.416Y118.969
X255.401Y118.923
X255.384Y118.877
X255.367Y118.832
X255.348Y118.788
X255.137Y118.316
X255.118Y118.274
X255.097Y118.232
X255.075Y118.191
X255.051Y118.15
X254.789Y117.709
X254.764Y117.67
X254.739Y117.631
X254.712Y117.593
X254.685Y117.556
X254.377Y117.154
X254.348Y117.117
X254.317Y117.081
X254.286Y117.045
X254.253Y117.011
X253.904Y116.652
X253.871Y116.619
X253.836Y116.587
X253.801Y116.556
X253.765Y116.526
X253.367Y116.204
X253.337Y116.18
X253.306Y116.157
X253.275Y116.134
X253.243Y116.113
X253.21Y116.092
X253.177Y116.072
X253.144Y116.053
X253.11Y116.034
X253.075Y116.016
X253.041Y116
X253.005Y115.984
X252.97Y115.969
X252.934Y115.954
X252.897Y115.941
X252.86Y115.928
X252.824Y115.917
X252.786Y115.906
X252.749Y115.896
X252.711Y115.888
X252.674Y115.88
X252.636Y115.873
X252.597Y115.867
X252.559Y115.861
X252.521Y115.857
X252.482Y115.854
X252.444Y115.852
X252.405Y115.85
X252.366
X250.966
X250.921
X250.874Y115.852
X250.836Y115.855
X250.797Y115.859
X250.759Y115.863
X250.721Y115.869
X250.683Y115.875
X250.645Y115.883
X250.607Y115.891
X250.57Y115.9
X250.532Y115.91
X250.495Y115.921
X250.459Y115.933
X250.422Y115.946
X250.386Y115.959
X250.35Y115.974
X250.315Y115.989
X250.281Y116.005
X250.248Y116.021
X250.215Y116.039
X250.182Y116.057
X250.15Y116.075
X250.118Y116.095
X250.086Y116.115
X250.055Y116.136
X250.025Y116.158
X249.995Y116.181
X249.966Y116.204
X249.568Y116.526
X249.532Y116.556
X249.497Y116.587
X249.462Y116.619
X249.429Y116.652
X249.08Y117.011
X249.047Y117.045
X249.016Y117.081
X248.985Y117.117
X248.956Y117.154
X248.648Y117.556
X248.62Y117.593
X248.594Y117.631
X248.568Y117.67
X248.544Y117.709
X248.282Y118.15
X248.258Y118.191
X248.236Y118.232
X248.215Y118.274
X248.196Y118.316
X247.985Y118.788
X247.966Y118.832
X247.949Y118.877
X247.932Y118.923
X247.917Y118.969
X247.766Y119.462
X247.753Y119.508
X247.741Y119.555
X247.73Y119.601
X247.721Y119.648
X247.631Y120.153
X247.623Y120.199
X247.617Y120.246
X247.612Y120.293
X247.609Y120.339
X247.577Y120.874
X247.566Y121.128
X247.542Y121.317
X247.503Y121.504
X247.452Y121.67
X247.335Y121.948
X247.192Y122.194
X247.019Y122.421
X246.818Y122.624
X246.594Y122.8
X246.349Y122.946
X246.088Y123.06
X245.815Y123.141
X245.533Y123.186
X245.248Y123.195
X244.964Y123.169
X244.686Y123.107
X244.418Y123.01
X244.149Y122.872
X244.004Y122.777
X243.853Y122.66
X243.714Y122.53
X243.523Y122.322
X243.174Y121.953
X243.142Y121.92
X243.108Y121.887
X243.073Y121.855
X243.038Y121.825
X242.643Y121.496
X242.606Y121.466
X242.568Y121.437
X242.529Y121.409
X242.49Y121.383
X242.057Y121.102
X242.016Y121.077
X241.974Y121.052
X241.931Y121.029
X241.888Y121.007
X241.424Y120.781
X241.382Y120.761
X241.339Y120.742
X241.295Y120.725
X241.251Y120.709
X240.767Y120.54
X240.723Y120.525
X240.679Y120.512
X240.634Y120.5
X240.589Y120.489
X240.094Y120.379
X240.048Y120.37
X240.001Y120.361
X239.955Y120.355
X239.908Y120.349
X239.41Y120.299
X239.363Y120.295
X239.316Y120.292
X239.269Y120.291
X239.222
X238.71Y120.3
X238.672Y120.302
X238.633Y120.304
X238.595Y120.307
X238.556Y120.311
X238.518Y120.316
X238.48Y120.321
X238.442Y120.328
X238.404Y120.336
X238.366Y120.344
X238.329Y120.354
X238.291Y120.364
X238.255Y120.376
X238.218Y120.388
X238.181Y120.401
X238.145Y120.415
X238.109Y120.43
X238.074Y120.446
X238.039Y120.462
X238.004Y120.48
X237.97Y120.498
X237.937Y120.517
X237.904Y120.537
X237.871Y120.558
X237.839Y120.579
X237.807Y120.601
X237.776Y120.624
X237.746Y120.648
X237.716Y120.672
X236.644Y121.572
X236.609Y121.602
X236.575Y121.634
X236.547Y121.66
X236.52Y121.688
X236.493Y121.716
X236.468Y121.745
X236.443Y121.774
X236.418Y121.804
X236.395Y121.835
X236.372Y121.866
X236.35Y121.898
X236.328Y121.93
X236.308Y121.963
X236.288Y121.996
X236.269Y122.03
X236.251Y122.064
X236.234Y122.098
X236.218Y122.132
X236.203Y122.166
X236.189Y122.2
X236.175Y122.235
X236.163Y122.27
X236.151Y122.306
X236.14Y122.342
X236.13Y122.378
X236.121Y122.414
X236.112Y122.45
X236.104Y122.487
X236.007Y122.989
X235.998Y123.036
X235.991Y123.082
X235.986Y123.129
X235.982Y123.175
X235.945Y123.675
X235.942Y123.722
X235.94Y123.769
Y123.817
X235.942Y123.864
X235.964Y124.37
X235.967Y124.416
X235.971Y124.462
X235.977Y124.508
X235.983Y124.554
X236.066Y125.06
X236.074Y125.106
X236.083Y125.152
X236.094Y125.198
X236.106Y125.243
X236.248Y125.739
X236.262Y125.786
X236.278Y125.832
X236.295Y125.877
X236.313Y125.922
X236.514Y126.397
X236.533Y126.44
X236.554Y126.484
X236.576Y126.526
X236.599Y126.568
X236.854Y127.013
X236.878Y127.054
X236.903Y127.093
X236.93Y127.132
X236.957Y127.17
X237.277Y127.6
X237.432Y127.801
X237.535Y127.961
X237.624Y128.13
X237.693Y128.29
X237.781Y128.578
X237.83Y128.859
X237.843Y129.144
X237.82Y129.428
X237.761Y129.707
X237.668Y129.977
X237.541Y130.232
G0Z1
X250.415Y137.75
G1Z-0.3F50
X250.53Y137.562F100
X250.674Y137.394
X250.841Y137.251
X251.029Y137.136
X251.233Y137.052
X251.447Y137
X251.666Y136.983
X251.886Y137
X252.1Y137.052
X252.304Y137.136
X252.492Y137.251
X252.659Y137.394
X252.802Y137.562
X252.917Y137.75
X253.002Y137.953
X253.053Y138.167
X253.07Y138.387
X253.053Y138.607
X253.002Y138.821
X252.917Y139.025
X252.802Y139.212
X252.659Y139.38
X252.492Y139.523
X252.304Y139.638
X252.1Y139.722
X251.886Y139.774
X251.666Y139.791
X251.447Y139.774
X251.233Y139.722
X251.029Y139.638
X250.841Y139.523
X250.674Y139.38
X250.53Y139.212
X250.415Y139.025
X250.331Y138.821
X250.28Y138.607
X250.262Y138.387
X250.28Y138.167
X250.331Y137.953
X250.415Y137.75
G0Z1
X237.541Y130.232
G1Z-0.3F50
X237.384Y130.469F100
X237.197Y130.685
X236.985Y130.875
X236.75Y131.037
X236.497Y131.168
X236.229Y131.267
X235.935Y131.334
X235.763Y131.355
X235.572Y131.361
X235.381Y131.352
X235.102Y131.315
X234.598Y131.257
X234.551Y131.252
X234.504Y131.249
X234.457Y131.247
X234.41Y131.246
X233.897Y131.248
X233.849Y131.249
X233.802Y131.251
X233.754Y131.255
X233.707Y131.26
X233.195Y131.323
X233.147Y131.33
X233.099Y131.338
X233.051Y131.347
X233.004Y131.358
X232.503Y131.484
X232.458Y131.496
X232.413Y131.509
X232.369Y131.524
X232.325Y131.54
X231.845Y131.722
X231.802Y131.739
X231.759Y131.757
X231.717Y131.776
X231.676Y131.797
X231.226Y132.031
X231.185Y132.053
X231.144Y132.077
X231.104Y132.102
X231.064Y132.128
X230.65Y132.409
X230.612Y132.436
X230.574Y132.465
X230.538Y132.494
X230.502Y132.524
X230.116Y132.86
X230.087Y132.886
X230.059Y132.912
X230.031Y132.939
X230.004Y132.967
X229.978Y132.995
X229.952Y133.024
X229.928Y133.054
X229.904Y133.084
X229.88Y133.115
X229.858Y133.146
X229.836Y133.178
X229.815Y133.211
X229.795Y133.243
X229.775Y133.277
X229.756Y133.311
X229.739Y133.346
X229.722Y133.38
X229.706Y133.415
X229.69Y133.451
X229.676Y133.487
X229.662Y133.523
X229.65Y133.559
X229.638Y133.596
X229.627Y133.633
X229.617Y133.671
X229.608Y133.708
X229.6Y133.746
X229.593Y133.784
X229.35Y135.163
X229.343Y135.208
X229.337Y135.254
X229.333Y135.292
X229.329Y135.331
X229.327Y135.369
X229.326Y135.408
Y135.447
Y135.485
X229.328Y135.524
X229.331Y135.562
X229.334Y135.601
X229.338Y135.639
X229.344Y135.678
X229.35Y135.716
X229.357Y135.754
X229.365Y135.792
X229.374Y135.828
X229.384Y135.864
X229.394Y135.9
X229.405Y135.936
X229.417Y135.971
X229.43Y136.007
X229.444Y136.041
X229.459Y136.076
X229.474Y136.11
X229.49Y136.144
X229.507Y136.177
X229.525Y136.21
X229.773Y136.658
X229.796Y136.698
X229.821Y136.738
X229.847Y136.778
X229.873Y136.816
X230.166Y137.223
X230.194Y137.261
X230.223Y137.298
X230.254Y137.334
X230.285Y137.369
X230.628Y137.742
X230.66Y137.776
X230.692Y137.809
X230.726Y137.84
X230.761Y137.871
X231.149Y138.206
X231.185Y138.236
X231.222Y138.265
X231.26Y138.293
X231.298Y138.32
X231.726Y138.609
X231.766Y138.635
X231.808Y138.661
X231.85Y138.685
X231.893Y138.707
X232.352Y138.942
X232.395Y138.963
X232.438Y138.983
X232.482Y139.001
X232.527Y139.018
X233.009Y139.195
X233.053Y139.211
X233.098Y139.225
X233.143Y139.238
X233.188Y139.249
X233.709Y139.373
X233.958Y139.428
X234.14Y139.484
X234.317Y139.556
X234.471Y139.634
X234.725Y139.798
X234.943Y139.982
X235.136Y140.192
X235.301Y140.424
X235.435Y140.676
X235.537Y140.942
X235.604Y141.219
X235.636Y141.503
X235.631Y141.788
X235.591Y142.07
X235.516Y142.345
X235.406Y142.608
X235.264Y142.855
X235.082Y143.096
X234.963Y143.223
X234.821Y143.351
X234.669Y143.466
X234.431Y143.617
X234.008Y143.896
X233.969Y143.923
X233.931Y143.95
X233.894Y143.979
X233.857Y144.009
X233.465Y144.34
X233.429Y144.371
X233.394Y144.404
X233.36Y144.437
X233.327Y144.472
X232.976Y144.849
X232.943Y144.885
X232.912Y144.922
X232.881Y144.96
X232.852Y144.999
X232.549Y145.416
X232.522Y145.455
X232.496Y145.494
X232.472Y145.534
X232.448Y145.574
X232.198Y146.022
X232.176Y146.063
X232.155Y146.104
X232.135Y146.146
X232.117Y146.189
X231.923Y146.656
X231.905Y146.7
X231.889Y146.745
X231.874Y146.79
X231.861Y146.835
X231.725Y147.317
X231.713Y147.362
X231.702Y147.408
X231.693Y147.454
X231.685Y147.5
X231.605Y148.006
X231.599Y148.043
X231.595Y148.08
X231.591Y148.117
X231.588Y148.154
X231.587Y148.192
X231.586Y148.229
X231.585Y148.266
X231.586Y148.304
X231.588Y148.341
X231.59Y148.379
X231.594Y148.416
X231.598Y148.454
X231.603Y148.492
X231.609Y148.53
X231.617Y148.568
X231.625Y148.606
X231.634Y148.643
X231.644Y148.681
X231.654Y148.718
X231.666Y148.754
X231.679Y148.791
X231.692Y148.827
X231.707Y148.863
X231.722Y148.899
X231.738Y148.934
X231.755Y148.968
X231.776Y149.009
X231.798Y149.049
X232.499Y150.262
X232.518Y150.295
X232.539Y150.328
X232.56Y150.36
X232.582Y150.392
X232.605Y150.423
X232.629Y150.454
X232.653Y150.484
X232.678Y150.513
X232.704Y150.542
X232.73Y150.57
X232.757Y150.597
X232.785Y150.624
X232.814Y150.65
X232.843Y150.676
X232.873Y150.701
X232.903Y150.725
X232.934Y150.748
X232.965Y150.771
X232.997Y150.792
X233.03Y150.813
X233.063Y150.834
X233.096Y150.853
X233.13Y150.871
X233.164Y150.889
X233.199Y150.906
X233.234Y150.922
X233.27Y150.937
X233.306Y150.951
X233.783Y151.135
X233.827Y151.151
X233.872Y151.166
X233.917Y151.18
X233.962Y151.192
X234.448Y151.315
X234.494Y151.326
X234.54Y151.336
X234.586Y151.344
X234.633Y151.351
X235.135Y151.416
X235.181Y151.422
X235.228Y151.426
X235.274Y151.428
X235.32Y151.43
X235.833Y151.437
X235.88
X235.927Y151.435
X235.974Y151.432
X236.02Y151.428
X236.533Y151.375
X236.581Y151.369
X236.629Y151.362
X236.677Y151.353
X236.725Y151.343
X237.227Y151.227
X237.274Y151.216
X237.32Y151.203
X237.365Y151.189
X237.41Y151.173
X237.893Y150.999
X237.937Y150.983
X237.981Y150.965
X238.024Y150.945
X238.066Y150.925
X238.544Y150.685
X238.77Y150.567
X238.945Y150.494
X239.127Y150.435
X239.296Y150.395
X239.595Y150.358
X239.881
X240.163Y150.395
X240.439Y150.467
X240.704Y150.573
X240.953Y150.712
X241.182Y150.881
X241.389Y151.078
X241.569Y151.299
X241.719Y151.541
X241.838Y151.8
X241.923Y152.073
X241.974Y152.353
X241.989Y152.655
X241.979Y152.824
X241.953Y153.018
X241.91Y153.203
X241.825Y153.472
X241.68Y153.958
X241.668Y154.003
X241.656Y154.049
X241.646Y154.095
X241.638Y154.141
X241.55Y154.647
X241.543Y154.694
X241.536Y154.741
X241.532Y154.789
X241.529Y154.836
X241.502Y155.351
X241.5Y155.4
Y155.449
X241.501Y155.497
X241.504Y155.546
X241.54Y156.06
X241.544Y156.107
X241.55Y156.153
X241.556Y156.2
X241.564Y156.246
X241.66Y156.75
X241.67Y156.795
X241.68Y156.84
X241.692Y156.885
X241.705Y156.93
X241.857Y157.413
X241.872Y157.458
X241.888Y157.502
X241.906Y157.546
X241.925Y157.589
X242.13Y158.046
X242.15Y158.088
X242.171Y158.13
X242.194Y158.171
X242.217Y158.212
X242.481Y158.651
X242.501Y158.682
X242.521Y158.714
X242.542Y158.745
X242.564Y158.775
X242.587Y158.805
X242.61Y158.834
X242.634Y158.863
X242.658Y158.891
X242.684Y158.919
X242.71Y158.946
X242.736Y158.972
X242.764Y158.998
X242.792Y159.024
X242.822Y159.049
X242.852Y159.074
X242.882Y159.098
X242.913Y159.121
X242.945Y159.143
X242.977Y159.164
X243.009Y159.185
X243.042Y159.205
X243.076Y159.224
X243.11Y159.242
X243.145Y159.259
X243.179Y159.276
X243.215Y159.292
X243.257Y159.309
X243.3Y159.326
X244.616Y159.805
X244.652Y159.817
X244.689Y159.829
X244.726Y159.84
X244.763Y159.85
X244.801Y159.86
X244.839Y159.868
X244.877Y159.875
X244.915Y159.882
X244.953Y159.887
X244.991Y159.892
X245.03Y159.895
X245.068Y159.898
X245.107Y159.9
X245.146
X245.185
X245.223Y159.899
X245.262Y159.897
X245.301Y159.894
X245.339Y159.89
X245.377Y159.886
X245.416Y159.88
X245.454Y159.873
X245.491Y159.866
X245.529Y159.857
X245.567Y159.848
X245.604Y159.837
X245.641Y159.826
X245.678Y159.814
X246.161Y159.648
X246.206Y159.632
X246.249Y159.614
X246.292Y159.596
X246.335Y159.576
X246.786Y159.359
X246.828Y159.338
X246.87Y159.315
X246.911Y159.291
X246.951Y159.267
X247.378Y158.994
X247.417Y158.969
X247.455Y158.942
X247.492Y158.914
X247.528Y158.886
X247.926Y158.561
X247.961Y158.531
X247.996Y158.5
X248.03Y158.468
X248.063Y158.434
X248.422Y158.063
X248.455Y158.028
X248.487Y157.992
X248.518Y157.954
X248.548Y157.916
X248.859Y157.504
X248.887Y157.466
X248.914Y157.426
X248.94Y157.386
X248.964Y157.345
X249.222Y156.902
X249.245Y156.861
X249.267Y156.819
X249.288Y156.777
X249.307Y156.734
X249.52Y156.242
X249.616Y156.008
X249.703Y155.838
X249.805Y155.676
X249.909Y155.537
X250.114Y155.316
X250.333Y155.133
X250.573Y154.98
X250.831Y154.858
X251.102Y154.769
X251.382Y154.715
X251.666Y154.697
X251.951Y154.715
X252.231Y154.769
X252.502Y154.858
X252.759Y154.98
X253Y155.133
X253.219Y155.316
X253.424Y155.537
X253.528Y155.676
X253.629Y155.838
X253.716Y156.008
X253.824Y156.268
X254.026Y156.734
X254.045Y156.777
X254.066Y156.819
X254.087Y156.861
X254.11Y156.902
X254.368Y157.346
X254.393Y157.386
X254.419Y157.427
X254.446Y157.466
X254.474Y157.504
X254.785Y157.916
X254.814Y157.954
X254.845Y157.992
X254.878Y158.028
X254.911Y158.064
X255.269Y158.434
X255.302Y158.468
X255.336Y158.5
X255.371Y158.531
X255.407Y158.561
X255.805Y158.886
X255.841Y158.914
X255.878Y158.942
X255.916Y158.969
X255.955Y158.994
X256.382Y159.267
X256.422Y159.292
X256.463Y159.315
X256.504Y159.338
X256.547Y159.359
X256.998Y159.576
X257.04Y159.596
X257.083Y159.614
X257.127Y159.632
X257.171Y159.648
X257.655Y159.814
X257.692Y159.826
X257.729Y159.837
X257.766Y159.848
X257.803Y159.857
X257.841Y159.866
X257.879Y159.873
X257.917Y159.88
X257.955Y159.886
X257.994Y159.89
X258.032Y159.894
X258.071Y159.897
X258.109Y159.899
X258.148Y159.9
X258.187
X258.226
X258.264Y159.898
X258.303Y159.895
X258.341Y159.892
X258.38Y159.887
X258.418Y159.882
X258.456Y159.875
X258.494Y159.868
X258.532Y159.86
X258.569Y159.85
X258.606Y159.84
X258.644Y159.829
X258.68Y159.817
X258.717Y159.805
X260.032Y159.326
X260.075Y159.309
X260.118Y159.292
X260.153Y159.276
X260.188Y159.26
X260.223Y159.242
X260.257Y159.224
X260.29Y159.205
X260.323Y159.185
X260.356Y159.164
X260.388Y159.143
X260.42Y159.121
X260.451Y159.098
X260.481Y159.074
X260.511Y159.049
X260.54Y159.024
X260.569Y158.998
X260.597Y158.972
X260.623Y158.946
X260.649Y158.919
X260.674Y158.891
X260.699Y158.863
X260.723Y158.834
X260.746Y158.805
X260.769Y158.775
X260.79Y158.745
X260.812Y158.714
X260.832Y158.683
X260.852Y158.651
X261.115Y158.212
X261.139Y158.172
X261.161Y158.13
X261.183Y158.088
X261.202Y158.046
X261.408Y157.589
X261.427Y157.546
X261.444Y157.502
X261.461Y157.457
X261.476Y157.413
X261.627Y156.929
X261.641Y156.885
X261.652Y156.84
X261.663Y156.795
X261.672Y156.75
X261.768Y156.246
X261.776Y156.2
X261.783Y156.153
X261.789Y156.107
X261.793Y156.06
X261.829Y155.545
X261.831Y155.497
X261.833Y155.449
X261.832Y155.4
X261.831Y155.352
X261.804Y154.837
X261.801Y154.789
X261.796Y154.741
X261.79Y154.694
X261.783Y154.647
X261.695Y154.141
X261.686Y154.095
X261.676Y154.049
X261.665Y154.004
X261.652Y153.958
X261.499Y153.445
X261.422Y153.203
X261.38Y153.017
X261.353Y152.828
X261.344Y152.655
X261.359Y152.353
X261.409Y152.073
X261.495Y151.801
X261.613Y151.541
X261.764Y151.299
X261.944Y151.078
X262.15Y150.881
X262.38Y150.712
X262.629Y150.574
X262.893Y150.467
X263.169Y150.395
X263.452Y150.359
X263.737Y150.358
X264.037Y150.395
X264.206Y150.435
X264.387Y150.494
X264.563Y150.568
X264.813Y150.698
X265.267Y150.925
X265.309Y150.946
X265.352Y150.965
X265.396Y150.983
X265.439Y150.999
X265.922Y151.173
X265.967Y151.189
X266.013Y151.203
X266.059Y151.216
X266.105Y151.227
X266.608Y151.343
X266.656Y151.353
X266.703Y151.362
X266.751Y151.369
X266.799Y151.375
X267.313Y151.428
X267.359Y151.433
X267.406Y151.435
X267.453Y151.437
X267.5
X268.013Y151.43
X268.059Y151.429
X268.105Y151.426
X268.151Y151.422
X268.197Y151.417
X268.7Y151.351
X268.746Y151.344
X268.793Y151.336
X268.839Y151.326
X268.885Y151.315
X269.37Y151.192
X269.416Y151.18
X269.461Y151.166
X269.505Y151.151
X269.549Y151.135
X270.027Y150.952
X270.063Y150.937
X270.099Y150.922
X270.134Y150.906
X270.168Y150.889
X270.203Y150.872
X270.237Y150.853
X270.27Y150.834
X270.303Y150.813
X270.335Y150.793
X270.367Y150.771
X270.399Y150.748
X270.43Y150.725
X270.46Y150.701
X270.49Y150.676
X270.519Y150.65
X270.548Y150.624
X270.575Y150.597
X270.603Y150.57
X270.629Y150.542
X270.655Y150.513
X270.68Y150.484
X270.704Y150.454
X270.728Y150.423
X270.751Y150.392
X270.773Y150.36
X270.794Y150.328
X270.814Y150.295
X270.834Y150.262
X271.534Y149.05
X271.557Y149.009
X271.578Y148.969
X271.595Y148.934
X271.611Y148.899
X271.626Y148.863
X271.641Y148.827
X271.654Y148.791
X271.667Y148.755
X271.678Y148.718
X271.689Y148.681
X271.699Y148.643
X271.708Y148.606
X271.716Y148.568
X271.723Y148.53
X271.73Y148.492
X271.735Y148.453
X271.739Y148.416
X271.743Y148.379
X271.745Y148.341
X271.747Y148.304
Y148.266
Y148.229
X271.746Y148.192
X271.744Y148.154
X271.742Y148.117
X271.738Y148.08
X271.733Y148.043
X271.728Y148.005
X271.648Y147.5
X271.64Y147.454
X271.631Y147.408
X271.62Y147.362
X271.608Y147.317
X271.472Y146.835
X271.459Y146.79
X271.444Y146.745
X271.427Y146.7
X271.41Y146.656
X271.216Y146.189
X271.197Y146.146
X271.178Y146.104
X271.157Y146.063
X271.135Y146.022
X270.884Y145.574
X270.861Y145.534
X270.836Y145.494
X270.81Y145.455
X270.783Y145.416
X270.48Y144.999
X270.451Y144.96
X270.421Y144.922
X270.39Y144.885
X270.357Y144.849
X270.006Y144.472
X269.973Y144.437
X269.939Y144.404
X269.904Y144.371
X269.868Y144.34
X269.475Y144.009
X269.439Y143.979
X269.402Y143.95
X269.364Y143.923
X269.325Y143.897
X268.878Y143.602
X268.663Y143.466
X268.511Y143.351
X268.37Y143.223
X268.251Y143.096
X268.069Y142.855
X267.927Y142.608
X267.817Y142.345
X267.742Y142.07
X267.701Y141.788
X267.697Y141.503
X267.729Y141.219
X267.796Y140.942
X267.898Y140.676
X268.032Y140.424
X268.197Y140.192
X268.39Y139.982
X268.608Y139.798
X268.861Y139.634
X269.016Y139.556
X269.193Y139.484
X269.375Y139.428
X269.651Y139.367
X270.144Y139.25
X270.19Y139.238
X270.235Y139.225
X270.28Y139.211
X270.324Y139.195
X270.806Y139.018
X270.85Y139.001
X270.895Y138.983
X270.938Y138.963
X270.981Y138.942
X271.44Y138.707
X271.483Y138.685
X271.525Y138.661
X271.567Y138.635
X271.607Y138.609
X272.035Y138.32
X272.073Y138.293
X272.111Y138.265
X272.148Y138.236
X272.184Y138.206
X272.572Y137.871
X272.607Y137.841
X272.641Y137.809
X272.673Y137.776
X272.705Y137.742
X273.048Y137.369
X273.079Y137.334
X273.109Y137.298
X273.139Y137.261
X273.167Y137.223
X273.459Y136.816
X273.486Y136.778
X273.512Y136.738
X273.537Y136.698
X273.56Y136.658
X273.808Y136.21
X273.826Y136.177
X273.843Y136.144
X273.859Y136.11
X273.874Y136.076
X273.889Y136.041
X273.902Y136.007
X273.915Y135.972
X273.927Y135.936
X273.939Y135.901
X273.949Y135.865
X273.959Y135.828
X273.968Y135.792
X273.976Y135.754
X273.983Y135.716
X273.989Y135.678
X273.994Y135.639
X273.999Y135.601
X274.002Y135.563
X274.005Y135.524
X274.006Y135.485
X274.007Y135.447
Y135.408
X274.006Y135.37
X274.003Y135.331
X274Y135.292
X273.996Y135.254
X273.99Y135.208
X273.983Y135.163
X273.74Y133.784
X273.733Y133.746
X273.725Y133.708
X273.716Y133.671
X273.706Y133.634
X273.695Y133.596
X273.683Y133.56
X273.671Y133.523
X273.657Y133.487
X273.643Y133.451
X273.627Y133.416
X273.611Y133.38
X273.594Y133.346
X273.577Y133.311
X273.558Y133.277
X273.538Y133.244
X273.518Y133.211
X273.497Y133.178
X273.475Y133.146
X273.453Y133.115
X273.429Y133.084
X273.405Y133.054
X273.38Y133.024
X273.355Y132.995
X273.329Y132.967
X273.302Y132.939
X273.274Y132.912
X273.246Y132.886
X273.217Y132.86
X272.831Y132.524
X272.795Y132.494
X272.758Y132.465
X272.721Y132.437
X272.682Y132.41
X272.268Y132.128
X272.229Y132.102
X272.189Y132.077
X272.148Y132.053
X272.106Y132.031
X271.657Y131.797
X271.615Y131.777
X271.573Y131.757
X271.531Y131.739
X271.488Y131.722
X271.008Y131.54
X270.964Y131.524
X270.92Y131.509
X270.875Y131.496
X270.829Y131.484
X270.329Y131.359
X270.282Y131.348
X270.234Y131.338
X270.186Y131.33
X270.138Y131.323
X269.626Y131.26
X269.579Y131.255
X269.531Y131.251
X269.484Y131.249
X269.436Y131.248
X268.922Y131.246
X268.876Y131.247
X268.829Y131.249
X268.782Y131.252
X268.735Y131.257
X268.203Y131.319
X267.951Y131.352
X267.761Y131.362
X267.57Y131.355
X267.398Y131.334
X267.104Y131.267
X266.836Y131.169
X266.583Y131.037
X266.348Y130.875
X266.136Y130.685
X265.949Y130.469
X265.791Y130.232
X265.665Y129.977
X265.571Y129.707
X265.513Y129.428
X265.49Y129.144
X265.503Y128.859
X265.551Y128.578
X265.64Y128.29
X265.708Y128.13
X265.798Y127.962
X265.901Y127.801
X266.073Y127.578
X266.376Y127.17
X266.403Y127.132
X266.429Y127.093
X266.455Y127.054
X266.478Y127.013
X266.734Y126.568
X266.757Y126.526
X266.779Y126.484
X266.8Y126.441
X266.819Y126.397
X267.02Y125.922
X267.038Y125.877
X267.055Y125.831
X267.071Y125.786
X267.085Y125.739
X267.226Y125.243
X267.239Y125.198
X267.25Y125.152
X267.259Y125.107
X267.267Y125.061
X267.35Y124.554
X267.356Y124.508
X267.362Y124.462
X267.366Y124.416
X267.369Y124.37
X267.391Y123.864
X267.393Y123.816
Y123.769
X267.391Y123.722
X267.388Y123.675
X267.351Y123.175
X267.347Y123.129
X267.341Y123.082
X267.334Y123.036
X267.326Y122.99
X267.228Y122.487
X267.221Y122.451
X267.212Y122.414
X267.203Y122.378
X267.193Y122.342
X267.182Y122.306
X267.17Y122.271
X267.157Y122.235
X267.144Y122.2
X267.13Y122.166
X267.115Y122.132
X267.099Y122.098
X267.082Y122.064
X267.064Y122.03
X267.045Y121.996
X267.025Y121.963
X267.004Y121.93
X266.983Y121.898
X266.961Y121.866
X266.938Y121.835
X266.915Y121.804
X266.89Y121.774
X266.865Y121.745
X266.84Y121.716
X266.813Y121.688
X266.786Y121.661
X266.758Y121.634
X266.724Y121.603
X266.689Y121.573
X265.617Y120.673
X265.587Y120.648
X265.557Y120.624
X265.525Y120.601
X265.494Y120.579
X265.462Y120.558
X265.429Y120.537
X265.396Y120.517
X265.362Y120.498
X265.328Y120.48
X265.294Y120.462
X265.259Y120.446
X265.224Y120.43
X265.188Y120.415
X265.151Y120.401
X265.115Y120.388
X265.078Y120.376
X265.041Y120.364
X265.004Y120.354
X264.967Y120.345
X264.929Y120.336
X264.891Y120.328
X264.853Y120.322
X264.815Y120.316
X264.777Y120.311
X264.738Y120.307
X264.7Y120.304
X264.661Y120.302
X264.622Y120.301
X264.111Y120.291
X264.064
X264.017Y120.293
X263.97Y120.295
X263.923Y120.299
X263.425Y120.349
X263.378Y120.355
X263.331Y120.362
X263.285Y120.37
X263.239Y120.379
X262.744Y120.489
X262.699Y120.5
X262.654Y120.512
X262.61Y120.526
X262.566Y120.54
X262.082Y120.709
X262.038Y120.725
X261.994Y120.743
X261.951Y120.761
X261.909Y120.781
X261.445Y121.007
X261.402Y121.029
X261.359Y121.052
X261.317Y121.077
X261.276Y121.102
X260.843Y121.383
X260.804Y121.409
X260.765Y121.437
X260.727Y121.466
X260.69Y121.496
X260.295Y121.825
X260.26Y121.856
X260.225Y121.887
X260.191Y121.92
X260.158Y121.954
X259.791Y122.343
X259.62Y122.53
X259.48Y122.66
X259.329Y122.777
X259.184Y122.872
X258.915Y123.01
X258.647Y123.107
X258.369Y123.169
X258.085Y123.195
X257.8Y123.186
X257.518Y123.141
X257.245Y123.061
X256.984Y122.946
X256.739Y122.8
X256.515Y122.624
X256.314Y122.421
X256.141Y122.195
X255.998Y121.948
X255.881Y121.67
X255.83Y121.504
X255.79Y121.317
X255.767Y121.128
X255.755Y120.846
X255.724Y120.339
X255.721Y120.293
X255.716Y120.246
X255.71Y120.2
X255.702Y120.153
X255.612Y119.648
X255.603Y119.601
X255.592Y119.554
X255.58Y119.508
X255.567Y119.462
X255.416Y118.969
X255.401Y118.923
X255.384Y118.877
X255.367Y118.832
X255.348Y118.788
X255.137Y118.316
X255.118Y118.274
X255.097Y118.232
X255.075Y118.191
X255.051Y118.15
X254.789Y117.709
X254.764Y117.67
X254.739Y117.631
X254.712Y117.593
X254.685Y117.556
X254.377Y117.154
X254.348Y117.117
X254.317Y117.081
X254.286Y117.045
X254.253Y117.011
X253.904Y116.652
X253.871Y116.619
X253.836Y116.587
X253.801Y116.556
X253.765Y116.526
X253.367Y116.204
X253.337Y116.18
X253.306Y116.157
X253.275Y116.134
X253.243Y116.113
X253.21Y116.092
X253.177Y116.072
X253.144Y116.053
X253.11Y116.034
X253.075Y116.016
X253.041Y116
X253.005Y115.984
X252.97Y115.969
X252.934Y115.954
X252.897Y115.941
X252.86Y115.928
X252.824Y115.917
X252.786Y115.906
X252.749Y115.896
X252.711Y115.888
X252.674Y115.88
X252.636Y115.873
X252.597Y115.867
X252.559Y115.861
X252.521Y115.857
X252.482Y115.854
X252.444Y115.852
X252.405Y115.85
X252.366
X250.966
X250.921
X250.874Y115.852
X250.836Y115.855
X250.797Y115.859
X250.759Y115.863
X250.721Y115.869
X250.683Y115.875
X250.645Y115.883
X250.607Y115.891
X250.57Y115.9
X250.532Y115.91
X250.495Y115.921
X250.459Y115.933
X250.422Y115.946
X250.386Y115.959
X250.35Y115.974
X250.315Y115.989
X250.281Y116.005
X250.248Y116.021
X250.215Y116.039
X250.182Y116.057
X250.15Y116.075
X250.118Y116.095
X250.086Y116.115
X250.055Y116.136
X250.025Y116.158
X249.995Y116.181
X249.966Y116.204
X249.568Y116.526
X249.532Y116.556
X249.497Y116.587
X249.462Y116.619
X249.429Y116.652
X249.08Y117.011
X249.047Y117.045
X249.016Y117.081
X248.985Y117.117
X248.956Y117.154
X248.648Y117.556
X248.62Y117.593
X248.594Y117.631
X248.568Y117.67
X248.544Y117.709
X248.282Y118.15
X248.258Y118.191
X248.236Y118.232
X248.215Y118.274
X248.196Y118.316
X247.985Y118.788
X247.966Y118.832
X247.949Y118.877
X247.932Y118.923
X247.917Y118.969
X247.766Y119.462
X247.753Y119.508
X247.741Y119.555
X247.73Y119.601
X247.721Y119.648
X247.631Y120.153
X247.623Y120.199
X247.617Y120.246
X247.612Y120.293
X247.609Y120.339
X247.577Y120.874
X247.566Y121.128
X247.542Y121.317
X247.503Y121.504
X247.452Y121.67
X247.335Y121.948
X247.192Y122.194
X247.019Y122.421
X246.818Y122.624
X246.594Y122.8
X246.349Y122.946
X246.088Y123.06
X245.815Y123.141
X245.533Y123.186
X245.248Y123.195
X244.964Y123.169
X244.686Y123.107
X244.418Y123.01
X244.149Y122.872
X244.004Y122.777
X243.853Y122.66
X243.714Y122.53
X243.523Y122.322
X243.174Y121.953
X243.142Y121.92
X243.108Y121.887
X243.073Y121.855
X243.038Y121.825
X242.643Y121.496
X242.606Y121.466
X242.568Y121.437
X242.529Y121.409
X242.49Y121.383
X242.057Y121.102
X242.016Y121.077
X241.974Y121.052
X241.931Y121.029
X241.888Y121.007
X241.424Y120.781
X241.382Y120.761
X241.339Y120.742
X241.295Y120.725
X241.251Y120.709
X240.767Y120.54
X240.723Y120.525
X240.679Y120.512
X240.634Y120.5
X240.589Y120.489
X240.094Y120.379
X240.048Y120.37
X240.001Y120.361
X239.955Y120.355
X239.908Y120.349
X239.41Y120.299
X239.363Y120.295
X239.316Y120.292
X239.269Y120.291
X239.222
X238.71Y120.3
X238.672Y120.302
X238.633Y120.304
X238.595Y120.307
X238.556Y120.311
X238.518Y120.316
X238.48Y120.321
X238.442Y120.328
X238.404Y120.336
X238.366Y120.344
X238.329Y120.354
X238.291Y120.364
X238.255Y120.376
X238.218Y120.388
X238.181Y120.401
X238.145Y120.415
X238.109Y120.43
X238.074Y120.446
X238.039Y120.462
X238.004Y120.48
X237.97Y120.498
X237.937Y120.517
X237.904Y120.537
X237.871Y120.558
X237.839Y120.579
X237.807Y120.601
X237.776Y120.624
X237.746Y120.648
X237.716Y120.672
X236.644Y121.572
X236.609Y121.602
X236.575Y121.634
X236.547Y121.66
X236.52Y121.688
X236.493Y121.716
X236.468Y121.745
X236.443Y121.774
X236.418Y121.804
X236.395Y121.835
X236.372Y121.866
X236.35Y121.898
X236.328Y121.93
X236.308Y121.963
X236.288Y121.996
X236.269Y122.03
X236.251Y122.064
X236.234Y122.098
X236.218Y122.132
X236.203Y122.166
X236.189Y122.2
X236.175Y122.235
X236.163Y122.27
X236.151Y122.306
X236.14Y122.342
X236.13Y122.378
X236.121Y122.414
X236.112Y122.45
X236.104Y122.487
X236.007Y122.989
X235.998Y123.036
X235.991Y123.082
X235.986Y123.129
X235.982Y123.175
X235.945Y123.675
X235.942Y123.722
X235.94Y123.769
Y123.817
X235.942Y123.864
X235.964Y124.37
X235.967Y124.416
X235.971Y124.462
X235.977Y124.508
X235.983Y124.554
X236.066Y125.06
X236.074Y125.106
X236.083Y125.152
X236.094Y125.198
X236.106Y125.243
X236.248Y125.739
X236.262Y125.786
X236.278Y125.832
X236.295Y125.877
X236.313Y125.922
X236.514Y126.397
X236.533Y126.44
X236.554Y126.484
X236.576Y126.526
X236.599Y126.568
X236.854Y127.013
X236.878Y127.054
X236.903Y127.093
X236.93Y127.132
X236.957Y127.17
X237.277Y127.6
X237.432Y127.801
X237.535Y127.961
X237.624Y128.13
X237.693Y128.29
X237.781Y128.578
X237.83Y128.859
X237.843Y129.144
X237.82Y129.428
X237.761Y129.707
X237.668Y129.977
X237.541Y130.232
G0Z1
X250.415Y137.75
G1Z-0.4F50
X250.53Y137.562F100
X250.674Y137.394
X250.841Y137.251
X251.029Y137.136
X251.233Y137.052
X251.447Y137
X251.666Y136.983
X251.886Y137
X252.1Y137.052
X252.304Y137.136
X252.492Y137.251
X252.659Y137.394
X252.802Y137.562
X252.917Y137.75
X253.002Y137.953
X253.053Y138.167
X253.07Y138.387
X253.053Y138.607
X253.002Y138.821
X252.917Y139.025
X252.802Y139.212
X252.659Y139.38
X252.492Y139.523
X252.304Y139.638
X252.1Y139.722
X251.886Y139.774
X251.666Y139.791
X251.447Y139.774
X251.233Y139.722
X251.029Y139.638
X250.841Y139.523
X250.674Y139.38
X250.53Y139.212
X250.415Y139.025
X250.331Y138.821
X250.28Y138.607
X250.262Y138.387
X250.28Y138.167
X250.331Y137.953
X250.415Y137.75
G0Z1
X237.541Y130.232
G1Z-0.4F50
X237.384Y130.469F100
X237.197Y130.685
X236.985Y130.875
X236.75Y131.037
X236.497Y131.168
X236.229Y131.267
X235.935Y131.334
X235.763Y131.355
X235.572Y131.361
X235.381Y131.352
X235.102Y131.315
X234.598Y131.257
X234.551Y131.252
X234.504Y131.249
X234.457Y131.247
X234.41Y131.246
X233.897Y131.248
X233.849Y131.249
X233.802Y131.251
X233.754Y131.255
X233.707Y131.26
X233.195Y131.323
X233.147Y131.33
X233.099Y131.338
X233.051Y131.347
X233.004Y131.358
X232.503Y131.484
X232.458Y131.496
X232.413Y131.509
X232.369Y131.524
X232.325Y131.54
X231.845Y131.722
X231.802Y131.739
X231.759Y131.757
X231.717Y131.776
X231.676Y131.797
X231.226Y132.031
X231.185Y132.053
X231.144Y132.077
X231.104Y132.102
X231.064Y132.128
X230.65Y132.409
X230.612Y132.436
X230.574Y132.465
X230.538Y132.494
X230.502Y132.524
X230.116Y132.86
X230.087Y132.886
X230.059Y132.912
X230.031Y132.939
X230.004Y132.967
X229.978Y132.995
X229.952Y133.024
X229.928Y133.054
X229.904Y133.084
X229.88Y133.115
X229.858Y133.146
X229.836Y133.178
X229.815Y133.211
X229.795Y133.243
X229.775Y133.277
X229.756Y133.311
X229.739Y133.346
X229.722Y133.38
X229.706Y133.415
X229.69Y133.451
X229.676Y133.487
X229.662Y133.523
X229.65Y133.559
X229.638Y133.596
X229.627Y133.633
X229.617Y133.671
X229.608Y133.708
X229.6Y133.746
X229.593Y133.784
X229.35Y135.163
X229.343Y135.208
X229.337Y135.254
X229.333Y135.292
X229.329Y135.331
X229.327Y135.369
X229.326Y135.408
Y135.447
Y135.485
X229.328Y135.524
X229.331Y135.562
X229.334Y135.601
X229.338Y135.639
X229.344Y135.678
X229.35Y135.716
X229.357Y135.754
X229.365Y135.792
X229.374Y135.828
X229.384Y135.864
X229.394Y135.9
X229.405Y135.936
X229.417Y135.971
X229.43Y136.007
X229.444Y136.041
X229.459Y136.076
X229.474Y136.11
X229.49Y136.144
X229.507Y136.177
X229.525Y136.21
X229.773Y136.658
X229.796Y136.698
X229.821Y136.738
X229.847Y136.778
X229.873Y136.816
X230.166Y137.223
X230.194Y137.261
X230.223Y137.298
X230.254Y137.334
X230.285Y137.369
X230.628Y137.742
X230.66Y137.776
X230.692Y137.809
X230.726Y137.84
X230.761Y137.871
X231.149Y138.206
X231.185Y138.236
X231.222Y138.265
X231.26Y138.293
X231.298Y138.32
X231.726Y138.609
X231.766Y138.635
X231.808Y138.661
X231.85Y138.685
X231.893Y138.707
X232.352Y138.942
X232.395Y138.963
X232.438Y138.983
X232.482Y139.001
X232.527Y139.018
X233.009Y139.195
X233.053Y139.211
X233.098Y139.225
X233.143Y139.238
X233.188Y139.249
X233.709Y139.373
X233.958Y139.428
X234.14Y139.484
X234.317Y139.556
X234.471Y139.634
X234.725Y139.798
X234.943Y139.982
X235.136Y140.192
X235.301Y140.424
X235.435Y140.676
X235.537Y140.942
X235.604Y141.219
X235.636Y141.503
X235.631Y141.788
X235.591Y142.07
X235.516Y142.345
X235.406Y142.608
X235.264Y142.855
X235.082Y143.096
X234.963Y143.223
X234.821Y143.351
X234.669Y143.466
X234.431Y143.617
X234.008Y143.896
X233.969Y143.923
X233.931Y143.95
X233.894Y143.979
X233.857Y144.009
X233.465Y144.34
X233.429Y144.371
X233.394Y144.404
X233.36Y144.437
X233.327Y144.472
X232.976Y144.849
X232.943Y144.885
X232.912Y144.922
X232.881Y144.96
X232.852Y144.999
X232.549Y145.416
X232.522Y145.455
X232.496Y145.494
X232.472Y145.534
X232.448Y145.574
X232.198Y146.022
X232.176Y146.063
X232.155Y146.104
X232.135Y146.146
X232.117Y146.189
X231.923Y146.656
X231.905Y146.7
X231.889Y146.745
X231.874Y146.79
X231.861Y146.835
X231.725Y147.317
X231.713Y147.362
X231.702Y147.408
X231.693Y147.454
X231.685Y147.5
X231.605Y148.006
X231.599Y148.043
X231.595Y148.08
X231.591Y148.117
X231.588Y148.154
X231.587Y148.192
X231.586Y148.229
X231.585Y148.266
X231.586Y148.304
X231.588Y148.341
X231.59Y148.379
X231.594Y148.416
X231.598Y148.454
X231.603Y148.492
X231.609Y148.53
X231.617Y148.568
X231.625Y148.606
X231.634Y148.643
X231.644Y148.681
X231.654Y148.718
X231.666Y148.754
X231.679Y148.791
X231.692Y148.827
X231.707Y148.863
X231.722Y148.899
X231.738Y148.934
X231.755Y148.968
X231.776Y149.009
X231.798Y149.049
X232.499Y150.262
X232.518Y150.295
X232.539Y150.328
X232.56Y150.36
X232.582Y150.392
X232.605Y150.423
X232.629Y150.454
X232.653Y150.484
X232.678Y150.513
X232.704Y150.542
X232.73Y150.57
X232.757Y150.597
X232.785Y150.624
X232.814Y150.65
X232.843Y150.676
X232.873Y150.701
X232.903Y150.725
X232.934Y150.748
X232.965Y150.771
X232.997Y150.792
X233.03Y150.813
X233.063Y150.834
X233.096Y150.853
X233.13Y150.871
X233.164Y150.889
X233.199Y150.906
X233.234Y150.922
X233.27Y150.937
X233.306Y150.951
X233.783Y151.135
X233.827Y151.151
X233.872Y151.166
X233.917Y151.18
X233.962Y151.192
X234.448Y151.315
X234.494Y151.326
X234.54Y151.336
X234.586Y151.344
X234.633Y151.351
X235.135Y151.416
X235.181Y151.422
X235.228Y151.426
X235.274Y151.428
X235.32Y151.43
X235.833Y151.437
X235.88
X235.927Y151.435
X235.974Y151.432
X236.02Y151.428
X236.533Y151.375
X236.581Y151.369
X236.629Y151.362
X236.677Y151.353
X236.725Y151.343
X237.227Y151.227
X237.274Y151.216
X237.32Y151.203
X237.365Y151.189
X237.41Y151.173
X237.893Y150.999
X237.937Y150.983
X237.981Y150.965
X238.024Y150.945
X238.066Y150.925
X238.544Y150.685
X238.77Y150.567
X238.945Y150.494
X239.127Y150.435
X239.296Y150.395
X239.595Y150.358
X239.881
X240.163Y150.395
X240.439Y150.467
X240.704Y150.573
X240.953Y150.712
X241.182Y150.881
X241.389Y151.078
X241.569Y151.299
X241.719Y151.541
X241.838Y151.8
X241.923Y152.073
X241.974Y152.353
X241.989Y152.655
X241.979Y152.824
X241.953Y153.018
X241.91Y153.203
X241.825Y153.472
X241.68Y153.958
X241.668Y154.003
X241.656Y154.049
X241.646Y154.095
X241.638Y154.141
X241.55Y154.647
X241.543Y154.694
X241.536Y154.741
X241.532Y154.789
X241.529Y154.836
X241.502Y155.351
X241.5Y155.4
Y155.449
X241.501Y155.497
X241.504Y155.546
X241.54Y156.06
X241.544Y156.107
X241.55Y156.153
X241.556Y156.2
X241.564Y156.246
X241.66Y156.75
X241.67Y156.795
X241.68Y156.84
X241.692Y156.885
X241.705Y156.93
X241.857Y157.413
X241.872Y157.458
X241.888Y157.502
X241.906Y157.546
X241.925Y157.589
X242.13Y158.046
X242.15Y158.088
X242.171Y158.13
X242.194Y158.171
X242.217Y158.212
X242.481Y158.651
X242.501Y158.682
X242.521Y158.714
X242.542Y158.745
X242.564Y158.775
X242.587Y158.805
X242.61Y158.834
X242.634Y158.863
X242.658Y158.891
X242.684Y158.919
X242.71Y158.946
X242.736Y158.972
X242.764Y158.998
X242.792Y159.024
X242.822Y159.049
X242.852Y159.074
X242.882Y159.098
X242.913Y159.121
X242.945Y159.143
X242.977Y159.164
X243.009Y159.185
X243.042Y159.205
X243.076Y159.224
X243.11Y159.242
X243.145Y159.259
X243.179Y159.276
X243.215Y159.292
X243.257Y159.309
X243.3Y159.326
X244.616Y159.805
X244.652Y159.817
X244.689Y159.829
X244.726Y159.84
X244.763Y159.85
X244.801Y159.86
X244.839Y159.868
X244.877Y159.875
X244.915Y159.882
X244.953Y159.887
X244.991Y159.892
X245.03Y159.895
X245.068Y159.898
X245.107Y159.9
X245.146
X245.185
X245.223Y159.899
X245.262Y159.897
X245.301Y159.894
X245.339Y159.89
X245.377Y159.886
X245.416Y159.88
X245.454Y159.873
X245.491Y159.866
X245.529Y159.857
X245.567Y159.848
X245.604Y159.837
X245.641Y159.826
X245.678Y159.814
X246.161Y159.648
X246.206Y159.632
X246.249Y159.614
X246.292Y159.596
X246.335Y159.576
X246.786Y159.359
X246.828Y159.338
X246.87Y159.315
X246.911Y159.291
X246.951Y159.267
X247.378Y158.994
X247.417Y158.969
X247.455Y158.942
X247.492Y158.914
X247.528Y158.886
X247.926Y158.561
X247.961Y158.531
X247.996Y158.5
X248.03Y158.468
X248.063Y158.434
X248.422Y158.063
X248.455Y158.028
X248.487Y157.992
X248.518Y157.954
X248.548Y157.916
X248.859Y157.504
X248.887Y157.466
X248.914Y157.426
X248.94Y157.386
X248.964Y157.345
X249.222Y156.902
X249.245Y156.861
X249.267Y156.819
X249.288Y156.777
X249.307Y156.734
X249.52Y156.242
X249.616Y156.008
X249.703Y155.838
X249.805Y155.676
X249.909Y155.537
X250.114Y155.316
X250.333Y155.133
X250.573Y154.98
X250.831Y154.858
X251.102Y154.769
X251.382Y154.715
X251.666Y154.697
X251.951Y154.715
X252.231Y154.769
X252.502Y154.858
X252.759Y154.98
X253Y155.133
X253.219Y155.316
X253.424Y155.537
X253.528Y155.676
X253.629Y155.838
X253.716Y156.008
X253.824Y156.268
X254.026Y156.734
X254.045Y156.777
X254.066Y156.819
X254.087Y156.861
X254.11Y156.902
X254.368Y157.346
X254.393Y157.386
X254.419Y157.427
X254.446Y157.466
X254.474Y157.504
X254.785Y157.916
X254.814Y157.954
X254.845Y157.992
X254.878Y158.028
X254.911Y158.064
X255.269Y158.434
X255.302Y158.468
X255.336Y158.5
X255.371Y158.531
X255.407Y158.561
X255.805Y158.886
X255.841Y158.914
X255.878Y158.942
X255.916Y158.969
X255.955Y158.994
X256.382Y159.267
X256.422Y159.292
X256.463Y159.315
X256.504Y159.338
X256.547Y159.359
X256.998Y159.576
X257.04Y159.596
X257.083Y159.614
X257.127Y159.632
X257.171Y159.648
X257.655Y159.814
X257.692Y159.826
X257.729Y159.837
X257.766Y159.848
X257.803Y159.857
X257.841Y159.866
X257.879Y159.873
X257.917Y159.88
X257.955Y159.886
X257.994Y159.89
X258.032Y159.894
X258.071Y159.897
X258.109Y159.899
X258.148Y159.9
X258.187
X258.226
X258.264Y159.898
X258.303Y159.895
X258.341Y159.892
X258.38Y159.887
X258.418Y159.882
X258.456Y159.875
X258.494Y159.868
X258.532Y159.86
X258.569Y159.85
X258.606Y159.84
X258.644Y159.829
X258.68Y159.817
X258.717Y159.805
X260.032Y159.326
X260.075Y159.309
X260.118Y159.292
X260.153Y159.276
X260.188Y159.26
X260.223Y159.242
X260.257Y159.224
X260.29Y159.205
X260.323Y159.185
X260.356Y159.164
X260.388Y159.143
X260.42Y159.121
X260.451Y159.098
X260.481Y159.074
X260.511Y159.049
X260.54Y159.024
X260.569Y158.998
X260.597Y158.972
X260.623Y158.946
X260.649Y158.919
X260.674Y158.891
X260.699Y158.863
X260.723Y158.834
X260.746Y158.805
X260.769Y158.775
X260.79Y158.745
X260.812Y158.714
X260.832Y158.683
X260.852Y158.651
X261.115Y158.212
X261.139Y158.172
X261.161Y158.13
X261.183Y158.088
X261.202Y158.046
X261.408Y157.589
X261.427Y157.546
X261.444Y157.502
X261.461Y157.457
X261.476Y157.413
X261.627Y156.929
X261.641Y156.885
X261.652Y156.84
X261.663Y156.795
X261.672Y156.75
X261.768Y156.246
X261.776Y156.2
X261.783Y156.153
X261.789Y156.107
X261.793Y156.06
X261.829Y155.545
X261.831Y155.497
X261.833Y155.449
X261.832Y155.4
X261.831Y155.352
X261.804Y154.837
X261.801Y154.789
X261.796Y154.741
X261.79Y154.694
X261.783Y154.647
X261.695Y154.141
X261.686Y154.095
X261.676Y154.049
X261.665Y154.004
X261.652Y153.958
X261.499Y153.445
X261.422Y153.203
X261.38Y153.017
X261.353Y152.828
X261.344Y152.655
X261.359Y152.353
X261.409Y152.073
X261.495Y151.801
X261.613Y151.541
X261.764Y151.299
X261.944Y151.078
X262.15Y150.881
X262.38Y150.712
X262.629Y150.574
X262.893Y150.467
X263.169Y150.395
X263.452Y150.359
X263.737Y150.358
X264.037Y150.395
X264.206Y150.435
X264.387Y150.494
X264.563Y150.568
X264.813Y150.698
X265.267Y150.925
X265.309Y150.946
X265.352Y150.965
X265.396Y150.983
X265.439Y150.999
X265.922Y151.173
X265.967Y151.189
X266.013Y151.203
X266.059Y151.216
X266.105Y151.227
X266.608Y151.343
X266.656Y151.353
X266.703Y151.362
X266.751Y151.369
X266.799Y151.375
X267.313Y151.428
X267.359Y151.433
X267.406Y151.435
X267.453Y151.437
X267.5
X268.013Y151.43
X268.059Y151.429
X268.105Y151.426
X268.151Y151.422
X268.197Y151.417
X268.7Y151.351
X268.746Y151.344
X268.793Y151.336
X268.839Y151.326
X268.885Y151.315
X269.37Y151.192
X269.416Y151.18
X269.461Y151.166
X269.505Y151.151
X269.549Y151.135
X270.027Y150.952
X270.063Y150.937
X270.099Y150.922
X270.134Y150.906
X270.168Y150.889
X270.203Y150.872
X270.237Y150.853
X270.27Y150.834
X270.303Y150.813
X270.335Y150.793
X270.367Y150.771
X270.399Y150.748
X270.43Y150.725
X270.46Y150.701
X270.49Y150.676
X270.519Y150.65
X270.548Y150.624
X270.575Y150.597
X270.603Y150.57
X270.629Y150.542
X270.655Y150.513
X270.68Y150.484
X270.704Y150.454
X270.728Y150.423
X270.751Y150.392
X270.773Y150.36
X270.794Y150.328
X270.814Y150.295
X270.834Y150.262
X271.534Y149.05
X271.557Y149.009
X271.578Y148.969
X271.595Y148.934
X271.611Y148.899
X271.626Y148.863
X271.641Y148.827
X271.654Y148.791
X271.667Y148.755
X271.678Y148.718
X271.689Y148.681
X271.699Y148.643
X271.708Y148.606
X271.716Y148.568
X271.723Y148.53
X271.73Y148.492
X271.735Y148.453
X271.739Y148.416
X271.743Y148.379
X271.745Y148.341
X271.747Y148.304
Y148.266
Y148.229
X271.746Y148.192
X271.744Y148.154
X271.742Y148.117
X271.738Y148.08
X271.733Y148.043
X271.728Y148.005
X271.648Y147.5
X271.64Y147.454
X271.631Y147.408
X271.62Y147.362
X271.608Y147.317
X271.472Y146.835
X271.459Y146.79
X271.444Y146.745
X271.427Y146.7
X271.41Y146.656
X271.216Y146.189
X271.197Y146.146
X271.178Y146.104
X271.157Y146.063
X271.135Y146.022
X270.884Y145.574
X270.861Y145.534
X270.836Y145.494
X270.81Y145.455
X270.783Y145.416
X270.48Y144.999
X270.451Y144.96
X270.421Y144.922
X270.39Y144.885
X270.357Y144.849
X270.006Y144.472
X269.973Y144.437
X269.939Y144.404
X269.904Y144.371
X269.868Y144.34
X269.475Y144.009
X269.439Y143.979
X269.402Y143.95
X269.364Y143.923
X269.325Y143.897
X268.878Y143.602
X268.663Y143.466
X268.511Y143.351
X268.37Y143.223
X268.251Y143.096
X268.069Y142.855
X267.927Y142.608
X267.817Y142.345
X267.742Y142.07
X267.701Y141.788
X267.697Y141.503
X267.729Y141.219
X267.796Y140.942
X267.898Y140.676
X268.032Y140.424
X268.197Y140.192
X268.39Y139.982
X268.608Y139.798
X268.861Y139.634
X269.016Y139.556
X269.193Y139.484
X269.375Y139.428
X269.651Y139.367
X270.144Y139.25
X270.19Y139.238
X270.235Y139.225
X270.28Y139.211
X270.324Y139.195
X270.806Y139.018
X270.85Y139.001
X270.895Y138.983
X270.938Y138.963
X270.981Y138.942
X271.44Y138.707
X271.483Y138.685
X271.525Y138.661
X271.567Y138.635
X271.607Y138.609
X272.035Y138.32
X272.073Y138.293
X272.111Y138.265
X272.148Y138.236
X272.184Y138.206
X272.572Y137.871
X272.607Y137.841
X272.641Y137.809
X272.673Y137.776
X272.705Y137.742
X273.048Y137.369
X273.079Y137.334
X273.109Y137.298
X273.139Y137.261
X273.167Y137.223
X273.459Y136.816
X273.486Y136.778
X273.512Y136.738
X273.537Y136.698
X273.56Y136.658
X273.808Y136.21
X273.826Y136.177
X273.843Y136.144
X273.859Y136.11
X273.874Y136.076
X273.889Y136.041
X273.902Y136.007
X273.915Y135.972
X273.927Y135.936
X273.939Y135.901
X273.949Y135.865
X273.959Y135.828
X273.968Y135.792
X273.976Y135.754
X273.983Y135.716
X273.989Y135.678
X273.994Y135.639
X273.999Y135.601
X274.002Y135.563
X274.005Y135.524
X274.006Y135.485
X274.007Y135.447
Y135.408
X274.006Y135.37
X274.003Y135.331
X274Y135.292
X273.996Y135.254
X273.99Y135.208
X273.983Y135.163
X273.74Y133.784
X273.733Y133.746
X273.725Y133.708
X273.716Y133.671
X273.706Y133.634
X273.695Y133.596
X273.683Y133.56
X273.671Y133.523
X273.657Y133.487
X273.643Y133.451
X273.627Y133.416
X273.611Y133.38
X273.594Y133.346
X273.577Y133.311
X273.558Y133.277
X273.538Y133.244
X273.518Y133.211
X273.497Y133.178
X273.475Y133.146
X273.453Y133.115
X273.429Y133.084
X273.405Y133.054
X273.38Y133.024
X273.355Y132.995
X273.329Y132.967
X273.302Y132.939
X273.274Y132.912
X273.246Y132.886
X273.217Y132.86
X272.831Y132.524
X272.795Y132.494
X272.758Y132.465
X272.721Y132.437
X272.682Y132.41
X272.268Y132.128
X272.229Y132.102
X272.189Y132.077
X272.148Y132.053
X272.106Y132.031
X271.657Y131.797
X271.615Y131.777
X271.573Y131.757
X271.531Y131.739
X271.488Y131.722
X271.008Y131.54
X270.964Y131.524
X270.92Y131.509
X270.875Y131.496
X270.829Y131.484
X270.329Y131.359
X270.282Y131.348
X270.234Y131.338
X270.186Y131.33
X270.138Y131.323
X269.626Y131.26
X269.579Y131.255
X269.531Y131.251
X269.484Y131.249
X269.436Y131.248
X268.922Y131.246
X268.876Y131.247
X268.829Y131.249
X268.782Y131.252
X268.735Y131.257
X268.203Y131.319
X267.951Y131.352
X267.761Y131.362
X267.57Y131.355
X267.398Y131.334
X267.104Y131.267
X266.836Y131.169
X266.583Y131.037
X266.348Y130.875
X266.136Y130.685
X265.949Y130.469
X265.791Y130.232
X265.665Y129.977
X265.571Y129.707
X265.513Y129.428
X265.49Y129.144
X265.503Y128.859
X265.551Y128.578
X265.64Y128.29
X265.708Y128.13
X265.798Y127.962
X265.901Y127.801
X266.073Y127.578
X266.376Y127.17
X266.403Y127.132
X266.429Y127.093
X266.455Y127.054
X266.478Y127.013
X266.734Y126.568
X266.757Y126.526
X266.779Y126.484
X266.8Y126.441
X266.819Y126.397
X267.02Y125.922
X267.038Y125.877
X267.055Y125.831
X267.071Y125.786
X267.085Y125.739
X267.226Y125.243
X267.239Y125.198
X267.25Y125.152
X267.259Y125.107
X267.267Y125.061
X267.35Y124.554
X267.356Y124.508
X267.362Y124.462
X267.366Y124.416
X267.369Y124.37
X267.391Y123.864
X267.393Y123.816
Y123.769
X267.391Y123.722
X267.388Y123.675
X267.351Y123.175
X267.347Y123.129
X267.341Y123.082
X267.334Y123.036
X267.326Y122.99
X267.228Y122.487
X267.221Y122.451
X267.212Y122.414
X267.203Y122.378
X267.193Y122.342
X267.182Y122.306
X267.17Y122.271
X267.157Y122.235
X267.144Y122.2
X267.13Y122.166
X267.115Y122.132
X267.099Y122.098
X267.082Y122.064
X267.064Y122.03
X267.045Y121.996
X267.025Y121.963
X267.004Y121.93
X266.983Y121.898
X266.961Y121.866
X266.938Y121.835
X266.915Y121.804
X266.89Y121.774
X266.865Y121.745
X266.84Y121.716
X266.813Y121.688
X266.786Y121.661
X266.758Y121.634
X266.724Y121.603
X266.689Y121.573
X265.617Y120.673
X265.587Y120.648
X265.557Y120.624
X265.525Y120.601
X265.494Y120.579
X265.462Y120.558
X265.429Y120.537
X265.396Y120.517
X265.362Y120.498
X265.328Y120.48
X265.294Y120.462
X265.259Y120.446
X265.224Y120.43
X265.188Y120.415
X265.151Y120.401
X265.115Y120.388
X265.078Y120.376
X265.041Y120.364
X265.004Y120.354
X264.967Y120.345
X264.929Y120.336
X264.891Y120.328
X264.853Y120.322
X264.815Y120.316
X264.777Y120.311
X264.738Y120.307
X264.7Y120.304
X264.661Y120.302
X264.622Y120.301
X264.111Y120.291
X264.064
X264.017Y120.293
X263.97Y120.295
X263.923Y120.299
X263.425Y120.349
X263.378Y120.355
X263.331Y120.362
X263.285Y120.37
X263.239Y120.379
X262.744Y120.489
X262.699Y120.5
X262.654Y120.512
X262.61Y120.526
X262.566Y120.54
X262.082Y120.709
X262.038Y120.725
X261.994Y120.743
X261.951Y120.761
X261.909Y120.781
X261.445Y121.007
X261.402Y121.029
X261.359Y121.052
X261.317Y121.077
X261.276Y121.102
X260.843Y121.383
X260.804Y121.409
X260.765Y121.437
X260.727Y121.466
X260.69Y121.496
X260.295Y121.825
X260.26Y121.856
X260.225Y121.887
X260.191Y121.92
X260.158Y121.954
X259.791Y122.343
X259.62Y122.53
X259.48Y122.66
X259.329Y122.777
X259.184Y122.872
X258.915Y123.01
X258.647Y123.107
X258.369Y123.169
X258.085Y123.195
X257.8Y123.186
X257.518Y123.141
X257.245Y123.061
X256.984Y122.946
X256.739Y122.8
X256.515Y122.624
X256.314Y122.421
X256.141Y122.195
X255.998Y121.948
X255.881Y121.67
X255.83Y121.504
X255.79Y121.317
X255.767Y121.128
X255.755Y120.846
X255.724Y120.339
X255.721Y120.293
X255.716Y120.246
X255.71Y120.2
X255.702Y120.153
X255.612Y119.648
X255.603Y119.601
X255.592Y119.554
X255.58Y119.508
X255.567Y119.462
X255.416Y118.969
X255.401Y118.923
X255.384Y118.877
X255.367Y118.832
X255.348Y118.788
X255.137Y118.316
X255.118Y118.274
X255.097Y118.232
X255.075Y118.191
X255.051Y118.15
X254.789Y117.709
X254.764Y117.67
X254.739Y117.631
X254.712Y117.593
X254.685Y117.556
X254.377Y117.154
X254.348Y117.117
X254.317Y117.081
X254.286Y117.045
X254.253Y117.011
X253.904Y116.652
X253.871Y116.619
X253.836Y116.587
X253.801Y116.556
X253.765Y116.526
X253.367Y116.204
X253.337Y116.18
X253.306Y116.157
X253.275Y116.134
X253.243Y116.113
X253.21Y116.092
X253.177Y116.072
X253.144Y116.053
X253.11Y116.034
X253.075Y116.016
X253.041Y116
X253.005Y115.984
X252.97Y115.969
X252.934Y115.954
X252.897Y115.941
X252.86Y115.928
X252.824Y115.917
X252.786Y115.906
X252.749Y115.896
X252.711Y115.888
X252.674Y115.88
X252.636Y115.873
X252.597Y115.867
X252.559Y115.861
X252.521Y115.857
X252.482Y115.854
X252.444Y115.852
X252.405Y115.85
X252.366
X250.966
X250.921
X250.874Y115.852
X250.836Y115.855
X250.797Y115.859
X250.759Y115.863
X250.721Y115.869
X250.683Y115.875
X250.645Y115.883
X250.607Y115.891
X250.57Y115.9
X250.532Y115.91
X250.495Y115.921
X250.459Y115.933
X250.422Y115.946
X250.386Y115.959
X250.35Y115.974
X250.315Y115.989
X250.281Y116.005
X250.248Y116.021
X250.215Y116.039
X250.182Y116.057
X250.15Y116.075
X250.118Y116.095
X250.086Y116.115
X250.055Y116.136
X250.025Y116.158
X249.995Y116.181
X249.966Y116.204
X249.568Y116.526
X249.532Y116.556
X249.497Y116.587
X249.462Y116.619
X249.429Y116.652
X249.08Y117.011
X249.047Y117.045
X249.016Y117.081
X248.985Y117.117
X248.956Y117.154
X248.648Y117.556
X248.62Y117.593
X248.594Y117.631
X248.568Y117.67
X248.544Y117.709
X248.282Y118.15
X248.258Y118.191
X248.236Y118.232
X248.215Y118.274
X248.196Y118.316
X247.985Y118.788
X247.966Y118.832
X247.949Y118.877
X247.932Y118.923
X247.917Y118.969
X247.766Y119.462
X247.753Y119.508
X247.741Y119.555
X247.73Y119.601
X247.721Y119.648
X247.631Y120.153
X247.623Y120.199
X247.617Y120.246
X247.612Y120.293
X247.609Y120.339
X247.577Y120.874
X247.566Y121.128
X247.542Y121.317
X247.503Y121.504
X247.452Y121.67
X247.335Y121.948
X247.192Y122.194
X247.019Y122.421
X246.818Y122.624
X246.594Y122.8
X246.349Y122.946
X246.088Y123.06
X245.815Y123.141
X245.533Y123.186
X245.248Y123.195
X244.964Y123.169
X244.686Y123.107
X244.418Y123.01
X244.149Y122.872
X244.004Y122.777
X243.853Y122.66
X243.714Y122.53
X243.523Y122.322
X243.174Y121.953
X243.142Y121.92
X243.108Y121.887
X243.073Y121.855
X243.038Y121.825
X242.643Y121.496
X242.606Y121.466
X242.568Y121.437
X242.529Y121.409
X242.49Y121.383
X242.057Y121.102
X242.016Y121.077
X241.974Y121.052
X241.931Y121.029
X241.888Y121.007
X241.424Y120.781
X241.382Y120.761
X241.339Y120.742
X241.295Y120.725
X241.251Y120.709
X240.767Y120.54
X240.723Y120.525
X240.679Y120.512
X240.634Y120.5
X240.589Y120.489
X240.094Y120.379
X240.048Y120.37
X240.001Y120.361
X239.955Y120.355
X239.908Y120.349
X239.41Y120.299
X239.363Y120.295
X239.316Y120.292
X239.269Y120.291
X239.222
X238.71Y120.3
X238.672Y120.302
X238.633Y120.304
X238.595Y120.307
X238.556Y120.311
X238.518Y120.316
X238.48Y120.321
X238.442Y120.328
X238.404Y120.336
X238.366Y120.344
X238.329Y120.354
X238.291Y120.364
X238.255Y120.376
X238.218Y120.388
X238.181Y120.401
X238.145Y120.415
X238.109Y120.43
X238.074Y120.446
X238.039Y120.462
X238.004Y120.48
X237.97Y120.498
X237.937Y120.517
X237.904Y120.537
X237.871Y120.558
X237.839Y120.579
X237.807Y120.601
X237.776Y120.624
X237.746Y120.648
X237.716Y120.672
X236.644Y121.572
X236.609Y121.602
X236.575Y121.634
X236.547Y121.66
X236.52Y121.688
X236.493Y121.716
X236.468Y121.745
X236.443Y121.774
X236.418Y121.804
X236.395Y121.835
X236.372Y121.866
X236.35Y121.898
X236.328Y121.93
X236.308Y121.963
X236.288Y121.996
X236.269Y122.03
X236.251Y122.064
X236.234Y122.098
X236.218Y122.132
X236.203Y122.166
X236.189Y122.2
X236.175Y122.235
X236.163Y122.27
X236.151Y122.306
X236.14Y122.342
X236.13Y122.378
X236.121Y122.414
X236.112Y122.45
X236.104Y122.487
X236.007Y122.989
X235.998Y123.036
X235.991Y123.082
X235.986Y123.129
X235.982Y123.175
X235.945Y123.675
X235.942Y123.722
X235.94Y123.769
Y123.817
X235.942Y123.864
X235.964Y124.37
X235.967Y124.416
X235.971Y124.462
X235.977Y124.508
X235.983Y124.554
X236.066Y125.06
X236.074Y125.106
X236.083Y125.152
X236.094Y125.198
X236.106Y125.243
X236.248Y125.739
X236.262Y125.786
X236.278Y125.832
X236.295Y125.877
X236.313Y125.922
X236.514Y126.397
X236.533Y126.44
X236.554Y126.484
X236.576Y126.526
X236.599Y126.568
X236.854Y127.013
X236.878Y127.054
X236.903Y127.093
X236.93Y127.132
X236.957Y127.17
X237.277Y127.6
X237.432Y127.801
X237.535Y127.961
X237.624Y128.13
X237.693Y128.29
X237.781Y128.578
X237.83Y128.859
X237.843Y129.144
X237.82Y129.428
X237.761Y129.707
X237.668Y129.977
X237.541Y130.232
G0Z1
X250.415Y137.75
G1Z-0.5F50
X250.53Y137.562F100
X250.674Y137.394
X250.841Y137.251
X251.029Y137.136
X251.233Y137.052
X251.447Y137
X251.666Y136.983
X251.886Y137
X252.1Y137.052
X252.304Y137.136
X252.492Y137.251
X252.659Y137.394
X252.802Y137.562
X252.917Y137.75
X253.002Y137.953
X253.053Y138.167
X253.07Y138.387
X253.053Y138.607
X253.002Y138.821
X252.917Y139.025
X252.802Y139.212
X252.659Y139.38
X252.492Y139.523
X252.304Y139.638
X252.1Y139.722
X251.886Y139.774
X251.666Y139.791
X251.447Y139.774
X251.233Y139.722
X251.029Y139.638
X250.841Y139.523
X250.674Y139.38
X250.53Y139.212
X250.415Y139.025
X250.331Y138.821
X250.28Y138.607
X250.262Y138.387
X250.28Y138.167
X250.331Y137.953
X250.415Y137.75
G0Z1
X237.541Y130.232
G1Z-0.5F50
X237.384Y130.469F100
X237.197Y130.685
X236.985Y130.875
X236.75Y131.037
X236.497Y131.168
X236.229Y131.267
X235.935Y131.334
X235.763Y131.355
X235.572Y131.361
X235.381Y131.352
X235.102Y131.315
X234.598Y131.257
X234.551Y131.252
X234.504Y131.249
X234.457Y131.247
X234.41Y131.246
X233.897Y131.248
X233.849Y131.249
X233.802Y131.251
X233.754Y131.255
X233.707Y131.26
X233.195Y131.323
X233.147Y131.33
X233.099Y131.338
X233.051Y131.347
X233.004Y131.358
X232.503Y131.484
X232.458Y131.496
X232.413Y131.509
X232.369Y131.524
X232.325Y131.54
X231.845Y131.722
X231.802Y131.739
X231.759Y131.757
X231.717Y131.776
X231.676Y131.797
X231.226Y132.031
X231.185Y132.053
X231.144Y132.077
X231.104Y132.102
X231.064Y132.128
X230.65Y132.409
X230.612Y132.436
X230.574Y132.465
X230.538Y132.494
X230.502Y132.524
X230.116Y132.86
X230.087Y132.886
X230.059Y132.912
X230.031Y132.939
X230.004Y132.967
X229.978Y132.995
X229.952Y133.024
X229.928Y133.054
X229.904Y133.084
X229.88Y133.115
X229.858Y133.146
X229.836Y133.178
X229.815Y133.211
X229.795Y133.243
X229.775Y133.277
X229.756Y133.311
X229.739Y133.346
X229.722Y133.38
X229.706Y133.415
X229.69Y133.451
X229.676Y133.487
X229.662Y133.523
X229.65Y133.559
X229.638Y133.596
X229.627Y133.633
X229.617Y133.671
X229.608Y133.708
X229.6Y133.746
X229.593Y133.784
X229.35Y135.163
X229.343Y135.208
X229.337Y135.254
X229.333Y135.292
X229.329Y135.331
X229.327Y135.369
X229.326Y135.408
Y135.447
Y135.485
X229.328Y135.524
X229.331Y135.562
X229.334Y135.601
X229.338Y135.639
X229.344Y135.678
X229.35Y135.716
X229.357Y135.754
X229.365Y135.792
X229.374Y135.828
X229.384Y135.864
X229.394Y135.9
X229.405Y135.936
X229.417Y135.971
X229.43Y136.007
X229.444Y136.041
X229.459Y136.076
X229.474Y136.11
X229.49Y136.144
X229.507Y136.177
X229.525Y136.21
X229.773Y136.658
X229.796Y136.698
X229.821Y136.738
X229.847Y136.778
X229.873Y136.816
X230.166Y137.223
X230.194Y137.261
X230.223Y137.298
X230.254Y137.334
X230.285Y137.369
X230.628Y137.742
X230.66Y137.776
X230.692Y137.809
X230.726Y137.84
X230.761Y137.871
X231.149Y138.206
X231.185Y138.236
X231.222Y138.265
X231.26Y138.293
X231.298Y138.32
X231.726Y138.609
X231.766Y138.635
X231.808Y138.661
X231.85Y138.685
X231.893Y138.707
X232.352Y138.942
X232.395Y138.963
X232.438Y138.983
X232.482Y139.001
X232.527Y139.018
X233.009Y139.195
X233.053Y139.211
X233.098Y139.225
X233.143Y139.238
X233.188Y139.249
X233.709Y139.373
X233.958Y139.428
X234.14Y139.484
X234.317Y139.556
X234.471Y139.634
X234.725Y139.798
X234.943Y139.982
X235.136Y140.192
X235.301Y140.424
X235.435Y140.676
X235.537Y140.942
X235.604Y141.219
X235.636Y141.503
X235.631Y141.788
X235.591Y142.07
X235.516Y142.345
X235.406Y142.608
X235.264Y142.855
X235.082Y143.096
X234.963Y143.223
X234.821Y143.351
X234.669Y143.466
X234.431Y143.617
X234.008Y143.896
X233.969Y143.923
X233.931Y143.95
X233.894Y143.979
X233.857Y144.009
X233.465Y144.34
X233.429Y144.371
X233.394Y144.404
X233.36Y144.437
X233.327Y144.472
X232.976Y144.849
X232.943Y144.885
X232.912Y144.922
X232.881Y144.96
X232.852Y144.999
X232.549Y145.416
X232.522Y145.455
X232.496Y145.494
X232.472Y145.534
X232.448Y145.574
X232.198Y146.022
X232.176Y146.063
X232.155Y146.104
X232.135Y146.146
X232.117Y146.189
X231.923Y146.656
X231.905Y146.7
X231.889Y146.745
X231.874Y146.79
X231.861Y146.835
X231.725Y147.317
X231.713Y147.362
X231.702Y147.408
X231.693Y147.454
X231.685Y147.5
X231.605Y148.006
X231.599Y148.043
X231.595Y148.08
X231.591Y148.117
X231.588Y148.154
X231.587Y148.192
X231.586Y148.229
X231.585Y148.266
X231.586Y148.304
X231.588Y148.341
X231.59Y148.379
X231.594Y148.416
X231.598Y148.454
X231.603Y148.492
X231.609Y148.53
X231.617Y148.568
X231.625Y148.606
X231.634Y148.643
X231.644Y148.681
X231.654Y148.718
X231.666Y148.754
X231.679Y148.791
X231.692Y148.827
X231.707Y148.863
X231.722Y148.899
X231.738Y148.934
X231.755Y148.968
X231.776Y149.009
X231.798Y149.049
X232.499Y150.262
X232.518Y150.295
X232.539Y150.328
X232.56Y150.36
X232.582Y150.392
X232.605Y150.423
X232.629Y150.454
X232.653Y150.484
X232.678Y150.513
X232.704Y150.542
X232.73Y150.57
X232.757Y150.597
X232.785Y150.624
X232.814Y150.65
X232.843Y150.676
X232.873Y150.701
X232.903Y150.725
X232.934Y150.748
X232.965Y150.771
X232.997Y150.792
X233.03Y150.813
X233.063Y150.834
X233.096Y150.853
X233.13Y150.871
X233.164Y150.889
X233.199Y150.906
X233.234Y150.922
X233.27Y150.937
X233.306Y150.951
X233.783Y151.135
X233.827Y151.151
X233.872Y151.166
X233.917Y151.18
X233.962Y151.192
X234.448Y151.315
X234.494Y151.326
X234.54Y151.336
X234.586Y151.344
X234.633Y151.351
X235.135Y151.416
X235.181Y151.422
X235.228Y151.426
X235.274Y151.428
X235.32Y151.43
X235.833Y151.437
X235.88
X235.927Y151.435
X235.974Y151.432
X236.02Y151.428
X236.533Y151.375
X236.581Y151.369
X236.629Y151.362
X236.677Y151.353
X236.725Y151.343
X237.227Y151.227
X237.274Y151.216
X237.32Y151.203
X237.365Y151.189
X237.41Y151.173
X237.893Y150.999
X237.937Y150.983
X237.981Y150.965
X238.024Y150.945
X238.066Y150.925
X238.544Y150.685
X238.77Y150.567
X238.945Y150.494
X239.127Y150.435
X239.296Y150.395
X239.595Y150.358
X239.881
X240.163Y150.395
X240.439Y150.467
X240.704Y150.573
X240.953Y150.712
X241.182Y150.881
X241.389Y151.078
X241.569Y151.299
X241.719Y151.541
X241.838Y151.8
X241.923Y152.073
X241.974Y152.353
X241.989Y152.655
X241.979Y152.824
X241.953Y153.018
X241.91Y153.203
X241.825Y153.472
X241.68Y153.958
X241.668Y154.003
X241.656Y154.049
X241.646Y154.095
X241.638Y154.141
X241.55Y154.647
X241.543Y154.694
X241.536Y154.741
X241.532Y154.789
X241.529Y154.836
X241.502Y155.351
X241.5Y155.4
Y155.449
X241.501Y155.497
X241.504Y155.546
X241.54Y156.06
X241.544Y156.107
X241.55Y156.153
X241.556Y156.2
X241.564Y156.246
X241.66Y156.75
X241.67Y156.795
X241.68Y156.84
X241.692Y156.885
X241.705Y156.93
X241.857Y157.413
