; generated by PrusaSlicer 2.7.1+linux-x64-GTK3 on 2025-01-13 at 00:35:22 UTC

; 

; external perimeters extrusion width = 0.90mm
; perimeters extrusion width = 0.90mm
; infill extrusion width = 0.90mm
; solid infill extrusion width = 0.90mm
; top infill extrusion width = 0.80mm

;TYPE:Custom
G90 ; use absolute coordinates
M83 ; extruder relative mode
M104 S240 ; set extruder temp
M140 S80 ; set bed temp
M190 S80 ; wait for bed temp
M109 S240 ; wait for extruder temp
G28 ; home all
G1 Z2 F240
G1 X10 Y10 F3000
G1 Z0.28 F240
G92 E0.0
G1 Y40 E15.0 F1500.0 ; intro line
G1 X10.3 F5000
G1 Y10 E15.0 F1200.0 ; intro line
G92 E0.0
G21 ; set units to millimeters
G90 ; use absolute coordinates
M83 ; use relative distances for extrusion
; Filament gcode
M107
;LAYER_CHANGE
;Z:0.49
;HEIGHT:0.49
;BEFORE_LAYER_CHANGE
G92 E0
;0.49


G1 Z.49 F600
;AFTER_LAYER_CHANGE
;0.49
G1 X84.377 Y19.588
;TYPE:Skirt/Brim
;WIDTH:0.9
G1 X85.19 Y17.78 E.321
G1 X88.119 Y14.851 E.67073
G1 X90.096 Y14.033 E.34644
G1 X139.838 Y14.033 E8.05445
G1 X141.814 Y14.851 E.3463
G1 X144.743 Y17.78 E.67073
G1 X145.561 Y19.756 E.3463
G1 X145.306 Y200.251 E29.2266
G1 X144.487 Y202.223 E.34576
G1 X141.558 Y205.151 E.67061
G1 X139.582 Y205.97 E.34636
G1 X80.162 Y205.967 E9.62156
G1 X78.186 Y205.148 E.34636
G1 X75.257 Y202.22 E.67061
G1 X74.439 Y200.243 E.34644
G1 X74.439 Y184.506 E2.54821
G1 X84.37 Y19.708 E26.73325
G1 X87.947 Y20.42
G1 X88.455 Y19.396 E.18509
G1 X89.588 Y18.234 E.26279
G1 X90.111 Y17.884 E.1019
G1 X90.761 Y17.607 E.11441
G1 X91.523 Y17.456 E.12579
G1 X138.496 Y17.464 E7.60608
G1 X139.113 Y17.59 E.10197
G1 X139.804 Y17.874 E.12097
G1 X140.264 Y18.167 E.08831
G1 X141.307 Y19.185 E.236
G1 X141.745 Y19.838 E.12732
G1 X142.008 Y20.491 E.11399
G1 X142.138 Y21.182 E.11385
G1 X142.138 Y30.073 E1.43967
G1 X141.883 Y31.086 E.16915
G1 X141.883 Y198.819 E27.16009
G1 X141.731 Y199.583 E.12613
G1 X141.222 Y200.606 E.18502
G1 X140.089 Y201.769 E.26291
G1 X139.567 Y202.118 E.10168
G1 X138.916 Y202.395 E.11456
G1 X138.154 Y202.547 E.12582
G1 X81.59 Y202.544 E9.1591
G1 X80.826 Y202.392 E.12613
G1 X79.802 Y201.884 E.18509
G1 X78.64 Y200.751 E.26279
G1 X78.29 Y200.228 E.1019
G1 X78.013 Y199.578 E.11441
G1 X77.862 Y198.815 E.12594
G1 X77.89 Y185.673 E2.12802
G1 X78.015 Y185.167 E.0844
G1 X78.523 Y184.145 E.1848
G1 X79.59 Y183.038 E.24896
G1 X80.015 Y182.725 E.08547
G1 X80.813 Y182.363 E.14189
G1 X81.59 Y182.206 E.12836
G1 X112.499 Y182.206 E5.00493
G1 X114.862 Y179.629 E.56615
G1 X114.862 Y48.533 E21.22766
G1 X111.199 Y44.539 E.87753
G1 X91.59 Y44.539 E3.17518
G1 X90.813 Y44.382 E.12836
G1 X90.015 Y44.02 E.14189
G1 X89.595 Y43.711 E.08443
G1 X88.686 Y42.802 E.20816
G1 X88.289 Y42.221 E.11394
G1 X88.013 Y41.573 E.11405
G1 X87.862 Y40.811 E.12579
G1 X87.795 Y21.184 E3.17811
G1 X87.923 Y20.538 E.10664
G1 X88.696 Y20.691
G1 X88.696 Y20.688 E.00049
G1 X89.108 Y19.852 E.15092
G1 X90.064 Y18.872 E.22169
G1 X90.518 Y18.568 E.08847
G1 X91.027 Y18.357 E.08922
G1 X91.562 Y18.251 E.08831
G1 X138.45 Y18.258 E7.59232
G1 X138.907 Y18.358 E.07575
G1 X139.742 Y18.769 E.1507
G1 X140.722 Y19.725 E.22169
G1 X141.026 Y20.179 E.08847
G1 X141.237 Y20.688 E.08922
G1 X141.343 Y21.223 E.08831
G1 X141.343 Y30.035 E1.42688
G1 X141.088 Y30.931 E.15085
G1 X141.088 Y198.78 E27.17887
G1 X140.981 Y199.315 E.08835
G1 X140.57 Y200.151 E.15084
G1 X139.613 Y201.131 E.2218
G1 X139.159 Y201.435 E.08847
G1 X138.65 Y201.646 E.08922
G1 X138.115 Y201.752 E.08831
G1 X81.629 Y201.749 E9.14647
G1 X81.094 Y201.643 E.08831
G1 X80.258 Y201.231 E.15092
G1 X79.278 Y200.275 E.22169
G1 X78.974 Y199.82 E.08861
G1 X78.763 Y199.312 E.08907
G1 X78.657 Y198.777 E.08831
G1 X78.674 Y185.811 E2.09952
G1 X78.975 Y184.927 E.15121
G1 X79.175 Y184.602 E.06179
G1 X80.133 Y183.62 E.22214
G1 X80.444 Y183.395 E.06216
G1 X81.092 Y183.108 E.11476
G1 X81.629 Y183.001 E.08866
G1 X112.848 Y183.001 E5.05512
G1 X115.657 Y179.939 E.67284
G1 X115.657 Y48.224 E21.32789
G1 X111.548 Y43.744 E.98434
G1 X91.629 Y43.744 E3.22537
G1 X91.092 Y43.636 E.08869
G1 X90.444 Y43.35 E.11469
G1 X89.277 Y42.269 E.25758
G1 X88.974 Y41.816 E.08825
G1 X88.763 Y41.307 E.08922
G1 X88.657 Y40.772 E.08831
G1 X88.59 Y21.223 E3.16548
G1 X88.672 Y20.809 E.06834
G1 X89.444 Y20.963
G1 X89.445 Y20.956 E.00114
G1 X89.754 Y20.316 E.11508
G1 X90.6 Y19.46 E.19488
G1 X91.295 Y19.106 E.1263
G1 X91.601 Y19.046 E.05049
G1 X138.405 Y19.053 E7.57872
G1 X139.278 Y19.415 E.15303
G1 X140.134 Y20.261 E.19488
G1 X140.488 Y20.956 E.1263
G1 X140.549 Y21.262 E.05052
G1 X140.549 Y29.993 E1.41376
G1 X140.293 Y30.769 E.13231
G1 X140.293 Y198.741 E27.19879
G1 X140.232 Y199.047 E.05052
G1 X139.923 Y199.687 E.11508
G1 X139.077 Y200.543 E.19488
G1 X138.382 Y200.896 E.12622
G1 X138.076 Y200.957 E.05052
G1 X81.668 Y200.954 E9.13384
G1 X81.362 Y200.894 E.05049
G1 X80.722 Y200.585 E.11508
G1 X79.866 Y199.739 E.19488
G1 X79.512 Y199.044 E.1263
G1 X79.451 Y198.738 E.05052
G1 X79.459 Y185.939 E2.07247
G1 X79.821 Y185.066 E.15303
G1 X80.863 Y184.071 E.23329
G1 X81.668 Y183.796 E.13775
G1 X113.198 Y183.796 E5.10548
G1 X116.451 Y180.248 E.77943
G1 X116.451 Y47.915 E21.42796
G1 X111.898 Y42.949 E1.09093
G1 X91.668 Y42.949 E3.27573
G1 X91.364 Y42.889 E.05017
G1 X90.67 Y42.538 E.12593
G1 X89.866 Y41.735 E.184
G1 X89.512 Y41.039 E.12644
G1 X89.451 Y40.733 E.05052
G1 X89.451 Y30.298 E1.68968
G1 X89.385 Y30.003 E.04895
G1 X89.385 Y21.262 E1.41538
G1 X89.421 Y21.08 E.03004
G1 X90.195 Y21.224
G1 X90.389 Y20.795 E.07624
G1 X91.134 Y20.05 E.1706
G1 X91.64 Y19.84 E.08871
G1 X138.293 Y19.84 E7.55426
G1 X138.799 Y20.05 E.08871
G1 X139.544 Y20.795 E.1706
G1 X139.754 Y21.301 E.08871
G1 X139.754 Y29.954 E1.40113
G1 X139.498 Y30.529 E.10192
G1 X139.483 Y198.778 E27.24364
G1 X139.288 Y199.208 E.07645
G1 X138.544 Y199.953 E.17049
G1 X138.037 Y200.162 E.0888
G1 X81.63 Y200.144 E9.13368
G1 X81.201 Y199.95 E.07624
G1 X80.456 Y199.205 E.1706
G1 X80.246 Y198.699 E.08871
G1 X80.246 Y186.051 E2.04802
G1 X80.456 Y185.545 E.08871
G1 X81.266 Y184.757 E.18299
G1 X81.707 Y184.59 E.07636
G1 X113.547 Y184.59 E5.15568
G1 X117.246 Y180.557 E.88612
G1 X117.246 Y47.605 E21.52819
G1 X112.247 Y42.154 E1.19762
G1 X91.707 Y42.154 E3.32593
G1 X91.201 Y41.945 E.08865
G1 X90.456 Y41.2 E.1706
G1 X90.246 Y40.694 E.08871
G1 X90.195 Y21.344 E3.13325
G1 X90.974 Y21.419
G1 X91.035 Y21.273 E.02562
G1 X91.612 Y20.696 E.13213
G1 X91.758 Y20.635 E.02562
G1 X138.175 Y20.635 E7.51605
G1 X138.321 Y20.696 E.02562
G1 X138.898 Y21.273 E.13213
G1 X138.959 Y21.419 E.02562
G1 X138.959 Y29.836 E1.36292
G1 X138.703 Y30.177 E.06904
G1 X138.703 Y198.584 E27.26922
G1 X138.643 Y198.73 E.02556
G1 X138.065 Y199.307 E.13225
G1 X137.919 Y199.368 E.02562
G1 X81.825 Y199.365 E9.08299
G1 X81.679 Y199.304 E.02562
G1 X81.102 Y198.727 E.13213
G1 X81.041 Y198.581 E.02562
G1 X81.041 Y186.169 E2.00981
G1 X81.102 Y186.023 E.02562
G1 X81.679 Y185.446 E.13213
G1 X81.825 Y185.385 E.02562
G1 X113.897 Y185.385 E5.19324
G1 X118.041 Y180.866 E.99282
G1 X118.041 Y47.296 E21.62826
G1 X112.597 Y41.36 E1.3042
G1 X91.825 Y41.36 E3.3635
G1 X91.679 Y41.299 E.02562
G1 X91.102 Y40.722 E.13213
G1 X91.041 Y40.576 E.02562
G1 X90.975 Y21.539 E3.08258
G1 X91.769 Y21.663
G1 X92.002 Y21.43 E.05336
G1 X137.931 Y21.43 E7.43703
G1 X138.164 Y21.663 E.05336
G1 X138.164 Y29.592 E1.2839
G1 X137.908 Y29.848 E.05862
G1 X137.908 Y198.34 E27.28299
G1 X137.676 Y198.573 E.05324
G1 X82.069 Y198.57 E9.00414
G1 X81.836 Y198.337 E.05336
G1 X81.836 Y186.413 E1.93079
G1 X82.069 Y186.18 E.05336
G1 X114.247 Y186.18 E5.21041
G1 X118.836 Y181.176 E1.09941
G1 X118.836 Y46.987 E21.72849
G1 X112.947 Y40.565 E1.4109
G1 X92.069 Y40.565 E3.38066
G1 X91.836 Y40.332 E.05336
G1 X91.77 Y21.783 E3.00356
G1 X98.18 Y27.841
;TYPE:Perimeter
;WIDTH:0.9
G1 X131.712 Y27.841 E5.42965
G1 X131.555 Y28.546 E.11695
G1 X131.497 Y29.375 E.13456
G1 X131.497 Y192.161 E26.35904
G1 X116.632 Y192.16 E2.40701
G1 X116.945 Y192.042 E.05416
G1 X117.663 Y191.648 E.13262
G1 X118.297 Y191.18 E.1276
G1 X118.838 Y190.659 E.12162
G1 X123.889 Y185.139 E1.21155
G1 X124.443 Y184.341 E.1573
G1 X124.677 Y183.895 E.08155
G1 X124.876 Y183.422 E.08309
G1 X125.036 Y182.926 E.08439
G1 X125.158 Y182.381 E.09043
G1 X125.223 Y181.884 E.08116
G1 X125.247 Y181.351 E.08639
G1 X125.247 Y46.812 E21.78516
G1 X125.225 Y46.297 E.08347
G1 X125.158 Y45.782 E.08409
G1 X125.05 Y45.291 E.08141
G1 X124.715 Y44.349 E.16189
G1 X124.247 Y43.506 E.15613
G1 X123.68 Y42.783 E.14878
G1 X117.538 Y36.086 E1.47141
G1 X117.224 Y35.768 E.07236
G1 X116.497 Y35.185 E.1509
G1 X115.645 Y34.703 E.15851
G1 X115.179 Y34.511 E.08161
G1 X114.691 Y34.357 E.08286
G1 X114.174 Y34.243 E.08573
G1 X113.668 Y34.176 E.08265
G1 X113.144 Y34.153 E.08493
G1 X98.247 Y34.153 E2.41219
G1 X98.247 Y29.375 E.77368
G1 X98.18 Y28.521 E.13871
G1 X98.18 Y27.961 E.09068
G1 X97.386 Y27.047
G1 X132.548 Y27.047 E5.69359
G1 X132.548 Y27.673 E.10136
G1 X132.342 Y28.657 E.16279
G1 X132.292 Y29.375 E.11654
G1 X132.292 Y192.956 E26.48777
G1 X116.971 Y192.955 E2.48085
;WIDTH:0.931197
G1 X116.129 Y192.939 E.14172
;WIDTH:0.97656
G1 X115.918 Y192.917 E.03766
;WIDTH:1.02192
G1 X115.708 Y192.894 E.03945
;WIDTH:1.06729
G1 X115.497 Y192.871 E.0416
;WIDTH:1.11265
G1 X115.287 Y192.849 E.04334
G1 X114.444 Y192.864 E.17305
;WIDTH:1.08176
G1 X88.031 Y192.863 E5.25492
;WIDTH:1.08109
G1 X87.543 Y192.863 E.09702
G1 X87.543 Y191.887 E.19405
G1 X88.031 Y191.887 E.09702
;WIDTH:1.08176
G1 X114.444 Y191.888 E5.25492
;WIDTH:1.12529
G1 X115.356 Y191.83 E.18992
G1 X115.5 Y191.771 E.03234
;WIDTH:1.07677
G1 X115.644 Y191.712 E.0308
;WIDTH:1.02825
G1 X115.788 Y191.653 E.02926
;WIDTH:0.979721
G1 X115.932 Y191.594 E.02773
;WIDTH:0.931197
G1 X116.612 Y191.32 E.12337
;WIDTH:0.9
G1 X117.234 Y190.979 E.11486
G1 X117.783 Y190.573 E.11056
G1 X118.252 Y190.122 E.10536
G1 X123.275 Y184.634 E1.20466
G1 X123.755 Y183.942 E.13637
G1 X124.131 Y183.146 E.14255
G1 X124.375 Y182.243 E.15146
G1 X124.452 Y181.351 E.14497
G1 X124.452 Y46.812 E21.78516
G1 X124.433 Y46.366 E.07228
G1 X124.282 Y45.494 E.1433
G1 X123.991 Y44.678 E.14028
G1 X123.585 Y43.947 E.1354
G1 X123.094 Y43.32 E.12895
G1 X116.952 Y36.623 E1.47141
G1 X116.379 Y36.086 E.12716
G1 X115.694 Y35.621 E.13406
G1 X114.908 Y35.258 E.14019
G1 X114.037 Y35.026 E.14595
G1 X113.144 Y34.948 E.14515
G1 X97.452 Y34.948 E2.54092
G1 X97.452 Y29.375 E.90241
G1 X97.386 Y28.627 E.12159
G1 X97.386 Y27.167 E.23641
G1 X96.591 Y26.252
G1 X133.342 Y26.252 E5.95089
G1 X133.342 Y27.673 E.23009
G1 X133.342 Y27.944 E.04388
G1 X133.28 Y28.091 E.02583
G1 X133.129 Y28.767 E.11216
G1 X133.087 Y29.375 E.09868
G1 X133.087 Y193.751 E26.6165
G1 X86.658 Y193.748 E7.51799
G1 X86.658 Y191.002 E.44464
G1 X114.444 Y191.002 E4.49923
G1 X115.2 Y190.936 E.12288
G1 X115.699 Y190.818 E.08303
G1 X116.278 Y190.599 E.10024
G1 X116.805 Y190.31 E.09732
G1 X117.269 Y189.967 E.09343
G1 X117.666 Y189.585 E.08921
G1 X122.661 Y184.129 E1.19778
G1 X123.068 Y183.544 E.1154
G1 X123.385 Y182.87 E.12061
G1 X123.592 Y182.106 E.12817
G1 X123.658 Y181.351 E.12272
G1 X123.658 Y46.812 E21.78516
G1 X123.641 Y46.434 E.06127
G1 X123.513 Y45.696 E.12128
G1 X123.267 Y45.006 E.11862
G1 X122.924 Y44.388 E.11445
G1 X122.508 Y43.857 E.10923
G1 X116.366 Y37.16 E1.47141
G1 X115.882 Y36.706 E.10745
G1 X115.301 Y36.312 E.11367
G1 X114.636 Y36.005 E.1186
G1 X113.9 Y35.809 E.12333
G1 X113.144 Y35.743 E.12288
G1 X96.658 Y35.743 E2.66949
G1 X96.658 Y29.375 E1.03114
G1 X96.591 Y28.733 E.10452
G1 X96.591 Y26.372 E.3823
G1 X95.796 Y25.457
G1 X134.137 Y25.457 E6.20835
G1 X134.137 Y27.673 E.35882
G1 X134.137 Y28.096 E.06849
G1 X134.039 Y28.324 E.04018
G1 X133.916 Y28.878 E.09189
G1 X133.882 Y29.375 E.08066
G1 X133.882 Y194.546 E26.74523
G1 X85.863 Y194.543 E7.77545
G1 X85.863 Y190.207 E.7021
G1 X114.444 Y190.207 E4.62796
G1 X114.966 Y190.169 E.08475
G1 X115.471 Y190.056 E.08379
G1 X115.945 Y189.877 E.08204
G1 X116.376 Y189.641 E.07957
G1 X116.756 Y189.36 E.07653
G1 X117.081 Y189.048 E.07295
G1 X122.048 Y183.624 E1.1909
G1 X122.38 Y183.145 E.09437
G1 X122.64 Y182.593 E.0988
G1 X122.809 Y181.969 E.10468
G1 X122.863 Y181.351 E.10045
G1 X122.863 Y46.812 E21.78516
G1 X122.849 Y46.503 E.05009
G1 X122.744 Y45.899 E.09927
G1 X122.543 Y45.334 E.0971
G1 X122.263 Y44.828 E.09364
G1 X121.922 Y44.394 E.08937
G1 X115.781 Y37.697 E1.4713
G1 X115.384 Y37.326 E.08798
G1 X114.909 Y37.004 E.09292
G1 X114.365 Y36.753 E.09701
G1 X113.762 Y36.592 E.10106
G1 X113.144 Y36.538 E.10045
G1 X95.863 Y36.538 E2.79822
G1 X95.863 Y29.375 E1.15987
G1 X95.826 Y28.866 E.08264
G1 X95.796 Y28.839 E.00654
G1 X95.796 Y25.577 E.5282
G1 X95.001 Y24.662
G1 X134.932 Y24.662 E6.46581
G1 X134.932 Y27.673 E.48755
G1 X134.932 Y28.247 E.09294
G1 X134.799 Y28.558 E.05477
G1 X134.703 Y28.988 E.07134
G1 X134.676 Y29.375 E.06282
G1 X134.676 Y195.341 E26.87396
G1 X85.068 Y195.338 E8.03275
G1 X85.068 Y189.412 E.95956
G1 X114.444 Y189.412 E4.75669
G1 X114.925 Y189.37 E.07818
G1 X115.611 Y189.155 E.11641
G1 X115.947 Y188.972 E.06195
G1 X116.495 Y188.51 E.11606
G1 X121.336 Y183.231 E1.1598
G1 X121.693 Y182.746 E.09751
G1 X121.895 Y182.317 E.07678
G1 X122.024 Y181.846 E.07908
G1 X122.068 Y181.351 E.08047
G1 X122.068 Y46.812 E21.78516
G1 X122.027 Y46.334 E.07768
G1 X121.906 Y45.877 E.07655
G1 X121.717 Y45.459 E.07428
G1 X121.336 Y44.931 E.10543
G1 X115.195 Y38.234 E1.4713
G1 X115.048 Y38.086 E.03378
G1 X114.517 Y37.695 E.10678
G1 X114.094 Y37.5 E.07542
G1 X113.63 Y37.375 E.07781
G1 X113.144 Y37.333 E.07899
G1 X95.068 Y37.333 E2.92695
G1 X95.068 Y29.375 E1.2886
G1 X95.04 Y28.979 E.06428
G1 X95.001 Y28.946 E.00827
G1 X95.001 Y24.782 E.67425
G1 X94.206 Y23.867
G1 X135.727 Y23.867 E6.72327
G1 X135.727 Y27.673 E.61628
G1 X135.727 Y28.396 E.11707
G1 X135.559 Y28.791 E.0695
G1 X135.471 Y29.375 E.09563
G1 X135.471 Y196.135 E27.00253
G1 X84.273 Y196.133 E8.29021
G1 X84.273 Y188.617 E1.21702
G1 X114.444 Y188.617 E4.88542
G1 X115.015 Y188.534 E.09343
G1 X115.517 Y188.303 E.08948
G1 X115.909 Y187.973 E.08297
G1 X120.75 Y182.694 E1.1598
G1 X121.005 Y182.348 E.0696
G1 X121.202 Y181.876 E.08282
G1 X121.273 Y181.351 E.08578
G1 X121.273 Y46.812 E21.78516
G1 X121.207 Y46.305 E.08279
G1 X121.023 Y45.846 E.08007
G1 X120.751 Y45.469 E.07528
G1 X114.609 Y38.772 E1.47141
G1 X114.504 Y38.666 E.02416
G1 X114.125 Y38.386 E.0763
G1 X113.66 Y38.196 E.08134
G1 X113.144 Y38.128 E.08428
G1 X94.273 Y38.128 E3.05568
G1 X94.273 Y29.375 E1.41733
G1 X94.253 Y29.092 E.04594
G1 X94.206 Y29.052 E.00999
G1 X94.206 Y23.987 E.82015
G1 X93.411 Y23.072
G1 X136.522 Y23.072 E6.98073
G1 X136.522 Y27.673 E.74501
G1 X136.522 Y28.731 E.17132
G1 X136.418 Y28.792 E.01952
G1 X136.319 Y29.025 E.04099
G1 X136.266 Y29.375 E.05732
G1 X136.266 Y196.93 E27.13126
G1 X83.478 Y196.928 E8.54767
G1 X83.478 Y187.822 E1.47448
G1 X114.444 Y187.822 E5.01415
G1 X114.787 Y187.772 E.05613
G1 X115.088 Y187.634 E.05362
G1 X115.323 Y187.436 E.04976
G1 X120.165 Y182.157 E1.15991
G1 X120.404 Y181.765 E.07434
G1 X120.478 Y181.351 E.0681
G1 X120.474 Y46.709 E21.80184
G1 X120.372 Y46.319 E.06527
G1 X120.165 Y46.006 E.06076
G1 X114.023 Y39.309 E1.47141
G1 X113.891 Y39.185 E.02933
G1 X113.551 Y38.994 E.06315
G1 X113.144 Y38.922 E.06693
G1 X93.478 Y38.922 E3.18441
G1 X93.478 Y29.375 E1.54589
G1 X93.466 Y29.205 E.0276
G1 X93.411 Y29.158 E.01171
G1 X93.411 Y23.192 E.96604
G1 X92.617 Y22.278
;TYPE:External perimeter
G1 X137.317 Y22.278 E7.23802
G1 X137.317 Y27.673 E.87358
G1 X137.317 Y29.061 E.22475
G1 X137.112 Y29.181 E.03846
G1 X137.061 Y29.375 E.03248
G1 X137.061 Y197.725 E27.25999
G1 X82.683 Y197.722 E8.80513
G1 X82.683 Y187.028 E1.73162
G1 X114.444 Y187.028 E5.14288
G1 X114.559 Y187.011 E.01882
G1 X114.737 Y186.899 E.03405
G1 X119.579 Y181.619 E1.16003
G1 X119.612 Y181.578 E.00852
G1 X119.683 Y181.351 E.03851
G1 X119.678 Y46.743 E21.79633
G1 X119.579 Y46.543 E.03614
G1 X113.437 Y39.846 E1.47141
G1 X113.368 Y39.786 E.01481
G1 X113.144 Y39.717 E.03795
G1 X92.683 Y39.717 E3.31314
G1 X92.683 Y29.375 E1.67462
G1 X92.679 Y29.318 E.00925
G1 X92.617 Y29.264 E.01331
G1 X92.617 Y22.398 E1.11177
G1 X93.408 Y22.279
G1 X98.486 Y33.018
;TYPE:Solid infill
;WIDTH:0.904792
G1 X99.025 Y33.557 E.12417
G1 X100.156 Y33.557 E.18424
