(Created with grbl post processor 2025/01/01 12:05)
G21
(G-code generated with BlenderCAM and NC library)
G17G90
(Tool: D = 3.18 mm  type END flutes 2)
S1000M03
G00 Z1.0

G0X0Y0Z1
X176.074Y56.194
G1Z-0.1F50
X176.082Y56.168F100
X176.092Y56.141
X176.112Y56.089
X176.122Y56.063
X176.133Y56.038
X176.145Y56.012
X176.157Y55.987
X176.169Y55.963
X176.182Y55.938
X176.196Y55.913
X176.209Y55.889
X176.233Y55.849
X176.254Y55.816
X176.268Y55.794
X176.284Y55.772
X176.3Y55.749
X176.317Y55.726
X176.334Y55.704
X176.353Y55.681
X176.369Y55.661
X176.387Y55.64
X176.406Y55.619
X176.426Y55.597
X176.444Y55.578
X176.463Y55.558
X176.503Y55.52
X176.547Y55.481
X176.566Y55.464
X176.587Y55.447
X176.609Y55.429
X176.631Y55.412
X176.654Y55.396
X176.676Y55.379
X176.722Y55.348
X176.746Y55.333
X176.77Y55.319
X176.794Y55.305
X176.818Y55.291
X176.843Y55.277
X176.867Y55.265
X176.892Y55.252
X176.917Y55.24
X176.943Y55.229
X176.968Y55.218
X176.994Y55.207
X177.049Y55.186
X177.072Y55.178
X177.099Y55.169
X177.125Y55.16
X177.152Y55.153
X177.179Y55.145
X177.233Y55.132
X177.287Y55.12
X177.315Y55.115
X177.345Y55.11
X177.398Y55.103
X177.425Y55.099
X177.453Y55.097
X177.481Y55.095
X177.509Y55.093
X177.536Y55.092
X177.564Y55.091
X177.592
X177.62
X177.648Y55.092
X177.675Y55.093
X177.704Y55.095
X177.731Y55.097
X177.759Y55.099
X177.787Y55.103
X177.814Y55.106
X177.842Y55.11
X177.869Y55.115
X177.897Y55.12
X177.924Y55.126
X177.951Y55.132
X177.978Y55.138
X178.005Y55.145
X178.032Y55.152
X178.059Y55.16
X178.086Y55.169
X178.112Y55.178
X178.164Y55.197
X178.19Y55.207
X178.216Y55.218
X178.241Y55.229
X178.292Y55.252
X178.317Y55.265
X178.342Y55.278
X178.366Y55.291
X178.39Y55.305
X178.414Y55.319
X178.438Y55.333
X178.462Y55.348
X178.485Y55.364
X178.508Y55.379
X178.531Y55.396
X178.553Y55.412
X178.575Y55.429
X178.597Y55.446
X178.618Y55.464
X178.64Y55.482
X178.661Y55.501
X178.681Y55.52
X178.701Y55.539
X178.721Y55.558
X178.741Y55.578
X178.76Y55.598
X178.797Y55.64
X178.815Y55.661
X178.844Y55.696
X178.869Y55.729
X178.884Y55.749
X178.9Y55.771
X178.916Y55.794
X178.946Y55.841
X178.961Y55.865
X178.975Y55.889
X178.989Y55.913
X179.002Y55.938
X179.015Y55.962
X179.027Y55.987
X179.039Y56.013
X179.051Y56.038
X179.062Y56.063
X179.072Y56.089
X179.083Y56.115
X179.092Y56.141
X179.102Y56.167
X179.111Y56.194
X179.119Y56.221
X179.134Y56.274
X179.141Y56.301
X179.148Y56.328
X179.157Y56.372
X179.165Y56.413
X179.169Y56.437
X179.173Y56.465
X179.177Y56.493
X179.18Y56.52
X179.183Y56.548
X179.185Y56.576
X179.187Y56.604
X179.188Y56.631
Y56.659
X179.189Y56.687
X179.188Y56.715
Y56.743
X179.187Y56.771
X179.185Y56.798
X179.183Y56.826
X179.18Y56.854
X179.177Y56.882
X179.173Y56.91
X179.169Y56.937
X179.164Y56.965
X179.159Y56.992
X179.154Y57.019
X179.148Y57.046
X179.141Y57.073
X179.134Y57.101
X179.127Y57.127
X179.119Y57.154
X179.111Y57.181
X179.102Y57.207
X179.092Y57.233
X179.083Y57.259
X179.072Y57.285
X179.062Y57.311
X179.051Y57.337
X179.039Y57.362
X179.027Y57.387
X179.015Y57.412
X179.002Y57.437
X178.989Y57.461
X178.975Y57.486
X178.961Y57.51
X178.946Y57.533
X178.931Y57.557
X178.916Y57.58
X178.9Y57.603
X178.884Y57.626
X178.867Y57.648
X178.85Y57.67
X178.833Y57.692
X178.815Y57.714
X178.797Y57.735
X178.779Y57.756
X178.76Y57.776
X178.741Y57.796
X178.721Y57.816
X178.701Y57.836
X178.681Y57.855
X178.661Y57.874
X178.64Y57.892
X178.618Y57.91
X178.597Y57.928
X178.575Y57.945
X178.553Y57.962
X178.531Y57.979
X178.508Y57.995
X178.485Y58.011
X178.462Y58.026
X178.438Y58.041
X178.415Y58.056
X178.39Y58.07
X178.366Y58.084
X178.342Y58.097
X178.317Y58.11
X178.292Y58.122
X178.267Y58.134
X178.241Y58.146
X178.216Y58.157
X178.19Y58.168
X178.164Y58.178
X178.138Y58.188
X178.112Y58.197
X178.086Y58.206
X178.059Y58.214
X178.032Y58.222
X178.005Y58.23
X177.978Y58.237
X177.951Y58.243
X177.924Y58.249
X177.897Y58.255
X177.869Y58.26
X177.842Y58.264
X177.814Y58.268
X177.787Y58.272
X177.759Y58.275
X177.731Y58.278
X177.703Y58.28
X177.676Y58.282
X177.648Y58.283
X177.62Y58.284
X177.592
X177.564
X177.536Y58.283
X177.515Y58.282
X177.479Y58.28
X177.425Y58.275
X177.398Y58.272
X177.37Y58.268
X177.342Y58.264
X177.315Y58.26
X177.287Y58.255
X177.26Y58.249
X177.233Y58.243
X177.206Y58.237
X177.179Y58.23
X177.152Y58.222
X177.125Y58.214
X177.105Y58.208
X177.071Y58.196
X177.046Y58.188
X177.02Y58.178
X176.994Y58.168
X176.968Y58.157
X176.943Y58.146
X176.917Y58.134
X176.892Y58.122
X176.867Y58.11
X176.843Y58.097
X176.818Y58.084
X176.794Y58.07
X176.77Y58.056
X176.746Y58.041
X176.723Y58.026
X176.699Y58.011
X176.676Y57.995
X176.653Y57.979
X176.631Y57.962
X176.609Y57.946
X176.587Y57.928
X176.566Y57.91
X176.544Y57.892
X176.524Y57.874
X176.503Y57.855
X176.483Y57.836
X176.463Y57.816
X176.444Y57.796
X176.424Y57.776
X176.405Y57.756
X176.387Y57.735
X176.369Y57.714
X176.351Y57.692
X176.317Y57.648
X176.3Y57.626
X176.284Y57.603
X176.268Y57.58
X176.253Y57.557
X176.224Y57.51
X176.202Y57.472
X176.181Y57.434
X176.169Y57.412
X176.157Y57.387
X176.145Y57.362
X176.133Y57.337
X176.122Y57.311
X176.112Y57.285
X176.102Y57.26
X176.085Y57.215
X176.073Y57.179
X176.065Y57.154
X176.057Y57.127
X176.043Y57.073
X176.036Y57.046
X176.03Y57.019
X176.025Y56.992
X176.02Y56.965
X176.015Y56.937
X176.011Y56.91
X176.007Y56.882
X176.004Y56.854
X176.001Y56.826
X175.999Y56.799
X175.998Y56.771
X175.996Y56.725
X175.995Y56.687
X175.996Y56.659
Y56.632
X175.998Y56.604
X175.999Y56.576
X176.002Y56.548
X176.004Y56.52
X176.007Y56.493
X176.011Y56.465
X176.015Y56.438
X176.02Y56.41
X176.025Y56.383
X176.03Y56.355
X176.036Y56.328
X176.043Y56.301
X176.05Y56.274
X176.057Y56.247
X176.065Y56.22
X176.074Y56.194
G0Z1
X190.977Y56.672
G1Z-0.1F50
X190.994Y56.496F100
X191.045Y56.327
X191.128Y56.171
X191.24Y56.035
X191.377Y55.922
X191.533Y55.839
X191.702Y55.788
X191.878Y55.771
X192.054Y55.788
X192.223Y55.839
X192.379Y55.922
X192.515Y56.035
X192.627Y56.171
X192.711Y56.327
X192.762Y56.496
X192.779Y56.672
X192.762Y56.848
X192.711Y57.017
X192.627Y57.173
X192.515Y57.309
X192.379Y57.421
X192.223Y57.505
X192.054Y57.556
X191.878Y57.573
X191.702Y57.556
X191.533Y57.505
X191.377Y57.421
X191.24Y57.309
X191.128Y57.173
X191.045Y57.017
X190.994Y56.848
X190.977Y56.672
G0Z1
X206.88
G1Z-0.1F50
X206.898Y56.496F100
X206.949Y56.327
X207.032Y56.171
X207.144Y56.035
X207.281Y55.922
X207.437Y55.839
X207.606Y55.788
X207.782Y55.771
X207.958Y55.788
X208.127Y55.839
X208.282Y55.922
X208.419Y56.035
X208.531Y56.171
X208.614Y56.327
X208.666Y56.496
X208.683Y56.672
X208.666Y56.848
X208.614Y57.017
X208.531Y57.173
X208.419Y57.309
X208.282Y57.421
X208.127Y57.505
X207.958Y57.556
X207.782Y57.573
X207.606Y57.556
X207.437Y57.505
X207.281Y57.421
X207.144Y57.309
X207.032Y57.173
X206.949Y57.017
X206.898Y56.848
X206.88Y56.672
G0Z1
X210.383Y48.746
G1Z-0.1F50
X183.929F100
X183.275Y48.752
X182.621Y48.769
X181.968Y48.796
X181.315Y48.834
X180.662Y48.883
X180.011Y48.943
X179.361Y49.014
X178.712Y49.095
X178.064Y49.188
X177.419Y49.291
X176.774Y49.404
X176.132Y49.529
X176.008Y49.555
X175.885Y49.584
X175.762Y49.614
X175.64Y49.647
X175.518Y49.682
X175.397Y49.719
X175.277Y49.758
X175.157Y49.799
X175.038Y49.842
X174.92Y49.888
X174.802Y49.935
X174.686Y49.984
X174.57Y50.036
X174.455Y50.089
X174.341Y50.144
X174.228Y50.202
X174.117Y50.261
X174.006Y50.322
X173.896Y50.385
X173.787Y50.45
X173.68Y50.517
X173.574Y50.586
X173.469Y50.656
X173.365Y50.729
X173.262Y50.803
X173.161Y50.879
X173.061Y50.956
X172.962Y51.035
X172.865Y51.117
X172.769Y51.199
X172.675Y51.284
X172.582Y51.37
X172.491Y51.457
X172.401Y51.547
X172.313Y51.637
X172.226Y51.73
X172.141Y51.823
X172.057Y51.918
X171.976Y52.015
X171.876Y52.137
X171.778Y52.261
X171.682Y52.386
X171.588Y52.514
X171.497Y52.643
X171.408Y52.773
X171.321Y52.905
X171.236Y53.038
X171.154Y53.173
X171.074Y53.309
X170.996Y53.447
X170.921Y53.585
X170.848Y53.726
X170.777Y53.867
X170.709Y54.009
X170.643Y54.153
X170.58Y54.298
X170.52Y54.444
X170.461Y54.591
X170.406Y54.738
X170.352Y54.887
X170.302Y55.037
X170.254Y55.187
X170.209Y55.339
X170.166Y55.491
X170.126Y55.643
X170.088Y55.797
X170.053Y55.951
X170.021Y56.105
X169.991Y56.261
X169.964Y56.416
X169.94Y56.572
X169.918Y56.729
X169.899Y56.885
X169.883Y57.043
X169.87Y57.2
X169.859Y57.358
X169.851Y57.515
X169.845Y57.673
X169.842Y57.831
Y57.989
X169.845Y58.147
X169.85Y58.305
X169.858Y58.463
X169.869Y58.62
X169.883Y58.778
X169.899Y58.935
X169.918Y59.091
X169.937Y59.234
X170.357Y62.126
X170.37Y62.2
X170.387Y62.277
X170.406Y62.353
X170.428Y62.426
X170.452Y62.5
X170.479Y62.573
X170.508Y62.644
X170.54Y62.715
X170.574Y62.785
X170.611Y62.853
X170.649Y62.919
X170.691Y62.986
X170.734Y63.049
X170.78Y63.112
X170.828Y63.173
X170.878Y63.232
X170.93Y63.289
X170.984Y63.345
X171.039Y63.399
X171.097Y63.45
X171.157Y63.5
X171.218Y63.548
X171.281Y63.594
X171.344Y63.636
X171.411Y63.678
X171.477Y63.716
X171.546Y63.752
X171.616Y63.786
X171.686Y63.817
X171.759Y63.847
X171.831Y63.873
X171.905Y63.897
X171.979Y63.918
X172.054Y63.937
X172.13Y63.953
X172.207Y63.966
X172.284Y63.977
X172.36Y63.985
X172.438Y63.99
X172.515Y63.993
X172.554
X177.605
X177.721Y63.992
X177.838Y63.989
X177.955Y63.984
X178.072Y63.977
X179.327Y63.887
X180.48Y63.822
X181.633Y63.776
X182.788Y63.749
X183.948Y63.739
X187.501
X187.539Y63.743
X187.578Y63.745
X187.616Y63.746
X187.654Y63.747
X215.654
X215.694Y63.746
X215.733Y63.745
X215.773Y63.742
X215.813Y63.739
X215.852Y63.734
X215.891Y63.729
X215.931Y63.722
X215.97Y63.715
X216.009Y63.707
X216.048Y63.697
X216.086Y63.687
X216.124Y63.676
X216.162Y63.663
X216.199Y63.65
X216.237Y63.636
X216.273Y63.621
X216.31Y63.605
X216.346Y63.588
X216.381Y63.571
X216.417Y63.552
X216.451Y63.532
X216.486Y63.512
X216.52Y63.49
X216.554Y63.468
X216.587Y63.444
X216.62Y63.42
X216.652Y63.395
X216.683Y63.369
X216.698Y63.357
X216.727Y63.33
X216.749Y63.31
X216.771Y63.289
X216.799Y63.26
X216.827Y63.231
X216.859Y63.195
X216.89Y63.158
X216.911Y63.13
X216.933Y63.102
X216.953Y63.074
X216.974Y63.045
X216.993Y63.015
X217.012Y62.985
X217.029Y62.957
X217.045Y62.928
X217.061Y62.899
X217.08Y62.862
X217.098Y62.824
X217.111Y62.795
X217.124Y62.765
X217.14Y62.724
X217.148Y62.702
X217.162Y62.662
X217.175Y62.622
X217.187Y62.58
X217.199Y62.537
X217.208Y62.495
X217.217Y62.454
X217.224Y62.414
X217.231Y62.363
X217.238Y62.306
X217.241Y62.273
X217.243Y62.239
X217.244Y62.205
X217.245Y62.156
Y61.923
X217.256Y61.862
X217.266Y61.785
X217.275Y61.707
X217.28Y61.63
X217.283Y61.552
Y61.513
Y50.68
Y50.64
X217.281Y50.601
X217.279Y50.561
X217.275Y50.522
X217.271Y50.483
X217.266Y50.444
X217.259Y50.405
X217.252Y50.366
X217.245Y50.333
X217.244Y50.29
X217.241Y50.247
X217.238Y50.204
X217.233Y50.162
X217.227Y50.119
X217.22Y50.076
X217.212Y50.034
X217.203Y49.992
X217.192Y49.95
X217.183Y49.916
X217.173Y49.881
X217.162Y49.847
X217.15Y49.813
X217.137Y49.78
X217.12Y49.738
X217.102Y49.698
X217.083Y49.657
X217.061Y49.614
X217.045Y49.584
X217.028Y49.554
X217.007Y49.518
X216.984Y49.483
X216.962Y49.451
X216.94Y49.419
X216.917Y49.388
X216.893Y49.358
X216.869Y49.328
X216.843Y49.299
X216.818Y49.271
X216.791Y49.243
X216.764Y49.216
X216.736Y49.189
X216.707Y49.163
X216.678Y49.138
X216.648Y49.113
X216.618Y49.09
X216.587Y49.067
X216.555Y49.045
X216.523Y49.023
X216.49Y49.002
X216.457Y48.983
X216.424Y48.964
X216.389Y48.945
X216.355Y48.928
X216.32Y48.911
X216.286Y48.896
X216.25Y48.881
X216.215Y48.867
X216.179Y48.854
X216.143Y48.842
X216.106Y48.83
X216.069Y48.82
X216.032Y48.81
X215.995Y48.802
X215.958Y48.794
X215.92Y48.787
X215.882Y48.781
X215.845Y48.776
X215.807Y48.772
X215.768Y48.769
X215.73Y48.767
X215.692Y48.765
X215.654
X211.718
X211.128Y48.752
X210.383Y48.746
G0Z1
X176.074Y56.194
G1Z-0.2F50
X176.082Y56.168F100
X176.092Y56.141
X176.112Y56.089
X176.122Y56.063
X176.133Y56.038
X176.145Y56.012
X176.157Y55.987
X176.169Y55.963
X176.182Y55.938
X176.196Y55.913
X176.209Y55.889
X176.233Y55.849
X176.254Y55.816
X176.268Y55.794
X176.284Y55.772
X176.3Y55.749
X176.317Y55.726
X176.334Y55.704
X176.353Y55.681
X176.369Y55.661
X176.387Y55.64
X176.406Y55.619
X176.426Y55.597
X176.444Y55.578
X176.463Y55.558
X176.503Y55.52
X176.547Y55.481
X176.566Y55.464
X176.587Y55.447
X176.609Y55.429
X176.631Y55.412
X176.654Y55.396
X176.676Y55.379
X176.722Y55.348
X176.746Y55.333
X176.77Y55.319
X176.794Y55.305
X176.818Y55.291
X176.843Y55.277
X176.867Y55.265
X176.892Y55.252
X176.917Y55.24
X176.943Y55.229
X176.968Y55.218
X176.994Y55.207
X177.049Y55.186
X177.072Y55.178
X177.099Y55.169
X177.125Y55.16
X177.152Y55.153
X177.179Y55.145
X177.233Y55.132
X177.287Y55.12
X177.315Y55.115
X177.345Y55.11
X177.398Y55.103
X177.425Y55.099
X177.453Y55.097
X177.481Y55.095
X177.509Y55.093
X177.536Y55.092
X177.564Y55.091
X177.592
X177.62
X177.648Y55.092
X177.675Y55.093
X177.704Y55.095
X177.731Y55.097
X177.759Y55.099
X177.787Y55.103
X177.814Y55.106
X177.842Y55.11
X177.869Y55.115
X177.897Y55.12
X177.924Y55.126
X177.951Y55.132
X177.978Y55.138
X178.005Y55.145
X178.032Y55.152
X178.059Y55.16
X178.086Y55.169
X178.112Y55.178
X178.164Y55.197
X178.19Y55.207
X178.216Y55.218
X178.241Y55.229
X178.292Y55.252
X178.317Y55.265
X178.342Y55.278
X178.366Y55.291
X178.39Y55.305
X178.414Y55.319
X178.438Y55.333
X178.462Y55.348
X178.485Y55.364
X178.508Y55.379
X178.531Y55.396
X178.553Y55.412
X178.575Y55.429
X178.597Y55.446
X178.618Y55.464
X178.64Y55.482
X178.661Y55.501
X178.681Y55.52
X178.701Y55.539
X178.721Y55.558
X178.741Y55.578
X178.76Y55.598
X178.797Y55.64
X178.815Y55.661
X178.844Y55.696
X178.869Y55.729
X178.884Y55.749
X178.9Y55.771
X178.916Y55.794
X178.946Y55.841
X178.961Y55.865
X178.975Y55.889
X178.989Y55.913
X179.002Y55.938
X179.015Y55.962
X179.027Y55.987
X179.039Y56.013
X179.051Y56.038
X179.062Y56.063
X179.072Y56.089
X179.083Y56.115
X179.092Y56.141
X179.102Y56.167
X179.111Y56.194
X179.119Y56.221
X179.134Y56.274
X179.141Y56.301
X179.148Y56.328
X179.157Y56.372
X179.165Y56.413
X179.169Y56.437
X179.173Y56.465
X179.177Y56.493
X179.18Y56.52
X179.183Y56.548
X179.185Y56.576
X179.187Y56.604
X179.188Y56.631
Y56.659
X179.189Y56.687
X179.188Y56.715
Y56.743
X179.187Y56.771
X179.185Y56.798
X179.183Y56.826
X179.18Y56.854
X179.177Y56.882
X179.173Y56.91
X179.169Y56.937
X179.164Y56.965
X179.159Y56.992
X179.154Y57.019
X179.148Y57.046
X179.141Y57.073
X179.134Y57.101
X179.127Y57.127
X179.119Y57.154
X179.111Y57.181
X179.102Y57.207
X179.092Y57.233
X179.083Y57.259
X179.072Y57.285
X179.062Y57.311
X179.051Y57.337
X179.039Y57.362
X179.027Y57.387
X179.015Y57.412
X179.002Y57.437
X178.989Y57.461
X178.975Y57.486
X178.961Y57.51
X178.946Y57.533
X178.931Y57.557
X178.916Y57.58
X178.9Y57.603
X178.884Y57.626
X178.867Y57.648
X178.85Y57.67
X178.833Y57.692
X178.815Y57.714
X178.797Y57.735
X178.779Y57.756
X178.76Y57.776
X178.741Y57.796
X178.721Y57.816
X178.701Y57.836
X178.681Y57.855
X178.661Y57.874
X178.64Y57.892
X178.618Y57.91
X178.597Y57.928
X178.575Y57.945
X178.553Y57.962
X178.531Y57.979
X178.508Y57.995
X178.485Y58.011
X178.462Y58.026
X178.438Y58.041
X178.415Y58.056
X178.39Y58.07
X178.366Y58.084
X178.342Y58.097
X178.317Y58.11
X178.292Y58.122
X178.267Y58.134
X178.241Y58.146
X178.216Y58.157
X178.19Y58.168
X178.164Y58.178
X178.138Y58.188
X178.112Y58.197
X178.086Y58.206
X178.059Y58.214
X178.032Y58.222
X178.005Y58.23
X177.978Y58.237
X177.951Y58.243
X177.924Y58.249
X177.897Y58.255
X177.869Y58.26
X177.842Y58.264
X177.814Y58.268
X177.787Y58.272
X177.759Y58.275
X177.731Y58.278
X177.703Y58.28
X177.676Y58.282
X177.648Y58.283
X177.62Y58.284
X177.592
X177.564
X177.536Y58.283
X177.515Y58.282
X177.479Y58.28
X177.425Y58.275
X177.398Y58.272
X177.37Y58.268
X177.342Y58.264
X177.315Y58.26
X177.287Y58.255
X177.26Y58.249
X177.233Y58.243
X177.206Y58.237
X177.179Y58.23
X177.152Y58.222
X177.125Y58.214
X177.105Y58.208
X177.071Y58.196
X177.046Y58.188
X177.02Y58.178
X176.994Y58.168
X176.968Y58.157
X176.943Y58.146
X176.917Y58.134
X176.892Y58.122
X176.867Y58.11
X176.843Y58.097
X176.818Y58.084
X176.794Y58.07
X176.77Y58.056
X176.746Y58.041
X176.723Y58.026
X176.699Y58.011
X176.676Y57.995
X176.653Y57.979
X176.631Y57.962
X176.609Y57.946
X176.587Y57.928
X176.566Y57.91
X176.544Y57.892
X176.524Y57.874
X176.503Y57.855
X176.483Y57.836
X176.463Y57.816
X176.444Y57.796
X176.424Y57.776
X176.405Y57.756
X176.387Y57.735
X176.369Y57.714
X176.351Y57.692
X176.317Y57.648
X176.3Y57.626
X176.284Y57.603
X176.268Y57.58
X176.253Y57.557
X176.224Y57.51
X176.202Y57.472
X176.181Y57.434
X176.169Y57.412
X176.157Y57.387
X176.145Y57.362
X176.133Y57.337
X176.122Y57.311
X176.112Y57.285
X176.102Y57.26
X176.085Y57.215
X176.073Y57.179
X176.065Y57.154
X176.057Y57.127
X176.043Y57.073
X176.036Y57.046
X176.03Y57.019
X176.025Y56.992
X176.02Y56.965
X176.015Y56.937
X176.011Y56.91
X176.007Y56.882
X176.004Y56.854
X176.001Y56.826
X175.999Y56.799
X175.998Y56.771
X175.996Y56.725
X175.995Y56.687
X175.996Y56.659
Y56.632
X175.998Y56.604
X175.999Y56.576
X176.002Y56.548
X176.004Y56.52
X176.007Y56.493
X176.011Y56.465
X176.015Y56.438
X176.02Y56.41
X176.025Y56.383
X176.03Y56.355
X176.036Y56.328
X176.043Y56.301
X176.05Y56.274
X176.057Y56.247
X176.065Y56.22
X176.074Y56.194
G0Z1
X190.977Y56.672
G1Z-0.2F50
X190.994Y56.496F100
X191.045Y56.327
X191.128Y56.171
X191.24Y56.035
X191.377Y55.922
X191.533Y55.839
X191.702Y55.788
X191.878Y55.771
X192.054Y55.788
X192.223Y55.839
X192.379Y55.922
X192.515Y56.035
X192.627Y56.171
X192.711Y56.327
X192.762Y56.496
X192.779Y56.672
X192.762Y56.848
X192.711Y57.017
X192.627Y57.173
X192.515Y57.309
X192.379Y57.421
X192.223Y57.505
X192.054Y57.556
X191.878Y57.573
X191.702Y57.556
X191.533Y57.505
X191.377Y57.421
X191.24Y57.309
X191.128Y57.173
X191.045Y57.017
X190.994Y56.848
X190.977Y56.672
G0Z1
X206.88
G1Z-0.2F50
X206.898Y56.496F100
X206.949Y56.327
X207.032Y56.171
X207.144Y56.035
X207.281Y55.922
X207.437Y55.839
X207.606Y55.788
X207.782Y55.771
X207.958Y55.788
X208.127Y55.839
X208.282Y55.922
X208.419Y56.035
X208.531Y56.171
X208.614Y56.327
X208.666Y56.496
X208.683Y56.672
X208.666Y56.848
X208.614Y57.017
X208.531Y57.173
X208.419Y57.309
X208.282Y57.421
X208.127Y57.505
X207.958Y57.556
X207.782Y57.573
X207.606Y57.556
X207.437Y57.505
X207.281Y57.421
X207.144Y57.309
X207.032Y57.173
X206.949Y57.017
X206.898Y56.848
X206.88Y56.672
G0Z1
X210.383Y48.746
G1Z-0.2F50
X183.929F100
X183.275Y48.752
X182.621Y48.769
X181.968Y48.796
X181.315Y48.834
X180.662Y48.883
X180.011Y48.943
X179.361Y49.014
X178.712Y49.095
X178.064Y49.188
X177.419Y49.291
X176.774Y49.404
X176.132Y49.529
X176.008Y49.555
X175.885Y49.584
X175.762Y49.614
X175.64Y49.647
X175.518Y49.682
X175.397Y49.719
X175.277Y49.758
X175.157Y49.799
X175.038Y49.842
X174.92Y49.888
X174.802Y49.935
X174.686Y49.984
X174.57Y50.036
X174.455Y50.089
X174.341Y50.144
X174.228Y50.202
X174.117Y50.261
X174.006Y50.322
X173.896Y50.385
X173.787Y50.45
X173.68Y50.517
X173.574Y50.586
X173.469Y50.656
X173.365Y50.729
X173.262Y50.803
X173.161Y50.879
X173.061Y50.956
X172.962Y51.035
X172.865Y51.117
X172.769Y51.199
X172.675Y51.284
X172.582Y51.37
X172.491Y51.457
X172.401Y51.547
X172.313Y51.637
X172.226Y51.73
X172.141Y51.823
X172.057Y51.918
X171.976Y52.015
X171.876Y52.137
X171.778Y52.261
X171.682Y52.386
X171.588Y52.514
X171.497Y52.643
X171.408Y52.773
X171.321Y52.905
X171.236Y53.038
X171.154Y53.173
X171.074Y53.309
X170.996Y53.447
X170.921Y53.585
X170.848Y53.726
X170.777Y53.867
X170.709Y54.009
X170.643Y54.153
X170.58Y54.298
X170.52Y54.444
X170.461Y54.591
X170.406Y54.738
X170.352Y54.887
X170.302Y55.037
X170.254Y55.187
X170.209Y55.339
X170.166Y55.491
X170.126Y55.643
X170.088Y55.797
X170.053Y55.951
X170.021Y56.105
X169.991Y56.261
X169.964Y56.416
X169.94Y56.572
X169.918Y56.729
X169.899Y56.885
X169.883Y57.043
X169.87Y57.2
X169.859Y57.358
X169.851Y57.515
X169.845Y57.673
X169.842Y57.831
Y57.989
X169.845Y58.147
X169.85Y58.305
X169.858Y58.463
X169.869Y58.62
X169.883Y58.778
X169.899Y58.935
X169.918Y59.091
X169.937Y59.234
X170.357Y62.126
X170.37Y62.2
X170.387Y62.277
X170.406Y62.353
X170.428Y62.426
X170.452Y62.5
X170.479Y62.573
X170.508Y62.644
X170.54Y62.715
X170.574Y62.785
X170.611Y62.853
X170.649Y62.919
X170.691Y62.986
X170.734Y63.049
X170.78Y63.112
X170.828Y63.173
X170.878Y63.232
X170.93Y63.289
X170.984Y63.345
X171.039Y63.399
X171.097Y63.45
X171.157Y63.5
X171.218Y63.548
X171.281Y63.594
X171.344Y63.636
X171.411Y63.678
X171.477Y63.716
X171.546Y63.752
X171.616Y63.786
X171.686Y63.817
X171.759Y63.847
X171.831Y63.873
X171.905Y63.897
X171.979Y63.918
X172.054Y63.937
X172.13Y63.953
X172.207Y63.966
X172.284Y63.977
X172.36Y63.985
X172.438Y63.99
X172.515Y63.993
X172.554
X177.605
X177.721Y63.992
X177.838Y63.989
X177.955Y63.984
X178.072Y63.977
X179.327Y63.887
X180.48Y63.822
X181.633Y63.776
X182.788Y63.749
X183.948Y63.739
X187.501
X187.539Y63.743
X187.578Y63.745
X187.616Y63.746
X187.654Y63.747
X215.654
X215.694Y63.746
X215.733Y63.745
X215.773Y63.742
X215.813Y63.739
X215.852Y63.734
X215.891Y63.729
X215.931Y63.722
X215.97Y63.715
X216.009Y63.707
X216.048Y63.697
X216.086Y63.687
X216.124Y63.676
X216.162Y63.663
X216.199Y63.65
X216.237Y63.636
X216.273Y63.621
X216.31Y63.605
X216.346Y63.588
X216.381Y63.571
X216.417Y63.552
X216.451Y63.532
X216.486Y63.512
X216.52Y63.49
X216.554Y63.468
X216.587Y63.444
X216.62Y63.42
X216.652Y63.395
X216.683Y63.369
X216.698Y63.357
X216.727Y63.33
X216.749Y63.31
X216.771Y63.289
X216.799Y63.26
X216.827Y63.231
X216.859Y63.195
X216.89Y63.158
X216.911Y63.13
X216.933Y63.102
X216.953Y63.074
X216.974Y63.045
X216.993Y63.015
X217.012Y62.985
X217.029Y62.957
X217.045Y62.928
X217.061Y62.899
X217.08Y62.862
X217.098Y62.824
X217.111Y62.795
X217.124Y62.765
X217.14Y62.724
X217.148Y62.702
X217.162Y62.662
X217.175Y62.622
X217.187Y62.58
X217.199Y62.537
X217.208Y62.495
X217.217Y62.454
X217.224Y62.414
X217.231Y62.363
X217.238Y62.306
X217.241Y62.273
X217.243Y62.239
X217.244Y62.205
X217.245Y62.156
Y61.923
X217.256Y61.862
X217.266Y61.785
X217.275Y61.707
X217.28Y61.63
X217.283Y61.552
Y61.513
Y50.68
Y50.64
X217.281Y50.601
X217.279Y50.561
X217.275Y50.522
X217.271Y50.483
X217.266Y50.444
X217.259Y50.405
X217.252Y50.366
X217.245Y50.333
X217.244Y50.29
X217.241Y50.247
X217.238Y50.204
X217.233Y50.162
X217.227Y50.119
X217.22Y50.076
X217.212Y50.034
X217.203Y49.992
X217.192Y49.95
X217.183Y49.916
X217.173Y49.881
X217.162Y49.847
X217.15Y49.813
X217.137Y49.78
X217.12Y49.738
X217.102Y49.698
X217.083Y49.657
X217.061Y49.614
X217.045Y49.584
X217.028Y49.554
X217.007Y49.518
X216.984Y49.483
X216.962Y49.451
X216.94Y49.419
X216.917Y49.388
X216.893Y49.358
X216.869Y49.328
X216.843Y49.299
X216.818Y49.271
X216.791Y49.243
X216.764Y49.216
X216.736Y49.189
X216.707Y49.163
X216.678Y49.138
X216.648Y49.113
X216.618Y49.09
X216.587Y49.067
X216.555Y49.045
X216.523Y49.023
X216.49Y49.002
X216.457Y48.983
X216.424Y48.964
X216.389Y48.945
X216.355Y48.928
X216.32Y48.911
X216.286Y48.896
X216.25Y48.881
X216.215Y48.867
X216.179Y48.854
X216.143Y48.842
X216.106Y48.83
X216.069Y48.82
X216.032Y48.81
X215.995Y48.802
X215.958Y48.794
X215.92Y48.787
X215.882Y48.781
X215.845Y48.776
X215.807Y48.772
X215.768Y48.769
X215.73Y48.767
X215.692Y48.765
X215.654
X211.718
X211.128Y48.752
X210.383Y48.746
G0Z1
X176.074Y56.194
G1Z-0.3F50
X176.082Y56.168F100
X176.092Y56.141
X176.112Y56.089
X176.122Y56.063
X176.133Y56.038
X176.145Y56.012
X176.157Y55.987
X176.169Y55.963
X176.182Y55.938
X176.196Y55.913
X176.209Y55.889
X176.233Y55.849
X176.254Y55.816
X176.268Y55.794
X176.284Y55.772
X176.3Y55.749
X176.317Y55.726
X176.334Y55.704
X176.353Y55.681
X176.369Y55.661
X176.387Y55.64
X176.406Y55.619
X176.426Y55.597
X176.444Y55.578
X176.463Y55.558
X176.503Y55.52
X176.547Y55.481
X176.566Y55.464
X176.587Y55.447
X176.609Y55.429
X176.631Y55.412
X176.654Y55.396
X176.676Y55.379
X176.722Y55.348
X176.746Y55.333
X176.77Y55.319
X176.794Y55.305
X176.818Y55.291
X176.843Y55.277
X176.867Y55.265
X176.892Y55.252
X176.917Y55.24
X176.943Y55.229
X176.968Y55.218
X176.994Y55.207
X177.049Y55.186
X177.072Y55.178
X177.099Y55.169
X177.125Y55.16
X177.152Y55.153
X177.179Y55.145
X177.233Y55.132
X177.287Y55.12
X177.315Y55.115
X177.345Y55.11
X177.398Y55.103
X177.425Y55.099
X177.453Y55.097
X177.481Y55.095
X177.509Y55.093
X177.536Y55.092
X177.564Y55.091
X177.592
X177.62
X177.648Y55.092
X177.675Y55.093
X177.704Y55.095
X177.731Y55.097
X177.759Y55.099
X177.787Y55.103
X177.814Y55.106
X177.842Y55.11
X177.869Y55.115
X177.897Y55.12
X177.924Y55.126
X177.951Y55.132
X177.978Y55.138
X178.005Y55.145
X178.032Y55.152
X178.059Y55.16
X178.086Y55.169
X178.112Y55.178
X178.164Y55.197
X178.19Y55.207
X178.216Y55.218
X178.241Y55.229
X178.292Y55.252
X178.317Y55.265
X178.342Y55.278
X178.366Y55.291
X178.39Y55.305
X178.414Y55.319
X178.438Y55.333
X178.462Y55.348
X178.485Y55.364
X178.508Y55.379
X178.531Y55.396
X178.553Y55.412
X178.575Y55.429
X178.597Y55.446
X178.618Y55.464
X178.64Y55.482
X178.661Y55.501
X178.681Y55.52
X178.701Y55.539
X178.721Y55.558
X178.741Y55.578
X178.76Y55.598
X178.797Y55.64
X178.815Y55.661
X178.844Y55.696
X178.869Y55.729
X178.884Y55.749
X178.9Y55.771
X178.916Y55.794
X178.946Y55.841
X178.961Y55.865
X178.975Y55.889
X178.989Y55.913
X179.002Y55.938
X179.015Y55.962
X179.027Y55.987
X179.039Y56.013
X179.051Y56.038
X179.062Y56.063
X179.072Y56.089
X179.083Y56.115
X179.092Y56.141
X179.102Y56.167
X179.111Y56.194
X179.119Y56.221
X179.134Y56.274
X179.141Y56.301
X179.148Y56.328
X179.157Y56.372
X179.165Y56.413
X179.169Y56.437
X179.173Y56.465
X179.177Y56.493
X179.18Y56.52
X179.183Y56.548
X179.185Y56.576
X179.187Y56.604
X179.188Y56.631
Y56.659
X179.189Y56.687
X179.188Y56.715
Y56.743
X179.187Y56.771
X179.185Y56.798
X179.183Y56.826
X179.18Y56.854
X179.177Y56.882
X179.173Y56.91
X179.169Y56.937
X179.164Y56.965
X179.159Y56.992
X179.154Y57.019
X179.148Y57.046
X179.141Y57.073
X179.134Y57.101
X179.127Y57.127
X179.119Y57.154
X179.111Y57.181
X179.102Y57.207
X179.092Y57.233
X179.083Y57.259
X179.072Y57.285
X179.062Y57.311
X179.051Y57.337
X179.039Y57.362
X179.027Y57.387
X179.015Y57.412
X179.002Y57.437
X178.989Y57.461
X178.975Y57.486
X178.961Y57.51
X178.946Y57.533
X178.931Y57.557
X178.916Y57.58
X178.9Y57.603
X178.884Y57.626
X178.867Y57.648
X178.85Y57.67
X178.833Y57.692
X178.815Y57.714
X178.797Y57.735
X178.779Y57.756
X178.76Y57.776
X178.741Y57.796
X178.721Y57.816
X178.701Y57.836
X178.681Y57.855
X178.661Y57.874
X178.64Y57.892
X178.618Y57.91
X178.597Y57.928
X178.575Y57.945
X178.553Y57.962
X178.531Y57.979
X178.508Y57.995
X178.485Y58.011
X178.462Y58.026
X178.438Y58.041
X178.415Y58.056
X178.39Y58.07
X178.366Y58.084
X178.342Y58.097
X178.317Y58.11
X178.292Y58.122
X178.267Y58.134
X178.241Y58.146
X178.216Y58.157
X178.19Y58.168
X178.164Y58.178
X178.138Y58.188
X178.112Y58.197
X178.086Y58.206
X178.059Y58.214
X178.032Y58.222
X178.005Y58.23
X177.978Y58.237
X177.951Y58.243
X177.924Y58.249
X177.897Y58.255
X177.869Y58.26
X177.842Y58.264
X177.814Y58.268
X177.787Y58.272
X177.759Y58.275
X177.731Y58.278
X177.703Y58.28
X177.676Y58.282
X177.648Y58.283
X177.62Y58.284
X177.592
X177.564
X177.536Y58.283
X177.515Y58.282
X177.479Y58.28
X177.425Y58.275
X177.398Y58.272
X177.37Y58.268
X177.342Y58.264
X177.315Y58.26
X177.287Y58.255
X177.26Y58.249
X177.233Y58.243
X177.206Y58.237
X177.179Y58.23
X177.152Y58.222
X177.125Y58.214
X177.105Y58.208
X177.071Y58.196
X177.046Y58.188
X177.02Y58.178
X176.994Y58.168
X176.968Y58.157
X176.943Y58.146
X176.917Y58.134
X176.892Y58.122
X176.867Y58.11
X176.843Y58.097
X176.818Y58.084
X176.794Y58.07
X176.77Y58.056
X176.746Y58.041
X176.723Y58.026
X176.699Y58.011
X176.676Y57.995
X176.653Y57.979
X176.631Y57.962
X176.609Y57.946
X176.587Y57.928
X176.566Y57.91
X176.544Y57.892
X176.524Y57.874
X176.503Y57.855
X176.483Y57.836
X176.463Y57.816
X176.444Y57.796
X176.424Y57.776
X176.405Y57.756
X176.387Y57.735
X176.369Y57.714
X176.351Y57.692
X176.317Y57.648
X176.3Y57.626
X176.284Y57.603
X176.268Y57.58
X176.253Y57.557
X176.224Y57.51
X176.202Y57.472
X176.181Y57.434
X176.169Y57.412
X176.157Y57.387
X176.145Y57.362
X176.133Y57.337
X176.122Y57.311
X176.112Y57.285
X176.102Y57.26
X176.085Y57.215
X176.073Y57.179
X176.065Y57.154
X176.057Y57.127
X176.043Y57.073
X176.036Y57.046
X176.03Y57.019
X176.025Y56.992
X176.02Y56.965
X176.015Y56.937
X176.011Y56.91
X176.007Y56.882
X176.004Y56.854
X176.001Y56.826
X175.999Y56.799
X175.998Y56.771
X175.996Y56.725
X175.995Y56.687
X175.996Y56.659
Y56.632
X175.998Y56.604
X175.999Y56.576
X176.002Y56.548
X176.004Y56.52
X176.007Y56.493
X176.011Y56.465
X176.015Y56.438
X176.02Y56.41
X176.025Y56.383
X176.03Y56.355
X176.036Y56.328
X176.043Y56.301
X176.05Y56.274
X176.057Y56.247
X176.065Y56.22
X176.074Y56.194
G0Z1
X190.977Y56.672
G1Z-0.3F50
X190.994Y56.496F100
X191.045Y56.327
X191.128Y56.171
X191.24Y56.035
X191.377Y55.922
X191.533Y55.839
X191.702Y55.788
X191.878Y55.771
X192.054Y55.788
X192.223Y55.839
X192.379Y55.922
X192.515Y56.035
X192.627Y56.171
X192.711Y56.327
X192.762Y56.496
X192.779Y56.672
X192.762Y56.848
X192.711Y57.017
X192.627Y57.173
X192.515Y57.309
X192.379Y57.421
X192.223Y57.505
X192.054Y57.556
X191.878Y57.573
X191.702Y57.556
X191.533Y57.505
X191.377Y57.421
X191.24Y57.309
X191.128Y57.173
X191.045Y57.017
X190.994Y56.848
X190.977Y56.672
G0Z1
X206.88
G1Z-0.3F50
X206.898Y56.496F100
X206.949Y56.327
X207.032Y56.171
X207.144Y56.035
X207.281Y55.922
X207.437Y55.839
X207.606Y55.788
X207.782Y55.771
X207.958Y55.788
X208.127Y55.839
X208.282Y55.922
X208.419Y56.035
X208.531Y56.171
X208.614Y56.327
X208.666Y56.496
X208.683Y56.672
X208.666Y56.848
X208.614Y57.017
X208.531Y57.173
X208.419Y57.309
X208.282Y57.421
X208.127Y57.505
X207.958Y57.556
X207.782Y57.573
X207.606Y57.556
X207.437Y57.505
X207.281Y57.421
X207.144Y57.309
X207.032Y57.173
X206.949Y57.017
X206.898Y56.848
X206.88Y56.672
G0Z1
X210.383Y48.746
G1Z-0.3F50
X183.929F100
X183.275Y48.752
X182.621Y48.769
X181.968Y48.796
X181.315Y48.834
X180.662Y48.883
X180.011Y48.943
X179.361Y49.014
X178.712Y49.095
X178.064Y49.188
X177.419Y49.291
X176.774Y49.404
X176.132Y49.529
X176.008Y49.555
X175.885Y49.584
X175.762Y49.614
X175.64Y49.647
X175.518Y49.682
X175.397Y49.719
X175.277Y49.758
X175.157Y49.799
X175.038Y49.842
X174.92Y49.888
X174.802Y49.935
X174.686Y49.984
X174.57Y50.036
X174.455Y50.089
X174.341Y50.144
X174.228Y50.202
X174.117Y50.261
X174.006Y50.322
X173.896Y50.385
X173.787Y50.45
X173.68Y50.517
X173.574Y50.586
X173.469Y50.656
X173.365Y50.729
X173.262Y50.803
X173.161Y50.879
X173.061Y50.956
X172.962Y51.035
X172.865Y51.117
X172.769Y51.199
X172.675Y51.284
X172.582Y51.37
X172.491Y51.457
X172.401Y51.547
X172.313Y51.637
X172.226Y51.73
X172.141Y51.823
X172.057Y51.918
X171.976Y52.015
X171.876Y52.137
X171.778Y52.261
X171.682Y52.386
X171.588Y52.514
X171.497Y52.643
X171.408Y52.773
X171.321Y52.905
X171.236Y53.038
X171.154Y53.173
X171.074Y53.309
X170.996Y53.447
X170.921Y53.585
X170.848Y53.726
X170.777Y53.867
X170.709Y54.009
X170.643Y54.153
X170.58Y54.298
X170.52Y54.444
X170.461Y54.591
X170.406Y54.738
X170.352Y54.887
X170.302Y55.037
X170.254Y55.187
X170.209Y55.339
X170.166Y55.491
X170.126Y55.643
X170.088Y55.797
X170.053Y55.951
X170.021Y56.105
X169.991Y56.261
X169.964Y56.416
X169.94Y56.572
X169.918Y56.729
X169.899Y56.885
X169.883Y57.043
X169.87Y57.2
X169.859Y57.358
X169.851Y57.515
X169.845Y57.673
X169.842Y57.831
Y57.989
X169.845Y58.147
X169.85Y58.305
X169.858Y58.463
X169.869Y58.62
X169.883Y58.778
X169.899Y58.935
X169.918Y59.091
X169.937Y59.234
X170.357Y62.126
X170.37Y62.2
X170.387Y62.277
X170.406Y62.353
X170.428Y62.426
X170.452Y62.5
X170.479Y62.573
X170.508Y62.644
X170.54Y62.715
X170.574Y62.785
X170.611Y62.853
X170.649Y62.919
X170.691Y62.986
X170.734Y63.049
X170.78Y63.112
X170.828Y63.173
X170.878Y63.232
X170.93Y63.289
X170.984Y63.345
X171.039Y63.399
X171.097Y63.45
X171.157Y63.5
X171.218Y63.548
X171.281Y63.594
X171.344Y63.636
X171.411Y63.678
X171.477Y63.716
X171.546Y63.752
X171.616Y63.786
X171.686Y63.817
X171.759Y63.847
X171.831Y63.873
X171.905Y63.897
X171.979Y63.918
X172.054Y63.937
X172.13Y63.953
X172.207Y63.966
X172.284Y63.977
X172.36Y63.985
X172.438Y63.99
X172.515Y63.993
X172.554
X177.605
X177.721Y63.992
X177.838Y63.989
X177.955Y63.984
X178.072Y63.977
X179.327Y63.887
X180.48Y63.822
X181.633Y63.776
X182.788Y63.749
X183.948Y63.739
X187.501
X187.539Y63.743
X187.578Y63.745
X187.616Y63.746
X187.654Y63.747
X215.654
X215.694Y63.746
X215.733Y63.745
X215.773Y63.742
X215.813Y63.739
X215.852Y63.734
X215.891Y63.729
X215.931Y63.722
X215.97Y63.715
X216.009Y63.707
X216.048Y63.697
X216.086Y63.687
X216.124Y63.676
X216.162Y63.663
X216.199Y63.65
X216.237Y63.636
X216.273Y63.621
X216.31Y63.605
X216.346Y63.588
X216.381Y63.571
X216.417Y63.552
X216.451Y63.532
X216.486Y63.512
X216.52Y63.49
X216.554Y63.468
X216.587Y63.444
X216.62Y63.42
X216.652Y63.395
X216.683Y63.369
X216.698Y63.357
X216.727Y63.33
X216.749Y63.31
X216.771Y63.289
X216.799Y63.26
X216.827Y63.231
X216.859Y63.195
X216.89Y63.158
X216.911Y63.13
X216.933Y63.102
X216.953Y63.074
X216.974Y63.045
X216.993Y63.015
X217.012Y62.985
X217.029Y62.957
X217.045Y62.928
X217.061Y62.899
X217.08Y62.862
X217.098Y62.824
X217.111Y62.795
X217.124Y62.765
X217.14Y62.724
X217.148Y62.702
X217.162Y62.662
X217.175Y62.622
X217.187Y62.58
X217.199Y62.537
X217.208Y62.495
X217.217Y62.454
X217.224Y62.414
X217.231Y62.363
X217.238Y62.306
X217.241Y62.273
X217.243Y62.239
X217.244Y62.205
X217.245Y62.156
Y61.923
X217.256Y61.862
X217.266Y61.785
X217.275Y61.707
X217.28Y61.63
X217.283Y61.552
Y61.513
Y50.68
Y50.64
X217.281Y50.601
X217.279Y50.561
X217.275Y50.522
X217.271Y50.483
X217.266Y50.444
X217.259Y50.405
X217.252Y50.366
X217.245Y50.333
X217.244Y50.29
X217.241Y50.247
X217.238Y50.204
X217.233Y50.162
X217.227Y50.119
X217.22Y50.076
X217.212Y50.034
X217.203Y49.992
X217.192Y49.95
X217.183Y49.916
X217.173Y49.881
X217.162Y49.847
X217.15Y49.813
X217.137Y49.78
X217.12Y49.738
X217.102Y49.698
X217.083Y49.657
X217.061Y49.614
X217.045Y49.584
X217.028Y49.554
X217.007Y49.518
X216.984Y49.483
X216.962Y49.451
X216.94Y49.419
X216.917Y49.388
X216.893Y49.358
X216.869Y49.328
X216.843Y49.299
X216.818Y49.271
X216.791Y49.243
X216.764Y49.216
X216.736Y49.189
X216.707Y49.163
X216.678Y49.138
X216.648Y49.113
X216.618Y49.09
X216.587Y49.067
X216.555Y49.045
X216.523Y49.023
X216.49Y49.002
X216.457Y48.983
X216.424Y48.964
X216.389Y48.945
X216.355Y48.928
X216.32Y48.911
X216.286Y48.896
X216.25Y48.881
X216.215Y48.867
X216.179Y48.854
X216.143Y48.842
X216.106Y48.83
X216.069Y48.82
X216.032Y48.81
X215.995Y48.802
X215.958Y48.794
X215.92Y48.787
X215.882Y48.781
X215.845Y48.776
X215.807Y48.772
X215.768Y48.769
X215.73Y48.767
X215.692Y48.765
X215.654
X211.718
X211.128Y48.752
X210.383Y48.746
G0Z1
X176.074Y56.194
G1Z-0.4F50
X176.082Y56.168F100
X176.092Y56.141
X176.112Y56.089
X176.122Y56.063
X176.133Y56.038
X176.145Y56.012
X176.157Y55.987
X176.169Y55.963
X176.182Y55.938
X176.196Y55.913
X176.209Y55.889
X176.233Y55.849
X176.254Y55.816
X176.268Y55.794
X176.284Y55.772
X176.3Y55.749
X176.317Y55.726
X176.334Y55.704
X176.353Y55.681
X176.369Y55.661
X176.387Y55.64
X176.406Y55.619
X176.426Y55.597
X176.444Y55.578
X176.463Y55.558
X176.503Y55.52
X176.547Y55.481
X176.566Y55.464
X176.587Y55.447
X176.609Y55.429
X176.631Y55.412
X176.654Y55.396
X176.676Y55.379
X176.722Y55.348
X176.746Y55.333
X176.77Y55.319
X176.794Y55.305
X176.818Y55.291
X176.843Y55.277
X176.867Y55.265
X176.892Y55.252
X176.917Y55.24
X176.943Y55.229
X176.968Y55.218
X176.994Y55.207
X177.049Y55.186
X177.072Y55.178
X177.099Y55.169
X177.125Y55.16
X177.152Y55.153
X177.179Y55.145
X177.233Y55.132
X177.287Y55.12
X177.315Y55.115
X177.345Y55.11
X177.398Y55.103
X177.425Y55.099
X177.453Y55.097
X177.481Y55.095
X177.509Y55.093
X177.536Y55.092
X177.564Y55.091
X177.592
X177.62
X177.648Y55.092
X177.675Y55.093
X177.704Y55.095
X177.731Y55.097
X177.759Y55.099
X177.787Y55.103
X177.814Y55.106
X177.842Y55.11
X177.869Y55.115
X177.897Y55.12
X177.924Y55.126
X177.951Y55.132
X177.978Y55.138
X178.005Y55.145
X178.032Y55.152
X178.059Y55.16
X178.086Y55.169
X178.112Y55.178
X178.164Y55.197
X178.19Y55.207
X178.216Y55.218
X178.241Y55.229
X178.292Y55.252
X178.317Y55.265
X178.342Y55.278
X178.366Y55.291
X178.39Y55.305
X178.414Y55.319
X178.438Y55.333
X178.462Y55.348
X178.485Y55.364
X178.508Y55.379
X178.531Y55.396
X178.553Y55.412
X178.575Y55.429
X178.597Y55.446
X178.618Y55.464
X178.64Y55.482
X178.661Y55.501
X178.681Y55.52
X178.701Y55.539
X178.721Y55.558
X178.741Y55.578
X178.76Y55.598
X178.797Y55.64
X178.815Y55.661
X178.844Y55.696
X178.869Y55.729
X178.884Y55.749
X178.9Y55.771
X178.916Y55.794
X178.946Y55.841
X178.961Y55.865
X178.975Y55.889
X178.989Y55.913
X179.002Y55.938
X179.015Y55.962
X179.027Y55.987
X179.039Y56.013
X179.051Y56.038
X179.062Y56.063
X179.072Y56.089
X179.083Y56.115
X179.092Y56.141
X179.102Y56.167
X179.111Y56.194
X179.119Y56.221
X179.134Y56.274
X179.141Y56.301
X179.148Y56.328
X179.157Y56.372
X179.165Y56.413
X179.169Y56.437
X179.173Y56.465
X179.177Y56.493
X179.18Y56.52
X179.183Y56.548
X179.185Y56.576
X179.187Y56.604
X179.188Y56.631
Y56.659
X179.189Y56.687
X179.188Y56.715
Y56.743
X179.187Y56.771
X179.185Y56.798
X179.183Y56.826
X179.18Y56.854
X179.177Y56.882
X179.173Y56.91
X179.169Y56.937
X179.164Y56.965
X179.159Y56.992
X179.154Y57.019
X179.148Y57.046
X179.141Y57.073
X179.134Y57.101
X179.127Y57.127
X179.119Y57.154
X179.111Y57.181
X179.102Y57.207
X179.092Y57.233
X179.083Y57.259
X179.072Y57.285
X179.062Y57.311
X179.051Y57.337
X179.039Y57.362
X179.027Y57.387
X179.015Y57.412
X179.002Y57.437
X178.989Y57.461
X178.975Y57.486
X178.961Y57.51
X178.946Y57.533
X178.931Y57.557
X178.916Y57.58
X178.9Y57.603
X178.884Y57.626
X178.867Y57.648
X178.85Y57.67
X178.833Y57.692
X178.815Y57.714
X178.797Y57.735
X178.779Y57.756
X178.76Y57.776
X178.741Y57.796
X178.721Y57.816
X178.701Y57.836
X178.681Y57.855
X178.661Y57.874
X178.64Y57.892
X178.618Y57.91
X178.597Y57.928
X178.575Y57.945
X178.553Y57.962
X178.531Y57.979
X178.508Y57.995
X178.485Y58.011
X178.462Y58.026
X178.438Y58.041
X178.415Y58.056
X178.39Y58.07
X178.366Y58.084
X178.342Y58.097
X178.317Y58.11
X178.292Y58.122
X178.267Y58.134
X178.241Y58.146
X178.216Y58.157
X178.19Y58.168
X178.164Y58.178
X178.138Y58.188
X178.112Y58.197
X178.086Y58.206
X178.059Y58.214
X178.032Y58.222
X178.005Y58.23
X177.978Y58.237
X177.951Y58.243
X177.924Y58.249
X177.897Y58.255
X177.869Y58.26
X177.842Y58.264
X177.814Y58.268
X177.787Y58.272
X177.759Y58.275
X177.731Y58.278
X177.703Y58.28
X177.676Y58.282
X177.648Y58.283
X177.62Y58.284
X177.592
X177.564
X177.536Y58.283
X177.515Y58.282
X177.479Y58.28
X177.425Y58.275
X177.398Y58.272
X177.37Y58.268
X177.342Y58.264
X177.315Y58.26
X177.287Y58.255
X177.26Y58.249
X177.233Y58.243
X177.206Y58.237
X177.179Y58.23
X177.152Y58.222
X177.125Y58.214
X177.105Y58.208
X177.071Y58.196
X177.046Y58.188
X177.02Y58.178
X176.994Y58.168
X176.968Y58.157
X176.943Y58.146
X176.917Y58.134
X176.892Y58.122
X176.867Y58.11
X176.843Y58.097
X176.818Y58.084
X176.794Y58.07
X176.77Y58.056
X176.746Y58.041
X176.723Y58.026
X176.699Y58.011
X176.676Y57.995
X176.653Y57.979
X176.631Y57.962
X176.609Y57.946
X176.587Y57.928
X176.566Y57.91
X176.544Y57.892
X176.524Y57.874
X176.503Y57.855
X176.483Y57.836
X176.463Y57.816
X176.444Y57.796
X176.424Y57.776
X176.405Y57.756
X176.387Y57.735
X176.369Y57.714
X176.351Y57.692
X176.317Y57.648
X176.3Y57.626
X176.284Y57.603
X176.268Y57.58
X176.253Y57.557
X176.224Y57.51
X176.202Y57.472
X176.181Y57.434
X176.169Y57.412
X176.157Y57.387
X176.145Y57.362
X176.133Y57.337
X176.122Y57.311
X176.112Y57.285
X176.102Y57.26
X176.085Y57.215
X176.073Y57.179
X176.065Y57.154
X176.057Y57.127
X176.043Y57.073
X176.036Y57.046
X176.03Y57.019
X176.025Y56.992
X176.02Y56.965
X176.015Y56.937
X176.011Y56.91
X176.007Y56.882
X176.004Y56.854
X176.001Y56.826
X175.999Y56.799
X175.998Y56.771
X175.996Y56.725
X175.995Y56.687
X175.996Y56.659
Y56.632
X175.998Y56.604
X175.999Y56.576
X176.002Y56.548
X176.004Y56.52
X176.007Y56.493
X176.011Y56.465
X176.015Y56.438
X176.02Y56.41
X176.025Y56.383
X176.03Y56.355
X176.036Y56.328
X176.043Y56.301
X176.05Y56.274
X176.057Y56.247
X176.065Y56.22
X176.074Y56.194
G0Z1
X190.977Y56.672
G1Z-0.4F50
X190.994Y56.496F100
X191.045Y56.327
X191.128Y56.171
X191.24Y56.035
X191.377Y55.922
X191.533Y55.839
X191.702Y55.788
X191.878Y55.771
X192.054Y55.788
X192.223Y55.839
X192.379Y55.922
X192.515Y56.035
X192.627Y56.171
X192.711Y56.327
X192.762Y56.496
X192.779Y56.672
X192.762Y56.848
X192.711Y57.017
X192.627Y57.173
X192.515Y57.309
X192.379Y57.421
X192.223Y57.505
X192.054Y57.556
X191.878Y57.573
X191.702Y57.556
X191.533Y57.505
X191.377Y57.421
X191.24Y57.309
X191.128Y57.173
X191.045Y57.017
X190.994Y56.848
X190.977Y56.672
G0Z1
X206.88
G1Z-0.4F50
X206.898Y56.496F100
X206.949Y56.327
X207.032Y56.171
X207.144Y56.035
X207.281Y55.922
X207.437Y55.839
X207.606Y55.788
X207.782Y55.771
X207.958Y55.788
X208.127Y55.839
X208.282Y55.922
X208.419Y56.035
X208.531Y56.171
X208.614Y56.327
X208.666Y56.496
X208.683Y56.672
X208.666Y56.848
X208.614Y57.017
X208.531Y57.173
X208.419Y57.309
X208.282Y57.421
X208.127Y57.505
X207.958Y57.556
X207.782Y57.573
X207.606Y57.556
X207.437Y57.505
X207.281Y57.421
X207.144Y57.309
X207.032Y57.173
X206.949Y57.017
X206.898Y56.848
X206.88Y56.672
G0Z1
X210.383Y48.746
G1Z-0.4F50
X183.929F100
X183.275Y48.752
X182.621Y48.769
X181.968Y48.796
X181.315Y48.834
X180.662Y48.883
X180.011Y48.943
X179.361Y49.014
X178.712Y49.095
X178.064Y49.188
X177.419Y49.291
X176.774Y49.404
X176.132Y49.529
X176.008Y49.555
X175.885Y49.584
X175.762Y49.614
X175.64Y49.647
X175.518Y49.682
X175.397Y49.719
X175.277Y49.758
X175.157Y49.799
X175.038Y49.842
X174.92Y49.888
X174.802Y49.935
X174.686Y49.984
X174.57Y50.036
X174.455Y50.089
X174.341Y50.144
X174.228Y50.202
X174.117Y50.261
X174.006Y50.322
X173.896Y50.385
X173.787Y50.45
X173.68Y50.517
X173.574Y50.586
X173.469Y50.656
X173.365Y50.729
X173.262Y50.803
X173.161Y50.879
X173.061Y50.956
X172.962Y51.035
X172.865Y51.117
X172.769Y51.199
X172.675Y51.284
X172.582Y51.37
X172.491Y51.457
X172.401Y51.547
X172.313Y51.637
X172.226Y51.73
X172.141Y51.823
X172.057Y51.918
X171.976Y52.015
X171.876Y52.137
X171.778Y52.261
X171.682Y52.386
X171.588Y52.514
X171.497Y52.643
X171.408Y52.773
X171.321Y52.905
X171.236Y53.038
X171.154Y53.173
X171.074Y53.309
X170.996Y53.447
X170.921Y53.585
X170.848Y53.726
X170.777Y53.867
X170.709Y54.009
X170.643Y54.153
X170.58Y54.298
X170.52Y54.444
X170.461Y54.591
X170.406Y54.738
X170.352Y54.887
X170.302Y55.037
X170.254Y55.187
X170.209Y55.339
X170.166Y55.491
X170.126Y55.643
X170.088Y55.797
X170.053Y55.951
X170.021Y56.105
X169.991Y56.261
X169.964Y56.416
X169.94Y56.572
X169.918Y56.729
X169.899Y56.885
X169.883Y57.043
X169.87Y57.2
X169.859Y57.358
X169.851Y57.515
X169.845Y57.673
X169.842Y57.831
Y57.989
X169.845Y58.147
X169.85Y58.305
X169.858Y58.463
X169.869Y58.62
X169.883Y58.778
X169.899Y58.935
X169.918Y59.091
X169.937Y59.234
X170.357Y62.126
X170.37Y62.2
X170.387Y62.277
X170.406Y62.353
X170.428Y62.426
X170.452Y62.5
X170.479Y62.573
X170.508Y62.644
X170.54Y62.715
X170.574Y62.785
X170.611Y62.853
X170.649Y62.919
X170.691Y62.986
X170.734Y63.049
X170.78Y63.112
X170.828Y63.173
X170.878Y63.232
X170.93Y63.289
X170.984Y63.345
X171.039Y63.399
X171.097Y63.45
X171.157Y63.5
X171.218Y63.548
X171.281Y63.594
X171.344Y63.636
X171.411Y63.678
X171.477Y63.716
X171.546Y63.752
X171.616Y63.786
X171.686Y63.817
X171.759Y63.847
X171.831Y63.873
X171.905Y63.897
X171.979Y63.918
X172.054Y63.937
X172.13Y63.953
X172.207Y63.966
X172.284Y63.977
X172.36Y63.985
X172.438Y63.99
X172.515Y63.993
X172.554
X177.605
X177.721Y63.992
X177.838Y63.989
X177.955Y63.984
X178.072Y63.977
X179.327Y63.887
X180.48Y63.822
X181.633Y63.776
X182.788Y63.749
X183.948Y63.739
X187.501
X187.539Y63.743
X187.578Y63.745
X187.616Y63.746
X187.654Y63.747
X215.654
X215.694Y63.746
X215.733Y63.745
X215.773Y63.742
X215.813Y63.739
X215.852Y63.734
X215.891Y63.729
X215.931Y63.722
X215.97Y63.715
X216.009Y63.707
X216.048Y63.697
X216.086Y63.687
X216.124Y63.676
X216.162Y63.663
X216.199Y63.65
X216.237Y63.636
X216.273Y63.621
X216.31Y63.605
X216.346Y63.588
X216.381Y63.571
X216.417Y63.552
X216.451Y63.532
X216.486Y63.512
X216.52Y63.49
X216.554Y63.468
X216.587Y63.444
X216.62Y63.42
X216.652Y63.395
X216.683Y63.369
X216.698Y63.357
X216.727Y63.33
X216.749Y63.31
X216.771Y63.289
X216.799Y63.26
X216.827Y63.231
X216.859Y63.195
X216.89Y63.158
X216.911Y63.13
X216.933Y63.102
X216.953Y63.074
X216.974Y63.045
X216.993Y63.015
X217.012Y62.985
X217.029Y62.957
X217.045Y62.928
X217.061Y62.899
X217.08Y62.862
X217.098Y62.824
X217.111Y62.795
X217.124Y62.765
X217.14Y62.724
X217.148Y62.702
X217.162Y62.662
X217.175Y62.622
X217.187Y62.58
X217.199Y62.537
X217.208Y62.495
X217.217Y62.454
X217.224Y62.414
X217.231Y62.363
X217.238Y62.306
X217.241Y62.273
X217.243Y62.239
X217.244Y62.205
X217.245Y62.156
Y61.923
X217.256Y61.862
X217.266Y61.785
X217.275Y61.707
X217.28Y61.63
X217.283Y61.552
Y61.513
Y50.68
Y50.64
X217.281Y50.601
X217.279Y50.561
X217.275Y50.522
X217.271Y50.483
X217.266Y50.444
X217.259Y50.405
X217.252Y50.366
X217.245Y50.333
X217.244Y50.29
X217.241Y50.247
X217.238Y50.204
X217.233Y50.162
X217.227Y50.119
X217.22Y50.076
X217.212Y50.034
X217.203Y49.992
X217.192Y49.95
X217.183Y49.916
X217.173Y49.881
X217.162Y49.847
X217.15Y49.813
X217.137Y49.78
X217.12Y49.738
X217.102Y49.698
X217.083Y49.657
X217.061Y49.614
X217.045Y49.584
X217.028Y49.554
X217.007Y49.518
X216.984Y49.483
X216.962Y49.451
X216.94Y49.419
X216.917Y49.388
X216.893Y49.358
X216.869Y49.328
X216.843Y49.299
X216.818Y49.271
X216.791Y49.243
X216.764Y49.216
X216.736Y49.189
X216.707Y49.163
X216.678Y49.138
X216.648Y49.113
X216.618Y49.09
X216.587Y49.067
X216.555Y49.045
X216.523Y49.023
X216.49Y49.002
X216.457Y48.983
X216.424Y48.964
X216.389Y48.945
X216.355Y48.928
X216.32Y48.911
X216.286Y48.896
X216.25Y48.881
X216.215Y48.867
X216.179Y48.854
X216.143Y48.842
X216.106Y48.83
X216.069Y48.82
X216.032Y48.81
X215.995Y48.802
X215.958Y48.794
X215.92Y48.787
X215.882Y48.781
X215.845Y48.776
X215.807Y48.772
X215.768Y48.769
X215.73Y48.767
X215.692Y48.765
X215.654
X211.718
X211.128Y48.752
X210.383Y48.746
G0Z1
X176.074Y56.194
G1Z-0.5F50
X176.082Y56.168F100
X176.092Y56.141
X176.112Y56.089
X176.122Y56.063
X176.133Y56.038
X176.145Y56.012
X176.157Y55.987
X176.169Y55.963
X176.182Y55.938
X176.196Y55.913
X176.209Y55.889
X176.233Y55.849
X176.254Y55.816
X176.268Y55.794
X176.284Y55.772
X176.3Y55.749
X176.317Y55.726
X176.334Y55.704
X176.353Y55.681
X176.369Y55.661
X176.387Y55.64
X176.406Y55.619
X176.426Y55.597
X176.444Y55.578
X176.463Y55.558
X176.503Y55.52
X176.547Y55.481
X176.566Y55.464
X176.587Y55.447
X176.609Y55.429
X176.631Y55.412
X176.654Y55.396
X176.676Y55.379
X176.722Y55.348
X176.746Y55.333
X176.77Y55.319
X176.794Y55.305
X176.818Y55.291
X176.843Y55.277
X176.867Y55.265
X176.892Y55.252
X176.917Y55.24
X176.943Y55.229
X176.968Y55.218
X176.994Y55.207
X177.049Y55.186
X177.072Y55.178
X177.099Y55.169
X177.125Y55.16
X177.152Y55.153
X177.179Y55.145
X177.233Y55.132
X177.287Y55.12
X177.315Y55.115
X177.345Y55.11
X177.398Y55.103
X177.425Y55.099
X177.453Y55.097
X177.481Y55.095
X177.509Y55.093
X177.536Y55.092
X177.564Y55.091
X177.592
X177.62
X177.648Y55.092
X177.675Y55.093
X177.704Y55.095
X177.731Y55.097
X177.759Y55.099
X177.787Y55.103
X177.814Y55.106
X177.842Y55.11
X177.869Y55.115
X177.897Y55.12
X177.924Y55.126
X177.951Y55.132
X177.978Y55.138
X178.005Y55.145
X178.032Y55.152
X178.059Y55.16
X178.086Y55.169
X178.112Y55.178
X178.164Y55.197
X178.19Y55.207
X178.216Y55.218
X178.241Y55.229
X178.292Y55.252
X178.317Y55.265
X178.342Y55.278
X178.366Y55.291
X178.39Y55.305
X178.414Y55.319
X178.438Y55.333
X178.462Y55.348
X178.485Y55.364
X178.508Y55.379
X178.531Y55.396
X178.553Y55.412
X178.575Y55.429
X178.597Y55.446
X178.618Y55.464
X178.64Y55.482
X178.661Y55.501
X178.681Y55.52
X178.701Y55.539
X178.721Y55.558
X178.741Y55.578
X178.76Y55.598
X178.797Y55.64
X178.815Y55.661
X178.844Y55.696
X178.869Y55.729
X178.884Y55.749
X178.9Y55.771
X178.916Y55.794
X178.946Y55.841
X178.961Y55.865
X178.975Y55.889
X178.989Y55.913
X179.002Y55.938
X179.015Y55.962
X179.027Y55.987
X179.039Y56.013
X179.051Y56.038
X179.062Y56.063
X179.072Y56.089
X179.083Y56.115
X179.092Y56.141
X179.102Y56.167
X179.111Y56.194
X179.119Y56.221
X179.134Y56.274
X179.141Y56.301
X179.148Y56.328
X179.157Y56.372
X179.165Y56.413
X179.169Y56.437
X179.173Y56.465
X179.177Y56.493
X179.18Y56.52
X179.183Y56.548
X179.185Y56.576
X179.187Y56.604
X179.188Y56.631
Y56.659
X179.189Y56.687
X179.188Y56.715
Y56.743
X179.187Y56.771
X179.185Y56.798
X179.183Y56.826
X179.18Y56.854
X179.177Y56.882
X179.173Y56.91
X179.169Y56.937
X179.164Y56.965
X179.159Y56.992
X179.154Y57.019
X179.148Y57.046
X179.141Y57.073
X179.134Y57.101
X179.127Y57.127
X179.119Y57.154
X179.111Y57.181
X179.102Y57.207
X179.092Y57.233
X179.083Y57.259
X179.072Y57.285
X179.062Y57.311
X179.051Y57.337
X179.039Y57.362
X179.027Y57.387
X179.015Y57.412
X179.002Y57.437
X178.989Y57.461
X178.975Y57.486
X178.961Y57.51
X178.946Y57.533
X178.931Y57.557
X178.916Y57.58
X178.9Y57.603
X178.884Y57.626
X178.867Y57.648
X178.85Y57.67
X178.833Y57.692
X178.815Y57.714
X178.797Y57.735
X178.779Y57.756
X178.76Y57.776
X178.741Y57.796
X178.721Y57.816
X178.701Y57.836
X178.681Y57.855
X178.661Y57.874
X178.64Y57.892
X178.618Y57.91
X178.597Y57.928
X178.575Y57.945
X178.553Y57.962
X178.531Y57.979
X178.508Y57.995
X178.485Y58.011
X178.462Y58.026
X178.438Y58.041
X178.415Y58.056
X178.39Y58.07
X178.366Y58.084
X178.342Y58.097
X178.317Y58.11
X178.292Y58.122
X178.267Y58.134
X178.241Y58.146
X178.216Y58.157
X178.19Y58.168
X178.164Y58.178
X178.138Y58.188
X178.112Y58.197
X178.086Y58.206
X178.059Y58.214
X178.032Y58.222
X178.005Y58.23
X177.978Y58.237
X177.951Y58.243
X177.924Y58.249
X177.897Y58.255
X177.869Y58.26
X177.842Y58.264
X177.814Y58.268
X177.787Y58.272
X177.759Y58.275
X177.731Y58.278
X177.703Y58.28
X177.676Y58.282
X177.648Y58.283
X177.62Y58.284
X177.592
X177.564
X177.536Y58.283
X177.515Y58.282
X177.479Y58.28
X177.425Y58.275
X177.398Y58.272
X177.37Y58.268
X177.342Y58.264
X177.315Y58.26
X177.287Y58.255
X177.26Y58.249
X177.233Y58.243
X177.206Y58.237
X177.179Y58.23
X177.152Y58.222
X177.125Y58.214
X177.105Y58.208
X177.071Y58.196
X177.046Y58.188
X177.02Y58.178
X176.994Y58.168
X176.968Y58.157
X176.943Y58.146
X176.917Y58.134
X176.892Y58.122
X176.867Y58.11
X176.843Y58.097
X176.818Y58.084
X176.794Y58.07
X176.77Y58.056
X176.746Y58.041
X176.723Y58.026
X176.699Y58.011
X176.676Y57.995
X176.653Y57.979
X176.631Y57.962
X176.609Y57.946
X176.587Y57.928
X176.566Y57.91
X176.544Y57.892
X176.524Y57.874
X176.503Y57.855
X176.483Y57.836
X176.463Y57.816
X176.444Y57.796
X176.424Y57.776
X176.405Y57.756
X176.387Y57.735
X176.369Y57.714
X176.351Y57.692
X176.317Y57.648
X176.3Y57.626
X176.284Y57.603
X176.268Y57.58
X176.253Y57.557
X176.224Y57.51
X176.202Y57.472
X176.181Y57.434
X176.169Y57.412
X176.157Y57.387
X176.145Y57.362
X176.133Y57.337
X176.122Y57.311
X176.112Y57.285
X176.102Y57.26
X176.085Y57.215
X176.073Y57.179
X176.065Y57.154
X176.057Y57.127
X176.043Y57.073
X176.036Y57.046
X176.03Y57.019
X176.025Y56.992
X176.02Y56.965
X176.015Y56.937
X176.011Y56.91
X176.007Y56.882
X176.004Y56.854
X176.001Y56.826
X175.999Y56.799
X175.998Y56.771
X175.996Y56.725
X175.995Y56.687
X175.996Y56.659
Y56.632
X175.998Y56.604
X175.999Y56.576
X176.002Y56.548
X176.004Y56.52
X176.007Y56.493
X176.011Y56.465
X176.015Y56.438
X176.02Y56.41
X176.025Y56.383
X176.03Y56.355
X176.036Y56.328
X176.043Y56.301
X176.05Y56.274
X176.057Y56.247
X176.065Y56.22
X176.074Y56.194
G0Z1
X190.977Y56.672
G1Z-0.5F50
X190.994Y56.496F100
X191.045Y56.327
X191.128Y56.171
X191.24Y56.035
X191.377Y55.922
X191.533Y55.839
X191.702Y55.788
X191.878Y55.771
X192.054Y55.788
X192.223Y55.839
X192.379Y55.922
X192.515Y56.035
X192.627Y56.171
X192.711Y56.327
X192.762Y56.496
X192.779Y56.672
X192.762Y56.848
X192.711Y57.017
X192.627Y57.173
X192.515Y57.309
X192.379Y57.421
X192.223Y57.505
X192.054Y57.556
X191.878Y57.573
X191.702Y57.556
X191.533Y57.505
X191.377Y57.421
X191.24Y57.309
X191.128Y57.173
X191.045Y57.017
X190.994Y56.848
X190.977Y56.672
G0Z1
X206.88
G1Z-0.5F50
X206.898Y56.496F100
X206.949Y56.327
X207.032Y56.171
X207.144Y56.035
X207.281Y55.922
X207.437Y55.839
X207.606Y55.788
X207.782Y55.771
X207.958Y55.788
X208.127Y55.839
X208.282Y55.922
X208.419Y56.035
X208.531Y56.171
X208.614Y56.327
X208.666Y56.496
X208.683Y56.672
X208.666Y56.848
X208.614Y57.017
X208.531Y57.173
X208.419Y57.309
X208.282Y57.421
X208.127Y57.505
X207.958Y57.556
X207.782Y57.573
X207.606Y57.556
X207.437Y57.505
X207.281Y57.421
X207.144Y57.309
X207.032Y57.173
X206.949Y57.017
X206.898Y56.848
X206.88Y56.672
G0Z1
X210.383Y48.746
G1Z-0.5F50
X183.929F100
X183.275Y48.752
X182.621Y48.769
X181.968Y48.796
X181.315Y48.834
X180.662Y48.883
X180.011Y48.943
X179.361Y49.014
X178.712Y49.095
X178.064Y49.188
X177.419Y49.291
X176.774Y49.404
X176.132Y49.529
X176.008Y49.555
X175.885Y49.584
X175.762Y49.614
X175.64Y49.647
X175.518Y49.682
X175.397Y49.719
X175.277Y49.758
X175.157Y49.799
X175.038Y49.842
X174.92Y49.888
X174.802Y49.935
X174.686Y49.984
X174.57Y50.036
X174.455Y50.089
X174.341Y50.144
X174.228Y50.202
X174.117Y50.261
X174.006Y50.322
X173.896Y50.385
X173.787Y50.45
X173.68Y50.517
X173.574Y50.586
X173.469Y50.656
X173.365Y50.729
X173.262Y50.803
X173.161Y50.879
X173.061Y50.956
X172.962Y51.035
X172.865Y51.117
X172.769Y51.199
X172.675Y51.284
X172.582Y51.37
X172.491Y51.457
X172.401Y51.547
X172.313Y51.637
X172.226Y51.73
X172.141Y51.823
X172.057Y51.918
X171.976Y52.015
X171.876Y52.137
X171.778Y52.261
X171.682Y52.386
X171.588Y52.514
X171.497Y52.643
X171.408Y52.773
X171.321Y52.905
X171.236Y53.038
X171.154Y53.173
X171.074Y53.309
X170.996Y53.447
X170.921Y53.585
X170.848Y53.726
X170.777Y53.867
X170.709Y54.009
X170.643Y54.153
X170.58Y54.298
X170.52Y54.444
X170.461Y54.591
X170.406Y54.738
X170.352Y54.887
X170.302Y55.037
X170.254Y55.187
X170.209Y55.339
X170.166Y55.491
X170.126Y55.643
X170.088Y55.797
X170.053Y55.951
X170.021Y56.105
X169.991Y56.261
X169.964Y56.416
X169.94Y56.572
X169.918Y56.729
X169.899Y56.885
X169.883Y57.043
X169.87Y57.2
X169.859Y57.358
X169.851Y57.515
X169.845Y57.673
X169.842Y57.831
Y57.989
X169.845Y58.147
X169.85Y58.305
X169.858Y58.463
X169.869Y58.62
X169.883Y58.778
X169.899Y58.935
X169.918Y59.091
X169.937Y59.234
X170.357Y62.126
X170.37Y62.2
X170.387Y62.277
X170.406Y62.353
X170.428Y62.426
X170.452Y62.5
X170.479Y62.573
X170.508Y62.644
X170.54Y62.715
X170.574Y62.785
X170.611Y62.853
X170.649Y62.919
X170.691Y62.986
X170.734Y63.049
X170.78Y63.112
X170.828Y63.173
X170.878Y63.232
X170.93Y63.289
X170.984Y63.345
X171.039Y63.399
X171.097Y63.45
X171.157Y63.5
X171.218Y63.548
X171.281Y63.594
X171.344Y63.636
X171.411Y63.678
X171.477Y63.716
X171.546Y63.752
X171.616Y63.786
X171.686Y63.817
X171.759Y63.847
X171.831Y63.873
X171.905Y63.897
X171.979Y63.918
X172.054Y63.937
X172.13Y63.953
X172.207Y63.966
X172.284Y63.977
X172.36Y63.985
X172.438Y63.99
X172.515Y63.993
X172.554
X177.605
X177.721Y63.992
X177.838Y63.989
X177.955Y63.984
X178.072Y63.977
X179.327Y63.887
X180.48Y63.822
X181.633Y63.776
X182.788Y63.749
X183.948Y63.739
X187.501
X187.539Y63.743
X187.578Y63.745
X187.616Y63.746
X187.654Y63.747
X215.654
X215.694Y63.746
X215.733Y63.745
X215.773Y63.742
X215.813Y63.739
X215.852Y63.734
X215.891Y63.729
X215.931Y63.722
X215.97Y63.715
X216.009Y63.707
X216.048Y63.697
X216.086Y63.687
X216.124Y63.676
X216.162Y63.663
X216.199Y63.65
X216.237Y63.636
X216.273Y63.621
X216.31Y63.605
X216.346Y63.588
X216.381Y63.571
X216.417Y63.552
X216.451Y63.532
X216.486Y63.512
X216.52Y63.49
X216.554Y63.468
X216.587Y63.444
X216.62Y63.42
X216.652Y63.395
X216.683Y63.369
X216.698Y63.357
X216.727Y63.33
X216.749Y63.31
X216.771Y63.289
X216.799Y63.26
X216.827Y63.231
X216.859Y63.195
X216.89Y63.158
X216.911Y63.13
X216.933Y63.102
X216.953Y63.074
X216.974Y63.045
X216.993Y63.015
X217.012Y62.985
X217.029Y62.957
X217.045Y62.928
X217.061Y62.899
X217.08Y62.862
X217.098Y62.824
X217.111Y62.795
X217.124Y62.765
X217.14Y62.724
X217.148Y62.702
X217.162Y62.662
X217.175Y62.622
X217.187Y62.58
X217.199Y62.537
X217.208Y62.495
X217.217Y62.454
X217.224Y62.414
X217.231Y62.363
X217.238Y62.306
X217.241Y62.273
X217.243Y62.239
X217.244Y62.205
X217.245Y62.156
Y61.923
X217.256Y61.862
X217.266Y61.785
X217.275Y61.707
X217.28Y61.63
X217.283Y61.552
Y61.513
Y50.68
Y50.64
X217.281Y50.601
X217.279Y50.561
X217.275Y50.522
X217.271Y50.483
X217.266Y50.444
X217.259Y50.405
X217.252Y50.366
X217.245Y50.333
X217.244Y50.29
X217.241Y50.247
X217.238Y50.204
X217.233Y50.162
X217.227Y50.119
X217.22Y50.076
X217.212Y50.034
X217.203Y49.992
X217.192Y49.95
X217.183Y49.916
X217.173Y49.881
X217.162Y49.847
X217.15Y49.813
X217.137Y49.78
X217.12Y49.738
X217.102Y49.698
X217.083Y49.657
X217.061Y49.614
X217.045Y49.584
X217.028Y49.554
X217.007Y49.518
X216.984Y49.483
X216.962Y49.451
X216.94Y49.419
X216.917Y49.388
X216.893Y49.358
X216.869Y49.328
X216.843Y49.299
X216.818Y49.271
X216.791Y49.243
X216.764Y49.216
X216.736Y49.189
X216.707Y49.163
X216.678Y49.138
X216.648Y49.113
X216.618Y49.09
X216.587Y49.067
X216.555Y49.045
X216.523Y49.023
X216.49Y49.002
X216.457Y48.983
X216.424Y48.964
X216.389Y48.945
X216.355Y48.928
X216.32Y48.911
X216.286Y48.896
X216.25Y48.881
X216.215Y48.867
X216.179Y48.854
X216.143Y48.842
X216.106Y48.83
X216.069Y48.82
X216.032Y48.81
X215.995Y48.802
X215.958Y48.794
X215.92Y48.787
X215.882Y48.781
X215.845Y48.776
X215.807Y48.772
X215.768Y48.769
X215.73Y48.767
X215.692Y48.765
X215.654
X211.718
X211.128Y48.752
X210.383Y48.746
G0Z1
X176.074Y56.194
G1Z-0.6F50
X176.082Y56.168F100
X176.092Y56.141
X176.112Y56.089
X176.122Y56.063
X176.133Y56.038
X176.145Y56.012
X176.157Y55.987
X176.169Y55.963
X176.182Y55.938
X176.196Y55.913
X176.209Y55.889
X176.233Y55.849
X176.254Y55.816
X176.268Y55.794
X176.284Y55.772
X176.3Y55.749
X176.317Y55.726
X176.334Y55.704
X176.353Y55.681
X176.369Y55.661
X176.387Y55.64
X176.406Y55.619
X176.426Y55.597
X176.444Y55.578
X176.463Y55.558
X176.503Y55.52
X176.547Y55.481
X176.566Y55.464
X176.587Y55.447
X176.609Y55.429
X176.631Y55.412
X176.654Y55.396
X176.676Y55.379
X176.722Y55.348
X176.746Y55.333
X176.77Y55.319
X176.794Y55.305
X176.818Y55.291
X176.843Y55.277
X176.867Y55.265
X176.892Y55.252
X176.917Y55.24
X176.943Y55.229
X176.968Y55.218
X176.994Y55.207
X177.049Y55.186
X177.072Y55.178
X177.099Y55.169
X177.125Y55.16
X177.152Y55.153
X177.179Y55.145
X177.233Y55.132
X177.287Y55.12
X177.315Y55.115
X177.345Y55.11
X177.398Y55.103
X177.425Y55.099
X177.453Y55.097
X177.481Y55.095
X177.509Y55.093
X177.536Y55.092
X177.564Y55.091
X177.592
X177.62
X177.648Y55.092
X177.675Y55.093
X177.704Y55.095
X177.731Y55.097
X177.759Y55.099
X177.787Y55.103
X177.814Y55.106
X177.842Y55.11
X177.869Y55.115
X177.897Y55.12
X177.924Y55.126
X177.951Y55.132
X177.978Y55.138
X178.005Y55.145
X178.032Y55.152
X178.059Y55.16
X178.086Y55.169
X178.112Y55.178
X178.164Y55.197
X178.19Y55.207
X178.216Y55.218
X178.241Y55.229
X178.292Y55.252
X178.317Y55.265
X178.342Y55.278
X178.366Y55.291
X178.39Y55.305
X178.414Y55.319
X178.438Y55.333
X178.462Y55.348
X178.485Y55.364
X178.508Y55.379
X178.531Y55.396
X178.553Y55.412
X178.575Y55.429
X178.597Y55.446
X178.618Y55.464
X178.64Y55.482
X178.661Y55.501
X178.681Y55.52
X178.701Y55.539
X178.721Y55.558
X178.741Y55.578
X178.76Y55.598
X178.797Y55.64
X178.815Y55.661
X178.844Y55.696
X178.869Y55.729
X178.884Y55.749
X178.9Y55.771
X178.916Y55.794
X178.946Y55.841
X178.961Y55.865
X178.975Y55.889
X178.989Y55.913
X179.002Y55.938
X179.015Y55.962
X179.027Y55.987
X179.039Y56.013
X179.051Y56.038
X179.062Y56.063
X179.072Y56.089
X179.083Y56.115
X179.092Y56.141
X179.102Y56.167
X179.111Y56.194
X179.119Y56.221
X179.134Y56.274
X179.141Y56.301
X179.148Y56.328
X179.157Y56.372
X179.165Y56.413
X179.169Y56.437
X179.173Y56.465
X179.177Y56.493
X179.18Y56.52
X179.183Y56.548
X179.185Y56.576
X179.187Y56.604
X179.188Y56.631
Y56.659
X179.189Y56.687
X179.188Y56.715
Y56.743
X179.187Y56.771
X179.185Y56.798
X179.183Y56.826
X179.18Y56.854
X179.177Y56.882
X179.173Y56.91
X179.169Y56.937
X179.164Y56.965
X179.159Y56.992
X179.154Y57.019
X179.148Y57.046
X179.141Y57.073
X179.134Y57.101
X179.127Y57.127
X179.119Y57.154
X179.111Y57.181
X179.102Y57.207
X179.092Y57.233
X179.083Y57.259
X179.072Y57.285
X179.062Y57.311
X179.051Y57.337
X179.039Y57.362
X179.027Y57.387
X179.015Y57.412
X179.002Y57.437
X178.989Y57.461
X178.975Y57.486
X178.961Y57.51
X178.946Y57.533
X178.931Y57.557
X178.916Y57.58
X178.9Y57.603
X178.884Y57.626
X178.867Y57.648
X178.85Y57.67
X178.833Y57.692
X178.815Y57.714
X178.797Y57.735
X178.779Y57.756
X178.76Y57.776
X178.741Y57.796
X178.721Y57.816
X178.701Y57.836
X178.681Y57.855
X178.661Y57.874
X178.64Y57.892
X178.618Y57.91
X178.597Y57.928
X178.575Y57.945
X178.553Y57.962
X178.531Y57.979
X178.508Y57.995
X178.485Y58.011
X178.462Y58.026
X178.438Y58.041
X178.415Y58.056
X178.39Y58.07
X178.366Y58.084
X178.342Y58.097
X178.317Y58.11
X178.292Y58.122
X178.267Y58.134
X178.241Y58.146
X178.216Y58.157
X178.19Y58.168
X178.164Y58.178
X178.138Y58.188
X178.112Y58.197
X178.086Y58.206
X178.059Y58.214
X178.032Y58.222
X178.005Y58.23
X177.978Y58.237
X177.951Y58.243
X177.924Y58.249
X177.897Y58.255
X177.869Y58.26
X177.842Y58.264
X177.814Y58.268
X177.787Y58.272
X177.759Y58.275
X177.731Y58.278
X177.703Y58.28
X177.676Y58.282
X177.648Y58.283
X177.62Y58.284
X177.592
X177.564
X177.536Y58.283
X177.515Y58.282
X177.479Y58.28
X177.425Y58.275
X177.398Y58.272
X177.37Y58.268
X177.342Y58.264
X177.315Y58.26
X177.287Y58.255
X177.26Y58.249
X177.233Y58.243
X177.206Y58.237
X177.179Y58.23
X177.152Y58.222
X177.125Y58.214
X177.105Y58.208
X177.071Y58.196
X177.046Y58.188
X177.02Y58.178
X176.994Y58.168
X176.968Y58.157
X176.943Y58.146
X176.917Y58.134
X176.892Y58.122
X176.867Y58.11
X176.843Y58.097
X176.818Y58.084
X176.794Y58.07
X176.77Y58.056
X176.746Y58.041
X176.723Y58.026
X176.699Y58.011
X176.676Y57.995
X176.653Y57.979
X176.631Y57.962
X176.609Y57.946
X176.587Y57.928
X176.566Y57.91
X176.544Y57.892
X176.524Y57.874
X176.503Y57.855
X176.483Y57.836
X176.463Y57.816
X176.444Y57.796
X176.424Y57.776
X176.405Y57.756
X176.387Y57.735
X176.369Y57.714
X176.351Y57.692
X176.317Y57.648
X176.3Y57.626
X176.284Y57.603
X176.268Y57.58
X176.253Y57.557
X176.224Y57.51
X176.202Y57.472
X176.181Y57.434
X176.169Y57.412
X176.157Y57.387
X176.145Y57.362
X176.133Y57.337
X176.122Y57.311
X176.112Y57.285
X176.102Y57.26
X176.085Y57.215
X176.073Y57.179
X176.065Y57.154
X176.057Y57.127
X176.043Y57.073
X176.036Y57.046
X176.03Y57.019
X176.025Y56.992
X176.02Y56.965
X176.015Y56.937
X176.011Y56.91
X176.007Y56.882
X176.004Y56.854
X176.001Y56.826
X175.999Y56.799
X175.998Y56.771
X175.996Y56.725
X175.995Y56.687
X175.996Y56.659
Y56.632
X175.998Y56.604
X175.999Y56.576
X176.002Y56.548
X176.004Y56.52
X176.007Y56.493
X176.011Y56.465
X176.015Y56.438
X176.02Y56.41
X176.025Y56.383
X176.03Y56.355
X176.036Y56.328
X176.043Y56.301
X176.05Y56.274
X176.057Y56.247
X176.065Y56.22
X176.074Y56.194
G0Z1
X190.977Y56.672
G1Z-0.6F50
X190.994Y56.496F100
X191.045Y56.327
X191.128Y56.171
X191.24Y56.035
X191.377Y55.922
X191.533Y55.839
X191.702Y55.788
X191.878Y55.771
X192.054Y55.788
X192.223Y55.839
X192.379Y55.922
X192.515Y56.035
X192.627Y56.171
X192.711Y56.327
X192.762Y56.496
X192.779Y56.672
X192.762Y56.848
X192.711Y57.017
X192.627Y57.173
X192.515Y57.309
X192.379Y57.421
X192.223Y57.505
X192.054Y57.556
X191.878Y57.573
X191.702Y57.556
X191.533Y57.505
X191.377Y57.421
X191.24Y57.309
X191.128Y57.173
X191.045Y57.017
X190.994Y56.848
X190.977Y56.672
G0Z1
X206.88
G1Z-0.6F50
X206.898Y56.496F100
X206.949Y56.327
X207.032Y56.171
X207.144Y56.035
X207.281Y55.922
X207.437Y55.839
X207.606Y55.788
X207.782Y55.771
X207.958Y55.788
X208.127Y55.839
X208.282Y55.922
X208.419Y56.035
X208.531Y56.171
X208.614Y56.327
X208.666Y56.496
X208.683Y56.672
X208.666Y56.848
X208.614Y57.017
X208.531Y57.173
X208.419Y57.309
X208.282Y57.421
X208.127Y57.505
X207.958Y57.556
X207.782Y57.573
X207.606Y57.556
X207.437Y57.505
X207.281Y57.421
X207.144Y57.309
X207.032Y57.173
X206.949Y57.017
X206.898Y56.848
X206.88Y56.672
G0Z1
X210.383Y48.746
G1Z-0.6F50
X183.929F100
X183.275Y48.752
X182.621Y48.769
X181.968Y48.796
X181.315Y48.834
X180.662Y48.883
X180.011Y48.943
X179.361Y49.014
X178.712Y49.095
X178.064Y49.188
X177.419Y49.291
X176.774Y49.404
X176.132Y49.529
X176.008Y49.555
X175.885Y49.584
X175.762Y49.614
X175.64Y49.647
X175.518Y49.682
X175.397Y49.719
X175.277Y49.758
X175.157Y49.799
X175.038Y49.842
X174.92Y49.888
X174.802Y49.935
X174.686Y49.984
X174.57Y50.036
X174.455Y50.089
X174.341Y50.144
X174.228Y50.202
X174.117Y50.261
X174.006Y50.322
X173.896Y50.385
X173.787Y50.45
X173.68Y50.517
X173.574Y50.586
X173.469Y50.656
X173.365Y50.729
X173.262Y50.803
X173.161Y50.879
X173.061Y50.956
X172.962Y51.035
X172.865Y51.117
X172.769Y51.199
X172.675Y51.284
X172.582Y51.37
X172.491Y51.457
X172.401Y51.547
X172.313Y51.637
X172.226Y51.73
X172.141Y51.823
X172.057Y51.918
X171.976Y52.015
X171.876Y52.137
X171.778Y52.261
X171.682Y52.386
X171.588Y52.514
X171.497Y52.643
X171.408Y52.773
X171.321Y52.905
X171.236Y53.038
X171.154Y53.173
X171.074Y53.309
X170.996Y53.447
X170.921Y53.585
X170.848Y53.726
X170.777Y53.867
X170.709Y54.009
X170.643Y54.153
X170.58Y54.298
X170.52Y54.444
X170.461Y54.591
X170.406Y54.738
X170.352Y54.887
X170.302Y55.037
X170.254Y55.187
X170.209Y55.339
X170.166Y55.491
X170.126Y55.643
X170.088Y55.797
X170.053Y55.951
X170.021Y56.105
X169.991Y56.261
X169.964Y56.416
X169.94Y56.572
X169.918Y56.729
X169.899Y56.885
X169.883Y57.043
X169.87Y57.2
X169.859Y57.358
X169.851Y57.515
X169.845Y57.673
X169.842Y57.831
Y57.989
X169.845Y58.147
X169.85Y58.305
X169.858Y58.463
X169.869Y58.62
X169.883Y58.778
X169.899Y58.935
X169.918Y59.091
X169.937Y59.234
X170.357Y62.126
X170.37Y62.2
X170.387Y62.277
X170.406Y62.353
X170.428Y62.426
X170.452Y62.5
X170.479Y62.573
X170.508Y62.644
X170.54Y62.715
X170.574Y62.785
X170.611Y62.853
X170.649Y62.919
X170.691Y62.986
X170.734Y63.049
X170.78Y63.112
X170.828Y63.173
X170.878Y63.232
X170.93Y63.289
X170.984Y63.345
X171.039Y63.399
X171.097Y63.45
X171.157Y63.5
X171.218Y63.548
X171.281Y63.594
X171.344Y63.636
X171.411Y63.678
X171.477Y63.716
X171.546Y63.752
X171.616Y63.786
X171.686Y63.817
X171.759Y63.847
X171.831Y63.873
X171.905Y63.897
X171.979Y63.918
X172.054Y63.937
X172.13Y63.953
X172.207Y63.966
X172.284Y63.977
X172.36Y63.985
X172.438Y63.99
X172.515Y63.993
X172.554
X177.605
X177.721Y63.992
X177.838Y63.989
X177.955Y63.984
X178.072Y63.977
X179.327Y63.887
X180.48Y63.822
X181.633Y63.776
X182.788Y63.749
X183.948Y63.739
X187.501
X187.539Y63.743
X187.578Y63.745
X187.616Y63.746
X187.654Y63.747
X215.654
X215.694Y63.746
X215.733Y63.745
X215.773Y63.742
X215.813Y63.739
X215.852Y63.734
X215.891Y63.729
X215.931Y63.722
X215.97Y63.715
X216.009Y63.707
X216.048Y63.697
X216.086Y63.687
X216.124Y63.676
X216.162Y63.663
X216.199Y63.65
X216.237Y63.636
X216.273Y63.621
X216.31Y63.605
X216.346Y63.588
X216.381Y63.571
X216.417Y63.552
X216.451Y63.532
X216.486Y63.512
X216.52Y63.49
X216.554Y63.468
X216.587Y63.444
X216.62Y63.42
X216.652Y63.395
X216.683Y63.369
X216.698Y63.357
X216.727Y63.33
X216.749Y63.31
X216.771Y63.289
X216.799Y63.26
X216.827Y63.231
X216.859Y63.195
X216.89Y63.158
X216.911Y63.13
X216.933Y63.102
X216.953Y63.074
X216.974Y63.045
X216.993Y63.015
X217.012Y62.985
X217.029Y62.957
X217.045Y62.928
X217.061Y62.899
X217.08Y62.862
X217.098Y62.824
X217.111Y62.795
X217.124Y62.765
X217.14Y62.724
X217.148Y62.702
X217.162Y62.662
X217.175Y62.622
X217.187Y62.58
X217.199Y62.537
X217.208Y62.495
X217.217Y62.454
X217.224Y62.414
X217.231Y62.363
X217.238Y62.306
X217.241Y62.273
X217.243Y62.239
X217.244Y62.205
X217.245Y62.156
Y61.923
X217.256Y61.862
X217.266Y61.785
X217.275Y61.707
X217.28Y61.63
X217.283Y61.552
Y61.513
Y50.68
Y50.64
X217.281Y50.601
X217.279Y50.561
X217.275Y50.522
X217.271Y50.483
X217.266Y50.444
X217.259Y50.405
X217.252Y50.366
X217.245Y50.333
X217.244Y50.29
X217.241Y50.247
X217.238Y50.204
X217.233Y50.162
X217.227Y50.119
X217.22Y50.076
X217.212Y50.034
X217.203Y49.992
X217.192Y49.95
X217.183Y49.916
X217.173Y49.881
X217.162Y49.847
X217.15Y49.813
X217.137Y49.78
X217.12Y49.738
X217.102Y49.698
X217.083Y49.657
X217.061Y49.614
X217.045Y49.584
X217.028Y49.554
X217.007Y49.518
X216.984Y49.483
X216.962Y49.451
X216.94Y49.419
X216.917Y49.388
X216.893Y49.358
X216.869Y49.328
X216.843Y49.299
X216.818Y49.271
X216.791Y49.243
X216.764Y49.216
X216.736Y49.189
X216.707Y49.163
X216.678Y49.138
X216.648Y49.113
X216.618Y49.09
X216.587Y49.067
X216.555Y49.045
X216.523Y49.023
X216.49Y49.002
X216.457Y48.983
X216.424Y48.964
X216.389Y48.945
X216.355Y48.928
X216.32Y48.911
X216.286Y48.896
X216.25Y48.881
X216.215Y48.867
X216.179Y48.854
X216.143Y48.842
X216.106Y48.83
X216.069Y48.82
X216.032Y48.81
X215.995Y48.802
X215.958Y48.794
X215.92Y48.787
X215.882Y48.781
X215.845Y48.776
X215.807Y48.772
X215.768Y48.769
X215.73Y48.767
X215.692Y48.765
X215.654
X211.718
X211.128Y48.752
X210.383Y48.746
G0Z1
X176.074Y56.194
G1Z-0.7F50
X176.082Y56.168F100
X176.092Y56.141
X176.112Y56.089
X176.122Y56.063
X176.133Y56.038
X176.145Y56.012
X176.157Y55.987
X176.169Y55.963
X176.182Y55.938
X176.196Y55.913
X176.209Y55.889
X176.233Y55.849
X176.254Y55.816
X176.268Y55.794
X176.284Y55.772
X176.3Y55.749
X176.317Y55.726
X176.334Y55.704
X176.353Y55.681
X176.369Y55.661
X176.387Y55.64
X176.406Y55.619
X176.426Y55.597
X176.444Y55.578
X176.463Y55.558
X176.503Y55.52
X176.547Y55.481
X176.566Y55.464
X176.587Y55.447
X176.609Y55.429
X176.631Y55.412
X176.654Y55.396
X176.676Y55.379
X176.722Y55.348
X176.746Y55.333
X176.77Y55.319
X176.794Y55.305
X176.818Y55.291
X176.843Y55.277
X176.867Y55.265
X176.892Y55.252
X176.917Y55.24
X176.943Y55.229
X176.968Y55.218
X176.994Y55.207
X177.049Y55.186
X177.072Y55.178
X177.099Y55.169
X177.125Y55.16
X177.152Y55.153
X177.179Y55.145
X177.233Y55.132
X177.287Y55.12
X177.315Y55.115
X177.345Y55.11
X177.398Y55.103
X177.425Y55.099
X177.453Y55.097
X177.481Y55.095
X177.509Y55.093
X177.536Y55.092
X177.564Y55.091
X177.592
X177.62
X177.648Y55.092
X177.675Y55.093
X177.704Y55.095
X177.731Y55.097
X177.759Y55.099
X177.787Y55.103
X177.814Y55.106
X177.842Y55.11
X177.869Y55.115
X177.897Y55.12
X177.924Y55.126
X177.951Y55.132
X177.978Y55.138
X178.005Y55.145
X178.032Y55.152
X178.059Y55.16
X178.086Y55.169
X178.112Y55.178
X178.164Y55.197
X178.19Y55.207
X178.216Y55.218
X178.241Y55.229
X178.292Y55.252
X178.317Y55.265
X178.342Y55.278
X178.366Y55.291
X178.39Y55.305
X178.414Y55.319
X178.438Y55.333
X178.462Y55.348
X178.485Y55.364
X178.508Y55.379
X178.531Y55.396
X178.553Y55.412
X178.575Y55.429
X178.597Y55.446
X178.618Y55.464
X178.64Y55.482
X178.661Y55.501
X178.681Y55.52
X178.701Y55.539
X178.721Y55.558
X178.741Y55.578
X178.76Y55.598
X178.797Y55.64
X178.815Y55.661
X178.844Y55.696
X178.869Y55.729
X178.884Y55.749
X178.9Y55.771
X178.916Y55.794
X178.946Y55.841
X178.961Y55.865
X178.975Y55.889
X178.989Y55.913
X179.002Y55.938
X179.015Y55.962
X179.027Y55.987
X179.039Y56.013
X179.051Y56.038
X179.062Y56.063
X179.072Y56.089
X179.083Y56.115
X179.092Y56.141
X179.102Y56.167
X179.111Y56.194
X179.119Y56.221
X179.134Y56.274
X179.141Y56.301
X179.148Y56.328
X179.157Y56.372
X179.165Y56.413
X179.169Y56.437
X179.173Y56.465
X179.177Y56.493
X179.18Y56.52
X179.183Y56.548
X179.185Y56.576
X179.187Y56.604
X179.188Y56.631
Y56.659
X179.189Y56.687
X179.188Y56.715
Y56.743
X179.187Y56.771
X179.185Y56.798
X179.183Y56.826
X179.18Y56.854
X179.177Y56.882
X179.173Y56.91
X179.169Y56.937
X179.164Y56.965
X179.159Y56.992
X179.154Y57.019
X179.148Y57.046
X179.141Y57.073
X179.134Y57.101
X179.127Y57.127
X179.119Y57.154
X179.111Y57.181
X179.102Y57.207
X179.092Y57.233
X179.083Y57.259
X179.072Y57.285
X179.062Y57.311
X179.051Y57.337
X179.039Y57.362
X179.027Y57.387
X179.015Y57.412
X179.002Y57.437
X178.989Y57.461
X178.975Y57.486
X178.961Y57.51
X178.946Y57.533
X178.931Y57.557
X178.916Y57.58
X178.9Y57.603
X178.884Y57.626
X178.867Y57.648
X178.85Y57.67
X178.833Y57.692
X178.815Y57.714
X178.797Y57.735
X178.779Y57.756
X178.76Y57.776
X178.741Y57.796
X178.721Y57.816
X178.701Y57.836
X178.681Y57.855
X178.661Y57.874
X178.64Y57.892
X178.618Y57.91
X178.597Y57.928
X178.575Y57.945
X178.553Y57.962
X178.531Y57.979
X178.508Y57.995
X178.485Y58.011
X178.462Y58.026
X178.438Y58.041
X178.415Y58.056
X178.39Y58.07
X178.366Y58.084
X178.342Y58.097
X178.317Y58.11
X178.292Y58.122
X178.267Y58.134
X178.241Y58.146
X178.216Y58.157
X178.19Y58.168
X178.164Y58.178
X178.138Y58.188
X178.112Y58.197
X178.086Y58.206
X178.059Y58.214
X178.032Y58.222
X178.005Y58.23
X177.978Y58.237
X177.951Y58.243
X177.924Y58.249
X177.897Y58.255
X177.869Y58.26
X177.842Y58.264
X177.814Y58.268
X177.787Y58.272
X177.759Y58.275
X177.731Y58.278
X177.703Y58.28
X177.676Y58.282
X177.648Y58.283
X177.62Y58.284
X177.592
X177.564
X177.536Y58.283
X177.515Y58.282
X177.479Y58.28
X177.425Y58.275
X177.398Y58.272
X177.37Y58.268
X177.342Y58.264
X177.315Y58.26
X177.287Y58.255
X177.26Y58.249
X177.233Y58.243
X177.206Y58.237
X177.179Y58.23
X177.152Y58.222
X177.125Y58.214
X177.105Y58.208
X177.071Y58.196
X177.046Y58.188
X177.02Y58.178
X176.994Y58.168
X176.968Y58.157
X176.943Y58.146
X176.917Y58.134
X176.892Y58.122
X176.867Y58.11
X176.843Y58.097
X176.818Y58.084
X176.794Y58.07
X176.77Y58.056
X176.746Y58.041
X176.723Y58.026
X176.699Y58.011
X176.676Y57.995
X176.653Y57.979
X176.631Y57.962
X176.609Y57.946
X176.587Y57.928
X176.566Y57.91
X176.544Y57.892
X176.524Y57.874
X176.503Y57.855
X176.483Y57.836
X176.463Y57.816
X176.444Y57.796
X176.424Y57.776
X176.405Y57.756
X176.387Y57.735
X176.369Y57.714
X176.351Y57.692
X176.317Y57.648
X176.3Y57.626
X176.284Y57.603
X176.268Y57.58
X176.253Y57.557
X176.224Y57.51
X176.202Y57.472
X176.181Y57.434
X176.169Y57.412
X176.157Y57.387
X176.145Y57.362
X176.133Y57.337
X176.122Y57.311
X176.112Y57.285
X176.102Y57.26
X176.085Y57.215
X176.073Y57.179
X176.065Y57.154
X176.057Y57.127
X176.043Y57.073
X176.036Y57.046
X176.03Y57.019
X176.025Y56.992
X176.02Y56.965
X176.015Y56.937
X176.011Y56.91
X176.007Y56.882
X176.004Y56.854
X176.001Y56.826
X175.999Y56.799
X175.998Y56.771
X175.996Y56.725
X175.995Y56.687
X175.996Y56.659
Y56.632
X175.998Y56.604
X175.999Y56.576
X176.002Y56.548
X176.004Y56.52
X176.007Y56.493
X176.011Y56.465
X176.015Y56.438
X176.02Y56.41
X176.025Y56.383
X176.03Y56.355
X176.036Y56.328
X176.043Y56.301
X176.05Y56.274
X176.057Y56.247
X176.065Y56.22
X176.074Y56.194
G0Z1
X190.977Y56.672
G1Z-0.7F50
X190.994Y56.496F100
X191.045Y56.327
X191.128Y56.171
X191.24Y56.035
X191.377Y55.922
X191.533Y55.839
X191.702Y55.788
X191.878Y55.771
X192.054Y55.788
X192.223Y55.839
X192.379Y55.922
X192.515Y56.035
X192.627Y56.171
X192.711Y56.327
X192.762Y56.496
X192.779Y56.672
X192.762Y56.848
X192.711Y57.017
X192.627Y57.173
X192.515Y57.309
X192.379Y57.421
X192.223Y57.505
X192.054Y57.556
X191.878Y57.573
X191.702Y57.556
X191.533Y57.505
X191.377Y57.421
X191.24Y57.309
X191.128Y57.173
X191.045Y57.017
X190.994Y56.848
X190.977Y56.672
G0Z1
X206.88
G1Z-0.7F50
X206.898Y56.496F100
X206.949Y56.327
X207.032Y56.171
X207.144Y56.035
X207.281Y55.922
X207.437Y55.839
X207.606Y55.788
X207.782Y55.771
X207.958Y55.788
X208.127Y55.839
X208.282Y55.922
X208.419Y56.035
X208.531Y56.171
X208.614Y56.327
X208.666Y56.496
X208.683Y56.672
X208.666Y56.848
X208.614Y57.017
X208.531Y57.173
X208.419Y57.309
X208.282Y57.421
X208.127Y57.505
X207.958Y57.556
X207.782Y57.573
X207.606Y57.556
X207.437Y57.505
X207.281Y57.421
X207.144Y57.309
X207.032Y57.173
X206.949Y57.017
X206.898Y56.848
X206.88Y56.672
G0Z1
X210.383Y48.746
G1Z-0.7F50
X183.929F100
X183.275Y48.752
X182.621Y48.769
X181.968Y48.796
X181.315Y48.834
X180.662Y48.883
X180.011Y48.943
X179.361Y49.014
X178.712Y49.095
X178.064Y49.188
X177.419Y49.291
X176.774Y49.404
X176.132Y49.529
X176.008Y49.555
X175.885Y49.584
X175.762Y49.614
X175.64Y49.647
X175.518Y49.682
X175.397Y49.719
X175.277Y49.758
X175.157Y49.799
X175.038Y49.842
X174.92Y49.888
X174.802Y49.935
X174.686Y49.984
X174.57Y50.036
X174.455Y50.089
X174.341Y50.144
X174.228Y50.202
X174.117Y50.261
X174.006Y50.322
X173.896Y50.385
X173.787Y50.45
X173.68Y50.517
X173.574Y50.586
X173.469Y50.656
X173.365Y50.729
X173.262Y50.803
X173.161Y50.879
X173.061Y50.956
X172.962Y51.035
X172.865Y51.117
X172.769Y51.199
X172.675Y51.284
X172.582Y51.37
X172.491Y51.457
X172.401Y51.547
X172.313Y51.637
X172.226Y51.73
X172.141Y51.823
X172.057Y51.918
X171.976Y52.015
X171.876Y52.137
X171.778Y52.261
X171.682Y52.386
X171.588Y52.514
X171.497Y52.643
X171.408Y52.773
X171.321Y52.905
X171.236Y53.038
X171.154Y53.173
X171.074Y53.309
X170.996Y53.447
X170.921Y53.585
X170.848Y53.726
X170.777Y53.867
X170.709Y54.009
X170.643Y54.153
X170.58Y54.298
X170.52Y54.444
X170.461Y54.591
X170.406Y54.738
X170.352Y54.887
X170.302Y55.037
X170.254Y55.187
X170.209Y55.339
X170.166Y55.491
X170.126Y55.643
X170.088Y55.797
X170.053Y55.951
X170.021Y56.105
X169.991Y56.261
X169.964Y56.416
X169.94Y56.572
X169.918Y56.729
X169.899Y56.885
X169.883Y57.043
X169.87Y57.2
X169.859Y57.358
X169.851Y57.515
X169.845Y57.673
X169.842Y57.831
Y57.989
X169.845Y58.147
X169.85Y58.305
X169.858Y58.463
X169.869Y58.62
X169.883Y58.778
X169.899Y58.935
X169.918Y59.091
X169.937Y59.234
X170.357Y62.126
X170.37Y62.2
X170.387Y62.277
X170.406Y62.353
X170.428Y62.426
X170.452Y62.5
X170.479Y62.573
X170.508Y62.644
X170.54Y62.715
X170.574Y62.785
X170.611Y62.853
X170.649Y62.919
X170.691Y62.986
X170.734Y63.049
X170.78Y63.112
X170.828Y63.173
X170.878Y63.232
X170.93Y63.289
X170.984Y63.345
X171.039Y63.399
X171.097Y63.45
X171.157Y63.5
X171.218Y63.548
X171.281Y63.594
X171.344Y63.636
X171.411Y63.678
X171.477Y63.716
X171.546Y63.752
X171.616Y63.786
X171.686Y63.817
X171.759Y63.847
X171.831Y63.873
X171.905Y63.897
X171.979Y63.918
X172.054Y63.937
X172.13Y63.953
X172.207Y63.966
X172.284Y63.977
X172.36Y63.985
X172.438Y63.99
X172.515Y63.993
X172.554
X177.605
X177.721Y63.992
X177.838Y63.989
X177.955Y63.984
X178.072Y63.977
X179.327Y63.887
X180.48Y63.822
X181.633Y63.776
X182.788Y63.749
X183.948Y63.739
X187.501
X187.539Y63.743
X187.578Y63.745
X187.616Y63.746
X187.654Y63.747
X215.654
X215.694Y63.746
X215.733Y63.745
X215.773Y63.742
X215.813Y63.739
X215.852Y63.734
X215.891Y63.729
X215.931Y63.722
X215.97Y63.715
X216.009Y63.707
X216.048Y63.697
X216.086Y63.687
X216.124Y63.676
X216.162Y63.663
X216.199Y63.65
X216.237Y63.636
X216.273Y63.621
X216.31Y63.605
X216.346Y63.588
X216.381Y63.571
X216.417Y63.552
X216.451Y63.532
X216.486Y63.512
X216.52Y63.49
X216.554Y63.468
X216.587Y63.444
X216.62Y63.42
X216.652Y63.395
X216.683Y63.369
X216.698Y63.357
X216.727Y63.33
X216.749Y63.31
X216.771Y63.289
X216.799Y63.26
X216.827Y63.231
X216.859Y63.195
X216.89Y63.158
X216.911Y63.13
X216.933Y63.102
X216.953Y63.074
X216.974Y63.045
X216.993Y63.015
X217.012Y62.985
X217.029Y62.957
X217.045Y62.928
X217.061Y62.899
X217.08Y62.862
X217.098Y62.824
X217.111Y62.795
X217.124Y62.765
X217.14Y62.724
X217.148Y62.702
X217.162Y62.662
X217.175Y62.622
X217.187Y62.58
X217.199Y62.537
X217.208Y62.495
X217.217Y62.454
X217.224Y62.414
X217.231Y62.363
X217.238Y62.306
X217.241Y62.273
X217.243Y62.239
X217.244Y62.205
X217.245Y62.156
Y61.923
X217.256Y61.862
X217.266Y61.785
X217.275Y61.707
X217.28Y61.63
X217.283Y61.552
Y61.513
Y50.68
Y50.64
X217.281Y50.601
X217.279Y50.561
X217.275Y50.522
X217.271Y50.483
X217.266Y50.444
X217.259Y50.405
X217.252Y50.366
X217.245Y50.333
X217.244Y50.29
X217.241Y50.247
X217.238Y50.204
X217.233Y50.162
X217.227Y50.119
X217.22Y50.076
X217.212Y50.034
X217.203Y49.992
X217.192Y49.95
X217.183Y49.916
X217.173Y49.881
X217.162Y49.847
X217.15Y49.813
X217.137Y49.78
X217.12Y49.738
X217.102Y49.698
X217.083Y49.657
X217.061Y49.614
X217.045Y49.584
X217.028Y49.554
X217.007Y49.518
X216.984Y49.483
X216.962Y49.451
X216.94Y49.419
X216.917Y49.388
X216.893Y49.358
X216.869Y49.328
X216.843Y49.299
X216.818Y49.271
X216.791Y49.243
X216.764Y49.216
X216.736Y49.189
X216.707Y49.163
X216.678Y49.138
X216.648Y49.113
X216.618Y49.09
X216.587Y49.067
X216.555Y49.045
X216.523Y49.023
X216.49Y49.002
X216.457Y48.983
X216.424Y48.964
X216.389Y48.945
X216.355Y48.928
X216.32Y48.911
X216.286Y48.896
X216.25Y48.881
X216.215Y48.867
X216.179Y48.854
X216.143Y48.842
X216.106Y48.83
X216.069Y48.82
X216.032Y48.81
X215.995Y48.802
X215.958Y48.794
X215.92Y48.787
X215.882Y48.781
X215.845Y48.776
X215.807Y48.772
X215.768Y48.769
X215.73Y48.767
X215.692Y48.765
X215.654
X211.718
X211.128Y48.752
X210.383Y48.746
G0Z1
X176.074Y56.194
G1Z-0.8F50
X176.082Y56.168F100
X176.092Y56.141
X176.112Y56.089
X176.122Y56.063
X176.133Y56.038
X176.145Y56.012
X176.157Y55.987
X176.169Y55.963
X176.182Y55.938
X176.196Y55.913
X176.209Y55.889
X176.233Y55.849
X176.254Y55.816
X176.268Y55.794
X176.284Y55.772
X176.3Y55.749
X176.317Y55.726
X176.334Y55.704
X176.353Y55.681
X176.369Y55.661
X176.387Y55.64
X176.406Y55.619
X176.426Y55.597
X176.444Y55.578
X176.463Y55.558
X176.503Y55.52
X176.547Y55.481
X176.566Y55.464
X176.587Y55.447
X176.609Y55.429
X176.631Y55.412
X176.654Y55.396
X176.676Y55.379
X176.722Y55.348
X176.746Y55.333
X176.77Y55.319
X176.794Y55.305
X176.818Y55.291
X176.843Y55.277
X176.867Y55.265
X176.892Y55.252
X176.917Y55.24
X176.943Y55.229
X176.968Y55.218
X176.994Y55.207
X177.049Y55.186
X177.072Y55.178
X177.099Y55.169
X177.125Y55.16
X177.152Y55.153
X177.179Y55.145
X177.233Y55.132
X177.287Y55.12
X177.315Y55.115
X177.345Y55.11
X177.398Y55.103
X177.425Y55.099
X177.453Y55.097
X177.481Y55.095
X177.509Y55.093
X177.536Y55.092
X177.564Y55.091
X177.592
X177.62
X177.648Y55.092
X177.675Y55.093
X177.704Y55.095
X177.731Y55.097
X177.759Y55.099
X177.787Y55.103
X177.814Y55.106
X177.842Y55.11
X177.869Y55.115
X177.897Y55.12
X177.924Y55.126
X177.951Y55.132
X177.978Y55.138
X178.005Y55.145
X178.032Y55.152
X178.059Y55.16
X178.086Y55.169
X178.112Y55.178
X178.164Y55.197
X178.19Y55.207
X178.216Y55.218
X178.241Y55.229
X178.292Y55.252
X178.317Y55.265
X178.342Y55.278
X178.366Y55.291
X178.39Y55.305
X178.414Y55.319
X178.438Y55.333
X178.462Y55.348
X178.485Y55.364
X178.508Y55.379
X178.531Y55.396
X178.553Y55.412
X178.575Y55.429
X178.597Y55.446
X178.618Y55.464
X178.64Y55.482
X178.661Y55.501
X178.681Y55.52
X178.701Y55.539
X178.721Y55.558
X178.741Y55.578
X178.76Y55.598
X178.797Y55.64
X178.815Y55.661
X178.844Y55.696
X178.869Y55.729
X178.884Y55.749
X178.9Y55.771
X178.916Y55.794
X178.946Y55.841
X178.961Y55.865
X178.975Y55.889
X178.989Y55.913
X179.002Y55.938
X179.015Y55.962
X179.027Y55.987
X179.039Y56.013
X179.051Y56.038
X179.062Y56.063
X179.072Y56.089
X179.083Y56.115
X179.092Y56.141
X179.102Y56.167
X179.111Y56.194
X179.119Y56.221
X179.134Y56.274
X179.141Y56.301
X179.148Y56.328
X179.157Y56.372
X179.165Y56.413
X179.169Y56.437
X179.173Y56.465
X179.177Y56.493
X179.18Y56.52
X179.183Y56.548
X179.185Y56.576
X179.187Y56.604
X179.188Y56.631
Y56.659
X179.189Y56.687
X179.188Y56.715
Y56.743
X179.187Y56.771
X179.185Y56.798
X179.183Y56.826
X179.18Y56.854
X179.177Y56.882
X179.173Y56.91
X179.169Y56.937
X179.164Y56.965
X179.159Y56.992
X179.154Y57.019
X179.148Y57.046
X179.141Y57.073
X179.134Y57.101
X179.127Y57.127
X179.119Y57.154
X179.111Y57.181
X179.102Y57.207
X179.092Y57.233
X179.083Y57.259
X179.072Y57.285
X179.062Y57.311
X179.051Y57.337
X179.039Y57.362
X179.027Y57.387
X179.015Y57.412
X179.002Y57.437
X178.989Y57.461
X178.975Y57.486
X178.961Y57.51
X178.946Y57.533
X178.931Y57.557
X178.916Y57.58
X178.9Y57.603
X178.884Y57.626
X178.867Y57.648
X178.85Y57.67
X178.833Y57.692
X178.815Y57.714
X178.797Y57.735
X178.779Y57.756
X178.76Y57.776
X178.741Y57.796
X178.721Y57.816
X178.701Y57.836
X178.681Y57.855
X178.661Y57.874
X178.64Y57.892
X178.618Y57.91
X178.597Y57.928
X178.575Y57.945
X178.553Y57.962
X178.531Y57.979
X178.508Y57.995
X178.485Y58.011
X178.462Y58.026
X178.438Y58.041
X178.415Y58.056
X178.39Y58.07
X178.366Y58.084
X178.342Y58.097
X178.317Y58.11
X178.292Y58.122
X178.267Y58.134
X178.241Y58.146
X178.216Y58.157
X178.19Y58.168
X178.164Y58.178
X178.138Y58.188
X178.112Y58.197
X178.086Y58.206
X178.059Y58.214
X178.032Y58.222
X178.005Y58.23
X177.978Y58.237
X177.951Y58.243
X177.924Y58.249
X177.897Y58.255
X177.869Y58.26
X177.842Y58.264
X177.814Y58.268
X177.787Y58.272
X177.759Y58.275
X177.731Y58.278
X177.703Y58.28
X177.676Y58.282
X177.648Y58.283
X177.62Y58.284
X177.592
X177.564
X177.536Y58.283
X177.515Y58.282
X177.479Y58.28
X177.425Y58.275
X177.398Y58.272
X177.37Y58.268
X177.342Y58.264
X177.315Y58.26
X177.287Y58.255
X177.26Y58.249
X177.233Y58.243
X177.206Y58.237
X177.179Y58.23
X177.152Y58.222
X177.125Y58.214
X177.105Y58.208
X177.071Y58.196
X177.046Y58.188
X177.02Y58.178
X176.994Y58.168
X176.968Y58.157
X176.943Y58.146
X176.917Y58.134
X176.892Y58.122
X176.867Y58.11
X176.843Y58.097
X176.818Y58.084
X176.794Y58.07
X176.77Y58.056
X176.746Y58.041
X176.723Y58.026
X176.699Y58.011
X176.676Y57.995
X176.653Y57.979
X176.631Y57.962
X176.609Y57.946
X176.587Y57.928
X176.566Y57.91
X176.544Y57.892
X176.524Y57.874
X176.503Y57.855
X176.483Y57.836
X176.463Y57.816
X176.444Y57.796
X176.424Y57.776
X176.405Y57.756
X176.387Y57.735
X176.369Y57.714
X176.351Y57.692
X176.317Y57.648
X176.3Y57.626
X176.284Y57.603
X176.268Y57.58
X176.253Y57.557
X176.224Y57.51
X176.202Y57.472
X176.181Y57.434
X176.169Y57.412
X176.157Y57.387
X176.145Y57.362
X176.133Y57.337
X176.122Y57.311
X176.112Y57.285
X176.102Y57.26
X176.085Y57.215
X176.073Y57.179
X176.065Y57.154
X176.057Y57.127
X176.043Y57.073
X176.036Y57.046
X176.03Y57.019
X176.025Y56.992
X176.02Y56.965
X176.015Y56.937
X176.011Y56.91
X176.007Y56.882
X176.004Y56.854
X176.001Y56.826
X175.999Y56.799
X175.998Y56.771
X175.996Y56.725
X175.995Y56.687
X175.996Y56.659
Y56.632
X175.998Y56.604
X175.999Y56.576
X176.002Y56.548
X176.004Y56.52
X176.007Y56.493
X176.011Y56.465
X176.015Y56.438
X176.02Y56.41
X176.025Y56.383
X176.03Y56.355
X176.036Y56.328
X176.043Y56.301
X176.05Y56.274
X176.057Y56.247
X176.065Y56.22
X176.074Y56.194
G0Z1
X190.977Y56.672
G1Z-0.8F50
X190.994Y56.496F100
X191.045Y56.327
X191.128Y56.171
X191.24Y56.035
X191.377Y55.922
X191.533Y55.839
X191.702Y55.788
X191.878Y55.771
X192.054Y55.788
X192.223Y55.839
X192.379Y55.922
X192.515Y56.035
X192.627Y56.171
X192.711Y56.327
X192.762Y56.496
X192.779Y56.672
X192.762Y56.848
X192.711Y57.017
X192.627Y57.173
X192.515Y57.309
X192.379Y57.421
X192.223Y57.505
X192.054Y57.556
X191.878Y57.573
X191.702Y57.556
X191.533Y57.505
X191.377Y57.421
X191.24Y57.309
X191.128Y57.173
X191.045Y57.017
X190.994Y56.848
X190.977Y56.672
G0Z1
X206.88
G1Z-0.8F50
X206.898Y56.496F100
X206.949Y56.327
X207.032Y56.171
X207.144Y56.035
X207.281Y55.922
X207.437Y55.839
X207.606Y55.788
X207.782Y55.771
X207.958Y55.788
X208.127Y55.839
X208.282Y55.922
X208.419Y56.035
X208.531Y56.171
X208.614Y56.327
X208.666Y56.496
X208.683Y56.672
X208.666Y56.848
X208.614Y57.017
X208.531Y57.173
X208.419Y57.309
X208.282Y57.421
X208.127Y57.505
X207.958Y57.556
X207.782Y57.573
X207.606Y57.556
X207.437Y57.505
X207.281Y57.421
X207.144Y57.309
X207.032Y57.173
X206.949Y57.017
X206.898Y56.848
X206.88Y56.672
G0Z1
X210.383Y48.746
G1Z-0.8F50
X183.929F100
X183.275Y48.752
X182.621Y48.769
X181.968Y48.796
X181.315Y48.834
X180.662Y48.883
X180.011Y48.943
X179.361Y49.014
X178.712Y49.095
X178.064Y49.188
X177.419Y49.291
X176.774Y49.404
X176.132Y49.529
X176.008Y49.555
X175.885Y49.584
X175.762Y49.614
X175.64Y49.647
X175.518Y49.682
X175.397Y49.719
X175.277Y49.758
X175.157Y49.799
X175.038Y49.842
X174.92Y49.888
X174.802Y49.935
X174.686Y49.984
X174.57Y50.036
X174.455Y50.089
X174.341Y50.144
X174.228Y50.202
X174.117Y50.261
X174.006Y50.322
X173.896Y50.385
X173.787Y50.45
X173.68Y50.517
X173.574Y50.586
X173.469Y50.656
X173.365Y50.729
X173.262Y50.803
X173.161Y50.879
X173.061Y50.956
X172.962Y51.035
X172.865Y51.117
X172.769Y51.199
X172.675Y51.284
X172.582Y51.37
X172.491Y51.457
X172.401Y51.547
X172.313Y51.637
X172.226Y51.73
X172.141Y51.823
X172.057Y51.918
X171.976Y52.015
X171.876Y52.137
X171.778Y52.261
X171.682Y52.386
X171.588Y52.514
X171.497Y52.643
X171.408Y52.773
X171.321Y52.905
X171.236Y53.038
X171.154Y53.173
X171.074Y53.309
X170.996Y53.447
X170.921Y53.585
X170.848Y53.726
X170.777Y53.867
X170.709Y54.009
X170.643Y54.153
X170.58Y54.298
X170.52Y54.444
X170.461Y54.591
X170.406Y54.738
X170.352Y54.887
X170.302Y55.037
X170.254Y55.187
X170.209Y55.339
X170.166Y55.491
X170.126Y55.643
X170.088Y55.797
X170.053Y55.951
X170.021Y56.105
X169.991Y56.261
X169.964Y56.416
X169.94Y56.572
X169.918Y56.729
X169.899Y56.885
X169.883Y57.043
X169.87Y57.2
X169.859Y57.358
X169.851Y57.515
X169.845Y57.673
X169.842Y57.831
Y57.989
X169.845Y58.147
X169.85Y58.305
X169.858Y58.463
X169.869Y58.62
X169.883Y58.778
X169.899Y58.935
X169.918Y59.091
X169.937Y59.234
X170.357Y62.126
X170.37Y62.2
X170.387Y62.277
X170.406Y62.353
X170.428Y62.426
X170.452Y62.5
X170.479Y62.573
X170.508Y62.644
X170.54Y62.715
X170.574Y62.785
X170.611Y62.853
X170.649Y62.919
X170.691Y62.986
X170.734Y63.049
X170.78Y63.112
X170.828Y63.173
X170.878Y63.232
X170.93Y63.289
X170.984Y63.345
X171.039Y63.399
X171.097Y63.45
X171.157Y63.5
X171.218Y63.548
X171.281Y63.594
X171.344Y63.636
X171.411Y63.678
X171.477Y63.716
X171.546Y63.752
X171.616Y63.786
X171.686Y63.817
X171.759Y63.847
X171.831Y63.873
X171.905Y63.897
X171.979Y63.918
X172.054Y63.937
X172.13Y63.953
X172.207Y63.966
X172.284Y63.977
X172.36Y63.985
X172.438Y63.99
X172.515Y63.993
X172.554
X177.605
X177.721Y63.992
X177.838Y63.989
X177.955Y63.984
X178.072Y63.977
X179.327Y63.887
X180.48Y63.822
X181.633Y63.776
X182.788Y63.749
X183.948Y63.739
X187.501
X187.539Y63.743
X187.578Y63.745
X187.616Y63.746
X187.654Y63.747
X215.654
X215.694Y63.746
X215.733Y63.745
X215.773Y63.742
X215.813Y63.739
X215.852Y63.734
X215.891Y63.729
X215.931Y63.722
X215.97Y63.715
X216.009Y63.707
X216.048Y63.697
X216.086Y63.687
X216.124Y63.676
X216.162Y63.663
X216.199Y63.65
X216.237Y63.636
X216.273Y63.621
X216.31Y63.605
X216.346Y63.588
X216.381Y63.571
X216.417Y63.552
X216.451Y63.532
X216.486Y63.512
X216.52Y63.49
X216.554Y63.468
X216.587Y63.444
X216.62Y63.42
X216.652Y63.395
X216.683Y63.369
X216.698Y63.357
X216.727Y63.33
X216.749Y63.31
X216.771Y63.289
X216.799Y63.26
X216.827Y63.231
X216.859Y63.195
X216.89Y63.158
X216.911Y63.13
X216.933Y63.102
X216.953Y63.074
X216.974Y63.045
X216.993Y63.015
X217.012Y62.985
X217.029Y62.957
X217.045Y62.928
X217.061Y62.899
X217.08Y62.862
X217.098Y62.824
X217.111Y62.795
X217.124Y62.765
X217.14Y62.724
X217.148Y62.702
X217.162Y62.662
X217.175Y62.622
X217.187Y62.58
X217.199Y62.537
X217.208Y62.495
X217.217Y62.454
X217.224Y62.414
X217.231Y62.363
X217.238Y62.306
X217.241Y62.273
X217.243Y62.239
X217.244Y62.205
X217.245Y62.156
Y61.923
X217.256Y61.862
X217.266Y61.785
X217.275Y61.707
X217.28Y61.63
X217.283Y61.552
Y61.513
Y50.68
Y50.64
X217.281Y50.601
X217.279Y50.561
X217.275Y50.522
X217.271Y50.483
X217.266Y50.444
X217.259Y50.405
X217.252Y50.366
X217.245Y50.333
X217.244Y50.29
X217.241Y50.247
X217.238Y50.204
X217.233Y50.162
X217.227Y50.119
X217.22Y50.076
X217.212Y50.034
X217.203Y49.992
X217.192Y49.95
X217.183Y49.916
X217.173Y49.881
X217.162Y49.847
X217.15Y49.813
X217.137Y49.78
X217.12Y49.738
X217.102Y49.698
X217.083Y49.657
X217.061Y49.614
X217.045Y49.584
X217.028Y49.554
X217.007Y49.518
X216.984Y49.483
X216.962Y49.451
X216.94Y49.419
X216.917Y49.388
X216.893Y49.358
X216.869Y49.328
X216.843Y49.299
X216.818Y49.271
X216.791Y49.243
X216.764Y49.216
X216.736Y49.189
X216.707Y49.163
X216.678Y49.138
X216.648Y49.113
X216.618Y49.09
X216.587Y49.067
X216.555Y49.045
X216.523Y49.023
X216.49Y49.002
X216.457Y48.983
X216.424Y48.964
X216.389Y48.945
X216.355Y48.928
X216.32Y48.911
X216.286Y48.896
X216.25Y48.881
X216.215Y48.867
X216.179Y48.854
X216.143Y48.842
X216.106Y48.83
X216.069Y48.82
X216.032Y48.81
X215.995Y48.802
X215.958Y48.794
X215.92Y48.787
X215.882Y48.781
X215.845Y48.776
X215.807Y48.772
X215.768Y48.769
X215.73Y48.767
X215.692Y48.765
X215.654
X211.718
X211.128Y48.752
X210.383Y48.746
G0Z1
X176.074Y56.194
G1Z-0.9F50
X176.082Y56.168F100
X176.092Y56.141
X176.112Y56.089
X176.122Y56.063
X176.133Y56.038
X176.145Y56.012
X176.157Y55.987
X176.169Y55.963
X176.182Y55.938
X176.196Y55.913
X176.209Y55.889
X176.233Y55.849
X176.254Y55.816
X176.268Y55.794
X176.284Y55.772
X176.3Y55.749
X176.317Y55.726
X176.334Y55.704
X176.353Y55.681
X176.369Y55.661
X176.387Y55.64
X176.406Y55.619
X176.426Y55.597
X176.444Y55.578
X176.463Y55.558
X176.503Y55.52
X176.547Y55.481
X176.566Y55.464
X176.587Y55.447
X176.609Y55.429
X176.631Y55.412
X176.654Y55.396
X176.676Y55.379
X176.722Y55.348
X176.746Y55.333
X176.77Y55.319
X176.794Y55.305
X176.818Y55.291
X176.843Y55.277
X176.867Y55.265
X176.892Y55.252
X176.917Y55.24
X176.943Y55.229
X176.968Y55.218
X176.994Y55.207
X177.049Y55.186
X177.072Y55.178
X177.099Y55.169
X177.125Y55.16
X177.152Y55.153
X177.179Y55.145
X177.233Y55.132
X177.287Y55.12
X177.315Y55.115
X177.345Y55.11
X177.398Y55.103
X177.425Y55.099
X177.453Y55.097
X177.481Y55.095
X177.509Y55.093
X177.536Y55.092
X177.564Y55.091
X177.592
X177.62
X177.648Y55.092
X177.675Y55.093
X177.704Y55.095
X177.731Y55.097
X177.759Y55.099
X177.787Y55.103
X177.814Y55.106
X177.842Y55.11
X177.869Y55.115
X177.897Y55.12
X177.924Y55.126
X177.951Y55.132
X177.978Y55.138
X178.005Y55.145
X178.032Y55.152
X178.059Y55.16
X178.086Y55.169
X178.112Y55.178
X178.164Y55.197
X178.19Y55.207
X178.216Y55.218
X178.241Y55.229
X178.292Y55.252
X178.317Y55.265
X178.342Y55.278
X178.366Y55.291
X178.39Y55.305
X178.414Y55.319
X178.438Y55.333
X178.462Y55.348
X178.485Y55.364
X178.508Y55.379
X178.531Y55.396
X178.553Y55.412
X178.575Y55.429
X178.597Y55.446
X178.618Y55.464
X178.64Y55.482
X178.661Y55.501
X178.681Y55.52
X178.701Y55.539
X178.721Y55.558
X178.741Y55.578
X178.76Y55.598
X178.797Y55.64
X178.815Y55.661
X178.844Y55.696
X178.869Y55.729
X178.884Y55.749
X178.9Y55.771
X178.916Y55.794
X178.946Y55.841
X178.961Y55.865
X178.975Y55.889
X178.989Y55.913
X179.002Y55.938
X179.015Y55.962
X179.027Y55.987
X179.039Y56.013
X179.051Y56.038
X179.062Y56.063
X179.072Y56.089
X179.083Y56.115
X179.092Y56.141
X179.102Y56.167
X179.111Y56.194
X179.119Y56.221
X179.134Y56.274
X179.141Y56.301
X179.148Y56.328
X179.157Y56.372
X179.165Y56.413
X179.169Y56.437
X179.173Y56.465
X179.177Y56.493
X179.18Y56.52
X179.183Y56.548
X179.185Y56.576
X179.187Y56.604
X179.188Y56.631
Y56.659
X179.189Y56.687
X179.188Y56.715
Y56.743
X179.187Y56.771
X179.185Y56.798
X179.183Y56.826
X179.18Y56.854
X179.177Y56.882
X179.173Y56.91
X179.169Y56.937
X179.164Y56.965
X179.159Y56.992
X179.154Y57.019
X179.148Y57.046
X179.141Y57.073
X179.134Y57.101
X179.127Y57.127
X179.119Y57.154
X179.111Y57.181
X179.102Y57.207
X179.092Y57.233
X179.083Y57.259
X179.072Y57.285
X179.062Y57.311
X179.051Y57.337
X179.039Y57.362
X179.027Y57.387
X179.015Y57.412
X179.002Y57.437
X178.989Y57.461
X178.975Y57.486
X178.961Y57.51
X178.946Y57.533
X178.931Y57.557
X178.916Y57.58
X178.9Y57.603
X178.884Y57.626
X178.867Y57.648
X178.85Y57.67
X178.833Y57.692
X178.815Y57.714
X178.797Y57.735
X178.779Y57.756
X178.76Y57.776
X178.741Y57.796
X178.721Y57.816
X178.701Y57.836
X178.681Y57.855
X178.661Y57.874
X178.64Y57.892
X178.618Y57.91
X178.597Y57.928
X178.575Y57.945
X178.553Y57.962
X178.531Y57.979
X178.508Y57.995
X178.485Y58.011
X178.462Y58.026
X178.438Y58.041
X178.415Y58.056
X178.39Y58.07
X178.366Y58.084
X178.342Y58.097
X178.317Y58.11
X178.292Y58.122
X178.267Y58.134
X178.241Y58.146
X178.216Y58.157
X178.19Y58.168
X178.164Y58.178
X178.138Y58.188
X178.112Y58.197
X178.086Y58.206
X178.059Y58.214
X178.032Y58.222
X178.005Y58.23
X177.978Y58.237
X177.951Y58.243
X177.924Y58.249
X177.897Y58.255
X177.869Y58.26
X177.842Y58.264
X177.814Y58.268
X177.787Y58.272
X177.759Y58.275
X177.731Y58.278
X177.703Y58.28
X177.676Y58.282
X177.648Y58.283
X177.62Y58.284
X177.592
X177.564
X177.536Y58.283
X177.515Y58.282
X177.479Y58.28
X177.425Y58.275
X177.398Y58.272
X177.37Y58.268
X177.342Y58.264
X177.315Y58.26
X177.287Y58.255
X177.26Y58.249
X177.233Y58.243
X177.206Y58.237
X177.179Y58.23
X177.152Y58.222
X177.125Y58.214
X177.105Y58.208
X177.071Y58.196
X177.046Y58.188
X177.02Y58.178
X176.994Y58.168
X176.968Y58.157
X176.943Y58.146
X176.917Y58.134
X176.892Y58.122
X176.867Y58.11
X176.843Y58.097
X176.818Y58.084
X176.794Y58.07
X176.77Y58.056
X176.746Y58.041
X176.723Y58.026
X176.699Y58.011
X176.676Y57.995
X176.653Y57.979
X176.631Y57.962
X176.609Y57.946
X176.587Y57.928
X176.566Y57.91
X176.544Y57.892
X176.524Y57.874
X176.503Y57.855
X176.483Y57.836
X176.463Y57.816
X176.444Y57.796
X176.424Y57.776
X176.405Y57.756
X176.387Y57.735
X176.369Y57.714
X176.351Y57.692
X176.317Y57.648
X176.3Y57.626
X176.284Y57.603
X176.268Y57.58
X176.253Y57.557
X176.224Y57.51
X176.202Y57.472
X176.181Y57.434
X176.169Y57.412
X176.157Y57.387
X176.145Y57.362
X176.133Y57.337
X176.122Y57.311
X176.112Y57.285
X176.102Y57.26
X176.085Y57.215
X176.073Y57.179
X176.065Y57.154
X176.057Y57.127
X176.043Y57.073
X176.036Y57.046
X176.03Y57.019
X176.025Y56.992
X176.02Y56.965
X176.015Y56.937
X176.011Y56.91
X176.007Y56.882
X176.004Y56.854
X176.001Y56.826
X175.999Y56.799
X175.998Y56.771
X175.996Y56.725
X175.995Y56.687
X175.996Y56.659
Y56.632
X175.998Y56.604
X175.999Y56.576
X176.002Y56.548
X176.004Y56.52
X176.007Y56.493
X176.011Y56.465
X176.015Y56.438
X176.02Y56.41
X176.025Y56.383
X176.03Y56.355
X176.036Y56.328
X176.043Y56.301
X176.05Y56.274
X176.057Y56.247
X176.065Y56.22
X176.074Y56.194
G0Z1
X190.977Y56.672
G1Z-0.9F50
X190.994Y56.496F100
X191.045Y56.327
X191.128Y56.171
X191.24Y56.035
X191.377Y55.922
X191.533Y55.839
X191.702Y55.788
X191.878Y55.771
X192.054Y55.788
X192.223Y55.839
X192.379Y55.922
X192.515Y56.035
X192.627Y56.171
X192.711Y56.327
X192.762Y56.496
X192.779Y56.672
X192.762Y56.848
X192.711Y57.017
X192.627Y57.173
X192.515Y57.309
X192.379Y57.421
X192.223Y57.505
X192.054Y57.556
X191.878Y57.573
X191.702Y57.556
X191.533Y57.505
X191.377Y57.421
X191.24Y57.309
X191.128Y57.173
X191.045Y57.017
X190.994Y56.848
X190.977Y56.672
G0Z1
X206.88
G1Z-0.9F50
X206.898Y56.496F100
X206.949Y56.327
X207.032Y56.171
X207.144Y56.035
X207.281Y55.922
X207.437Y55.839
X207.606Y55.788
X207.782Y55.771
X207.958Y55.788
X208.127Y55.839
X208.282Y55.922
X208.419Y56.035
X208.531Y56.171
X208.614Y56.327
X208.666Y56.496
X208.683Y56.672
X208.666Y56.848
X208.614Y57.017
X208.531Y57.173
X208.419Y57.309
X208.282Y57.421
X208.127Y57.505
X207.958Y57.556
X207.782Y57.573
X207.606Y57.556
X207.437Y57.505
X207.281Y57.421
X207.144Y57.309
X207.032Y57.173
X206.949Y57.017
X206.898Y56.848
X206.88Y56.672
G0Z1
X210.383Y48.746
G1Z-0.9F50
X183.929F100
X183.275Y48.752
X182.621Y48.769
X181.968Y48.796
X181.315Y48.834
X180.662Y48.883
X180.011Y48.943
X179.361Y49.014
X178.712Y49.095
X178.064Y49.188
X177.419Y49.291
X176.774Y49.404
X176.132Y49.529
X176.008Y49.555
X175.885Y49.584
X175.762Y49.614
X175.64Y49.647
X175.518Y49.682
X175.397Y49.719
X175.277Y49.758
X175.157Y49.799
X175.038Y49.842
X174.92Y49.888
X174.802Y49.935
X174.686Y49.984
X174.57Y50.036
X174.455Y50.089
X174.341Y50.144
X174.228Y50.202
X174.117Y50.261
X174.006Y50.322
X173.896Y50.385
X173.787Y50.45
X173.68Y50.517
X173.574Y50.586
X173.469Y50.656
X173.365Y50.729
X173.262Y50.803
X173.161Y50.879
X173.061Y50.956
X172.962Y51.035
X172.865Y51.117
X172.769Y51.199
X172.675Y51.284
X172.582Y51.37
X172.491Y51.457
X172.401Y51.547
X172.313Y51.637
X172.226Y51.73
X172.141Y51.823
X172.057Y51.918
X171.976Y52.015
X171.876Y52.137
X171.778Y52.261
X171.682Y52.386
X171.588Y52.514
X171.497Y52.643
X171.408Y52.773
X171.321Y52.905
X171.236Y53.038
X171.154Y53.173
X171.074Y53.309
X170.996Y53.447
X170.921Y53.585
X170.848Y53.726
X170.777Y53.867
X170.709Y54.009
X170.643Y54.153
X170.58Y54.298
X170.52Y54.444
X170.461Y54.591
X170.406Y54.738
X170.352Y54.887
X170.302Y55.037
X170.254Y55.187
X170.209Y55.339
X170.166Y55.491
X170.126Y55.643
X170.088Y55.797
X170.053Y55.951
X170.021Y56.105
X169.991Y56.261
X169.964Y56.416
X169.94Y56.572
X169.918Y56.729
X169.899Y56.885
X169.883Y57.043
X169.87Y57.2
X169.859Y57.358
X169.851Y57.515
X169.845Y57.673
X169.842Y57.831
Y57.989
X169.845Y58.147
X169.85Y58.305
X169.858Y58.463
X169.869Y58.62
X169.883Y58.778
X169.899Y58.935
X169.918Y59.091
X169.937Y59.234
X170.357Y62.126
X170.37Y62.2
X170.387Y62.277
X170.406Y62.353
X170.428Y62.426
X170.452Y62.5
X170.479Y62.573
X170.508Y62.644
X170.54Y62.715
X170.574Y62.785
X170.611Y62.853
X170.649Y62.919
X170.691Y62.986
X170.734Y63.049
X170.78Y63.112
X170.828Y63.173
X170.878Y63.232
X170.93Y63.289
X170.984Y63.345
X171.039Y63.399
X171.097Y63.45
X171.157Y63.5
X171.218Y63.548
X171.281Y63.594
X171.344Y63.636
X171.411Y63.678
X171.477Y63.716
X171.546Y63.752
X171.616Y63.786
X171.686Y63.817
X171.759Y63.847
X171.831Y63.873
X171.905Y63.897
X171.979Y63.918
X172.054Y63.937
X172.13Y63.953
X172.207Y63.966
X172.284Y63.977
X172.36Y63.985
X172.438Y63.99
X172.515Y63.993
X172.554
X177.605
X177.721Y63.992
X177.838Y63.989
X177.955Y63.984
X178.072Y63.977
X179.327Y63.887
X180.48Y63.822
X181.633Y63.776
X182.788Y63.749
X183.948Y63.739
X187.501
X187.539Y63.743
X187.578Y63.745
X187.616Y63.746
X187.654Y63.747
X215.654
X215.694Y63.746
X215.733Y63.745
X215.773Y63.742
X215.813Y63.739
X215.852Y63.734
X215.891Y63.729
X215.931Y63.722
X215.97Y63.715
X216.009Y63.707
X216.048Y63.697
X216.086Y63.687
X216.124Y63.676
X216.162Y63.663
X216.199Y63.65
X216.237Y63.636
X216.273Y63.621
X216.31Y63.605
X216.346Y63.588
X216.381Y63.571
X216.417Y63.552
X216.451Y63.532
X216.486Y63.512
X216.52Y63.49
X216.554Y63.468
X216.587Y63.444
X216.62Y63.42
X216.652Y63.395
X216.683Y63.369
X216.698Y63.357
X216.727Y63.33
X216.749Y63.31
X216.771Y63.289
X216.799Y63.26
X216.827Y63.231
X216.859Y63.195
X216.89Y63.158
X216.911Y63.13
X216.933Y63.102
X216.953Y63.074
X216.974Y63.045
X216.993Y63.015
X217.012Y62.985
X217.029Y62.957
X217.045Y62.928
X217.061Y62.899
X217.08Y62.862
X217.098Y62.824
X217.111Y62.795
X217.124Y62.765
X217.14Y62.724
X217.148Y62.702
X217.162Y62.662
X217.175Y62.622
X217.187Y62.58
X217.199Y62.537
X217.208Y62.495
X217.217Y62.454
X217.224Y62.414
X217.231Y62.363
X217.238Y62.306
X217.241Y62.273
X217.243Y62.239
X217.244Y62.205
X217.245Y62.156
Y61.923
X217.256Y61.862
X217.266Y61.785
X217.275Y61.707
X217.28Y61.63
X217.283Y61.552
Y61.513
Y50.68
Y50.64
X217.281Y50.601
X217.279Y50.561
X217.275Y50.522
X217.271Y50.483
X217.266Y50.444
X217.259Y50.405
X217.252Y50.366
X217.245Y50.333
X217.244Y50.29
X217.241Y50.247
X217.238Y50.204
X217.233Y50.162
X217.227Y50.119
X217.22Y50.076
X217.212Y50.034
X217.203Y49.992
X217.192Y49.95
X217.183Y49.916
X217.173Y49.881
X217.162Y49.847
X217.15Y49.813
X217.137Y49.78
X217.12Y49.738
X217.102Y49.698
X217.083Y49.657
X217.061Y49.614
