(Created with grbl post processor 2025/01/01 12:05)
G21
(G-code generated with BlenderCAM and NC library)
G17G90
(Tool: D = 3.18 mm  type END flutes 2)
S1000M03
G00 Z1.0

G0X0Y0Z1
X46.368Y54.038
G1Z-0.1F50
X46.428Y53.988F100
X46.498Y53.951
X46.573Y53.928
X46.651Y53.92
X46.73Y53.928
X46.805Y53.951
X46.874Y53.988
X46.935Y54.038
X46.985Y54.099
X47.022Y54.168
X47.045Y54.244
X47.053Y54.322
X47.045Y54.4
X47.022Y54.475
X46.985Y54.545
X46.935Y54.606
X46.874Y54.655
X46.805Y54.693
X46.73Y54.715
X46.651Y54.723
X46.573Y54.715
X46.498Y54.693
X46.428Y54.655
X46.368Y54.606
X46.318Y54.545
X46.281Y54.475
X46.258Y54.4
X46.25Y54.322
X46.258Y54.244
X46.281Y54.168
X46.318Y54.099
X46.368Y54.038
G0Z1
X41.875Y72.215
G1Z-0.1F50
X41.95Y72.238F100
X42.02Y72.275
X42.08Y72.325
X42.13Y72.386
X42.167Y72.455
X42.19Y72.53
X42.198Y72.609
X42.19Y72.687
X42.167Y72.762
X42.13Y72.832
X42.08Y72.892
X42.02Y72.942
X41.95Y72.979
X41.875Y73.002
X41.797Y73.01
X41.718Y73.002
X41.643Y72.979
X41.574Y72.942
X41.513Y72.892
X41.463Y72.832
X41.426Y72.762
X41.403Y72.687
X41.395Y72.609
X41.403Y72.53
X41.426Y72.455
X41.463Y72.386
X41.513Y72.325
X41.574Y72.275
X41.643Y72.238
X41.718Y72.215
X41.797Y72.207
X41.875Y72.215
G0Z1
X29.88Y109.607
G1Z-0.1F50
X29.95Y109.644F100
X30.011Y109.694
X30.06Y109.755
X30.098Y109.824
X30.12Y109.899
X30.128Y109.977
X30.12Y110.056
X30.098Y110.129
X30.06Y110.2
X30.011Y110.261
X29.95Y110.311
X29.88Y110.348
X29.805Y110.371
X29.727Y110.379
X29.649Y110.371
X29.573Y110.348
X29.504Y110.311
X29.443Y110.261
X29.393Y110.2
X29.358Y110.135
X29.333Y110.053
X29.326Y109.978
X29.333Y109.899
X29.356Y109.824
X29.393Y109.755
X29.443Y109.694
X29.504Y109.644
X29.573Y109.607
X29.649Y109.584
X29.727Y109.576
X29.805Y109.584
X29.88Y109.607
G0Z1
X70.996Y114.087
G1Z-0.1F50
X71.019Y114.012F100
X71.056Y113.942
X71.106Y113.881
X71.167Y113.831
X71.236Y113.795
X71.312Y113.772
X71.39Y113.764
X71.468Y113.772
X71.543Y113.794
X71.613Y113.831
X71.673Y113.881
X71.723Y113.942
X71.76Y114.012
X71.783Y114.087
X71.791Y114.165
X71.783Y114.243
X71.76Y114.319
X71.724Y114.387
X71.673Y114.449
X71.613Y114.499
X71.543Y114.536
X71.468Y114.559
X71.39Y114.566
X71.311Y114.559
X71.236Y114.536
X71.167Y114.499
X71.106Y114.449
X71.056Y114.388
X71.02Y114.32
X70.996Y114.242
X70.988Y114.165
X70.996Y114.087
G0Z1
X86.497Y66.682
G1Z-0.1F50
X84.477Y66.045F100
X85.914Y61.486
X87.934Y62.123
X86.497Y66.682
G0Z1
X90.255Y55.04
G1Z-0.1F50
X90.185Y55.003F100
X90.125Y54.953
X90.075Y54.892
X90.038Y54.823
X90.015Y54.747
X90.007Y54.669
X90.015Y54.591
X90.038Y54.515
X90.075Y54.446
X90.125Y54.385
X90.185Y54.335
X90.255Y54.298
X90.33Y54.275
X90.408Y54.268
X90.487Y54.275
X90.562Y54.298
X90.631Y54.335
X90.692Y54.385
X90.742Y54.446
X90.779Y54.515
X90.802Y54.591
X90.81Y54.669
X90.802Y54.747
X90.779Y54.822
X90.742Y54.892
X90.692Y54.953
X90.631Y55.003
X90.562Y55.04
X90.487Y55.062
X90.41Y55.07
X90.329Y55.062
X90.255Y55.04
G0Z1
X108.674Y39.468
G1Z-0.1F50
X108.646Y39.431F100
X108.636Y39.418
X108.612Y39.368
X108.604Y39.351
X108.591Y39.304
X108.584Y39.282
X108.577Y39.205
X108.584Y39.125
X108.602Y39.065
X108.606Y39.052
X108.63Y39.005
X108.64Y38.986
X108.651Y38.971
X108.676Y38.939
X108.693Y38.919
X108.713Y38.902
X108.745Y38.877
X108.76Y38.865
X108.779Y38.856
X108.826Y38.831
X108.864Y38.821
X108.899Y38.81
X108.978Y38.802
X109.055Y38.81
X109.079Y38.817
X109.126Y38.829
X109.143Y38.839
X109.192Y38.862
X109.206Y38.872
X109.243Y38.9
X109.263Y38.918
X109.287Y38.945
X109.301Y38.963
X109.325Y38.996
X109.344Y39.037
X109.358Y39.066
X109.377Y39.136
X109.383Y39.206
X109.377Y39.276
X109.359Y39.344
X109.328Y39.41
X109.307Y39.44
X109.288Y39.465
X109.262Y39.492
X109.24Y39.514
X109.184Y39.554
X109.118Y39.585
X109.05Y39.603
X108.98Y39.609
X108.91Y39.603
X108.84Y39.584
X108.812Y39.57
X108.77Y39.551
X108.738Y39.526
X108.719Y39.513
X108.693Y39.489
X108.674Y39.468
G0Z1
X105.996Y32.123
G1Z-0.1F50
X105.921Y32.145F100
X105.845Y32.153
X105.763Y32.145
X105.689Y32.123
X105.619Y32.086
X105.558Y32.036
X105.509Y31.975
X105.472Y31.906
X105.449Y31.83
X105.441Y31.752
X105.449Y31.674
X105.471Y31.598
X105.509Y31.529
X105.558Y31.468
X105.619Y31.418
X105.689Y31.381
X105.764Y31.358
X105.842Y31.351
X105.921Y31.358
X105.996Y31.381
X106.065Y31.418
X106.126Y31.468
X106.176Y31.529
X106.213Y31.598
X106.236Y31.674
X106.244Y31.752
X106.236Y31.83
X106.213Y31.904
X106.176Y31.975
X106.127Y32.034
X106.065Y32.086
X105.996Y32.123
G0Z1
X120.485Y36.653
G1Z-0.1F50
X121.577Y33.29F100
X121.595Y33.295
X119.946Y38.37
X119.928Y38.365
X120.485Y36.653
G0Z1
X143.914Y39.561
G1Z-0.1F50
X143.937Y39.486F100
X143.974Y39.417
X144.024Y39.356
X144.085Y39.306
X144.154Y39.269
X144.23Y39.246
X144.308Y39.238
X144.386Y39.246
X144.462Y39.269
X144.531Y39.306
X144.592Y39.356
X144.64Y39.415
X144.679Y39.486
X144.702Y39.561
X144.709Y39.636
X144.702Y39.718
X144.679Y39.793
X144.642Y39.863
X144.593Y39.922
X144.531Y39.973
X144.462Y40.01
X144.386Y40.033
X144.308Y40.041
X144.23Y40.033
X144.154Y40.01
X144.085Y39.973
X144.024Y39.923
X143.974Y39.863
X143.937Y39.793
X143.914Y39.718
X143.907Y39.64
X143.914Y39.561
G0Z1
X153.908Y39.64
G1Z-0.1F50
X153.916Y39.562F100
X153.939Y39.486
X153.976Y39.417
X154.026Y39.356
X154.087Y39.306
X154.156Y39.269
X154.231Y39.246
X154.309Y39.239
X154.388Y39.246
X154.463Y39.269
X154.532Y39.306
X154.593Y39.356
X154.643Y39.417
X154.68Y39.486
X154.703Y39.562
X154.711Y39.64
X154.703Y39.718
X154.68Y39.793
X154.643Y39.863
X154.592Y39.925
X154.576Y39.938
X154.546Y39.965
X154.517Y39.992
X154.488Y40.021
X154.46Y40.05
X154.451Y40.059
X154.429Y40.055
X154.389Y40.05
X154.333Y40.044
X154.231Y40.033
X154.156Y40.011
X154.087Y39.974
X154.026Y39.924
X153.976Y39.863
X153.939Y39.794
X153.916Y39.718
X153.908Y39.64
G0Z1
X194.071
G1Z-0.1F50
X194.079Y39.562F100
X194.102Y39.486
X194.139Y39.417
X194.189Y39.356
X194.249Y39.306
X194.319Y39.269
X194.394Y39.246
X194.472Y39.239
X194.551Y39.246
X194.626Y39.269
X194.695Y39.306
X194.756Y39.356
X194.806Y39.417
X194.843Y39.487
X194.866Y39.562
X194.874Y39.64
X194.867Y39.711
X194.842Y39.796
X194.806Y39.863
X194.756Y39.924
X194.695Y39.974
X194.648Y39.999
X194.614Y40.017
X194.58Y40.037
X194.547Y40.058
X194.534Y40.066
X194.519Y40.062
X194.481Y40.054
X194.444Y40.046
X194.421Y40.042
X194.319Y40.011
X194.249Y39.974
X194.189Y39.924
X194.139Y39.863
X194.102Y39.793
X194.079Y39.718
X194.071Y39.64
G0Z1
X194.127Y44.113
G1Z-0.1F50
X194.301Y44.133F100
X194.333Y44.136
X194.366Y44.139
X194.399Y44.141
X194.432Y44.142
X194.556Y44.146
X194.604Y44.147
X194.652Y44.146
X194.775Y44.142
X194.808Y44.141
X194.841Y44.139
X194.874Y44.136
X194.907Y44.133
X195.08Y44.113
X197.826
X197.865
X197.904Y44.111
X197.944Y44.109
X197.983Y44.106
X198.022Y44.101
X198.061Y44.096
X198.1Y44.09
X198.138Y44.082
X198.177Y44.074
X198.215Y44.065
X198.253Y44.055
X198.291Y44.044
X198.329Y44.032
X198.366Y44.019
X198.403Y44.005
X198.439Y43.99
X198.475Y43.975
X198.512Y43.958
X198.547Y43.94
X198.582Y43.922
X198.616Y43.903
X198.65Y43.883
X198.684Y43.862
X198.716Y43.841
X198.749Y43.818
X198.781Y43.795
X198.812Y43.771
X198.842Y43.746
X198.872Y43.721
X198.902Y43.694
X198.93Y43.667
X198.958Y43.64
X198.986Y43.611
X199.012Y43.582
X199.038Y43.553
X199.063Y43.522
X199.667Y42.775
X199.697Y42.737
X199.729Y42.693
X199.744Y42.671
X199.759Y42.648
X199.781Y42.614
X199.798Y42.585
X199.815Y42.555
X199.834Y42.52
X199.852Y42.486
X199.865Y42.457
X199.878Y42.429
X199.893Y42.396
X199.906Y42.363
X199.921Y42.322
X199.936Y42.281
X199.946Y42.248
X199.956Y42.214
X199.966Y42.179
X199.974Y42.145
X199.982Y42.11
X199.989Y42.075
X199.998Y42.026
X200.004Y41.981
X200.009Y41.937
X200.013Y41.892
X200.015Y41.855
X200.016Y41.817
X200.017Y41.78
X200.016Y28.071
X200.015Y28.025
X200.011Y27.972
X200.006Y27.925
X200Y27.877
X199.989Y27.812
X199.976Y27.749
X199.965Y27.702
X199.955Y27.666
X199.944Y27.631
X199.933Y27.596
X199.92Y27.559
X199.906Y27.523
X199.891Y27.487
X199.876Y27.451
X199.859Y27.416
X199.842Y27.381
X199.824Y27.346
X199.805Y27.312
X199.785Y27.279
X199.764Y27.246
X199.743Y27.213
X199.72Y27.181
X199.697Y27.15
X199.674Y27.119
X199.649Y27.089
X199.624Y27.059
X199.598Y27.03
X199.571Y27.002
X199.543Y26.974
X199.516Y26.947
X199.488Y26.922
X199.459Y26.897
X199.43Y26.872
X199.401Y26.849
X199.37Y26.826
X199.34Y26.804
X199.308Y26.782
X199.277Y26.762
X199.244Y26.742
X199.212Y26.723
X199.178Y26.704
X199.145Y26.687
X199.111Y26.67
X199.076Y26.654
X199.042Y26.639
X199.006Y26.625
X198.962Y26.608
X198.925Y26.595
X198.888Y26.584
X198.855Y26.574
X198.807Y26.561
X198.77Y26.553
X198.734Y26.545
X198.694Y26.538
X198.659Y26.532
X198.624Y26.527
X198.58Y26.522
X198.536Y26.519
X198.491Y26.516
X198.459Y26.515
X198.426
X88.19
X88.152
X88.113Y26.517
X88.075Y26.519
X88.036Y26.522
X87.998Y26.527
X87.96Y26.532
X87.922Y26.538
X87.884Y26.545
X87.846Y26.553
X87.809Y26.561
X87.771Y26.571
X87.734Y26.582
X87.698Y26.593
X87.661Y26.605
X87.625Y26.619
X87.589Y26.633
X87.554Y26.648
X87.518Y26.664
X87.484Y26.68
X87.449Y26.698
X87.416Y26.716
X87.382Y26.735
X87.349Y26.755
X87.317Y26.776
X87.285Y26.798
X87.253Y26.82
X87.223Y26.843
X87.192Y26.867
X87.162Y26.892
X87.132Y26.918
X87.104Y26.944
X87.076Y26.97
X87.049Y26.998
X87.022Y27.026
X86.996Y27.055
X86.971Y27.084
X86.946Y27.114
X86.923Y27.144
X86.9Y27.175
X86.877Y27.207
X86.856Y27.239
X86.835Y27.272
X86.815Y27.305
X86.796Y27.339
X86.778Y27.373
X86.761Y27.407
X86.744Y27.442
X86.728Y27.477
X86.714Y27.513
X86.7Y27.549
X86.687Y27.586
X86.674Y27.622
X86.663Y27.659
X86.653Y27.696
X86.643Y27.734
X86.635Y27.772
X86.627Y27.81
X86.617Y27.868
X86.61Y27.92
X86.607Y27.95
X86.603Y27.993
X86.602Y28.015
X80.028
X80.027Y27.998
X80.025Y27.963
X80.021Y27.929
X80.017Y27.895
X80.013Y27.865
X80.005Y27.818
X79.997Y27.779
X79.989Y27.74
X79.979Y27.702
X79.968Y27.664
X79.957Y27.626
X79.945Y27.588
X79.931Y27.551
X79.917Y27.514
X79.902Y27.478
X79.886Y27.441
X79.869Y27.406
X79.851Y27.37
X79.832Y27.335
X79.812Y27.301
X79.792Y27.267
X79.771Y27.234
X79.749Y27.201
X79.726Y27.169
X79.702Y27.137
X79.677Y27.106
X79.652Y27.075
X79.626Y27.046
X79.599Y27.016
X79.572Y26.988
X79.544Y26.96
X79.515Y26.933
X79.485Y26.907
X79.454Y26.88
X79.424Y26.856
X79.392Y26.832
X79.361Y26.809
X79.328Y26.786
X79.296Y26.765
X79.262Y26.744
X79.228Y26.724
X79.194Y26.705
X79.159Y26.687
X79.124Y26.669
X79.088Y26.653
X79.052Y26.637
X79.016Y26.623
X78.979Y26.609
X78.942Y26.596
X78.905Y26.584
X78.867Y26.573
X78.829Y26.563
X78.791Y26.554
X78.752Y26.546
X78.714Y26.539
X78.675Y26.532
X78.636Y26.527
X78.597Y26.523
X78.558Y26.519
X78.519Y26.517
X78.479Y26.515
X78.44
X19.048
X19.01
X18.972Y26.517
X18.933Y26.519
X18.895Y26.522
X18.856Y26.527
X18.818Y26.532
X18.78Y26.538
X18.742Y26.545
X18.705Y26.552
X18.667Y26.561
X18.63Y26.571
X18.593Y26.581
X18.556Y26.593
X18.52Y26.605
X18.483Y26.619
X18.447Y26.633
X18.412Y26.648
X18.377Y26.664
X18.342Y26.68
X18.308Y26.698
X18.274Y26.716
X18.241Y26.735
X18.208Y26.755
X18.175Y26.776
X18.143Y26.797
X18.112Y26.82
X18.081Y26.843
X18.051Y26.866
X18.021Y26.891
X17.992Y26.916
X17.646Y27.224
X17.315Y27.524
X17.286Y27.551
X17.257Y27.578
X17.23Y27.607
X17.203Y27.636
X17.177Y27.665
X17.152Y27.695
X17.127Y27.726
X17.103Y27.758
X17.08Y27.79
X17.058Y27.822
X17.036Y27.856
X17.016Y27.888
X16.997Y27.921
X16.979Y27.955
X16.961Y27.989
X16.945Y28.023
X16.929Y28.058
X16.914Y28.093
X16.899Y28.128
X16.886Y28.164
X16.874Y28.2
X16.862Y28.236
X16.851Y28.273
X16.841Y28.309
X16.832Y28.347
X16.824Y28.385
X16.817Y28.424
X16.81Y28.463
X16.805Y28.503
X16.8Y28.542
X16.797Y28.581
X16.794Y28.621
X16.793Y28.66
X16.792Y28.7
Y28.739
X16.794Y28.779
X16.796Y28.815
X16.799Y28.85
X16.803Y28.886
X16.807Y28.921
X16.812Y28.956
X16.876Y29.352
X16.881Y29.378
X16.891Y29.429
X16.976Y29.829
X16.989Y29.884
X17.003Y29.938
X17.121Y30.346
X17.132Y30.382
X17.143Y30.418
X17.156Y30.454
X17.17Y30.49
X17.342Y30.928
X17.358Y30.965
X17.375Y31.003
X17.392Y31.04
X17.41Y31.077
X17.641Y31.521
X17.661Y31.558
X17.681Y31.593
X17.703Y31.629
X17.725Y31.663
X17.976Y32.044
X17.997Y32.075
X18.018Y32.106
X18.041Y32.136
X18.064Y32.165
X18.311Y32.472
X18.331Y32.497
X18.352Y32.521
X18.373Y32.545
X18.395Y32.569
X18.62Y32.807
X18.647Y32.835
X18.674Y32.861
X18.702Y32.887
X18.73Y32.913
X19.142Y33.273
X19.167Y33.294
X19.192Y33.315
X19.218Y33.335
X19.244Y33.355
X19.271Y33.374
X19.298Y33.392
X19.748Y33.697
X19.776Y33.715
X19.803Y33.733
X19.832Y33.75
X19.86Y33.766
X19.889Y33.782
X19.919Y33.797
X20.406Y34.045
X20.435Y34.059
X20.465Y34.073
X20.495Y34.087
X20.525Y34.1
X20.556Y34.112
X20.587Y34.123
X21.101Y34.308
X21.131Y34.319
X21.162Y34.329
X21.194Y34.339
X21.225Y34.348
X21.257Y34.356
X21.289Y34.363
X21.822Y34.484
X21.87Y34.494
X21.918Y34.503
X23.648Y34.783
X24.468Y34.92
X25.251Y35.058
X25.987Y35.197
X26.678Y35.339
X27.329Y35.487
X27.944Y35.643
X28.751Y35.876
X29.521Y36.133
X30.264Y36.417
X30.989Y36.73
X31.612Y37.031
X32.221Y37.355
X32.812Y37.701
X33.382Y38.067
X33.93Y38.451
X34.452Y38.852
X34.948Y39.267
X35.415Y39.697
X35.855Y40.141
X36.268Y40.598
X36.652Y41.067
X37.008Y41.549
X37.336Y42.042
X37.636Y42.547
X37.909Y43.064
X38.155Y43.595
X38.375Y44.141
X38.569Y44.703
X38.737Y45.282
X38.88Y45.878
X38.997Y46.492
X39.087Y47.124
X39.15Y47.774
X39.186Y48.442
X39.195Y49.129
X39.176Y49.833
X39.13Y50.553
X39.056Y51.289
X38.956Y52.04
X38.829Y52.804
X38.676Y53.581
X38.497Y54.369
X20.197Y111.784
X20.186Y111.821
X20.175Y111.857
X20.121Y112.06
X20.112Y112.096
X20.104Y112.133
X20.096Y112.171
X20.089Y112.208
X20.055Y112.415
X20.049Y112.453
X20.044Y112.491
X20.04Y112.529
X20.037Y112.567
X20.023Y112.776
X20.02Y112.814
X20.019Y112.853
Y112.891
Y112.93
X20.025Y113.135
X20.026Y113.172
X20.029Y113.209
X20.032Y113.245
X20.036Y113.282
X20.059Y113.473
X20.063Y113.506
X20.068Y113.54
X20.074Y113.574
X20.081Y113.607
X20.117Y113.781
X20.124Y113.813
X20.132Y113.844
X20.143Y113.887
X20.155Y113.929
X20.26Y114.249
X20.272Y114.283
X20.284Y114.316
X20.297Y114.35
X20.311Y114.383
X20.325Y114.416
X20.341Y114.449
X20.469Y114.713
X20.484Y114.743
X20.5Y114.774
X20.517Y114.804
X20.535Y114.834
X20.553Y114.864
X20.571Y114.893
X20.732Y115.137
X20.75Y115.164
X20.769Y115.191
X20.789Y115.218
X20.809Y115.244
X20.829Y115.269
X20.85Y115.294
X21.043Y115.52
X21.074Y115.556
X21.107Y115.591
X21.14Y115.625
X21.175Y115.658
X21.422Y115.885
X21.447Y115.908
X21.473Y115.931
X21.5Y115.952
X21.526Y115.974
X21.553Y115.994
X21.581Y116.014
X21.765Y116.144
X21.906Y116.244
X21.939Y116.266
X21.972Y116.288
X22.006Y116.309
X22.041Y116.329
X22.233Y116.437
X22.282Y116.464
X22.332Y116.489
X22.545Y116.59
X22.594Y116.612
X22.643Y116.632
X22.874Y116.724
X22.918Y116.741
X22.963Y116.756
X23.215Y116.839
X23.254Y116.851
X23.293Y116.862
X23.567Y116.937
X23.601Y116.945
X23.634Y116.953
X23.935Y117.021
X23.964Y117.027
X23.992Y117.033
X24.35Y117.1
X24.765Y117.166
X25.223Y117.228
X25.47Y117.259
X25.743Y117.29
X26.046Y117.324
X26.382Y117.359
X26.756Y117.397
X27.169Y117.437
X27.624Y117.481
X28.129Y117.528
X28.683Y117.579
X69.039Y121.252
X69.648Y121.299
X70.216Y121.328
X70.251Y121.329
X70.286Y121.33
X70.803Y121.334
X70.854Y121.333
X70.905Y121.331
X71.419Y121.302
X71.45Y121.3
X71.482Y121.297
X71.514Y121.294
X71.546Y121.29
X71.996Y121.227
X72.033Y121.222
X72.069Y121.216
X72.105Y121.209
X72.14Y121.201
X72.572Y121.1
X72.61Y121.091
X72.648Y121.08
X72.686Y121.069
X72.723Y121.057
X73.106Y120.927
X73.143Y120.914
X73.179Y120.9
X73.216Y120.885
X73.251Y120.869
X73.584Y120.718
X73.619Y120.701
X73.654Y120.684
X73.688Y120.666
X73.721Y120.647
X74.006Y120.483
X74.038Y120.464
X74.07Y120.444
X74.101Y120.423
X74.132Y120.402
X74.371Y120.232
X74.4Y120.211
X74.428Y120.19
X74.455Y120.168
X74.482Y120.145
X74.68Y119.976
X74.704Y119.955
X74.728Y119.933
X74.751Y119.911
X74.774Y119.889
X74.933Y119.729
X74.973Y119.688
X75.01Y119.645
X75.134Y119.502
X75.165Y119.465
X75.194Y119.428
X75.287Y119.306
X75.306Y119.281
X75.324Y119.256
X75.342Y119.23
X75.359Y119.204
X75.515Y118.962
X75.537Y118.927
X75.559Y118.89
X75.579Y118.854
X75.598Y118.817
X75.728Y118.56
X75.747Y118.522
X75.765Y118.482
X75.782Y118.443
X75.797Y118.403
X75.899Y118.133
X75.914Y118.092
X75.927Y118.051
X95.931Y54.613
X96.097Y54.102
X96.13Y54.003
X96.366Y53.34
X96.637Y52.68
X96.966Y52
X97.144Y51.676
X97.347Y51.34
X97.571Y51.001
X97.817Y50.66
X98.086Y50.319
X98.369Y49.992
X98.666Y49.68
X98.975Y49.382
X99.297Y49.099
X99.632Y48.83
X99.979Y48.575
X100.34Y48.334
X100.714Y48.107
X101.088Y47.9
X101.91Y47.509
X102.756Y47.179
X103.634Y46.902
X104.535Y46.675
X105.456Y46.495
X105.676Y46.46
X105.942Y46.422
X106.256Y46.381
X106.633Y46.336
X107.082Y46.284
X107.48Y46.239
X107.935Y46.189
X109.695Y45.997
X127.064Y44.113
X154.128
X154.301Y44.133
X154.333Y44.136
X154.366Y44.139
X154.399Y44.141
X154.432Y44.142
X154.556Y44.146
X154.585Y44.147
X154.633
X154.775Y44.142
X154.808Y44.141
X154.841Y44.139
X154.874Y44.136
X154.907Y44.133
X155.08Y44.113
X194.127
G0Z1
X46.368Y54.038
G1Z-0.2F50
X46.428Y53.988F100
X46.498Y53.951
X46.573Y53.928
X46.651Y53.92
X46.73Y53.928
X46.805Y53.951
X46.874Y53.988
X46.935Y54.038
X46.985Y54.099
X47.022Y54.168
X47.045Y54.244
X47.053Y54.322
X47.045Y54.4
X47.022Y54.475
X46.985Y54.545
X46.935Y54.606
X46.874Y54.655
X46.805Y54.693
X46.73Y54.715
X46.651Y54.723
X46.573Y54.715
X46.498Y54.693
X46.428Y54.655
X46.368Y54.606
X46.318Y54.545
X46.281Y54.475
X46.258Y54.4
X46.25Y54.322
X46.258Y54.244
X46.281Y54.168
X46.318Y54.099
X46.368Y54.038
G0Z1
X41.875Y72.215
G1Z-0.2F50
X41.95Y72.238F100
X42.02Y72.275
X42.08Y72.325
X42.13Y72.386
X42.167Y72.455
X42.19Y72.53
X42.198Y72.609
X42.19Y72.687
X42.167Y72.762
X42.13Y72.832
X42.08Y72.892
X42.02Y72.942
X41.95Y72.979
X41.875Y73.002
X41.797Y73.01
X41.718Y73.002
X41.643Y72.979
X41.574Y72.942
X41.513Y72.892
X41.463Y72.832
X41.426Y72.762
X41.403Y72.687
X41.395Y72.609
X41.403Y72.53
X41.426Y72.455
X41.463Y72.386
X41.513Y72.325
X41.574Y72.275
X41.643Y72.238
X41.718Y72.215
X41.797Y72.207
X41.875Y72.215
G0Z1
X29.88Y109.607
G1Z-0.2F50
X29.95Y109.644F100
X30.011Y109.694
X30.06Y109.755
X30.098Y109.824
X30.12Y109.899
X30.128Y109.977
X30.12Y110.056
X30.098Y110.129
X30.06Y110.2
X30.011Y110.261
X29.95Y110.311
X29.88Y110.348
X29.805Y110.371
X29.727Y110.379
X29.649Y110.371
X29.573Y110.348
X29.504Y110.311
X29.443Y110.261
X29.393Y110.2
X29.358Y110.135
X29.333Y110.053
X29.326Y109.978
X29.333Y109.899
X29.356Y109.824
X29.393Y109.755
X29.443Y109.694
X29.504Y109.644
X29.573Y109.607
X29.649Y109.584
X29.727Y109.576
X29.805Y109.584
X29.88Y109.607
G0Z1
X70.996Y114.087
G1Z-0.2F50
X71.019Y114.012F100
X71.056Y113.942
X71.106Y113.881
X71.167Y113.831
X71.236Y113.795
X71.312Y113.772
X71.39Y113.764
X71.468Y113.772
X71.543Y113.794
X71.613Y113.831
X71.673Y113.881
X71.723Y113.942
X71.76Y114.012
X71.783Y114.087
X71.791Y114.165
X71.783Y114.243
X71.76Y114.319
X71.724Y114.387
X71.673Y114.449
X71.613Y114.499
X71.543Y114.536
X71.468Y114.559
X71.39Y114.566
X71.311Y114.559
X71.236Y114.536
X71.167Y114.499
X71.106Y114.449
X71.056Y114.388
X71.02Y114.32
X70.996Y114.242
X70.988Y114.165
X70.996Y114.087
G0Z1
X86.497Y66.682
G1Z-0.2F50
X84.477Y66.045F100
X85.914Y61.486
X87.934Y62.123
X86.497Y66.682
G0Z1
X90.255Y55.04
G1Z-0.2F50
X90.185Y55.003F100
X90.125Y54.953
X90.075Y54.892
X90.038Y54.823
X90.015Y54.747
X90.007Y54.669
X90.015Y54.591
X90.038Y54.515
X90.075Y54.446
X90.125Y54.385
X90.185Y54.335
X90.255Y54.298
X90.33Y54.275
X90.408Y54.268
X90.487Y54.275
X90.562Y54.298
X90.631Y54.335
X90.692Y54.385
X90.742Y54.446
X90.779Y54.515
X90.802Y54.591
X90.81Y54.669
X90.802Y54.747
X90.779Y54.822
X90.742Y54.892
X90.692Y54.953
X90.631Y55.003
X90.562Y55.04
X90.487Y55.062
X90.41Y55.07
X90.329Y55.062
X90.255Y55.04
G0Z1
X108.674Y39.468
G1Z-0.2F50
X108.646Y39.431F100
X108.636Y39.418
X108.612Y39.368
X108.604Y39.351
X108.591Y39.304
X108.584Y39.282
X108.577Y39.205
X108.584Y39.125
X108.602Y39.065
X108.606Y39.052
X108.63Y39.005
X108.64Y38.986
X108.651Y38.971
X108.676Y38.939
X108.693Y38.919
X108.713Y38.902
X108.745Y38.877
X108.76Y38.865
X108.779Y38.856
X108.826Y38.831
X108.864Y38.821
X108.899Y38.81
X108.978Y38.802
X109.055Y38.81
X109.079Y38.817
X109.126Y38.829
X109.143Y38.839
X109.192Y38.862
X109.206Y38.872
X109.243Y38.9
X109.263Y38.918
X109.287Y38.945
X109.301Y38.963
X109.325Y38.996
X109.344Y39.037
X109.358Y39.066
X109.377Y39.136
X109.383Y39.206
X109.377Y39.276
X109.359Y39.344
X109.328Y39.41
X109.307Y39.44
X109.288Y39.465
X109.262Y39.492
X109.24Y39.514
X109.184Y39.554
X109.118Y39.585
X109.05Y39.603
X108.98Y39.609
X108.91Y39.603
X108.84Y39.584
X108.812Y39.57
X108.77Y39.551
X108.738Y39.526
X108.719Y39.513
X108.693Y39.489
X108.674Y39.468
G0Z1
X105.996Y32.123
G1Z-0.2F50
X105.921Y32.145F100
X105.845Y32.153
X105.763Y32.145
X105.689Y32.123
X105.619Y32.086
X105.558Y32.036
X105.509Y31.975
X105.472Y31.906
X105.449Y31.83
X105.441Y31.752
X105.449Y31.674
X105.471Y31.598
X105.509Y31.529
X105.558Y31.468
X105.619Y31.418
X105.689Y31.381
X105.764Y31.358
X105.842Y31.351
X105.921Y31.358
X105.996Y31.381
X106.065Y31.418
X106.126Y31.468
X106.176Y31.529
X106.213Y31.598
X106.236Y31.674
X106.244Y31.752
X106.236Y31.83
X106.213Y31.904
X106.176Y31.975
X106.127Y32.034
X106.065Y32.086
X105.996Y32.123
G0Z1
X120.485Y36.653
G1Z-0.2F50
X121.577Y33.29F100
X121.595Y33.295
X119.946Y38.37
X119.928Y38.365
X120.485Y36.653
G0Z1
X143.914Y39.561
G1Z-0.2F50
X143.937Y39.486F100
X143.974Y39.417
X144.024Y39.356
X144.085Y39.306
X144.154Y39.269
X144.23Y39.246
X144.308Y39.238
X144.386Y39.246
X144.462Y39.269
X144.531Y39.306
X144.592Y39.356
X144.64Y39.415
X144.679Y39.486
X144.702Y39.561
X144.709Y39.636
X144.702Y39.718
X144.679Y39.793
X144.642Y39.863
X144.593Y39.922
X144.531Y39.973
X144.462Y40.01
X144.386Y40.033
X144.308Y40.041
X144.23Y40.033
X144.154Y40.01
X144.085Y39.973
X144.024Y39.923
X143.974Y39.863
X143.937Y39.793
X143.914Y39.718
X143.907Y39.64
X143.914Y39.561
G0Z1
X153.908Y39.64
G1Z-0.2F50
X153.916Y39.562F100
X153.939Y39.486
X153.976Y39.417
X154.026Y39.356
X154.087Y39.306
X154.156Y39.269
X154.231Y39.246
X154.309Y39.239
X154.388Y39.246
X154.463Y39.269
X154.532Y39.306
X154.593Y39.356
X154.643Y39.417
X154.68Y39.486
X154.703Y39.562
X154.711Y39.64
X154.703Y39.718
X154.68Y39.793
X154.643Y39.863
X154.592Y39.925
X154.576Y39.938
X154.546Y39.965
X154.517Y39.992
X154.488Y40.021
X154.46Y40.05
X154.451Y40.059
X154.429Y40.055
X154.389Y40.05
X154.333Y40.044
X154.231Y40.033
X154.156Y40.011
X154.087Y39.974
X154.026Y39.924
X153.976Y39.863
X153.939Y39.794
X153.916Y39.718
X153.908Y39.64
G0Z1
X194.071
G1Z-0.2F50
X194.079Y39.562F100
X194.102Y39.486
X194.139Y39.417
X194.189Y39.356
X194.249Y39.306
X194.319Y39.269
X194.394Y39.246
X194.472Y39.239
X194.551Y39.246
X194.626Y39.269
X194.695Y39.306
X194.756Y39.356
X194.806Y39.417
X194.843Y39.487
X194.866Y39.562
X194.874Y39.64
X194.867Y39.711
X194.842Y39.796
X194.806Y39.863
X194.756Y39.924
X194.695Y39.974
X194.648Y39.999
X194.614Y40.017
X194.58Y40.037
X194.547Y40.058
X194.534Y40.066
X194.519Y40.062
X194.481Y40.054
X194.444Y40.046
X194.421Y40.042
X194.319Y40.011
X194.249Y39.974
X194.189Y39.924
X194.139Y39.863
X194.102Y39.793
X194.079Y39.718
X194.071Y39.64
G0Z1
X194.127Y44.113
G1Z-0.2F50
X194.301Y44.133F100
X194.333Y44.136
X194.366Y44.139
X194.399Y44.141
X194.432Y44.142
X194.556Y44.146
X194.604Y44.147
X194.652Y44.146
X194.775Y44.142
X194.808Y44.141
X194.841Y44.139
X194.874Y44.136
X194.907Y44.133
X195.08Y44.113
X197.826
X197.865
X197.904Y44.111
X197.944Y44.109
X197.983Y44.106
X198.022Y44.101
X198.061Y44.096
X198.1Y44.09
X198.138Y44.082
X198.177Y44.074
X198.215Y44.065
X198.253Y44.055
X198.291Y44.044
X198.329Y44.032
X198.366Y44.019
X198.403Y44.005
X198.439Y43.99
X198.475Y43.975
X198.512Y43.958
X198.547Y43.94
X198.582Y43.922
X198.616Y43.903
X198.65Y43.883
X198.684Y43.862
X198.716Y43.841
X198.749Y43.818
X198.781Y43.795
X198.812Y43.771
X198.842Y43.746
X198.872Y43.721
X198.902Y43.694
X198.93Y43.667
X198.958Y43.64
X198.986Y43.611
X199.012Y43.582
X199.038Y43.553
X199.063Y43.522
X199.667Y42.775
X199.697Y42.737
X199.729Y42.693
X199.744Y42.671
X199.759Y42.648
X199.781Y42.614
X199.798Y42.585
X199.815Y42.555
X199.834Y42.52
X199.852Y42.486
X199.865Y42.457
X199.878Y42.429
X199.893Y42.396
X199.906Y42.363
X199.921Y42.322
X199.936Y42.281
X199.946Y42.248
X199.956Y42.214
X199.966Y42.179
X199.974Y42.145
X199.982Y42.11
X199.989Y42.075
X199.998Y42.026
X200.004Y41.981
X200.009Y41.937
X200.013Y41.892
X200.015Y41.855
X200.016Y41.817
X200.017Y41.78
X200.016Y28.071
X200.015Y28.025
X200.011Y27.972
X200.006Y27.925
X200Y27.877
X199.989Y27.812
X199.976Y27.749
X199.965Y27.702
X199.955Y27.666
X199.944Y27.631
X199.933Y27.596
X199.92Y27.559
X199.906Y27.523
X199.891Y27.487
X199.876Y27.451
X199.859Y27.416
X199.842Y27.381
X199.824Y27.346
X199.805Y27.312
X199.785Y27.279
X199.764Y27.246
X199.743Y27.213
X199.72Y27.181
X199.697Y27.15
X199.674Y27.119
X199.649Y27.089
X199.624Y27.059
X199.598Y27.03
X199.571Y27.002
X199.543Y26.974
X199.516Y26.947
X199.488Y26.922
X199.459Y26.897
X199.43Y26.872
X199.401Y26.849
X199.37Y26.826
X199.34Y26.804
X199.308Y26.782
X199.277Y26.762
X199.244Y26.742
X199.212Y26.723
X199.178Y26.704
X199.145Y26.687
X199.111Y26.67
X199.076Y26.654
X199.042Y26.639
X199.006Y26.625
X198.962Y26.608
X198.925Y26.595
X198.888Y26.584
X198.855Y26.574
X198.807Y26.561
X198.77Y26.553
X198.734Y26.545
X198.694Y26.538
X198.659Y26.532
X198.624Y26.527
X198.58Y26.522
X198.536Y26.519
X198.491Y26.516
X198.459Y26.515
X198.426
X88.19
X88.152
X88.113Y26.517
X88.075Y26.519
X88.036Y26.522
X87.998Y26.527
X87.96Y26.532
X87.922Y26.538
X87.884Y26.545
X87.846Y26.553
X87.809Y26.561
X87.771Y26.571
X87.734Y26.582
X87.698Y26.593
X87.661Y26.605
X87.625Y26.619
X87.589Y26.633
X87.554Y26.648
X87.518Y26.664
X87.484Y26.68
X87.449Y26.698
X87.416Y26.716
X87.382Y26.735
X87.349Y26.755
X87.317Y26.776
X87.285Y26.798
X87.253Y26.82
X87.223Y26.843
X87.192Y26.867
X87.162Y26.892
X87.132Y26.918
X87.104Y26.944
X87.076Y26.97
X87.049Y26.998
X87.022Y27.026
X86.996Y27.055
X86.971Y27.084
X86.946Y27.114
X86.923Y27.144
X86.9Y27.175
X86.877Y27.207
X86.856Y27.239
X86.835Y27.272
X86.815Y27.305
X86.796Y27.339
X86.778Y27.373
X86.761Y27.407
X86.744Y27.442
X86.728Y27.477
X86.714Y27.513
X86.7Y27.549
X86.687Y27.586
X86.674Y27.622
X86.663Y27.659
X86.653Y27.696
X86.643Y27.734
X86.635Y27.772
X86.627Y27.81
X86.617Y27.868
X86.61Y27.92
X86.607Y27.95
X86.603Y27.993
X86.602Y28.015
X80.028
X80.027Y27.998
X80.025Y27.963
X80.021Y27.929
X80.017Y27.895
X80.013Y27.865
X80.005Y27.818
X79.997Y27.779
X79.989Y27.74
X79.979Y27.702
X79.968Y27.664
X79.957Y27.626
X79.945Y27.588
X79.931Y27.551
X79.917Y27.514
X79.902Y27.478
X79.886Y27.441
X79.869Y27.406
X79.851Y27.37
X79.832Y27.335
X79.812Y27.301
X79.792Y27.267
X79.771Y27.234
X79.749Y27.201
X79.726Y27.169
X79.702Y27.137
X79.677Y27.106
X79.652Y27.075
X79.626Y27.046
X79.599Y27.016
X79.572Y26.988
X79.544Y26.96
X79.515Y26.933
X79.485Y26.907
X79.454Y26.88
X79.424Y26.856
X79.392Y26.832
X79.361Y26.809
X79.328Y26.786
X79.296Y26.765
X79.262Y26.744
X79.228Y26.724
X79.194Y26.705
X79.159Y26.687
X79.124Y26.669
X79.088Y26.653
X79.052Y26.637
X79.016Y26.623
X78.979Y26.609
X78.942Y26.596
X78.905Y26.584
X78.867Y26.573
X78.829Y26.563
X78.791Y26.554
X78.752Y26.546
X78.714Y26.539
X78.675Y26.532
X78.636Y26.527
X78.597Y26.523
X78.558Y26.519
X78.519Y26.517
X78.479Y26.515
X78.44
X19.048
X19.01
X18.972Y26.517
X18.933Y26.519
X18.895Y26.522
X18.856Y26.527
X18.818Y26.532
X18.78Y26.538
X18.742Y26.545
X18.705Y26.552
X18.667Y26.561
X18.63Y26.571
X18.593Y26.581
X18.556Y26.593
X18.52Y26.605
X18.483Y26.619
X18.447Y26.633
X18.412Y26.648
X18.377Y26.664
X18.342Y26.68
X18.308Y26.698
X18.274Y26.716
X18.241Y26.735
X18.208Y26.755
X18.175Y26.776
X18.143Y26.797
X18.112Y26.82
X18.081Y26.843
X18.051Y26.866
X18.021Y26.891
X17.992Y26.916
X17.646Y27.224
X17.315Y27.524
X17.286Y27.551
X17.257Y27.578
X17.23Y27.607
X17.203Y27.636
X17.177Y27.665
X17.152Y27.695
X17.127Y27.726
X17.103Y27.758
X17.08Y27.79
X17.058Y27.822
X17.036Y27.856
X17.016Y27.888
X16.997Y27.921
X16.979Y27.955
X16.961Y27.989
X16.945Y28.023
X16.929Y28.058
X16.914Y28.093
X16.899Y28.128
X16.886Y28.164
X16.874Y28.2
X16.862Y28.236
X16.851Y28.273
X16.841Y28.309
X16.832Y28.347
X16.824Y28.385
X16.817Y28.424
X16.81Y28.463
X16.805Y28.503
X16.8Y28.542
X16.797Y28.581
X16.794Y28.621
X16.793Y28.66
X16.792Y28.7
Y28.739
X16.794Y28.779
X16.796Y28.815
X16.799Y28.85
X16.803Y28.886
X16.807Y28.921
X16.812Y28.956
X16.876Y29.352
X16.881Y29.378
X16.891Y29.429
X16.976Y29.829
X16.989Y29.884
X17.003Y29.938
X17.121Y30.346
X17.132Y30.382
X17.143Y30.418
X17.156Y30.454
X17.17Y30.49
X17.342Y30.928
X17.358Y30.965
X17.375Y31.003
X17.392Y31.04
X17.41Y31.077
X17.641Y31.521
X17.661Y31.558
X17.681Y31.593
X17.703Y31.629
X17.725Y31.663
X17.976Y32.044
X17.997Y32.075
X18.018Y32.106
X18.041Y32.136
X18.064Y32.165
X18.311Y32.472
X18.331Y32.497
X18.352Y32.521
X18.373Y32.545
X18.395Y32.569
X18.62Y32.807
X18.647Y32.835
X18.674Y32.861
X18.702Y32.887
X18.73Y32.913
X19.142Y33.273
X19.167Y33.294
X19.192Y33.315
X19.218Y33.335
X19.244Y33.355
X19.271Y33.374
X19.298Y33.392
X19.748Y33.697
X19.776Y33.715
X19.803Y33.733
X19.832Y33.75
X19.86Y33.766
X19.889Y33.782
X19.919Y33.797
X20.406Y34.045
X20.435Y34.059
X20.465Y34.073
X20.495Y34.087
X20.525Y34.1
X20.556Y34.112
X20.587Y34.123
X21.101Y34.308
X21.131Y34.319
X21.162Y34.329
X21.194Y34.339
X21.225Y34.348
X21.257Y34.356
X21.289Y34.363
X21.822Y34.484
X21.87Y34.494
X21.918Y34.503
X23.648Y34.783
X24.468Y34.92
X25.251Y35.058
X25.987Y35.197
X26.678Y35.339
X27.329Y35.487
X27.944Y35.643
X28.751Y35.876
X29.521Y36.133
X30.264Y36.417
X30.989Y36.73
X31.612Y37.031
X32.221Y37.355
X32.812Y37.701
X33.382Y38.067
X33.93Y38.451
X34.452Y38.852
X34.948Y39.267
X35.415Y39.697
X35.855Y40.141
X36.268Y40.598
X36.652Y41.067
X37.008Y41.549
X37.336Y42.042
X37.636Y42.547
X37.909Y43.064
X38.155Y43.595
X38.375Y44.141
X38.569Y44.703
X38.737Y45.282
X38.88Y45.878
X38.997Y46.492
X39.087Y47.124
X39.15Y47.774
X39.186Y48.442
X39.195Y49.129
X39.176Y49.833
X39.13Y50.553
X39.056Y51.289
X38.956Y52.04
X38.829Y52.804
X38.676Y53.581
X38.497Y54.369
X20.197Y111.784
X20.186Y111.821
X20.175Y111.857
X20.121Y112.06
X20.112Y112.096
X20.104Y112.133
X20.096Y112.171
X20.089Y112.208
X20.055Y112.415
X20.049Y112.453
X20.044Y112.491
X20.04Y112.529
X20.037Y112.567
X20.023Y112.776
X20.02Y112.814
X20.019Y112.853
Y112.891
Y112.93
X20.025Y113.135
X20.026Y113.172
X20.029Y113.209
X20.032Y113.245
X20.036Y113.282
X20.059Y113.473
X20.063Y113.506
X20.068Y113.54
X20.074Y113.574
X20.081Y113.607
X20.117Y113.781
X20.124Y113.813
X20.132Y113.844
X20.143Y113.887
X20.155Y113.929
X20.26Y114.249
X20.272Y114.283
X20.284Y114.316
X20.297Y114.35
X20.311Y114.383
X20.325Y114.416
X20.341Y114.449
X20.469Y114.713
X20.484Y114.743
X20.5Y114.774
X20.517Y114.804
X20.535Y114.834
X20.553Y114.864
X20.571Y114.893
X20.732Y115.137
X20.75Y115.164
X20.769Y115.191
X20.789Y115.218
X20.809Y115.244
X20.829Y115.269
X20.85Y115.294
X21.043Y115.52
X21.074Y115.556
X21.107Y115.591
X21.14Y115.625
X21.175Y115.658
X21.422Y115.885
X21.447Y115.908
X21.473Y115.931
X21.5Y115.952
X21.526Y115.974
X21.553Y115.994
X21.581Y116.014
X21.765Y116.144
X21.906Y116.244
X21.939Y116.266
X21.972Y116.288
X22.006Y116.309
X22.041Y116.329
X22.233Y116.437
X22.282Y116.464
X22.332Y116.489
X22.545Y116.59
X22.594Y116.612
X22.643Y116.632
X22.874Y116.724
X22.918Y116.741
X22.963Y116.756
X23.215Y116.839
X23.254Y116.851
X23.293Y116.862
X23.567Y116.937
X23.601Y116.945
X23.634Y116.953
X23.935Y117.021
X23.964Y117.027
X23.992Y117.033
X24.35Y117.1
X24.765Y117.166
X25.223Y117.228
X25.47Y117.259
X25.743Y117.29
X26.046Y117.324
X26.382Y117.359
X26.756Y117.397
X27.169Y117.437
X27.624Y117.481
X28.129Y117.528
X28.683Y117.579
X69.039Y121.252
X69.648Y121.299
X70.216Y121.328
X70.251Y121.329
X70.286Y121.33
X70.803Y121.334
X70.854Y121.333
X70.905Y121.331
X71.419Y121.302
X71.45Y121.3
X71.482Y121.297
X71.514Y121.294
X71.546Y121.29
X71.996Y121.227
X72.033Y121.222
X72.069Y121.216
X72.105Y121.209
X72.14Y121.201
X72.572Y121.1
X72.61Y121.091
X72.648Y121.08
X72.686Y121.069
X72.723Y121.057
X73.106Y120.927
X73.143Y120.914
X73.179Y120.9
X73.216Y120.885
X73.251Y120.869
X73.584Y120.718
X73.619Y120.701
X73.654Y120.684
X73.688Y120.666
X73.721Y120.647
X74.006Y120.483
X74.038Y120.464
X74.07Y120.444
X74.101Y120.423
X74.132Y120.402
X74.371Y120.232
X74.4Y120.211
X74.428Y120.19
X74.455Y120.168
X74.482Y120.145
X74.68Y119.976
X74.704Y119.955
X74.728Y119.933
X74.751Y119.911
X74.774Y119.889
X74.933Y119.729
X74.973Y119.688
X75.01Y119.645
X75.134Y119.502
X75.165Y119.465
X75.194Y119.428
X75.287Y119.306
X75.306Y119.281
X75.324Y119.256
X75.342Y119.23
X75.359Y119.204
X75.515Y118.962
X75.537Y118.927
X75.559Y118.89
X75.579Y118.854
X75.598Y118.817
X75.728Y118.56
X75.747Y118.522
X75.765Y118.482
X75.782Y118.443
X75.797Y118.403
X75.899Y118.133
X75.914Y118.092
X75.927Y118.051
X95.931Y54.613
X96.097Y54.102
X96.13Y54.003
X96.366Y53.34
X96.637Y52.68
X96.966Y52
X97.144Y51.676
X97.347Y51.34
X97.571Y51.001
X97.817Y50.66
X98.086Y50.319
X98.369Y49.992
X98.666Y49.68
X98.975Y49.382
X99.297Y49.099
X99.632Y48.83
X99.979Y48.575
X100.34Y48.334
X100.714Y48.107
X101.088Y47.9
X101.91Y47.509
X102.756Y47.179
X103.634Y46.902
X104.535Y46.675
X105.456Y46.495
X105.676Y46.46
X105.942Y46.422
X106.256Y46.381
X106.633Y46.336
X107.082Y46.284
X107.48Y46.239
X107.935Y46.189
X109.695Y45.997
X127.064Y44.113
X154.128
X154.301Y44.133
X154.333Y44.136
X154.366Y44.139
X154.399Y44.141
X154.432Y44.142
X154.556Y44.146
X154.585Y44.147
X154.633
X154.775Y44.142
X154.808Y44.141
X154.841Y44.139
X154.874Y44.136
X154.907Y44.133
X155.08Y44.113
X194.127
G0Z1
X46.368Y54.038
G1Z-0.3F50
X46.428Y53.988F100
X46.498Y53.951
X46.573Y53.928
X46.651Y53.92
X46.73Y53.928
X46.805Y53.951
X46.874Y53.988
X46.935Y54.038
X46.985Y54.099
X47.022Y54.168
X47.045Y54.244
X47.053Y54.322
X47.045Y54.4
X47.022Y54.475
X46.985Y54.545
X46.935Y54.606
X46.874Y54.655
X46.805Y54.693
X46.73Y54.715
X46.651Y54.723
X46.573Y54.715
X46.498Y54.693
X46.428Y54.655
X46.368Y54.606
X46.318Y54.545
X46.281Y54.475
X46.258Y54.4
X46.25Y54.322
X46.258Y54.244
X46.281Y54.168
X46.318Y54.099
X46.368Y54.038
G0Z1
X41.875Y72.215
G1Z-0.3F50
X41.95Y72.238F100
X42.02Y72.275
X42.08Y72.325
X42.13Y72.386
X42.167Y72.455
X42.19Y72.53
X42.198Y72.609
X42.19Y72.687
X42.167Y72.762
X42.13Y72.832
X42.08Y72.892
X42.02Y72.942
X41.95Y72.979
X41.875Y73.002
X41.797Y73.01
X41.718Y73.002
X41.643Y72.979
X41.574Y72.942
X41.513Y72.892
X41.463Y72.832
X41.426Y72.762
X41.403Y72.687
X41.395Y72.609
X41.403Y72.53
X41.426Y72.455
X41.463Y72.386
X41.513Y72.325
X41.574Y72.275
X41.643Y72.238
X41.718Y72.215
X41.797Y72.207
X41.875Y72.215
G0Z1
X29.88Y109.607
G1Z-0.3F50
X29.95Y109.644F100
X30.011Y109.694
X30.06Y109.755
X30.098Y109.824
X30.12Y109.899
X30.128Y109.977
X30.12Y110.056
X30.098Y110.129
X30.06Y110.2
X30.011Y110.261
X29.95Y110.311
X29.88Y110.348
X29.805Y110.371
X29.727Y110.379
X29.649Y110.371
X29.573Y110.348
X29.504Y110.311
X29.443Y110.261
X29.393Y110.2
X29.358Y110.135
X29.333Y110.053
X29.326Y109.978
X29.333Y109.899
X29.356Y109.824
X29.393Y109.755
X29.443Y109.694
X29.504Y109.644
X29.573Y109.607
X29.649Y109.584
X29.727Y109.576
X29.805Y109.584
X29.88Y109.607
G0Z1
X70.996Y114.087
G1Z-0.3F50
X71.019Y114.012F100
X71.056Y113.942
X71.106Y113.881
X71.167Y113.831
X71.236Y113.795
X71.312Y113.772
X71.39Y113.764
X71.468Y113.772
X71.543Y113.794
X71.613Y113.831
X71.673Y113.881
X71.723Y113.942
X71.76Y114.012
X71.783Y114.087
X71.791Y114.165
X71.783Y114.243
X71.76Y114.319
X71.724Y114.387
X71.673Y114.449
X71.613Y114.499
X71.543Y114.536
X71.468Y114.559
X71.39Y114.566
X71.311Y114.559
X71.236Y114.536
X71.167Y114.499
X71.106Y114.449
X71.056Y114.388
X71.02Y114.32
X70.996Y114.242
X70.988Y114.165
X70.996Y114.087
G0Z1
X86.497Y66.682
G1Z-0.3F50
X84.477Y66.045F100
X85.914Y61.486
X87.934Y62.123
X86.497Y66.682
G0Z1
X90.255Y55.04
G1Z-0.3F50
X90.185Y55.003F100
X90.125Y54.953
X90.075Y54.892
X90.038Y54.823
X90.015Y54.747
X90.007Y54.669
X90.015Y54.591
X90.038Y54.515
X90.075Y54.446
X90.125Y54.385
X90.185Y54.335
X90.255Y54.298
X90.33Y54.275
X90.408Y54.268
X90.487Y54.275
X90.562Y54.298
X90.631Y54.335
X90.692Y54.385
X90.742Y54.446
X90.779Y54.515
X90.802Y54.591
X90.81Y54.669
X90.802Y54.747
X90.779Y54.822
X90.742Y54.892
X90.692Y54.953
X90.631Y55.003
X90.562Y55.04
X90.487Y55.062
X90.41Y55.07
X90.329Y55.062
X90.255Y55.04
G0Z1
X108.674Y39.468
G1Z-0.3F50
X108.646Y39.431F100
X108.636Y39.418
X108.612Y39.368
X108.604Y39.351
X108.591Y39.304
X108.584Y39.282
X108.577Y39.205
X108.584Y39.125
X108.602Y39.065
X108.606Y39.052
X108.63Y39.005
X108.64Y38.986
X108.651Y38.971
X108.676Y38.939
X108.693Y38.919
X108.713Y38.902
X108.745Y38.877
X108.76Y38.865
X108.779Y38.856
X108.826Y38.831
X108.864Y38.821
X108.899Y38.81
X108.978Y38.802
X109.055Y38.81
X109.079Y38.817
X109.126Y38.829
X109.143Y38.839
X109.192Y38.862
X109.206Y38.872
X109.243Y38.9
X109.263Y38.918
X109.287Y38.945
X109.301Y38.963
X109.325Y38.996
X109.344Y39.037
X109.358Y39.066
X109.377Y39.136
X109.383Y39.206
X109.377Y39.276
X109.359Y39.344
X109.328Y39.41
X109.307Y39.44
X109.288Y39.465
X109.262Y39.492
X109.24Y39.514
X109.184Y39.554
X109.118Y39.585
X109.05Y39.603
X108.98Y39.609
X108.91Y39.603
X108.84Y39.584
X108.812Y39.57
X108.77Y39.551
X108.738Y39.526
X108.719Y39.513
X108.693Y39.489
X108.674Y39.468
G0Z1
X105.996Y32.123
G1Z-0.3F50
X105.921Y32.145F100
X105.845Y32.153
X105.763Y32.145
X105.689Y32.123
X105.619Y32.086
X105.558Y32.036
X105.509Y31.975
X105.472Y31.906
X105.449Y31.83
X105.441Y31.752
X105.449Y31.674
X105.471Y31.598
X105.509Y31.529
X105.558Y31.468
X105.619Y31.418
X105.689Y31.381
X105.764Y31.358
X105.842Y31.351
X105.921Y31.358
X105.996Y31.381
X106.065Y31.418
X106.126Y31.468
X106.176Y31.529
X106.213Y31.598
X106.236Y31.674
X106.244Y31.752
X106.236Y31.83
X106.213Y31.904
X106.176Y31.975
X106.127Y32.034
X106.065Y32.086
X105.996Y32.123
G0Z1
X120.485Y36.653
G1Z-0.3F50
X121.577Y33.29F100
X121.595Y33.295
X119.946Y38.37
X119.928Y38.365
X120.485Y36.653
G0Z1
X143.914Y39.561
G1Z-0.3F50
X143.937Y39.486F100
X143.974Y39.417
X144.024Y39.356
X144.085Y39.306
X144.154Y39.269
X144.23Y39.246
X144.308Y39.238
X144.386Y39.246
X144.462Y39.269
X144.531Y39.306
X144.592Y39.356
X144.64Y39.415
X144.679Y39.486
X144.702Y39.561
X144.709Y39.636
X144.702Y39.718
X144.679Y39.793
X144.642Y39.863
X144.593Y39.922
X144.531Y39.973
X144.462Y40.01
X144.386Y40.033
X144.308Y40.041
X144.23Y40.033
X144.154Y40.01
X144.085Y39.973
X144.024Y39.923
X143.974Y39.863
X143.937Y39.793
X143.914Y39.718
X143.907Y39.64
X143.914Y39.561
G0Z1
X153.908Y39.64
G1Z-0.3F50
X153.916Y39.562F100
X153.939Y39.486
X153.976Y39.417
X154.026Y39.356
X154.087Y39.306
X154.156Y39.269
X154.231Y39.246
X154.309Y39.239
X154.388Y39.246
X154.463Y39.269
X154.532Y39.306
X154.593Y39.356
X154.643Y39.417
X154.68Y39.486
X154.703Y39.562
X154.711Y39.64
X154.703Y39.718
X154.68Y39.793
X154.643Y39.863
X154.592Y39.925
X154.576Y39.938
X154.546Y39.965
X154.517Y39.992
X154.488Y40.021
X154.46Y40.05
X154.451Y40.059
X154.429Y40.055
X154.389Y40.05
X154.333Y40.044
X154.231Y40.033
X154.156Y40.011
X154.087Y39.974
X154.026Y39.924
X153.976Y39.863
X153.939Y39.794
X153.916Y39.718
X153.908Y39.64
G0Z1
X194.071
G1Z-0.3F50
X194.079Y39.562F100
X194.102Y39.486
X194.139Y39.417
X194.189Y39.356
X194.249Y39.306
X194.319Y39.269
X194.394Y39.246
X194.472Y39.239
X194.551Y39.246
X194.626Y39.269
X194.695Y39.306
X194.756Y39.356
X194.806Y39.417
X194.843Y39.487
X194.866Y39.562
X194.874Y39.64
X194.867Y39.711
X194.842Y39.796
X194.806Y39.863
X194.756Y39.924
X194.695Y39.974
X194.648Y39.999
X194.614Y40.017
X194.58Y40.037
X194.547Y40.058
X194.534Y40.066
X194.519Y40.062
X194.481Y40.054
X194.444Y40.046
X194.421Y40.042
X194.319Y40.011
X194.249Y39.974
X194.189Y39.924
X194.139Y39.863
X194.102Y39.793
X194.079Y39.718
X194.071Y39.64
G0Z1
X194.127Y44.113
G1Z-0.3F50
X194.301Y44.133F100
X194.333Y44.136
X194.366Y44.139
X194.399Y44.141
X194.432Y44.142
X194.556Y44.146
X194.604Y44.147
X194.652Y44.146
X194.775Y44.142
X194.808Y44.141
X194.841Y44.139
X194.874Y44.136
X194.907Y44.133
X195.08Y44.113
X197.826
X197.865
X197.904Y44.111
X197.944Y44.109
X197.983Y44.106
X198.022Y44.101
X198.061Y44.096
X198.1Y44.09
X198.138Y44.082
X198.177Y44.074
X198.215Y44.065
X198.253Y44.055
X198.291Y44.044
X198.329Y44.032
X198.366Y44.019
X198.403Y44.005
X198.439Y43.99
X198.475Y43.975
X198.512Y43.958
X198.547Y43.94
X198.582Y43.922
X198.616Y43.903
X198.65Y43.883
X198.684Y43.862
X198.716Y43.841
X198.749Y43.818
X198.781Y43.795
X198.812Y43.771
X198.842Y43.746
X198.872Y43.721
X198.902Y43.694
X198.93Y43.667
X198.958Y43.64
X198.986Y43.611
X199.012Y43.582
X199.038Y43.553
X199.063Y43.522
X199.667Y42.775
X199.697Y42.737
X199.729Y42.693
X199.744Y42.671
X199.759Y42.648
X199.781Y42.614
X199.798Y42.585
X199.815Y42.555
X199.834Y42.52
X199.852Y42.486
X199.865Y42.457
X199.878Y42.429
X199.893Y42.396
X199.906Y42.363
X199.921Y42.322
X199.936Y42.281
X199.946Y42.248
X199.956Y42.214
X199.966Y42.179
X199.974Y42.145
X199.982Y42.11
X199.989Y42.075
X199.998Y42.026
X200.004Y41.981
X200.009Y41.937
X200.013Y41.892
X200.015Y41.855
X200.016Y41.817
X200.017Y41.78
X200.016Y28.071
X200.015Y28.025
X200.011Y27.972
X200.006Y27.925
X200Y27.877
X199.989Y27.812
X199.976Y27.749
X199.965Y27.702
X199.955Y27.666
X199.944Y27.631
X199.933Y27.596
X199.92Y27.559
X199.906Y27.523
X199.891Y27.487
X199.876Y27.451
X199.859Y27.416
X199.842Y27.381
X199.824Y27.346
X199.805Y27.312
X199.785Y27.279
X199.764Y27.246
X199.743Y27.213
X199.72Y27.181
X199.697Y27.15
X199.674Y27.119
X199.649Y27.089
X199.624Y27.059
X199.598Y27.03
X199.571Y27.002
X199.543Y26.974
X199.516Y26.947
X199.488Y26.922
X199.459Y26.897
X199.43Y26.872
X199.401Y26.849
X199.37Y26.826
X199.34Y26.804
X199.308Y26.782
X199.277Y26.762
X199.244Y26.742
X199.212Y26.723
X199.178Y26.704
X199.145Y26.687
X199.111Y26.67
X199.076Y26.654
X199.042Y26.639
X199.006Y26.625
X198.962Y26.608
X198.925Y26.595
X198.888Y26.584
X198.855Y26.574
X198.807Y26.561
X198.77Y26.553
X198.734Y26.545
X198.694Y26.538
X198.659Y26.532
X198.624Y26.527
X198.58Y26.522
X198.536Y26.519
X198.491Y26.516
X198.459Y26.515
X198.426
X88.19
X88.152
X88.113Y26.517
X88.075Y26.519
X88.036Y26.522
X87.998Y26.527
X87.96Y26.532
X87.922Y26.538
X87.884Y26.545
X87.846Y26.553
X87.809Y26.561
X87.771Y26.571
X87.734Y26.582
X87.698Y26.593
X87.661Y26.605
X87.625Y26.619
X87.589Y26.633
X87.554Y26.648
X87.518Y26.664
X87.484Y26.68
X87.449Y26.698
X87.416Y26.716
X87.382Y26.735
X87.349Y26.755
X87.317Y26.776
X87.285Y26.798
X87.253Y26.82
X87.223Y26.843
X87.192Y26.867
X87.162Y26.892
X87.132Y26.918
X87.104Y26.944
X87.076Y26.97
X87.049Y26.998
X87.022Y27.026
X86.996Y27.055
X86.971Y27.084
X86.946Y27.114
X86.923Y27.144
X86.9Y27.175
X86.877Y27.207
X86.856Y27.239
X86.835Y27.272
X86.815Y27.305
X86.796Y27.339
X86.778Y27.373
X86.761Y27.407
X86.744Y27.442
X86.728Y27.477
X86.714Y27.513
X86.7Y27.549
X86.687Y27.586
X86.674Y27.622
X86.663Y27.659
X86.653Y27.696
X86.643Y27.734
X86.635Y27.772
X86.627Y27.81
X86.617Y27.868
X86.61Y27.92
X86.607Y27.95
X86.603Y27.993
X86.602Y28.015
X80.028
X80.027Y27.998
X80.025Y27.963
X80.021Y27.929
X80.017Y27.895
X80.013Y27.865
X80.005Y27.818
X79.997Y27.779
X79.989Y27.74
X79.979Y27.702
X79.968Y27.664
X79.957Y27.626
X79.945Y27.588
X79.931Y27.551
X79.917Y27.514
X79.902Y27.478
X79.886Y27.441
X79.869Y27.406
X79.851Y27.37
X79.832Y27.335
X79.812Y27.301
X79.792Y27.267
X79.771Y27.234
X79.749Y27.201
X79.726Y27.169
X79.702Y27.137
X79.677Y27.106
X79.652Y27.075
X79.626Y27.046
X79.599Y27.016
X79.572Y26.988
X79.544Y26.96
X79.515Y26.933
X79.485Y26.907
X79.454Y26.88
X79.424Y26.856
X79.392Y26.832
X79.361Y26.809
X79.328Y26.786
X79.296Y26.765
X79.262Y26.744
X79.228Y26.724
X79.194Y26.705
X79.159Y26.687
X79.124Y26.669
X79.088Y26.653
X79.052Y26.637
X79.016Y26.623
X78.979Y26.609
X78.942Y26.596
X78.905Y26.584
X78.867Y26.573
X78.829Y26.563
X78.791Y26.554
X78.752Y26.546
X78.714Y26.539
X78.675Y26.532
X78.636Y26.527
X78.597Y26.523
X78.558Y26.519
X78.519Y26.517
X78.479Y26.515
X78.44
X19.048
X19.01
X18.972Y26.517
X18.933Y26.519
X18.895Y26.522
X18.856Y26.527
X18.818Y26.532
X18.78Y26.538
X18.742Y26.545
X18.705Y26.552
X18.667Y26.561
X18.63Y26.571
X18.593Y26.581
X18.556Y26.593
X18.52Y26.605
X18.483Y26.619
X18.447Y26.633
X18.412Y26.648
X18.377Y26.664
X18.342Y26.68
X18.308Y26.698
X18.274Y26.716
X18.241Y26.735
X18.208Y26.755
X18.175Y26.776
X18.143Y26.797
X18.112Y26.82
X18.081Y26.843
X18.051Y26.866
X18.021Y26.891
X17.992Y26.916
X17.646Y27.224
X17.315Y27.524
X17.286Y27.551
X17.257Y27.578
X17.23Y27.607
X17.203Y27.636
X17.177Y27.665
X17.152Y27.695
X17.127Y27.726
X17.103Y27.758
X17.08Y27.79
X17.058Y27.822
X17.036Y27.856
X17.016Y27.888
X16.997Y27.921
X16.979Y27.955
X16.961Y27.989
X16.945Y28.023
X16.929Y28.058
X16.914Y28.093
X16.899Y28.128
X16.886Y28.164
X16.874Y28.2
X16.862Y28.236
X16.851Y28.273
X16.841Y28.309
X16.832Y28.347
X16.824Y28.385
X16.817Y28.424
X16.81Y28.463
X16.805Y28.503
X16.8Y28.542
X16.797Y28.581
X16.794Y28.621
X16.793Y28.66
X16.792Y28.7
Y28.739
X16.794Y28.779
X16.796Y28.815
X16.799Y28.85
X16.803Y28.886
X16.807Y28.921
X16.812Y28.956
X16.876Y29.352
X16.881Y29.378
X16.891Y29.429
X16.976Y29.829
X16.989Y29.884
X17.003Y29.938
X17.121Y30.346
X17.132Y30.382
X17.143Y30.418
X17.156Y30.454
X17.17Y30.49
X17.342Y30.928
X17.358Y30.965
X17.375Y31.003
X17.392Y31.04
X17.41Y31.077
X17.641Y31.521
X17.661Y31.558
X17.681Y31.593
X17.703Y31.629
X17.725Y31.663
X17.976Y32.044
X17.997Y32.075
X18.018Y32.106
X18.041Y32.136
X18.064Y32.165
X18.311Y32.472
X18.331Y32.497
X18.352Y32.521
X18.373Y32.545
X18.395Y32.569
X18.62Y32.807
X18.647Y32.835
X18.674Y32.861
X18.702Y32.887
X18.73Y32.913
X19.142Y33.273
X19.167Y33.294
X19.192Y33.315
X19.218Y33.335
X19.244Y33.355
X19.271Y33.374
X19.298Y33.392
X19.748Y33.697
X19.776Y33.715
X19.803Y33.733
X19.832Y33.75
X19.86Y33.766
X19.889Y33.782
X19.919Y33.797
X20.406Y34.045
X20.435Y34.059
X20.465Y34.073
X20.495Y34.087
X20.525Y34.1
X20.556Y34.112
X20.587Y34.123
X21.101Y34.308
X21.131Y34.319
X21.162Y34.329
X21.194Y34.339
X21.225Y34.348
X21.257Y34.356
X21.289Y34.363
X21.822Y34.484
X21.87Y34.494
X21.918Y34.503
X23.648Y34.783
X24.468Y34.92
X25.251Y35.058
X25.987Y35.197
X26.678Y35.339
X27.329Y35.487
X27.944Y35.643
X28.751Y35.876
X29.521Y36.133
X30.264Y36.417
X30.989Y36.73
X31.612Y37.031
X32.221Y37.355
X32.812Y37.701
X33.382Y38.067
X33.93Y38.451
X34.452Y38.852
X34.948Y39.267
X35.415Y39.697
X35.855Y40.141
X36.268Y40.598
X36.652Y41.067
X37.008Y41.549
X37.336Y42.042
X37.636Y42.547
X37.909Y43.064
X38.155Y43.595
X38.375Y44.141
X38.569Y44.703
X38.737Y45.282
X38.88Y45.878
X38.997Y46.492
X39.087Y47.124
X39.15Y47.774
X39.186Y48.442
X39.195Y49.129
X39.176Y49.833
X39.13Y50.553
X39.056Y51.289
X38.956Y52.04
X38.829Y52.804
X38.676Y53.581
X38.497Y54.369
X20.197Y111.784
X20.186Y111.821
X20.175Y111.857
X20.121Y112.06
X20.112Y112.096
X20.104Y112.133
X20.096Y112.171
X20.089Y112.208
X20.055Y112.415
X20.049Y112.453
X20.044Y112.491
X20.04Y112.529
X20.037Y112.567
X20.023Y112.776
X20.02Y112.814
X20.019Y112.853
Y112.891
Y112.93
X20.025Y113.135
X20.026Y113.172
X20.029Y113.209
X20.032Y113.245
X20.036Y113.282
X20.059Y113.473
X20.063Y113.506
X20.068Y113.54
X20.074Y113.574
X20.081Y113.607
X20.117Y113.781
X20.124Y113.813
X20.132Y113.844
X20.143Y113.887
X20.155Y113.929
X20.26Y114.249
X20.272Y114.283
X20.284Y114.316
X20.297Y114.35
X20.311Y114.383
X20.325Y114.416
X20.341Y114.449
X20.469Y114.713
X20.484Y114.743
X20.5Y114.774
X20.517Y114.804
X20.535Y114.834
X20.553Y114.864
X20.571Y114.893
X20.732Y115.137
X20.75Y115.164
X20.769Y115.191
X20.789Y115.218
X20.809Y115.244
X20.829Y115.269
X20.85Y115.294
X21.043Y115.52
X21.074Y115.556
X21.107Y115.591
X21.14Y115.625
X21.175Y115.658
X21.422Y115.885
X21.447Y115.908
X21.473Y115.931
X21.5Y115.952
X21.526Y115.974
X21.553Y115.994
X21.581Y116.014
X21.765Y116.144
X21.906Y116.244
X21.939Y116.266
X21.972Y116.288
X22.006Y116.309
X22.041Y116.329
X22.233Y116.437
X22.282Y116.464
X22.332Y116.489
X22.545Y116.59
X22.594Y116.612
X22.643Y116.632
X22.874Y116.724
X22.918Y116.741
X22.963Y116.756
X23.215Y116.839
X23.254Y116.851
X23.293Y116.862
X23.567Y116.937
X23.601Y116.945
X23.634Y116.953
X23.935Y117.021
X23.964Y117.027
X23.992Y117.033
X24.35Y117.1
X24.765Y117.166
X25.223Y117.228
X25.47Y117.259
X25.743Y117.29
X26.046Y117.324
X26.382Y117.359
X26.756Y117.397
X27.169Y117.437
X27.624Y117.481
X28.129Y117.528
X28.683Y117.579
X69.039Y121.252
X69.648Y121.299
X70.216Y121.328
X70.251Y121.329
X70.286Y121.33
X70.803Y121.334
X70.854Y121.333
X70.905Y121.331
X71.419Y121.302
X71.45Y121.3
X71.482Y121.297
X71.514Y121.294
X71.546Y121.29
X71.996Y121.227
X72.033Y121.222
X72.069Y121.216
X72.105Y121.209
X72.14Y121.201
X72.572Y121.1
X72.61Y121.091
X72.648Y121.08
X72.686Y121.069
X72.723Y121.057
X73.106Y120.927
X73.143Y120.914
X73.179Y120.9
X73.216Y120.885
X73.251Y120.869
X73.584Y120.718
X73.619Y120.701
X73.654Y120.684
X73.688Y120.666
X73.721Y120.647
X74.006Y120.483
X74.038Y120.464
X74.07Y120.444
X74.101Y120.423
X74.132Y120.402
X74.371Y120.232
X74.4Y120.211
X74.428Y120.19
X74.455Y120.168
X74.482Y120.145
X74.68Y119.976
X74.704Y119.955
X74.728Y119.933
X74.751Y119.911
X74.774Y119.889
X74.933Y119.729
X74.973Y119.688
X75.01Y119.645
X75.134Y119.502
X75.165Y119.465
X75.194Y119.428
X75.287Y119.306
X75.306Y119.281
X75.324Y119.256
X75.342Y119.23
X75.359Y119.204
X75.515Y118.962
X75.537Y118.927
X75.559Y118.89
X75.579Y118.854
X75.598Y118.817
X75.728Y118.56
X75.747Y118.522
X75.765Y118.482
X75.782Y118.443
X75.797Y118.403
X75.899Y118.133
X75.914Y118.092
X75.927Y118.051
X95.931Y54.613
X96.097Y54.102
X96.13Y54.003
X96.366Y53.34
X96.637Y52.68
X96.966Y52
X97.144Y51.676
X97.347Y51.34
X97.571Y51.001
X97.817Y50.66
X98.086Y50.319
X98.369Y49.992
X98.666Y49.68
X98.975Y49.382
X99.297Y49.099
X99.632Y48.83
X99.979Y48.575
X100.34Y48.334
X100.714Y48.107
X101.088Y47.9
X101.91Y47.509
X102.756Y47.179
X103.634Y46.902
X104.535Y46.675
X105.456Y46.495
X105.676Y46.46
X105.942Y46.422
X106.256Y46.381
X106.633Y46.336
X107.082Y46.284
X107.48Y46.239
X107.935Y46.189
X109.695Y45.997
X127.064Y44.113
X154.128
X154.301Y44.133
X154.333Y44.136
X154.366Y44.139
X154.399Y44.141
X154.432Y44.142
X154.556Y44.146
X154.585Y44.147
X154.633
X154.775Y44.142
X154.808Y44.141
X154.841Y44.139
X154.874Y44.136
X154.907Y44.133
X155.08Y44.113
X194.127
G0Z1
X46.368Y54.038
G1Z-0.4F50
X46.428Y53.988F100
X46.498Y53.951
X46.573Y53.928
X46.651Y53.92
X46.73Y53.928
X46.805Y53.951
X46.874Y53.988
X46.935Y54.038
X46.985Y54.099
X47.022Y54.168
X47.045Y54.244
X47.053Y54.322
X47.045Y54.4
X47.022Y54.475
X46.985Y54.545
X46.935Y54.606
X46.874Y54.655
X46.805Y54.693
X46.73Y54.715
X46.651Y54.723
X46.573Y54.715
X46.498Y54.693
X46.428Y54.655
X46.368Y54.606
X46.318Y54.545
X46.281Y54.475
X46.258Y54.4
X46.25Y54.322
X46.258Y54.244
X46.281Y54.168
X46.318Y54.099
X46.368Y54.038
G0Z1
X41.875Y72.215
G1Z-0.4F50
X41.95Y72.238F100
X42.02Y72.275
X42.08Y72.325
X42.13Y72.386
X42.167Y72.455
X42.19Y72.53
X42.198Y72.609
X42.19Y72.687
X42.167Y72.762
X42.13Y72.832
X42.08Y72.892
X42.02Y72.942
X41.95Y72.979
X41.875Y73.002
X41.797Y73.01
X41.718Y73.002
X41.643Y72.979
X41.574Y72.942
X41.513Y72.892
X41.463Y72.832
X41.426Y72.762
X41.403Y72.687
X41.395Y72.609
X41.403Y72.53
X41.426Y72.455
X41.463Y72.386
X41.513Y72.325
X41.574Y72.275
X41.643Y72.238
X41.718Y72.215
X41.797Y72.207
X41.875Y72.215
G0Z1
X29.88Y109.607
G1Z-0.4F50
X29.95Y109.644F100
X30.011Y109.694
X30.06Y109.755
X30.098Y109.824
X30.12Y109.899
X30.128Y109.977
X30.12Y110.056
X30.098Y110.129
X30.06Y110.2
X30.011Y110.261
X29.95Y110.311
X29.88Y110.348
X29.805Y110.371
X29.727Y110.379
X29.649Y110.371
X29.573Y110.348
X29.504Y110.311
X29.443Y110.261
X29.393Y110.2
X29.358Y110.135
X29.333Y110.053
X29.326Y109.978
X29.333Y109.899
X29.356Y109.824
X29.393Y109.755
X29.443Y109.694
X29.504Y109.644
X29.573Y109.607
X29.649Y109.584
X29.727Y109.576
X29.805Y109.584
X29.88Y109.607
G0Z1
X70.996Y114.087
G1Z-0.4F50
X71.019Y114.012F100
X71.056Y113.942
X71.106Y113.881
X71.167Y113.831
X71.236Y113.795
X71.312Y113.772
X71.39Y113.764
X71.468Y113.772
X71.543Y113.794
X71.613Y113.831
X71.673Y113.881
X71.723Y113.942
X71.76Y114.012
X71.783Y114.087
X71.791Y114.165
X71.783Y114.243
X71.76Y114.319
X71.724Y114.387
X71.673Y114.449
X71.613Y114.499
X71.543Y114.536
X71.468Y114.559
X71.39Y114.566
X71.311Y114.559
X71.236Y114.536
X71.167Y114.499
X71.106Y114.449
X71.056Y114.388
X71.02Y114.32
X70.996Y114.242
X70.988Y114.165
X70.996Y114.087
G0Z1
X86.497Y66.682
G1Z-0.4F50
X84.477Y66.045F100
X85.914Y61.486
X87.934Y62.123
X86.497Y66.682
G0Z1
X90.255Y55.04
G1Z-0.4F50
X90.185Y55.003F100
X90.125Y54.953
X90.075Y54.892
X90.038Y54.823
X90.015Y54.747
X90.007Y54.669
X90.015Y54.591
X90.038Y54.515
X90.075Y54.446
X90.125Y54.385
X90.185Y54.335
X90.255Y54.298
X90.33Y54.275
X90.408Y54.268
X90.487Y54.275
X90.562Y54.298
X90.631Y54.335
X90.692Y54.385
X90.742Y54.446
X90.779Y54.515
X90.802Y54.591
X90.81Y54.669
X90.802Y54.747
X90.779Y54.822
X90.742Y54.892
X90.692Y54.953
X90.631Y55.003
X90.562Y55.04
X90.487Y55.062
X90.41Y55.07
X90.329Y55.062
X90.255Y55.04
G0Z1
X108.674Y39.468
G1Z-0.4F50
X108.646Y39.431F100
X108.636Y39.418
X108.612Y39.368
X108.604Y39.351
X108.591Y39.304
X108.584Y39.282
X108.577Y39.205
X108.584Y39.125
X108.602Y39.065
X108.606Y39.052
X108.63Y39.005
X108.64Y38.986
X108.651Y38.971
X108.676Y38.939
X108.693Y38.919
X108.713Y38.902
X108.745Y38.877
X108.76Y38.865
X108.779Y38.856
X108.826Y38.831
X108.864Y38.821
X108.899Y38.81
X108.978Y38.802
X109.055Y38.81
X109.079Y38.817
X109.126Y38.829
X109.143Y38.839
X109.192Y38.862
X109.206Y38.872
X109.243Y38.9
X109.263Y38.918
X109.287Y38.945
X109.301Y38.963
X109.325Y38.996
X109.344Y39.037
X109.358Y39.066
X109.377Y39.136
X109.383Y39.206
X109.377Y39.276
X109.359Y39.344
X109.328Y39.41
X109.307Y39.44
X109.288Y39.465
X109.262Y39.492
X109.24Y39.514
X109.184Y39.554
X109.118Y39.585
X109.05Y39.603
X108.98Y39.609
X108.91Y39.603
X108.84Y39.584
X108.812Y39.57
X108.77Y39.551
X108.738Y39.526
X108.719Y39.513
X108.693Y39.489
X108.674Y39.468
G0Z1
X105.996Y32.123
G1Z-0.4F50
X105.921Y32.145F100
X105.845Y32.153
X105.763Y32.145
X105.689Y32.123
X105.619Y32.086
X105.558Y32.036
X105.509Y31.975
X105.472Y31.906
X105.449Y31.83
X105.441Y31.752
X105.449Y31.674
X105.471Y31.598
X105.509Y31.529
X105.558Y31.468
X105.619Y31.418
X105.689Y31.381
X105.764Y31.358
X105.842Y31.351
X105.921Y31.358
X105.996Y31.381
X106.065Y31.418
X106.126Y31.468
X106.176Y31.529
X106.213Y31.598
X106.236Y31.674
X106.244Y31.752
X106.236Y31.83
X106.213Y31.904
X106.176Y31.975
X106.127Y32.034
X106.065Y32.086
X105.996Y32.123
G0Z1
X120.485Y36.653
G1Z-0.4F50
X121.577Y33.29F100
X121.595Y33.295
X119.946Y38.37
X119.928Y38.365
X120.485Y36.653
G0Z1
X143.914Y39.561
G1Z-0.4F50
X143.937Y39.486F100
X143.974Y39.417
X144.024Y39.356
X144.085Y39.306
X144.154Y39.269
X144.23Y39.246
X144.308Y39.238
X144.386Y39.246
X144.462Y39.269
X144.531Y39.306
X144.592Y39.356
X144.64Y39.415
X144.679Y39.486
X144.702Y39.561
X144.709Y39.636
X144.702Y39.718
X144.679Y39.793
X144.642Y39.863
X144.593Y39.922
X144.531Y39.973
X144.462Y40.01
X144.386Y40.033
X144.308Y40.041
X144.23Y40.033
X144.154Y40.01
X144.085Y39.973
X144.024Y39.923
X143.974Y39.863
X143.937Y39.793
X143.914Y39.718
X143.907Y39.64
X143.914Y39.561
G0Z1
X153.908Y39.64
G1Z-0.4F50
X153.916Y39.562F100
X153.939Y39.486
X153.976Y39.417
X154.026Y39.356
X154.087Y39.306
X154.156Y39.269
X154.231Y39.246
X154.309Y39.239
X154.388Y39.246
X154.463Y39.269
X154.532Y39.306
X154.593Y39.356
X154.643Y39.417
X154.68Y39.486
X154.703Y39.562
X154.711Y39.64
X154.703Y39.718
X154.68Y39.793
X154.643Y39.863
X154.592Y39.925
X154.576Y39.938
X154.546Y39.965
X154.517Y39.992
X154.488Y40.021
X154.46Y40.05
X154.451Y40.059
X154.429Y40.055
X154.389Y40.05
X154.333Y40.044
X154.231Y40.033
X154.156Y40.011
X154.087Y39.974
X154.026Y39.924
X153.976Y39.863
X153.939Y39.794
X153.916Y39.718
X153.908Y39.64
G0Z1
X194.071
G1Z-0.4F50
X194.079Y39.562F100
X194.102Y39.486
X194.139Y39.417
X194.189Y39.356
X194.249Y39.306
X194.319Y39.269
X194.394Y39.246
X194.472Y39.239
X194.551Y39.246
X194.626Y39.269
X194.695Y39.306
X194.756Y39.356
X194.806Y39.417
X194.843Y39.487
X194.866Y39.562
X194.874Y39.64
X194.867Y39.711
X194.842Y39.796
X194.806Y39.863
X194.756Y39.924
X194.695Y39.974
X194.648Y39.999
X194.614Y40.017
X194.58Y40.037
X194.547Y40.058
X194.534Y40.066
X194.519Y40.062
X194.481Y40.054
X194.444Y40.046
X194.421Y40.042
X194.319Y40.011
X194.249Y39.974
X194.189Y39.924
X194.139Y39.863
X194.102Y39.793
X194.079Y39.718
X194.071Y39.64
G0Z1
X194.127Y44.113
G1Z-0.4F50
X194.301Y44.133F100
X194.333Y44.136
X194.366Y44.139
X194.399Y44.141
X194.432Y44.142
X194.556Y44.146
X194.604Y44.147
X194.652Y44.146
X194.775Y44.142
X194.808Y44.141
X194.841Y44.139
X194.874Y44.136
X194.907Y44.133
X195.08Y44.113
X197.826
X197.865
X197.904Y44.111
X197.944Y44.109
X197.983Y44.106
X198.022Y44.101
X198.061Y44.096
X198.1Y44.09
X198.138Y44.082
X198.177Y44.074
X198.215Y44.065
X198.253Y44.055
X198.291Y44.044
X198.329Y44.032
X198.366Y44.019
X198.403Y44.005
X198.439Y43.99
X198.475Y43.975
X198.512Y43.958
X198.547Y43.94
X198.582Y43.922
X198.616Y43.903
X198.65Y43.883
X198.684Y43.862
X198.716Y43.841
X198.749Y43.818
X198.781Y43.795
X198.812Y43.771
X198.842Y43.746
X198.872Y43.721
X198.902Y43.694
X198.93Y43.667
X198.958Y43.64
X198.986Y43.611
X199.012Y43.582
X199.038Y43.553
X199.063Y43.522
X199.667Y42.775
X199.697Y42.737
X199.729Y42.693
X199.744Y42.671
X199.759Y42.648
X199.781Y42.614
X199.798Y42.585
X199.815Y42.555
X199.834Y42.52
X199.852Y42.486
X199.865Y42.457
X199.878Y42.429
X199.893Y42.396
X199.906Y42.363
X199.921Y42.322
X199.936Y42.281
X199.946Y42.248
X199.956Y42.214
X199.966Y42.179
X199.974Y42.145
X199.982Y42.11
X199.989Y42.075
X199.998Y42.026
X200.004Y41.981
X200.009Y41.937
X200.013Y41.892
X200.015Y41.855
X200.016Y41.817
X200.017Y41.78
X200.016Y28.071
X200.015Y28.025
X200.011Y27.972
X200.006Y27.925
X200Y27.877
X199.989Y27.812
X199.976Y27.749
X199.965Y27.702
X199.955Y27.666
X199.944Y27.631
X199.933Y27.596
X199.92Y27.559
X199.906Y27.523
X199.891Y27.487
X199.876Y27.451
X199.859Y27.416
X199.842Y27.381
X199.824Y27.346
X199.805Y27.312
X199.785Y27.279
X199.764Y27.246
X199.743Y27.213
X199.72Y27.181
X199.697Y27.15
X199.674Y27.119
X199.649Y27.089
X199.624Y27.059
X199.598Y27.03
X199.571Y27.002
X199.543Y26.974
X199.516Y26.947
X199.488Y26.922
X199.459Y26.897
X199.43Y26.872
X199.401Y26.849
X199.37Y26.826
X199.34Y26.804
X199.308Y26.782
X199.277Y26.762
X199.244Y26.742
X199.212Y26.723
X199.178Y26.704
X199.145Y26.687
X199.111Y26.67
X199.076Y26.654
X199.042Y26.639
X199.006Y26.625
X198.962Y26.608
X198.925Y26.595
X198.888Y26.584
X198.855Y26.574
X198.807Y26.561
X198.77Y26.553
X198.734Y26.545
X198.694Y26.538
X198.659Y26.532
X198.624Y26.527
X198.58Y26.522
X198.536Y26.519
X198.491Y26.516
X198.459Y26.515
X198.426
X88.19
X88.152
X88.113Y26.517
X88.075Y26.519
X88.036Y26.522
X87.998Y26.527
X87.96Y26.532
X87.922Y26.538
X87.884Y26.545
X87.846Y26.553
X87.809Y26.561
X87.771Y26.571
X87.734Y26.582
X87.698Y26.593
X87.661Y26.605
X87.625Y26.619
X87.589Y26.633
X87.554Y26.648
X87.518Y26.664
X87.484Y26.68
X87.449Y26.698
X87.416Y26.716
X87.382Y26.735
X87.349Y26.755
X87.317Y26.776
X87.285Y26.798
X87.253Y26.82
X87.223Y26.843
X87.192Y26.867
X87.162Y26.892
X87.132Y26.918
X87.104Y26.944
X87.076Y26.97
X87.049Y26.998
X87.022Y27.026
X86.996Y27.055
X86.971Y27.084
X86.946Y27.114
X86.923Y27.144
X86.9Y27.175
X86.877Y27.207
X86.856Y27.239
X86.835Y27.272
X86.815Y27.305
X86.796Y27.339
X86.778Y27.373
X86.761Y27.407
X86.744Y27.442
X86.728Y27.477
X86.714Y27.513
X86.7Y27.549
X86.687Y27.586
X86.674Y27.622
X86.663Y27.659
X86.653Y27.696
X86.643Y27.734
X86.635Y27.772
X86.627Y27.81
X86.617Y27.868
X86.61Y27.92
X86.607Y27.95
X86.603Y27.993
X86.602Y28.015
X80.028
X80.027Y27.998
X80.025Y27.963
X80.021Y27.929
X80.017Y27.895
X80.013Y27.865
X80.005Y27.818
X79.997Y27.779
X79.989Y27.74
X79.979Y27.702
X79.968Y27.664
X79.957Y27.626
X79.945Y27.588
X79.931Y27.551
X79.917Y27.514
X79.902Y27.478
X79.886Y27.441
X79.869Y27.406
X79.851Y27.37
X79.832Y27.335
X79.812Y27.301
X79.792Y27.267
X79.771Y27.234
X79.749Y27.201
X79.726Y27.169
X79.702Y27.137
X79.677Y27.106
X79.652Y27.075
X79.626Y27.046
X79.599Y27.016
X79.572Y26.988
X79.544Y26.96
X79.515Y26.933
X79.485Y26.907
X79.454Y26.88
X79.424Y26.856
X79.392Y26.832
X79.361Y26.809
X79.328Y26.786
X79.296Y26.765
X79.262Y26.744
X79.228Y26.724
X79.194Y26.705
X79.159Y26.687
X79.124Y26.669
X79.088Y26.653
X79.052Y26.637
X79.016Y26.623
X78.979Y26.609
X78.942Y26.596
X78.905Y26.584
X78.867Y26.573
X78.829Y26.563
X78.791Y26.554
X78.752Y26.546
X78.714Y26.539
X78.675Y26.532
X78.636Y26.527
X78.597Y26.523
X78.558Y26.519
X78.519Y26.517
X78.479Y26.515
X78.44
X19.048
X19.01
X18.972Y26.517
X18.933Y26.519
X18.895Y26.522
X18.856Y26.527
X18.818Y26.532
X18.78Y26.538
X18.742Y26.545
X18.705Y26.552
X18.667Y26.561
X18.63Y26.571
X18.593Y26.581
X18.556Y26.593
X18.52Y26.605
X18.483Y26.619
X18.447Y26.633
X18.412Y26.648
X18.377Y26.664
X18.342Y26.68
X18.308Y26.698
X18.274Y26.716
X18.241Y26.735
X18.208Y26.755
X18.175Y26.776
X18.143Y26.797
X18.112Y26.82
X18.081Y26.843
X18.051Y26.866
X18.021Y26.891
X17.992Y26.916
X17.646Y27.224
X17.315Y27.524
X17.286Y27.551
X17.257Y27.578
X17.23Y27.607
X17.203Y27.636
X17.177Y27.665
X17.152Y27.695
X17.127Y27.726
X17.103Y27.758
X17.08Y27.79
X17.058Y27.822
X17.036Y27.856
X17.016Y27.888
X16.997Y27.921
X16.979Y27.955
X16.961Y27.989
X16.945Y28.023
X16.929Y28.058
X16.914Y28.093
X16.899Y28.128
X16.886Y28.164
X16.874Y28.2
X16.862Y28.236
X16.851Y28.273
X16.841Y28.309
X16.832Y28.347
X16.824Y28.385
X16.817Y28.424
X16.81Y28.463
X16.805Y28.503
X16.8Y28.542
X16.797Y28.581
X16.794Y28.621
X16.793Y28.66
X16.792Y28.7
Y28.739
X16.794Y28.779
X16.796Y28.815
X16.799Y28.85
X16.803Y28.886
X16.807Y28.921
X16.812Y28.956
X16.876Y29.352
X16.881Y29.378
X16.891Y29.429
X16.976Y29.829
X16.989Y29.884
X17.003Y29.938
X17.121Y30.346
X17.132Y30.382
X17.143Y30.418
X17.156Y30.454
X17.17Y30.49
X17.342Y30.928
X17.358Y30.965
X17.375Y31.003
X17.392Y31.04
X17.41Y31.077
X17.641Y31.521
X17.661Y31.558
X17.681Y31.593
X17.703Y31.629
X17.725Y31.663
X17.976Y32.044
X17.997Y32.075
X18.018Y32.106
X18.041Y32.136
X18.064Y32.165
X18.311Y32.472
X18.331Y32.497
X18.352Y32.521
X18.373Y32.545
X18.395Y32.569
X18.62Y32.807
X18.647Y32.835
X18.674Y32.861
X18.702Y32.887
X18.73Y32.913
X19.142Y33.273
X19.167Y33.294
X19.192Y33.315
X19.218Y33.335
X19.244Y33.355
X19.271Y33.374
X19.298Y33.392
X19.748Y33.697
X19.776Y33.715
X19.803Y33.733
X19.832Y33.75
X19.86Y33.766
X19.889Y33.782
X19.919Y33.797
X20.406Y34.045
X20.435Y34.059
X20.465Y34.073
X20.495Y34.087
X20.525Y34.1
X20.556Y34.112
X20.587Y34.123
X21.101Y34.308
X21.131Y34.319
X21.162Y34.329
X21.194Y34.339
X21.225Y34.348
X21.257Y34.356
X21.289Y34.363
X21.822Y34.484
X21.87Y34.494
X21.918Y34.503
X23.648Y34.783
X24.468Y34.92
X25.251Y35.058
X25.987Y35.197
X26.678Y35.339
X27.329Y35.487
X27.944Y35.643
X28.751Y35.876
X29.521Y36.133
X30.264Y36.417
X30.989Y36.73
X31.612Y37.031
X32.221Y37.355
X32.812Y37.701
X33.382Y38.067
X33.93Y38.451
X34.452Y38.852
X34.948Y39.267
X35.415Y39.697
X35.855Y40.141
X36.268Y40.598
X36.652Y41.067
X37.008Y41.549
X37.336Y42.042
X37.636Y42.547
X37.909Y43.064
X38.155Y43.595
X38.375Y44.141
X38.569Y44.703
X38.737Y45.282
X38.88Y45.878
X38.997Y46.492
X39.087Y47.124
X39.15Y47.774
X39.186Y48.442
X39.195Y49.129
X39.176Y49.833
X39.13Y50.553
X39.056Y51.289
X38.956Y52.04
X38.829Y52.804
X38.676Y53.581
X38.497Y54.369
X20.197Y111.784
X20.186Y111.821
X20.175Y111.857
X20.121Y112.06
X20.112Y112.096
X20.104Y112.133
X20.096Y112.171
X20.089Y112.208
X20.055Y112.415
X20.049Y112.453
X20.044Y112.491
X20.04Y112.529
X20.037Y112.567
X20.023Y112.776
X20.02Y112.814
X20.019Y112.853
Y112.891
Y112.93
X20.025Y113.135
X20.026Y113.172
X20.029Y113.209
X20.032Y113.245
X20.036Y113.282
X20.059Y113.473
X20.063Y113.506
X20.068Y113.54
X20.074Y113.574
X20.081Y113.607
X20.117Y113.781
X20.124Y113.813
X20.132Y113.844
X20.143Y113.887
X20.155Y113.929
X20.26Y114.249
X20.272Y114.283
X20.284Y114.316
X20.297Y114.35
X20.311Y114.383
X20.325Y114.416
X20.341Y114.449
X20.469Y114.713
X20.484Y114.743
X20.5Y114.774
X20.517Y114.804
X20.535Y114.834
X20.553Y114.864
X20.571Y114.893
X20.732Y115.137
X20.75Y115.164
X20.769Y115.191
X20.789Y115.218
X20.809Y115.244
X20.829Y115.269
X20.85Y115.294
X21.043Y115.52
X21.074Y115.556
X21.107Y115.591
X21.14Y115.625
X21.175Y115.658
X21.422Y115.885
X21.447Y115.908
X21.473Y115.931
X21.5Y115.952
X21.526Y115.974
X21.553Y115.994
X21.581Y116.014
X21.765Y116.144
X21.906Y116.244
X21.939Y116.266
X21.972Y116.288
X22.006Y116.309
X22.041Y116.329
X22.233Y116.437
X22.282Y116.464
X22.332Y116.489
X22.545Y116.59
X22.594Y116.612
X22.643Y116.632
X22.874Y116.724
X22.918Y116.741
X22.963Y116.756
X23.215Y116.839
X23.254Y116.851
X23.293Y116.862
X23.567Y116.937
X23.601Y116.945
X23.634Y116.953
X23.935Y117.021
X23.964Y117.027
X23.992Y117.033
X24.35Y117.1
X24.765Y117.166
X25.223Y117.228
X25.47Y117.259
X25.743Y117.29
X26.046Y117.324
X26.382Y117.359
X26.756Y117.397
X27.169Y117.437
X27.624Y117.481
X28.129Y117.528
X28.683Y117.579
X69.039Y121.252
X69.648Y121.299
X70.216Y121.328
X70.251Y121.329
X70.286Y121.33
X70.803Y121.334
X70.854Y121.333
X70.905Y121.331
X71.419Y121.302
X71.45Y121.3
X71.482Y121.297
X71.514Y121.294
X71.546Y121.29
X71.996Y121.227
X72.033Y121.222
X72.069Y121.216
X72.105Y121.209
X72.14Y121.201
X72.572Y121.1
X72.61Y121.091
X72.648Y121.08
X72.686Y121.069
X72.723Y121.057
X73.106Y120.927
X73.143Y120.914
X73.179Y120.9
X73.216Y120.885
X73.251Y120.869
X73.584Y120.718
X73.619Y120.701
X73.654Y120.684
X73.688Y120.666
X73.721Y120.647
X74.006Y120.483
X74.038Y120.464
X74.07Y120.444
X74.101Y120.423
X74.132Y120.402
X74.371Y120.232
X74.4Y120.211
X74.428Y120.19
X74.455Y120.168
X74.482Y120.145
X74.68Y119.976
X74.704Y119.955
X74.728Y119.933
X74.751Y119.911
X74.774Y119.889
X74.933Y119.729
X74.973Y119.688
X75.01Y119.645
X75.134Y119.502
X75.165Y119.465
X75.194Y119.428
X75.287Y119.306
X75.306Y119.281
X75.324Y119.256
X75.342Y119.23
X75.359Y119.204
X75.515Y118.962
X75.537Y118.927
X75.559Y118.89
X75.579Y118.854
X75.598Y118.817
X75.728Y118.56
X75.747Y118.522
X75.765Y118.482
X75.782Y118.443
X75.797Y118.403
X75.899Y118.133
X75.914Y118.092
X75.927Y118.051
X95.931Y54.613
X96.097Y54.102
X96.13Y54.003
X96.366Y53.34
X96.637Y52.68
X96.966Y52
X97.144Y51.676
X97.347Y51.34
X97.571Y51.001
X97.817Y50.66
X98.086Y50.319
X98.369Y49.992
X98.666Y49.68
X98.975Y49.382
X99.297Y49.099
X99.632Y48.83
X99.979Y48.575
X100.34Y48.334
X100.714Y48.107
X101.088Y47.9
X101.91Y47.509
X102.756Y47.179
X103.634Y46.902
X104.535Y46.675
X105.456Y46.495
X105.676Y46.46
X105.942Y46.422
X106.256Y46.381
X106.633Y46.336
X107.082Y46.284
X107.48Y46.239
X107.935Y46.189
X109.695Y45.997
X127.064Y44.113
X154.128
X154.301Y44.133
X154.333Y44.136
X154.366Y44.139
X154.399Y44.141
X154.432Y44.142
X154.556Y44.146
X154.585Y44.147
X154.633
X154.775Y44.142
X154.808Y44.141
X154.841Y44.139
X154.874Y44.136
X154.907Y44.133
X155.08Y44.113
X194.127
G0Z1
X46.368Y54.038
G1Z-0.5F50
X46.428Y53.988F100
X46.498Y53.951
X46.573Y53.928
X46.651Y53.92
X46.73Y53.928
X46.805Y53.951
X46.874Y53.988
X46.935Y54.038
X46.985Y54.099
X47.022Y54.168
X47.045Y54.244
X47.053Y54.322
X47.045Y54.4
X47.022Y54.475
X46.985Y54.545
X46.935Y54.606
X46.874Y54.655
X46.805Y54.693
X46.73Y54.715
X46.651Y54.723
X46.573Y54.715
X46.498Y54.693
X46.428Y54.655
X46.368Y54.606
X46.318Y54.545
X46.281Y54.475
X46.258Y54.4
X46.25Y54.322
X46.258Y54.244
X46.281Y54.168
X46.318Y54.099
X46.368Y54.038
G0Z1
X41.875Y72.215
G1Z-0.5F50
X41.95Y72.238F100
X42.02Y72.275
X42.08Y72.325
X42.13Y72.386
X42.167Y72.455
X42.19Y72.53
X42.198Y72.609
X42.19Y72.687
X42.167Y72.762
X42.13Y72.832
X42.08Y72.892
X42.02Y72.942
X41.95Y72.979
X41.875Y73.002
X41.797Y73.01
X41.718Y73.002
X41.643Y72.979
X41.574Y72.942
X41.513Y72.892
X41.463Y72.832
X41.426Y72.762
X41.403Y72.687
X41.395Y72.609
X41.403Y72.53
X41.426Y72.455
X41.463Y72.386
X41.513Y72.325
X41.574Y72.275
X41.643Y72.238
X41.718Y72.215
X41.797Y72.207
X41.875Y72.215
G0Z1
X29.88Y109.607
G1Z-0.5F50
X29.95Y109.644F100
X30.011Y109.694
X30.06Y109.755
X30.098Y109.824
X30.12Y109.899
X30.128Y109.977
X30.12Y110.056
X30.098Y110.129
X30.06Y110.2
X30.011Y110.261
X29.95Y110.311
X29.88Y110.348
X29.805Y110.371
X29.727Y110.379
X29.649Y110.371
X29.573Y110.348
X29.504Y110.311
X29.443Y110.261
X29.393Y110.2
X29.358Y110.135
X29.333Y110.053
X29.326Y109.978
X29.333Y109.899
X29.356Y109.824
X29.393Y109.755
X29.443Y109.694
X29.504Y109.644
X29.573Y109.607
X29.649Y109.584
X29.727Y109.576
X29.805Y109.584
X29.88Y109.607
G0Z1
X70.996Y114.087
G1Z-0.5F50
X71.019Y114.012F100
X71.056Y113.942
X71.106Y113.881
X71.167Y113.831
X71.236Y113.795
X71.312Y113.772
X71.39Y113.764
X71.468Y113.772
X71.543Y113.794
X71.613Y113.831
X71.673Y113.881
X71.723Y113.942
X71.76Y114.012
X71.783Y114.087
X71.791Y114.165
X71.783Y114.243
X71.76Y114.319
X71.724Y114.387
X71.673Y114.449
X71.613Y114.499
X71.543Y114.536
X71.468Y114.559
X71.39Y114.566
X71.311Y114.559
X71.236Y114.536
X71.167Y114.499
X71.106Y114.449
X71.056Y114.388
X71.02Y114.32
X70.996Y114.242
X70.988Y114.165
X70.996Y114.087
G0Z1
X86.497Y66.682
G1Z-0.5F50
X84.477Y66.045F100
X85.914Y61.486
X87.934Y62.123
X86.497Y66.682
G0Z1
X90.255Y55.04
G1Z-0.5F50
X90.185Y55.003F100
X90.125Y54.953
X90.075Y54.892
X90.038Y54.823
X90.015Y54.747
X90.007Y54.669
X90.015Y54.591
X90.038Y54.515
X90.075Y54.446
X90.125Y54.385
X90.185Y54.335
X90.255Y54.298
X90.33Y54.275
X90.408Y54.268
X90.487Y54.275
X90.562Y54.298
X90.631Y54.335
X90.692Y54.385
X90.742Y54.446
X90.779Y54.515
X90.802Y54.591
X90.81Y54.669
X90.802Y54.747
X90.779Y54.822
X90.742Y54.892
X90.692Y54.953
X90.631Y55.003
X90.562Y55.04
X90.487Y55.062
X90.41Y55.07
X90.329Y55.062
X90.255Y55.04
G0Z1
X108.674Y39.468
G1Z-0.5F50
X108.646Y39.431F100
X108.636Y39.418
X108.612Y39.368
X108.604Y39.351
X108.591Y39.304
X108.584Y39.282
X108.577Y39.205
X108.584Y39.125
X108.602Y39.065
X108.606Y39.052
X108.63Y39.005
X108.64Y38.986
X108.651Y38.971
X108.676Y38.939
X108.693Y38.919
X108.713Y38.902
X108.745Y38.877
X108.76Y38.865
X108.779Y38.856
X108.826Y38.831
X108.864Y38.821
X108.899Y38.81
X108.978Y38.802
X109.055Y38.81
X109.079Y38.817
X109.126Y38.829
X109.143Y38.839
X109.192Y38.862
X109.206Y38.872
X109.243Y38.9
X109.263Y38.918
X109.287Y38.945
X109.301Y38.963
X109.325Y38.996
X109.344Y39.037
X109.358Y39.066
X109.377Y39.136
X109.383Y39.206
X109.377Y39.276
X109.359Y39.344
X109.328Y39.41
X109.307Y39.44
X109.288Y39.465
X109.262Y39.492
X109.24Y39.514
X109.184Y39.554
X109.118Y39.585
X109.05Y39.603
X108.98Y39.609
X108.91Y39.603
X108.84Y39.584
X108.812Y39.57
X108.77Y39.551
X108.738Y39.526
X108.719Y39.513
X108.693Y39.489
X108.674Y39.468
G0Z1
X105.996Y32.123
G1Z-0.5F50
X105.921Y32.145F100
X105.845Y32.153
X105.763Y32.145
X105.689Y32.123
X105.619Y32.086
X105.558Y32.036
X105.509Y31.975
X105.472Y31.906
X105.449Y31.83
X105.441Y31.752
X105.449Y31.674
X105.471Y31.598
X105.509Y31.529
X105.558Y31.468
X105.619Y31.418
X105.689Y31.381
X105.764Y31.358
X105.842Y31.351
X105.921Y31.358
X105.996Y31.381
X106.065Y31.418
X106.126Y31.468
X106.176Y31.529
X106.213Y31.598
X106.236Y31.674
X106.244Y31.752
X106.236Y31.83
X106.213Y31.904
X106.176Y31.975
X106.127Y32.034
X106.065Y32.086
X105.996Y32.123
G0Z1
X120.485Y36.653
G1Z-0.5F50
X121.577Y33.29F100
X121.595Y33.295
X119.946Y38.37
X119.928Y38.365
X120.485Y36.653
G0Z1
X143.914Y39.561
G1Z-0.5F50
X143.937Y39.486F100
X143.974Y39.417
X144.024Y39.356
X144.085Y39.306
X144.154Y39.269
X144.23Y39.246
X144.308Y39.238
X144.386Y39.246
X144.462Y39.269
X144.531Y39.306
X144.592Y39.356
X144.64Y39.415
X144.679Y39.486
X144.702Y39.561
X144.709Y39.636
X144.702Y39.718
X144.679Y39.793
X144.642Y39.863
X144.593Y39.922
X144.531Y39.973
X144.462Y40.01
X144.386Y40.033
X144.308Y40.041
X144.23Y40.033
X144.154Y40.01
X144.085Y39.973
X144.024Y39.923
X143.974Y39.863
X143.937Y39.793
X143.914Y39.718
X143.907Y39.64
X143.914Y39.561
G0Z1
X153.908Y39.64
G1Z-0.5F50
X153.916Y39.562F100
X153.939Y39.486
X153.976Y39.417
X154.026Y39.356
X154.087Y39.306
X154.156Y39.269
X154.231Y39.246
X154.309Y39.239
X154.388Y39.246
X154.463Y39.269
X154.532Y39.306
X154.593Y39.356
X154.643Y39.417
X154.68Y39.486
X154.703Y39.562
X154.711Y39.64
X154.703Y39.718
X154.68Y39.793
X154.643Y39.863
X154.592Y39.925
X154.576Y39.938
X154.546Y39.965
X154.517Y39.992
X154.488Y40.021
X154.46Y40.05
X154.451Y40.059
X154.429Y40.055
X154.389Y40.05
X154.333Y40.044
X154.231Y40.033
X154.156Y40.011
X154.087Y39.974
X154.026Y39.924
X153.976Y39.863
X153.939Y39.794
X153.916Y39.718
X153.908Y39.64
G0Z1
X194.071
G1Z-0.5F50
X194.079Y39.562F100
X194.102Y39.486
X194.139Y39.417
X194.189Y39.356
X194.249Y39.306
X194.319Y39.269
X194.394Y39.246
X194.472Y39.239
X194.551Y39.246
X194.626Y39.269
X194.695Y39.306
X194.756Y39.356
X194.806Y39.417
X194.843Y39.487
X194.866Y39.562
X194.874Y39.64
X194.867Y39.711
X194.842Y39.796
X194.806Y39.863
X194.756Y39.924
X194.695Y39.974
X194.648Y39.999
X194.614Y40.017
X194.58Y40.037
X194.547Y40.058
X194.534Y40.066
X194.519Y40.062
X194.481Y40.054
X194.444Y40.046
X194.421Y40.042
X194.319Y40.011
X194.249Y39.974
X194.189Y39.924
X194.139Y39.863
X194.102Y39.793
X194.079Y39.718
X194.071Y39.64
G0Z1
X194.127Y44.113
G1Z-0.5F50
X194.301Y44.133F100
X194.333Y44.136
X194.366Y44.139
X194.399Y44.141
X194.432Y44.142
X194.556Y44.146
X194.604Y44.147
X194.652Y44.146
X194.775Y44.142
X194.808Y44.141
X194.841Y44.139
X194.874Y44.136
X194.907Y44.133
X195.08Y44.113
X197.826
X197.865
X197.904Y44.111
X197.944Y44.109
X197.983Y44.106
X198.022Y44.101
X198.061Y44.096
X198.1Y44.09
X198.138Y44.082
X198.177Y44.074
X198.215Y44.065
X198.253Y44.055
X198.291Y44.044
X198.329Y44.032
X198.366Y44.019
X198.403Y44.005
X198.439Y43.99
X198.475Y43.975
X198.512Y43.958
X198.547Y43.94
X198.582Y43.922
X198.616Y43.903
X198.65Y43.883
X198.684Y43.862
X198.716Y43.841
X198.749Y43.818
X198.781Y43.795
X198.812Y43.771
X198.842Y43.746
X198.872Y43.721
X198.902Y43.694
X198.93Y43.667
X198.958Y43.64
X198.986Y43.611
X199.012Y43.582
X199.038Y43.553
X199.063Y43.522
X199.667Y42.775
X199.697Y42.737
X199.729Y42.693
X199.744Y42.671
X199.759Y42.648
X199.781Y42.614
X199.798Y42.585
X199.815Y42.555
X199.834Y42.52
X199.852Y42.486
X199.865Y42.457
X199.878Y42.429
X199.893Y42.396
X199.906Y42.363
X199.921Y42.322
X199.936Y42.281
X199.946Y42.248
X199.956Y42.214
X199.966Y42.179
X199.974Y42.145
X199.982Y42.11
X199.989Y42.075
X199.998Y42.026
X200.004Y41.981
X200.009Y41.937
X200.013Y41.892
X200.015Y41.855
X200.016Y41.817
X200.017Y41.78
X200.016Y28.071
X200.015Y28.025
X200.011Y27.972
X200.006Y27.925
X200Y27.877
X199.989Y27.812
X199.976Y27.749
X199.965Y27.702
X199.955Y27.666
X199.944Y27.631
X199.933Y27.596
X199.92Y27.559
X199.906Y27.523
X199.891Y27.487
X199.876Y27.451
X199.859Y27.416
X199.842Y27.381
X199.824Y27.346
X199.805Y27.312
X199.785Y27.279
X199.764Y27.246
X199.743Y27.213
X199.72Y27.181
X199.697Y27.15
X199.674Y27.119
X199.649Y27.089
X199.624Y27.059
X199.598Y27.03
X199.571Y27.002
X199.543Y26.974
X199.516Y26.947
X199.488Y26.922
X199.459Y26.897
X199.43Y26.872
X199.401Y26.849
X199.37Y26.826
X199.34Y26.804
X199.308Y26.782
X199.277Y26.762
X199.244Y26.742
X199.212Y26.723
X199.178Y26.704
X199.145Y26.687
X199.111Y26.67
X199.076Y26.654
X199.042Y26.639
X199.006Y26.625
X198.962Y26.608
X198.925Y26.595
X198.888Y26.584
X198.855Y26.574
X198.807Y26.561
X198.77Y26.553
X198.734Y26.545
X198.694Y26.538
X198.659Y26.532
X198.624Y26.527
X198.58Y26.522
X198.536Y26.519
X198.491Y26.516
X198.459Y26.515
X198.426
X88.19
X88.152
X88.113Y26.517
X88.075Y26.519
X88.036Y26.522
X87.998Y26.527
X87.96Y26.532
X87.922Y26.538
X87.884Y26.545
X87.846Y26.553
X87.809Y26.561
X87.771Y26.571
X87.734Y26.582
X87.698Y26.593
X87.661Y26.605
X87.625Y26.619
X87.589Y26.633
X87.554Y26.648
X87.518Y26.664
X87.484Y26.68
X87.449Y26.698
X87.416Y26.716
X87.382Y26.735
X87.349Y26.755
X87.317Y26.776
X87.285Y26.798
X87.253Y26.82
X87.223Y26.843
X87.192Y26.867
X87.162Y26.892
X87.132Y26.918
X87.104Y26.944
X87.076Y26.97
X87.049Y26.998
X87.022Y27.026
X86.996Y27.055
X86.971Y27.084
X86.946Y27.114
X86.923Y27.144
X86.9Y27.175
X86.877Y27.207
X86.856Y27.239
X86.835Y27.272
X86.815Y27.305
X86.796Y27.339
X86.778Y27.373
X86.761Y27.407
X86.744Y27.442
X86.728Y27.477
X86.714Y27.513
X86.7Y27.549
X86.687Y27.586
X86.674Y27.622
X86.663Y27.659
X86.653Y27.696
X86.643Y27.734
X86.635Y27.772
X86.627Y27.81
X86.617Y27.868
X86.61Y27.92
X86.607Y27.95
X86.603Y27.993
X86.602Y28.015
X80.028
X80.027Y27.998
X80.025Y27.963
X80.021Y27.929
X80.017Y27.895
X80.013Y27.865
X80.005Y27.818
X79.997Y27.779
X79.989Y27.74
X79.979Y27.702
X79.968Y27.664
X79.957Y27.626
X79.945Y27.588
X79.931Y27.551
X79.917Y27.514
X79.902Y27.478
X79.886Y27.441
X79.869Y27.406
X79.851Y27.37
X79.832Y27.335
X79.812Y27.301
X79.792Y27.267
X79.771Y27.234
X79.749Y27.201
X79.726Y27.169
X79.702Y27.137
X79.677Y27.106
X79.652Y27.075
X79.626Y27.046
X79.599Y27.016
X79.572Y26.988
X79.544Y26.96
X79.515Y26.933
X79.485Y26.907
X79.454Y26.88
X79.424Y26.856
X79.392Y26.832
X79.361Y26.809
X79.328Y26.786
X79.296Y26.765
X79.262Y26.744
X79.228Y26.724
X79.194Y26.705
X79.159Y26.687
X79.124Y26.669
X79.088Y26.653
X79.052Y26.637
X79.016Y26.623
X78.979Y26.609
X78.942Y26.596
X78.905Y26.584
X78.867Y26.573
X78.829Y26.563
X78.791Y26.554
X78.752Y26.546
X78.714Y26.539
X78.675Y26.532
X78.636Y26.527
X78.597Y26.523
X78.558Y26.519
X78.519Y26.517
X78.479Y26.515
X78.44
X19.048
X19.01
X18.972Y26.517
X18.933Y26.519
X18.895Y26.522
X18.856Y26.527
X18.818Y26.532
X18.78Y26.538
X18.742Y26.545
X18.705Y26.552
X18.667Y26.561
X18.63Y26.571
X18.593Y26.581
X18.556Y26.593
X18.52Y26.605
X18.483Y26.619
X18.447Y26.633
X18.412Y26.648
X18.377Y26.664
X18.342Y26.68
X18.308Y26.698
X18.274Y26.716
X18.241Y26.735
X18.208Y26.755
X18.175Y26.776
X18.143Y26.797
X18.112Y26.82
X18.081Y26.843
X18.051Y26.866
X18.021Y26.891
X17.992Y26.916
X17.646Y27.224
X17.315Y27.524
X17.286Y27.551
X17.257Y27.578
X17.23Y27.607
X17.203Y27.636
X17.177Y27.665
X17.152Y27.695
X17.127Y27.726
X17.103Y27.758
X17.08Y27.79
X17.058Y27.822
X17.036Y27.856
X17.016Y27.888
X16.997Y27.921
X16.979Y27.955
X16.961Y27.989
X16.945Y28.023
X16.929Y28.058
X16.914Y28.093
X16.899Y28.128
X16.886Y28.164
X16.874Y28.2
X16.862Y28.236
X16.851Y28.273
X16.841Y28.309
X16.832Y28.347
X16.824Y28.385
X16.817Y28.424
X16.81Y28.463
X16.805Y28.503
X16.8Y28.542
X16.797Y28.581
X16.794Y28.621
X16.793Y28.66
X16.792Y28.7
Y28.739
X16.794Y28.779
X16.796Y28.815
X16.799Y28.85
X16.803Y28.886
X16.807Y28.921
X16.812Y28.956
X16.876Y29.352
X16.881Y29.378
X16.891Y29.429
X16.976Y29.829
X16.989Y29.884
X17.003Y29.938
X17.121Y30.346
X17.132Y30.382
X17.143Y30.418
X17.156Y30.454
X17.17Y30.49
X17.342Y30.928
X17.358Y30.965
X17.375Y31.003
X17.392Y31.04
X17.41Y31.077
X17.641Y31.521
X17.661Y31.558
X17.681Y31.593
X17.703Y31.629
X17.725Y31.663
X17.976Y32.044
X17.997Y32.075
X18.018Y32.106
X18.041Y32.136
X18.064Y32.165
X18.311Y32.472
X18.331Y32.497
X18.352Y32.521
X18.373Y32.545
X18.395Y32.569
X18.62Y32.807
X18.647Y32.835
X18.674Y32.861
X18.702Y32.887
X18.73Y32.913
X19.142Y33.273
X19.167Y33.294
X19.192Y33.315
X19.218Y33.335
X19.244Y33.355
X19.271Y33.374
X19.298Y33.392
X19.748Y33.697
X19.776Y33.715
X19.803Y33.733
X19.832Y33.75
X19.86Y33.766
X19.889Y33.782
X19.919Y33.797
X20.406Y34.045
X20.435Y34.059
X20.465Y34.073
X20.495Y34.087
X20.525Y34.1
X20.556Y34.112
X20.587Y34.123
X21.101Y34.308
X21.131Y34.319
X21.162Y34.329
X21.194Y34.339
X21.225Y34.348
X21.257Y34.356
X21.289Y34.363
X21.822Y34.484
X21.87Y34.494
X21.918Y34.503
X23.648Y34.783
X24.468Y34.92
X25.251Y35.058
X25.987Y35.197
X26.678Y35.339
X27.329Y35.487
X27.944Y35.643
X28.751Y35.876
X29.521Y36.133
X30.264Y36.417
X30.989Y36.73
X31.612Y37.031
X32.221Y37.355
X32.812Y37.701
X33.382Y38.067
X33.93Y38.451
X34.452Y38.852
X34.948Y39.267
X35.415Y39.697
X35.855Y40.141
X36.268Y40.598
X36.652Y41.067
X37.008Y41.549
X37.336Y42.042
X37.636Y42.547
X37.909Y43.064
X38.155Y43.595
X38.375Y44.141
X38.569Y44.703
X38.737Y45.282
X38.88Y45.878
X38.997Y46.492
X39.087Y47.124
X39.15Y47.774
X39.186Y48.442
X39.195Y49.129
X39.176Y49.833
X39.13Y50.553
X39.056Y51.289
X38.956Y52.04
X38.829Y52.804
X38.676Y53.581
X38.497Y54.369
X20.197Y111.784
X20.186Y111.821
X20.175Y111.857
X20.121Y112.06
X20.112Y112.096
X20.104Y112.133
X20.096Y112.171
X20.089Y112.208
X20.055Y112.415
X20.049Y112.453
X20.044Y112.491
X20.04Y112.529
X20.037Y112.567
X20.023Y112.776
X20.02Y112.814
X20.019Y112.853
Y112.891
Y112.93
X20.025Y113.135
X20.026Y113.172
X20.029Y113.209
X20.032Y113.245
X20.036Y113.282
X20.059Y113.473
X20.063Y113.506
X20.068Y113.54
X20.074Y113.574
X20.081Y113.607
X20.117Y113.781
X20.124Y113.813
X20.132Y113.844
X20.143Y113.887
X20.155Y113.929
X20.26Y114.249
X20.272Y114.283
X20.284Y114.316
X20.297Y114.35
X20.311Y114.383
X20.325Y114.416
X20.341Y114.449
X20.469Y114.713
X20.484Y114.743
X20.5Y114.774
X20.517Y114.804
X20.535Y114.834
X20.553Y114.864
X20.571Y114.893
X20.732Y115.137
X20.75Y115.164
X20.769Y115.191
X20.789Y115.218
X20.809Y115.244
X20.829Y115.269
X20.85Y115.294
X21.043Y115.52
X21.074Y115.556
X21.107Y115.591
X21.14Y115.625
X21.175Y115.658
X21.422Y115.885
X21.447Y115.908
X21.473Y115.931
X21.5Y115.952
X21.526Y115.974
X21.553Y115.994
X21.581Y116.014
X21.765Y116.144
X21.906Y116.244
X21.939Y116.266
X21.972Y116.288
X22.006Y116.309
X22.041Y116.329
X22.233Y116.437
X22.282Y116.464
X22.332Y116.489
X22.545Y116.59
X22.594Y116.612
X22.643Y116.632
X22.874Y116.724
X22.918Y116.741
X22.963Y116.756
X23.215Y116.839
X23.254Y116.851
X23.293Y116.862
X23.567Y116.937
X23.601Y116.945
X23.634Y116.953
X23.935Y117.021
X23.964Y117.027
X23.992Y117.033
X24.35Y117.1
X24.765Y117.166
X25.223Y117.228
X25.47Y117.259
X25.743Y117.29
X26.046Y117.324
X26.382Y117.359
X26.756Y117.397
X27.169Y117.437
X27.624Y117.481
X28.129Y117.528
X28.683Y117.579
X69.039Y121.252
X69.648Y121.299
X70.216Y121.328
X70.251Y121.329
X70.286Y121.33
X70.803Y121.334
X70.854Y121.333
X70.905Y121.331
X71.419Y121.302
X71.45Y121.3
X71.482Y121.297
X71.514Y121.294
X71.546Y121.29
X71.996Y121.227
X72.033Y121.222
X72.069Y121.216
X72.105Y121.209
X72.14Y121.201
X72.572Y121.1
X72.61Y121.091
X72.648Y121.08
X72.686Y121.069
X72.723Y121.057
X73.106Y120.927
X73.143Y120.914
X73.179Y120.9
X73.216Y120.885
X73.251Y120.869
X73.584Y120.718
X73.619Y120.701
X73.654Y120.684
X73.688Y120.666
X73.721Y120.647
X74.006Y120.483
X74.038Y120.464
X74.07Y120.444
X74.101Y120.423
X74.132Y120.402
X74.371Y120.232
X74.4Y120.211
X74.428Y120.19
X74.455Y120.168
X74.482Y120.145
X74.68Y119.976
X74.704Y119.955
X74.728Y119.933
X74.751Y119.911
X74.774Y119.889
X74.933Y119.729
X74.973Y119.688
X75.01Y119.645
X75.134Y119.502
X75.165Y119.465
X75.194Y119.428
X75.287Y119.306
X75.306Y119.281
X75.324Y119.256
X75.342Y119.23
X75.359Y119.204
X75.515Y118.962
X75.537Y118.927
X75.559Y118.89
X75.579Y118.854
X75.598Y118.817
X75.728Y118.56
X75.747Y118.522
X75.765Y118.482
X75.782Y118.443
X75.797Y118.403
X75.899Y118.133
X75.914Y118.092
X75.927Y118.051
X95.931Y54.613
X96.097Y54.102
X96.13Y54.003
X96.366Y53.34
X96.637Y52.68
X96.966Y52
X97.144Y51.676
X97.347Y51.34
X97.571Y51.001
X97.817Y50.66
X98.086Y50.319
X98.369Y49.992
X98.666Y49.68
X98.975Y49.382
X99.297Y49.099
X99.632Y48.83
X99.979Y48.575
X100.34Y48.334
X100.714Y48.107
X101.088Y47.9
X101.91Y47.509
X102.756Y47.179
X103.634Y46.902
X104.535Y46.675
X105.456Y46.495
X105.676Y46.46
X105.942Y46.422
X106.256Y46.381
X106.633Y46.336
X107.082Y46.284
X107.48Y46.239
X107.935Y46.189
X109.695Y45.997
X127.064Y44.113
X154.128
X154.301Y44.133
X154.333Y44.136
X154.366Y44.139
X154.399Y44.141
X154.432Y44.142
X154.556Y44.146
X154.585Y44.147
X154.633
X154.775Y44.142
X154.808Y44.141
X154.841Y44.139
X154.874Y44.136
X154.907Y44.133
X155.08Y44.113
X194.127
G0Z1
X46.368Y54.038
G1Z-0.6F50
X46.428Y53.988F100
X46.498Y53.951
X46.573Y53.928
X46.651Y53.92
X46.73Y53.928
X46.805Y53.951
X46.874Y53.988
X46.935Y54.038
X46.985Y54.099
X47.022Y54.168
X47.045Y54.244
X47.053Y54.322
X47.045Y54.4
X47.022Y54.475
X46.985Y54.545
X46.935Y54.606
X46.874Y54.655
X46.805Y54.693
X46.73Y54.715
X46.651Y54.723
X46.573Y54.715
X46.498Y54.693
X46.428Y54.655
X46.368Y54.606
X46.318Y54.545
X46.281Y54.475
X46.258Y54.4
X46.25Y54.322
X46.258Y54.244
X46.281Y54.168
X46.318Y54.099
X46.368Y54.038
G0Z1
X41.875Y72.215
G1Z-0.6F50
X41.95Y72.238F100
X42.02Y72.275
X42.08Y72.325
X42.13Y72.386
X42.167Y72.455
X42.19Y72.53
X42.198Y72.609
X42.19Y72.687
X42.167Y72.762
X42.13Y72.832
X42.08Y72.892
X42.02Y72.942
X41.95Y72.979
X41.875Y73.002
X41.797Y73.01
X41.718Y73.002
X41.643Y72.979
X41.574Y72.942
X41.513Y72.892
X41.463Y72.832
X41.426Y72.762
X41.403Y72.687
X41.395Y72.609
X41.403Y72.53
X41.426Y72.455
X41.463Y72.386
X41.513Y72.325
X41.574Y72.275
X41.643Y72.238
X41.718Y72.215
X41.797Y72.207
X41.875Y72.215
G0Z1
X29.88Y109.607
G1Z-0.6F50
X29.95Y109.644F100
X30.011Y109.694
X30.06Y109.755
X30.098Y109.824
X30.12Y109.899
X30.128Y109.977
X30.12Y110.056
X30.098Y110.129
X30.06Y110.2
X30.011Y110.261
X29.95Y110.311
X29.88Y110.348
X29.805Y110.371
X29.727Y110.379
X29.649Y110.371
X29.573Y110.348
X29.504Y110.311
X29.443Y110.261
X29.393Y110.2
X29.358Y110.135
X29.333Y110.053
X29.326Y109.978
X29.333Y109.899
X29.356Y109.824
X29.393Y109.755
X29.443Y109.694
X29.504Y109.644
X29.573Y109.607
X29.649Y109.584
X29.727Y109.576
X29.805Y109.584
X29.88Y109.607
G0Z1
X70.996Y114.087
G1Z-0.6F50
X71.019Y114.012F100
X71.056Y113.942
X71.106Y113.881
X71.167Y113.831
X71.236Y113.795
X71.312Y113.772
X71.39Y113.764
X71.468Y113.772
X71.543Y113.794
X71.613Y113.831
X71.673Y113.881
X71.723Y113.942
X71.76Y114.012
X71.783Y114.087
X71.791Y114.165
X71.783Y114.243
X71.76Y114.319
X71.724Y114.387
X71.673Y114.449
X71.613Y114.499
X71.543Y114.536
X71.468Y114.559
X71.39Y114.566
X71.311Y114.559
X71.236Y114.536
X71.167Y114.499
X71.106Y114.449
X71.056Y114.388
X71.02Y114.32
X70.996Y114.242
X70.988Y114.165
X70.996Y114.087
G0Z1
X86.497Y66.682
G1Z-0.6F50
X84.477Y66.045F100
X85.914Y61.486
X87.934Y62.123
X86.497Y66.682
G0Z1
X90.255Y55.04
G1Z-0.6F50
X90.185Y55.003F100
X90.125Y54.953
X90.075Y54.892
X90.038Y54.823
X90.015Y54.747
X90.007Y54.669
X90.015Y54.591
X90.038Y54.515
X90.075Y54.446
X90.125Y54.385
X90.185Y54.335
X90.255Y54.298
X90.33Y54.275
X90.408Y54.268
X90.487Y54.275
X90.562Y54.298
X90.631Y54.335
X90.692Y54.385
X90.742Y54.446
X90.779Y54.515
X90.802Y54.591
X90.81Y54.669
X90.802Y54.747
X90.779Y54.822
X90.742Y54.892
X90.692Y54.953
X90.631Y55.003
X90.562Y55.04
X90.487Y55.062
X90.41Y55.07
X90.329Y55.062
X90.255Y55.04
G0Z1
X108.674Y39.468
G1Z-0.6F50
X108.646Y39.431F100
X108.636Y39.418
X108.612Y39.368
X108.604Y39.351
X108.591Y39.304
X108.584Y39.282
X108.577Y39.205
X108.584Y39.125
X108.602Y39.065
X108.606Y39.052
X108.63Y39.005
X108.64Y38.986
X108.651Y38.971
X108.676Y38.939
X108.693Y38.919
X108.713Y38.902
X108.745Y38.877
X108.76Y38.865
X108.779Y38.856
X108.826Y38.831
X108.864Y38.821
X108.899Y38.81
X108.978Y38.802
X109.055Y38.81
X109.079Y38.817
X109.126Y38.829
X109.143Y38.839
X109.192Y38.862
X109.206Y38.872
X109.243Y38.9
X109.263Y38.918
X109.287Y38.945
X109.301Y38.963
X109.325Y38.996
X109.344Y39.037
X109.358Y39.066
X109.377Y39.136
X109.383Y39.206
X109.377Y39.276
X109.359Y39.344
X109.328Y39.41
X109.307Y39.44
X109.288Y39.465
X109.262Y39.492
X109.24Y39.514
X109.184Y39.554
X109.118Y39.585
X109.05Y39.603
X108.98Y39.609
X108.91Y39.603
X108.84Y39.584
X108.812Y39.57
X108.77Y39.551
X108.738Y39.526
X108.719Y39.513
X108.693Y39.489
X108.674Y39.468
G0Z1
X105.996Y32.123
G1Z-0.6F50
X105.921Y32.145F100
X105.845Y32.153
X105.763Y32.145
X105.689Y32.123
X105.619Y32.086
X105.558Y32.036
X105.509Y31.975
X105.472Y31.906
X105.449Y31.83
X105.441Y31.752
X105.449Y31.674
X105.471Y31.598
X105.509Y31.529
X105.558Y31.468
X105.619Y31.418
X105.689Y31.381
X105.764Y31.358
X105.842Y31.351
X105.921Y31.358
X105.996Y31.381
X106.065Y31.418
X106.126Y31.468
X106.176Y31.529
X106.213Y31.598
X106.236Y31.674
X106.244Y31.752
X106.236Y31.83
X106.213Y31.904
X106.176Y31.975
X106.127Y32.034
X106.065Y32.086
X105.996Y32.123
G0Z1
X120.485Y36.653
G1Z-0.6F50
X121.577Y33.29F100
X121.595Y33.295
X119.946Y38.37
X119.928Y38.365
X120.485Y36.653
G0Z1
X143.914Y39.561
G1Z-0.6F50
X143.937Y39.486F100
X143.974Y39.417
X144.024Y39.356
X144.085Y39.306
X144.154Y39.269
X144.23Y39.246
X144.308Y39.238
X144.386Y39.246
X144.462Y39.269
X144.531Y39.306
X144.592Y39.356
X144.64Y39.415
X144.679Y39.486
X144.702Y39.561
X144.709Y39.636
X144.702Y39.718
X144.679Y39.793
X144.642Y39.863
X144.593Y39.922
X144.531Y39.973
X144.462Y40.01
X144.386Y40.033
X144.308Y40.041
X144.23Y40.033
X144.154Y40.01
X144.085Y39.973
X144.024Y39.923
X143.974Y39.863
X143.937Y39.793
X143.914Y39.718
X143.907Y39.64
X143.914Y39.561
G0Z1
X153.908Y39.64
G1Z-0.6F50
X153.916Y39.562F100
X153.939Y39.486
X153.976Y39.417
X154.026Y39.356
X154.087Y39.306
X154.156Y39.269
X154.231Y39.246
X154.309Y39.239
X154.388Y39.246
X154.463Y39.269
X154.532Y39.306
X154.593Y39.356
X154.643Y39.417
X154.68Y39.486
X154.703Y39.562
X154.711Y39.64
X154.703Y39.718
X154.68Y39.793
X154.643Y39.863
X154.592Y39.925
X154.576Y39.938
X154.546Y39.965
X154.517Y39.992
X154.488Y40.021
X154.46Y40.05
X154.451Y40.059
X154.429Y40.055
X154.389Y40.05
X154.333Y40.044
X154.231Y40.033
X154.156Y40.011
X154.087Y39.974
X154.026Y39.924
X153.976Y39.863
X153.939Y39.794
X153.916Y39.718
X153.908Y39.64
G0Z1
X194.071
G1Z-0.6F50
X194.079Y39.562F100
X194.102Y39.486
X194.139Y39.417
X194.189Y39.356
X194.249Y39.306
X194.319Y39.269
X194.394Y39.246
X194.472Y39.239
X194.551Y39.246
X194.626Y39.269
X194.695Y39.306
X194.756Y39.356
X194.806Y39.417
X194.843Y39.487
X194.866Y39.562
X194.874Y39.64
X194.867Y39.711
X194.842Y39.796
X194.806Y39.863
X194.756Y39.924
X194.695Y39.974
X194.648Y39.999
X194.614Y40.017
X194.58Y40.037
X194.547Y40.058
X194.534Y40.066
X194.519Y40.062
X194.481Y40.054
X194.444Y40.046
X194.421Y40.042
X194.319Y40.011
X194.249Y39.974
X194.189Y39.924
X194.139Y39.863
X194.102Y39.793
X194.079Y39.718
X194.071Y39.64
G0Z1
X194.127Y44.113
G1Z-0.6F50
X194.301Y44.133F100
X194.333Y44.136
X194.366Y44.139
X194.399Y44.141
X194.432Y44.142
X194.556Y44.146
X194.604Y44.147
X194.652Y44.146
X194.775Y44.142
X194.808Y44.141
X194.841Y44.139
X194.874Y44.136
X194.907Y44.133
X195.08Y44.113
X197.826
X197.865
X197.904Y44.111
X197.944Y44.109
X197.983Y44.106
X198.022Y44.101
X198.061Y44.096
X198.1Y44.09
X198.138Y44.082
X198.177Y44.074
X198.215Y44.065
X198.253Y44.055
X198.291Y44.044
X198.329Y44.032
X198.366Y44.019
X198.403Y44.005
X198.439Y43.99
X198.475Y43.975
X198.512Y43.958
X198.547Y43.94
X198.582Y43.922
X198.616Y43.903
X198.65Y43.883
X198.684Y43.862
X198.716Y43.841
X198.749Y43.818
X198.781Y43.795
X198.812Y43.771
X198.842Y43.746
X198.872Y43.721
X198.902Y43.694
X198.93Y43.667
X198.958Y43.64
X198.986Y43.611
X199.012Y43.582
X199.038Y43.553
X199.063Y43.522
X199.667Y42.775
X199.697Y42.737
X199.729Y42.693
X199.744Y42.671
X199.759Y42.648
X199.781Y42.614
X199.798Y42.585
X199.815Y42.555
X199.834Y42.52
X199.852Y42.486
X199.865Y42.457
X199.878Y42.429
X199.893Y42.396
X199.906Y42.363
X199.921Y42.322
X199.936Y42.281
X199.946Y42.248
X199.956Y42.214
X199.966Y42.179
X199.974Y42.145
X199.982Y42.11
X199.989Y42.075
X199.998Y42.026
X200.004Y41.981
X200.009Y41.937
X200.013Y41.892
X200.015Y41.855
X200.016Y41.817
X200.017Y41.78
X200.016Y28.071
X200.015Y28.025
X200.011Y27.972
X200.006Y27.925
X200Y27.877
X199.989Y27.812
X199.976Y27.749
X199.965Y27.702
X199.955Y27.666
X199.944Y27.631
X199.933Y27.596
X199.92Y27.559
X199.906Y27.523
X199.891Y27.487
X199.876Y27.451
X199.859Y27.416
X199.842Y27.381
X199.824Y27.346
X199.805Y27.312
X199.785Y27.279
X199.764Y27.246
X199.743Y27.213
X199.72Y27.181
X199.697Y27.15
X199.674Y27.119
X199.649Y27.089
X199.624Y27.059
X199.598Y27.03
X199.571Y27.002
X199.543Y26.974
X199.516Y26.947
X199.488Y26.922
X199.459Y26.897
X199.43Y26.872
X199.401Y26.849
X199.37Y26.826
X199.34Y26.804
X199.308Y26.782
X199.277Y26.762
X199.244Y26.742
X199.212Y26.723
X199.178Y26.704
X199.145Y26.687
X199.111Y26.67
X199.076Y26.654
X199.042Y26.639
X199.006Y26.625
X198.962Y26.608
X198.925Y26.595
X198.888Y26.584
X198.855Y26.574
X198.807Y26.561
X198.77Y26.553
X198.734Y26.545
X198.694Y26.538
X198.659Y26.532
X198.624Y26.527
X198.58Y26.522
X198.536Y26.519
X198.491Y26.516
X198.459Y26.515
X198.426
X88.19
X88.152
X88.113Y26.517
X88.075Y26.519
X88.036Y26.522
X87.998Y26.527
X87.96Y26.532
X87.922Y26.538
X87.884Y26.545
X87.846Y26.553
X87.809Y26.561
X87.771Y26.571
X87.734Y26.582
X87.698Y26.593
X87.661Y26.605
X87.625Y26.619
X87.589Y26.633
X87.554Y26.648
X87.518Y26.664
X87.484Y26.68
X87.449Y26.698
X87.416Y26.716
X87.382Y26.735
X87.349Y26.755
X87.317Y26.776
X87.285Y26.798
X87.253Y26.82
X87.223Y26.843
X87.192Y26.867
X87.162Y26.892
X87.132Y26.918
X87.104Y26.944
X87.076Y26.97
X87.049Y26.998
X87.022Y27.026
X86.996Y27.055
X86.971Y27.084
X86.946Y27.114
X86.923Y27.144
X86.9Y27.175
X86.877Y27.207
X86.856Y27.239
X86.835Y27.272
X86.815Y27.305
X86.796Y27.339
X86.778Y27.373
X86.761Y27.407
X86.744Y27.442
X86.728Y27.477
X86.714Y27.513
X86.7Y27.549
X86.687Y27.586
X86.674Y27.622
X86.663Y27.659
X86.653Y27.696
X86.643Y27.734
X86.635Y27.772
X86.627Y27.81
X86.617Y27.868
X86.61Y27.92
X86.607Y27.95
X86.603Y27.993
X86.602Y28.015
X80.028
X80.027Y27.998
X80.025Y27.963
X80.021Y27.929
X80.017Y27.895
X80.013Y27.865
X80.005Y27.818
X79.997Y27.779
X79.989Y27.74
X79.979Y27.702
X79.968Y27.664
X79.957Y27.626
X79.945Y27.588
X79.931Y27.551
X79.917Y27.514
X79.902Y27.478
X79.886Y27.441
X79.869Y27.406
X79.851Y27.37
X79.832Y27.335
X79.812Y27.301
X79.792Y27.267
X79.771Y27.234
X79.749Y27.201
X79.726Y27.169
X79.702Y27.137
X79.677Y27.106
X79.652Y27.075
X79.626Y27.046
X79.599Y27.016
X79.572Y26.988
X79.544Y26.96
X79.515Y26.933
X79.485Y26.907
X79.454Y26.88
X79.424Y26.856
X79.392Y26.832
X79.361Y26.809
X79.328Y26.786
X79.296Y26.765
X79.262Y26.744
X79.228Y26.724
X79.194Y26.705
X79.159Y26.687
X79.124Y26.669
X79.088Y26.653
X79.052Y26.637
X79.016Y26.623
X78.979Y26.609
X78.942Y26.596
X78.905Y26.584
X78.867Y26.573
X78.829Y26.563
X78.791Y26.554
X78.752Y26.546
X78.714Y26.539
X78.675Y26.532
X78.636Y26.527
X78.597Y26.523
X78.558Y26.519
X78.519Y26.517
X78.479Y26.515
X78.44
X19.048
X19.01
X18.972Y26.517
X18.933Y26.519
X18.895Y26.522
X18.856Y26.527
X18.818Y26.532
X18.78Y26.538
X18.742Y26.545
X18.705Y26.552
X18.667Y26.561
X18.63Y26.571
X18.593Y26.581
X18.556Y26.593
X18.52Y26.605
X18.483Y26.619
X18.447Y26.633
X18.412Y26.648
X18.377Y26.664
X18.342Y26.68
X18.308Y26.698
X18.274Y26.716
X18.241Y26.735
X18.208Y26.755
X18.175Y26.776
X18.143Y26.797
X18.112Y26.82
X18.081Y26.843
X18.051Y26.866
X18.021Y26.891
X17.992Y26.916
X17.646Y27.224
X17.315Y27.524
X17.286Y27.551
X17.257Y27.578
X17.23Y27.607
X17.203Y27.636
X17.177Y27.665
X17.152Y27.695
X17.127Y27.726
X17.103Y27.758
X17.08Y27.79
X17.058Y27.822
X17.036Y27.856
X17.016Y27.888
X16.997Y27.921
X16.979Y27.955
X16.961Y27.989
X16.945Y28.023
X16.929Y28.058
X16.914Y28.093
X16.899Y28.128
X16.886Y28.164
X16.874Y28.2
X16.862Y28.236
X16.851Y28.273
X16.841Y28.309
X16.832Y28.347
X16.824Y28.385
X16.817Y28.424
X16.81Y28.463
X16.805Y28.503
X16.8Y28.542
X16.797Y28.581
X16.794Y28.621
X16.793Y28.66
X16.792Y28.7
Y28.739
X16.794Y28.779
X16.796Y28.815
X16.799Y28.85
X16.803Y28.886
X16.807Y28.921
X16.812Y28.956
X16.876Y29.352
X16.881Y29.378
X16.891Y29.429
X16.976Y29.829
X16.989Y29.884
X17.003Y29.938
X17.121Y30.346
X17.132Y30.382
X17.143Y30.418
X17.156Y30.454
X17.17Y30.49
X17.342Y30.928
X17.358Y30.965
X17.375Y31.003
X17.392Y31.04
X17.41Y31.077
X17.641Y31.521
X17.661Y31.558
X17.681Y31.593
X17.703Y31.629
X17.725Y31.663
X17.976Y32.044
X17.997Y32.075
X18.018Y32.106
X18.041Y32.136
X18.064Y32.165
X18.311Y32.472
X18.331Y32.497
X18.352Y32.521
X18.373Y32.545
X18.395Y32.569
X18.62Y32.807
X18.647Y32.835
X18.674Y32.861
X18.702Y32.887
X18.73Y32.913
X19.142Y33.273
X19.167Y33.294
X19.192Y33.315
X19.218Y33.335
X19.244Y33.355
X19.271Y33.374
X19.298Y33.392
X19.748Y33.697
X19.776Y33.715
X19.803Y33.733
X19.832Y33.75
X19.86Y33.766
X19.889Y33.782
X19.919Y33.797
X20.406Y34.045
X20.435Y34.059
X20.465Y34.073
X20.495Y34.087
X20.525Y34.1
X20.556Y34.112
X20.587Y34.123
X21.101Y34.308
X21.131Y34.319
X21.162Y34.329
X21.194Y34.339
X21.225Y34.348
X21.257Y34.356
X21.289Y34.363
X21.822Y34.484
X21.87Y34.494
X21.918Y34.503
X23.648Y34.783
X24.468Y34.92
X25.251Y35.058
X25.987Y35.197
X26.678Y35.339
X27.329Y35.487
X27.944Y35.643
X28.751Y35.876
X29.521Y36.133
X30.264Y36.417
X30.989Y36.73
X31.612Y37.031
X32.221Y37.355
X32.812Y37.701
X33.382Y38.067
X33.93Y38.451
X34.452Y38.852
X34.948Y39.267
X35.415Y39.697
X35.855Y40.141
X36.268Y40.598
X36.652Y41.067
X37.008Y41.549
X37.336Y42.042
X37.636Y42.547
X37.909Y43.064
X38.155Y43.595
X38.375Y44.141
X38.569Y44.703
X38.737Y45.282
X38.88Y45.878
X38.997Y46.492
X39.087Y47.124
X39.15Y47.774
X39.186Y48.442
X39.195Y49.129
X39.176Y49.833
X39.13Y50.553
X39.056Y51.289
X38.956Y52.04
X38.829Y52.804
X38.676Y53.581
X38.497Y54.369
X20.197Y111.784
X20.186Y111.821
X20.175Y111.857
X20.121Y112.06
X20.112Y112.096
X20.104Y112.133
X20.096Y112.171
X20.089Y112.208
X20.055Y112.415
X20.049Y112.453
X20.044Y112.491
X20.04Y112.529
X20.037Y112.567
X20.023Y112.776
X20.02Y112.814
X20.019Y112.853
Y112.891
Y112.93
X20.025Y113.135
X20.026Y113.172
X20.029Y113.209
X20.032Y113.245
X20.036Y113.282
X20.059Y113.473
X20.063Y113.506
X20.068Y113.54
X20.074Y113.574
X20.081Y113.607
X20.117Y113.781
X20.124Y113.813
X20.132Y113.844
X20.143Y113.887
X20.155Y113.929
X20.26Y114.249
X20.272Y114.283
X20.284Y114.316
X20.297Y114.35
X20.311Y114.383
X20.325Y114.416
X20.341Y114.449
X20.469Y114.713
X20.484Y114.743
X20.5Y114.774
X20.517Y114.804
X20.535Y114.834
X20.553Y114.864
X20.571Y114.893
X20.732Y115.137
X20.75Y115.164
X20.769Y115.191
X20.789Y115.218
X20.809Y115.244
X20.829Y115.269
X20.85Y115.294
X21.043Y115.52
X21.074Y115.556
X21.107Y115.591
X21.14Y115.625
X21.175Y115.658
X21.422Y115.885
X21.447Y115.908
X21.473Y115.931
X21.5Y115.952
X21.526Y115.974
X21.553Y115.994
X21.581Y116.014
X21.765Y116.144
X21.906Y116.244
X21.939Y116.266
X21.972Y116.288
X22.006Y116.309
X22.041Y116.329
X22.233Y116.437
X22.282Y116.464
X22.332Y116.489
X22.545Y116.59
X22.594Y116.612
X22.643Y116.632
X22.874Y116.724
X22.918Y116.741
X22.963Y116.756
X23.215Y116.839
X23.254Y116.851
X23.293Y116.862
X23.567Y116.937
X23.601Y116.945
X23.634Y116.953
X23.935Y117.021
X23.964Y117.027
X23.992Y117.033
X24.35Y117.1
X24.765Y117.166
X25.223Y117.228
X25.47Y117.259
X25.743Y117.29
X26.046Y117.324
X26.382Y117.359
X26.756Y117.397
X27.169Y117.437
X27.624Y117.481
X28.129Y117.528
X28.683Y117.579
X69.039Y121.252
X69.648Y121.299
X70.216Y121.328
X70.251Y121.329
X70.286Y121.33
X70.803Y121.334
X70.854Y121.333
X70.905Y121.331
X71.419Y121.302
X71.45Y121.3
X71.482Y121.297
X71.514Y121.294
X71.546Y121.29
X71.996Y121.227
X72.033Y121.222
X72.069Y121.216
X72.105Y121.209
X72.14Y121.201
X72.572Y121.1
X72.61Y121.091
X72.648Y121.08
X72.686Y121.069
X72.723Y121.057
X73.106Y120.927
X73.143Y120.914
X73.179Y120.9
X73.216Y120.885
X73.251Y120.869
X73.584Y120.718
X73.619Y120.701
X73.654Y120.684
X73.688Y120.666
X73.721Y120.647
X74.006Y120.483
X74.038Y120.464
X74.07Y120.444
X74.101Y120.423
X74.132Y120.402
X74.371Y120.232
X74.4Y120.211
X74.428Y120.19
X74.455Y120.168
X74.482Y120.145
X74.68Y119.976
X74.704Y119.955
X74.728Y119.933
X74.751Y119.911
X74.774Y119.889
X74.933Y119.729
X74.973Y119.688
X75.01Y119.645
X75.134Y119.502
X75.165Y119.465
X75.194Y119.428
X75.287Y119.306
X75.306Y119.281
X75.324Y119.256
X75.342Y119.23
X75.359Y119.204
X75.515Y118.962
X75.537Y118.927
X75.559Y118.89
X75.579Y118.854
X75.598Y118.817
X75.728Y118.56
X75.747Y118.522
X75.765Y118.482
X75.782Y118.443
X75.797Y118.403
X75.899Y118.133
X75.914Y118.092
X75.927Y118.051
X95.931Y54.613
X96.097Y54.102
X96.13Y54.003
X96.366Y53.34
X96.637Y52.68
X96.966Y52
X97.144Y51.676
X97.347Y51.34
X97.571Y51.001
X97.817Y50.66
X98.086Y50.319
X98.369Y49.992
X98.666Y49.68
X98.975Y49.382
X99.297Y49.099
X99.632Y48.83
X99.979Y48.575
X100.34Y48.334
X100.714Y48.107
X101.088Y47.9
X101.91Y47.509
X102.756Y47.179
X103.634Y46.902
X104.535Y46.675
X105.456Y46.495
X105.676Y46.46
X105.942Y46.422
X106.256Y46.381
X106.633Y46.336
X107.082Y46.284
X107.48Y46.239
X107.935Y46.189
X109.695Y45.997
X127.064Y44.113
X154.128
X154.301Y44.133
X154.333Y44.136
X154.366Y44.139
X154.399Y44.141
X154.432Y44.142
X154.556Y44.146
X154.585Y44.147
X154.633
X154.775Y44.142
X154.808Y44.141
X154.841Y44.139
X154.874Y44.136
X154.907Y44.133
X155.08Y44.113
X194.127
G0Z1
X46.368Y54.038
G1Z-0.7F50
X46.428Y53.988F100
X46.498Y53.951
X46.573Y53.928
X46.651Y53.92
X46.73Y53.928
X46.805Y53.951
X46.874Y53.988
X46.935Y54.038
X46.985Y54.099
X47.022Y54.168
X47.045Y54.244
X47.053Y54.322
X47.045Y54.4
X47.022Y54.475
X46.985Y54.545
X46.935Y54.606
X46.874Y54.655
X46.805Y54.693
X46.73Y54.715
X46.651Y54.723
X46.573Y54.715
X46.498Y54.693
X46.428Y54.655
X46.368Y54.606
X46.318Y54.545
X46.281Y54.475
X46.258Y54.4
X46.25Y54.322
X46.258Y54.244
X46.281Y54.168
X46.318Y54.099
X46.368Y54.038
G0Z1
X41.875Y72.215
G1Z-0.7F50
X41.95Y72.238F100
X42.02Y72.275
X42.08Y72.325
X42.13Y72.386
X42.167Y72.455
X42.19Y72.53
X42.198Y72.609
X42.19Y72.687
X42.167Y72.762
X42.13Y72.832
X42.08Y72.892
X42.02Y72.942
X41.95Y72.979
X41.875Y73.002
X41.797Y73.01
X41.718Y73.002
X41.643Y72.979
X41.574Y72.942
X41.513Y72.892
X41.463Y72.832
X41.426Y72.762
X41.403Y72.687
X41.395Y72.609
X41.403Y72.53
X41.426Y72.455
X41.463Y72.386
X41.513Y72.325
X41.574Y72.275
X41.643Y72.238
X41.718Y72.215
X41.797Y72.207
X41.875Y72.215
G0Z1
X29.88Y109.607
G1Z-0.7F50
X29.95Y109.644F100
X30.011Y109.694
X30.06Y109.755
X30.098Y109.824
X30.12Y109.899
X30.128Y109.977
X30.12Y110.056
X30.098Y110.129
X30.06Y110.2
X30.011Y110.261
X29.95Y110.311
X29.88Y110.348
X29.805Y110.371
X29.727Y110.379
X29.649Y110.371
X29.573Y110.348
X29.504Y110.311
X29.443Y110.261
X29.393Y110.2
X29.358Y110.135
X29.333Y110.053
X29.326Y109.978
X29.333Y109.899
X29.356Y109.824
X29.393Y109.755
X29.443Y109.694
X29.504Y109.644
X29.573Y109.607
X29.649Y109.584
X29.727Y109.576
X29.805Y109.584
X29.88Y109.607
G0Z1
X70.996Y114.087
G1Z-0.7F50
X71.019Y114.012F100
X71.056Y113.942
X71.106Y113.881
X71.167Y113.831
X71.236Y113.795
X71.312Y113.772
X71.39Y113.764
X71.468Y113.772
X71.543Y113.794
X71.613Y113.831
X71.673Y113.881
X71.723Y113.942
