(Created with grbl post processor 2024/11/24 13:46)
G21
(G-code generated with BlenderCAM and NC library)
G17G90
(Tool: D = 3.18 mm  type END flutes 2)
S1000M03
G00 Z1.0

G0X0Y0Z1
X32.781Y28.964
G1Z-0.1F5
X32.819Y28.933F10
X32.863Y28.91
X32.904Y28.897
X32.963Y28.891
X33.008Y28.895
X33.055Y28.91
X33.099Y28.933
X33.137Y28.964
X33.168Y29.002
X33.191Y29.046
X33.205Y29.093
X33.21Y29.142
X33.205Y29.191
X33.191Y29.238
X33.168Y29.281
X33.137Y29.32
X33.098Y29.351
X33.055Y29.374
X33.008Y29.388
X32.959Y29.393
X32.91Y29.388
X32.863Y29.374
X32.819Y29.351
X32.781Y29.32
X32.75Y29.281
X32.727Y29.238
X32.713Y29.192
X32.708Y29.142
X32.712Y29.093
X32.727Y29.046
X32.75Y29.002
X32.781Y28.964
G0Z1
X41.432Y23.238
G1Z-0.1F5
X41.361Y23.094F10
X41.331Y22.964
Y22.82
X41.363Y22.681
X41.422Y22.558
X41.508Y22.448
X41.583Y22.381
X41.645Y22.341
X41.648Y22.339
X41.761Y22.295
X41.915Y22.27
X42.063Y22.278
X42.193Y22.316
X42.318Y22.387
X42.423Y22.483
X42.501Y22.596
X42.555Y22.724
X42.571Y22.802
X42.575Y22.855
X42.556Y23.021
X42.499Y23.177
X42.414Y23.303
X42.316Y23.393
X42.19Y23.464
X42.054Y23.504
X41.918Y23.513
X41.773Y23.492
X41.685Y23.463
X41.635Y23.437
X41.605Y23.418
X41.523Y23.352
X41.432Y23.238
G0Z1
X50.727Y29.002
G1Z-0.1F5
X50.758Y28.964F10
X50.796Y28.933
X50.839Y28.91
X50.886Y28.895
X50.935Y28.891
X50.985Y28.895
X51.032Y28.91
X51.075Y28.933
X51.113Y28.964
X51.144Y29.002
X51.168Y29.046
X51.182Y29.093
X51.187Y29.142
X51.182Y29.191
X51.168Y29.238
X51.144Y29.281
X51.113Y29.32
X51.075Y29.351
X51.032Y29.374
X50.984Y29.388
X50.935Y29.393
X50.886Y29.388
X50.839Y29.374
X50.796Y29.351
X50.758Y29.32
X50.727Y29.281
X50.703Y29.238
X50.689Y29.191
X50.684Y29.142
X50.689Y29.093
X50.703Y29.046
X50.727Y29.002
G0Z1
X61.291Y36.233
G1Z-0.1F5
X66.95F10
X66.987Y36.232
X67.023Y36.231
X67.06Y36.229
X67.097Y36.226
X67.133Y36.222
X67.17Y36.218
X67.429Y36.181
X67.47Y36.175
X67.511Y36.168
X67.552Y36.159
X67.592Y36.15
X67.633Y36.139
X67.673Y36.128
X67.712Y36.115
X67.752Y36.101
X67.993Y36.014
X68.026Y36.001
X68.06Y35.988
X68.093Y35.974
X68.126Y35.959
X68.158Y35.943
X68.19Y35.927
X68.222Y35.909
X68.253Y35.892
X68.284Y35.873
X68.315Y35.854
X68.498Y35.735
X68.528Y35.715
X68.557Y35.695
X68.586Y35.674
X68.615Y35.652
X68.643Y35.629
X68.67Y35.606
X68.697Y35.583
X68.723Y35.558
X68.749Y35.534
X68.774Y35.508
X68.898Y35.381
X68.922Y35.355
X68.946Y35.329
X68.97Y35.302
X68.992Y35.275
X69.014Y35.247
X69.036Y35.219
X69.056Y35.19
X69.077Y35.161
X69.096Y35.131
X69.115Y35.101
X69.214Y34.939
X69.233Y34.907
X69.251Y34.875
X69.269Y34.842
X69.285Y34.809
X69.301Y34.776
X69.316Y34.742
X69.331Y34.708
X69.344Y34.673
X69.357Y34.639
X69.369Y34.604
X69.437Y34.393
X69.45Y34.351
X69.462Y34.309
X69.473Y34.266
X69.483Y34.223
X69.491Y34.18
X69.498Y34.136
X69.517Y34.014
X69.522Y33.974
X69.527Y33.933
X69.53Y33.893
X69.533Y33.853
X69.539Y33.717
X69.54Y33.68
X69.541Y33.642
Y18.142
X69.54Y18.099
X69.539Y18.056
X69.536Y18.013
X69.532Y17.971
X69.501Y17.689
X69.497Y17.652
X69.491Y17.615
X69.485Y17.578
X69.478Y17.542
X69.47Y17.505
X69.462Y17.469
X69.452Y17.434
X69.442Y17.398
X69.431Y17.363
X69.419Y17.327
X69.346Y17.124
X69.334Y17.091
X69.321Y17.058
X69.308Y17.025
X69.293Y16.993
X69.278Y16.961
X69.262Y16.929
X69.245Y16.898
X69.228Y16.867
X69.21Y16.836
X69.192Y16.806
X69.099Y16.659
X69.077Y16.626
X69.054Y16.593
X69.031Y16.56
X69.006Y16.528
X68.981Y16.497
X68.955Y16.466
X68.928Y16.436
X68.901Y16.407
X68.79Y16.291
X68.764Y16.266
X68.739Y16.241
X68.713Y16.216
X68.686Y16.192
X68.659Y16.169
X68.631Y16.147
X68.603Y16.125
X68.574Y16.104
X68.451Y16.015
X68.423Y15.996
X68.395Y15.976
X68.366Y15.958
X68.336Y15.94
X68.307Y15.923
X68.277Y15.906
X68.247Y15.89
X68.216Y15.875
X68.047Y15.793
X68.011Y15.776
X67.974Y15.759
X67.937Y15.744
X67.899Y15.73
X67.861Y15.716
X67.823Y15.704
X67.784Y15.693
X67.745Y15.682
X67.464Y15.61
X67.421Y15.6
X67.379Y15.591
X67.335Y15.583
X67.292Y15.577
X67.249Y15.571
X67.205Y15.567
X67.084Y15.556
X67.051Y15.554
X67.017Y15.552
X66.983Y15.551
X66.95
X61.291
Y14.142
X61.29Y14.107
X61.289Y14.072
X61.287Y14.037
X61.285Y14.002
X61.281Y13.962
X61.276Y13.922
X61.27Y13.882
X61.262Y13.843
X61.254Y13.803
X61.245Y13.764
X61.235Y13.725
X61.225Y13.689
X61.214Y13.654
X61.202Y13.619
X61.181Y13.561
X61.161Y13.513
X61.153Y13.494
X61.137Y13.459
X61.12Y13.425
X61.102Y13.391
X61.084Y13.357
X61.065Y13.324
X61.044Y13.291
X61.023Y13.259
X61.002Y13.227
X60.979Y13.196
X60.956Y13.166
X60.932Y13.136
X60.908Y13.106
X60.882Y13.078
X60.856Y13.049
X60.83Y13.022
X60.802Y12.995
X60.774Y12.969
X60.746Y12.943
X60.717Y12.918
X60.687Y12.894
X60.656Y12.871
X60.626Y12.848
X60.594Y12.826
X60.561Y12.804
X60.528Y12.783
X60.494Y12.763
X60.459Y12.744
X60.424Y12.725
X60.389Y12.708
X60.353Y12.691
X60.316Y12.675
X60.28Y12.66
X60.243Y12.646
X60.205Y12.633
X60.168Y12.621
X60.13Y12.61
X60.092Y12.6
X60.053Y12.591
X60.014Y12.582
X59.975Y12.575
X59.936Y12.569
X59.897Y12.563
X59.858Y12.559
X59.818Y12.555
X59.779Y12.553
X59.739Y12.551
X59.7
X24.2
X24.16
X24.12Y12.553
X24.081Y12.555
X24.041Y12.559
X24.002Y12.563
X23.962Y12.569
X23.923Y12.575
X23.884Y12.583
X23.845Y12.591
X23.806Y12.6
X23.768Y12.611
X23.73Y12.622
X23.692Y12.634
X23.654Y12.647
X23.617Y12.661
X23.58Y12.676
X23.544Y12.692
X23.508Y12.709
X23.472Y12.727
X23.437Y12.746
X23.403Y12.765
X23.368Y12.785
X23.334Y12.807
X23.302Y12.829
X23.27Y12.851
X23.24Y12.873
X23.209Y12.897
X23.179Y12.921
X23.15Y12.946
X23.122Y12.972
X23.094Y12.998
X23.066Y13.025
X23.04Y13.053
X23.014Y13.081
X22.989Y13.11
X22.964Y13.14
X22.94Y13.17
X22.917Y13.201
X22.895Y13.232
X22.873Y13.264
X22.852Y13.296
X22.832Y13.329
X22.813Y13.362
X22.795Y13.396
X22.777Y13.43
X22.76Y13.464
X22.738Y13.513
X22.718Y13.563
X22.71Y13.584
X22.697Y13.619
X22.686Y13.653
X22.675Y13.688
X22.665Y13.724
X22.655Y13.763
X22.646Y13.802
X22.637Y13.841
X22.63Y13.881
X22.624Y13.921
X22.619Y13.961
X22.615Y14.001
X22.612Y14.036
X22.61Y14.071
X22.609Y14.107
Y14.142
Y15.551
X16.95
X16.912
X16.875Y15.553
X16.837Y15.555
X16.8Y15.558
X16.762Y15.562
X16.725Y15.567
X16.466Y15.604
X16.425Y15.61
X16.384Y15.618
X16.343Y15.626
X16.303Y15.636
X16.263Y15.646
X16.223Y15.658
X16.184Y15.671
X16.145Y15.684
X15.904Y15.772
X15.87Y15.785
X15.837Y15.799
X15.804Y15.813
X15.772Y15.828
X15.739Y15.843
X15.707Y15.86
X15.676Y15.877
X15.645Y15.895
X15.614Y15.913
X15.584Y15.932
X15.4Y16.051
X15.371Y16.071
X15.341Y16.091
X15.313Y16.112
X15.284Y16.134
X15.256Y16.157
X15.229Y16.179
X15.202Y16.203
X15.176Y16.227
X15.15Y16.252
X15.125Y16.277
X15.002Y16.404
X14.977Y16.43
X14.954Y16.456
X14.93Y16.483
X14.908Y16.51
X14.886Y16.538
X14.864Y16.566
X14.844Y16.594
X14.824Y16.624
X14.804Y16.653
X14.785Y16.683
X14.686Y16.845
X14.666Y16.879
X14.647Y16.912
X14.629Y16.947
X14.612Y16.982
X14.595Y17.017
X14.579Y17.052
X14.556Y17.11
X14.531Y17.18
X14.463Y17.39
X14.45Y17.432
X14.438Y17.475
X14.427Y17.518
X14.417Y17.561
X14.409Y17.604
X14.402Y17.647
X14.383Y17.769
X14.378Y17.81
X14.373Y17.85
X14.37Y17.891
X14.367Y17.931
X14.361Y18.066
X14.359Y18.104
Y18.142
Y33.642
Y33.674
X14.36Y33.707
X14.362Y33.74
X14.364Y33.772
X14.387Y34.053
X14.391Y34.091
X14.395Y34.128
X14.401Y34.165
X14.407Y34.203
X14.414Y34.24
X14.422Y34.277
X14.431Y34.313
X14.44Y34.35
X14.451Y34.386
X14.462Y34.422
X14.529Y34.625
X14.541Y34.659
X14.554Y34.693
X14.567Y34.727
X14.581Y34.76
X14.596Y34.794
X14.612Y34.827
X14.628Y34.859
X14.645Y34.891
X14.663Y34.923
X14.682Y34.954
X14.771Y35.1
X14.793Y35.135
X14.816Y35.169
X14.84Y35.203
X14.864Y35.237
X14.89Y35.269
X14.916Y35.301
X14.943Y35.332
X14.971Y35.363
X15.08Y35.478
X15.106Y35.505
X15.132Y35.531
X15.158Y35.556
X15.186Y35.58
X15.214Y35.604
X15.242Y35.628
X15.271Y35.65
X15.3Y35.672
X15.422Y35.761
X15.455Y35.785
X15.489Y35.808
X15.524Y35.83
X15.559Y35.851
X15.595Y35.871
X15.631Y35.89
X15.758Y35.956
X15.792Y35.972
X15.826Y35.989
X15.861Y36.004
X15.896Y36.018
X15.931Y36.032
X15.967Y36.045
X16.131Y36.102
X16.169Y36.114
X16.208Y36.126
X16.247Y36.137
X16.286Y36.147
X16.325Y36.155
X16.365Y36.163
X16.577Y36.202
X16.625Y36.21
X16.673Y36.216
X16.721Y36.221
X16.769Y36.225
X16.856Y36.23
X16.903Y36.232
X16.95Y36.233
X22.609
Y37.642
X22.61Y37.69
X22.612Y37.739
X22.615Y37.787
X22.621Y37.835
X22.627Y37.883
X22.635Y37.931
X22.642Y37.963
X22.649Y37.995
X22.665Y38.061
X22.675Y38.096
X22.686Y38.13
X22.697Y38.164
X22.709Y38.198
X22.722Y38.232
X22.736Y38.266
X22.751Y38.299
X22.766Y38.332
X22.782Y38.363
X22.798Y38.394
X22.815Y38.425
X22.832Y38.455
X22.85Y38.485
X22.869Y38.514
X22.889Y38.543
X22.918Y38.585
X22.954Y38.631
X22.985Y38.669
X22.996Y38.682
X23.022Y38.711
X23.047Y38.739
X23.074Y38.766
X23.101Y38.793
X23.129Y38.819
X23.158Y38.844
X23.187Y38.869
X23.217Y38.893
X23.247Y38.916
X23.278Y38.938
X23.309Y38.96
X23.341Y38.981
X23.373Y39.001
X23.406Y39.021
X23.44Y39.039
X23.473Y39.057
X23.507Y39.074
X23.543Y39.091
X23.579Y39.107
X23.616Y39.122
X23.653Y39.136
X23.691Y39.149
X23.729Y39.161
X23.767Y39.173
X23.806Y39.183
X23.844Y39.193
X23.883Y39.201
X23.922Y39.208
X23.962Y39.215
X24.001Y39.22
X24.041Y39.225
X24.08Y39.228
X24.12Y39.231
X24.16Y39.232
X24.2Y39.233
X59.7
X59.739Y39.232
X59.779Y39.231
X59.819Y39.228
X59.858Y39.225
X59.898Y39.22
X59.937Y39.215
X59.976Y39.209
X60.015Y39.201
X60.054Y39.193
X60.092Y39.184
X60.13Y39.173
X60.168Y39.162
X60.206Y39.15
X60.244Y39.137
X60.281Y39.123
X60.317Y39.108
X60.354Y39.092
X60.389Y39.076
X60.423Y39.059
X60.457Y39.041
X60.49Y39.023
X60.523Y39.003
X60.555Y38.983
X60.587Y38.962
X60.618Y38.941
X60.649Y38.919
X60.679Y38.895
X60.709Y38.872
X60.738Y38.847
X60.767Y38.822
X60.795Y38.796
X60.822Y38.77
X60.849Y38.742
X60.875Y38.715
X60.9Y38.686
X60.925Y38.657
X60.961Y38.612
X60.984Y38.582
X61.006Y38.551
X61.027Y38.52
X61.047Y38.488
X61.067Y38.456
X61.086Y38.423
X61.104Y38.39
X61.121Y38.357
X61.137Y38.324
X61.153Y38.29
X61.168Y38.256
X61.182Y38.221
X61.195Y38.186
X61.207Y38.151
X61.219Y38.116
X61.229Y38.08
X61.239Y38.044
X61.248Y38.008
X61.256Y37.972
X61.263Y37.936
X61.27Y37.899
X61.275Y37.862
X61.28Y37.826
X61.284Y37.789
X61.287Y37.752
X61.289Y37.716
X61.29Y37.679
X61.291Y37.642
Y36.233
G0Z1
X32.781Y28.964
G1Z-0.2F5
X32.819Y28.933F10
X32.863Y28.91
X32.904Y28.897
X32.963Y28.891
X33.008Y28.895
X33.055Y28.91
X33.099Y28.933
X33.137Y28.964
X33.168Y29.002
X33.191Y29.046
X33.205Y29.093
X33.21Y29.142
X33.205Y29.191
X33.191Y29.238
X33.168Y29.281
X33.137Y29.32
X33.098Y29.351
X33.055Y29.374
X33.008Y29.388
X32.959Y29.393
X32.91Y29.388
X32.863Y29.374
X32.819Y29.351
X32.781Y29.32
X32.75Y29.281
X32.727Y29.238
X32.713Y29.192
X32.708Y29.142
X32.712Y29.093
X32.727Y29.046
X32.75Y29.002
X32.781Y28.964
G0Z1
X41.432Y23.238
G1Z-0.2F5
X41.361Y23.094F10
X41.331Y22.964
Y22.82
X41.363Y22.681
X41.422Y22.558
X41.508Y22.448
X41.583Y22.381
X41.645Y22.341
X41.648Y22.339
X41.761Y22.295
X41.915Y22.27
X42.063Y22.278
X42.193Y22.316
X42.318Y22.387
X42.423Y22.483
X42.501Y22.596
X42.555Y22.724
X42.571Y22.802
X42.575Y22.855
X42.556Y23.021
X42.499Y23.177
X42.414Y23.303
X42.316Y23.393
X42.19Y23.464
X42.054Y23.504
X41.918Y23.513
X41.773Y23.492
X41.685Y23.463
X41.635Y23.437
X41.605Y23.418
X41.523Y23.352
X41.432Y23.238
G0Z1
X50.727Y29.002
G1Z-0.2F5
X50.758Y28.964F10
X50.796Y28.933
X50.839Y28.91
X50.886Y28.895
X50.935Y28.891
X50.985Y28.895
X51.032Y28.91
X51.075Y28.933
X51.113Y28.964
X51.144Y29.002
X51.168Y29.046
X51.182Y29.093
X51.187Y29.142
X51.182Y29.191
X51.168Y29.238
X51.144Y29.281
X51.113Y29.32
X51.075Y29.351
X51.032Y29.374
X50.984Y29.388
X50.935Y29.393
X50.886Y29.388
X50.839Y29.374
X50.796Y29.351
X50.758Y29.32
X50.727Y29.281
X50.703Y29.238
X50.689Y29.191
X50.684Y29.142
X50.689Y29.093
X50.703Y29.046
X50.727Y29.002
G0Z1
X61.291Y36.233
G1Z-0.2F5
X66.95F10
X66.987Y36.232
X67.023Y36.231
X67.06Y36.229
X67.097Y36.226
X67.133Y36.222
X67.17Y36.218
X67.429Y36.181
X67.47Y36.175
X67.511Y36.168
X67.552Y36.159
X67.592Y36.15
X67.633Y36.139
X67.673Y36.128
X67.712Y36.115
X67.752Y36.101
X67.993Y36.014
X68.026Y36.001
X68.06Y35.988
X68.093Y35.974
X68.126Y35.959
X68.158Y35.943
X68.19Y35.927
X68.222Y35.909
X68.253Y35.892
X68.284Y35.873
X68.315Y35.854
X68.498Y35.735
X68.528Y35.715
X68.557Y35.695
X68.586Y35.674
X68.615Y35.652
X68.643Y35.629
X68.67Y35.606
X68.697Y35.583
X68.723Y35.558
X68.749Y35.534
X68.774Y35.508
X68.898Y35.381
X68.922Y35.355
X68.946Y35.329
X68.97Y35.302
X68.992Y35.275
X69.014Y35.247
X69.036Y35.219
X69.056Y35.19
X69.077Y35.161
X69.096Y35.131
X69.115Y35.101
X69.214Y34.939
X69.233Y34.907
X69.251Y34.875
X69.269Y34.842
X69.285Y34.809
X69.301Y34.776
X69.316Y34.742
X69.331Y34.708
X69.344Y34.673
X69.357Y34.639
X69.369Y34.604
X69.437Y34.393
X69.45Y34.351
X69.462Y34.309
X69.473Y34.266
X69.483Y34.223
X69.491Y34.18
X69.498Y34.136
X69.517Y34.014
X69.522Y33.974
X69.527Y33.933
X69.53Y33.893
X69.533Y33.853
X69.539Y33.717
X69.54Y33.68
X69.541Y33.642
Y18.142
X69.54Y18.099
X69.539Y18.056
X69.536Y18.013
X69.532Y17.971
X69.501Y17.689
X69.497Y17.652
X69.491Y17.615
X69.485Y17.578
X69.478Y17.542
X69.47Y17.505
X69.462Y17.469
X69.452Y17.434
X69.442Y17.398
X69.431Y17.363
X69.419Y17.327
X69.346Y17.124
X69.334Y17.091
X69.321Y17.058
X69.308Y17.025
X69.293Y16.993
X69.278Y16.961
X69.262Y16.929
X69.245Y16.898
X69.228Y16.867
X69.21Y16.836
X69.192Y16.806
X69.099Y16.659
X69.077Y16.626
X69.054Y16.593
X69.031Y16.56
X69.006Y16.528
X68.981Y16.497
X68.955Y16.466
X68.928Y16.436
X68.901Y16.407
X68.79Y16.291
X68.764Y16.266
X68.739Y16.241
X68.713Y16.216
X68.686Y16.192
X68.659Y16.169
X68.631Y16.147
X68.603Y16.125
X68.574Y16.104
X68.451Y16.015
X68.423Y15.996
X68.395Y15.976
X68.366Y15.958
X68.336Y15.94
X68.307Y15.923
X68.277Y15.906
X68.247Y15.89
X68.216Y15.875
X68.047Y15.793
X68.011Y15.776
X67.974Y15.759
X67.937Y15.744
X67.899Y15.73
X67.861Y15.716
X67.823Y15.704
X67.784Y15.693
X67.745Y15.682
X67.464Y15.61
X67.421Y15.6
X67.379Y15.591
X67.335Y15.583
X67.292Y15.577
X67.249Y15.571
X67.205Y15.567
X67.084Y15.556
X67.051Y15.554
X67.017Y15.552
X66.983Y15.551
X66.95
X61.291
Y14.142
X61.29Y14.107
X61.289Y14.072
X61.287Y14.037
X61.285Y14.002
X61.281Y13.962
X61.276Y13.922
X61.27Y13.882
X61.262Y13.843
X61.254Y13.803
X61.245Y13.764
X61.235Y13.725
X61.225Y13.689
X61.214Y13.654
X61.202Y13.619
X61.181Y13.561
X61.161Y13.513
X61.153Y13.494
X61.137Y13.459
X61.12Y13.425
X61.102Y13.391
X61.084Y13.357
X61.065Y13.324
X61.044Y13.291
X61.023Y13.259
X61.002Y13.227
X60.979Y13.196
X60.956Y13.166
X60.932Y13.136
X60.908Y13.106
X60.882Y13.078
X60.856Y13.049
X60.83Y13.022
X60.802Y12.995
X60.774Y12.969
X60.746Y12.943
X60.717Y12.918
X60.687Y12.894
X60.656Y12.871
X60.626Y12.848
X60.594Y12.826
X60.561Y12.804
X60.528Y12.783
X60.494Y12.763
X60.459Y12.744
X60.424Y12.725
X60.389Y12.708
X60.353Y12.691
X60.316Y12.675
X60.28Y12.66
X60.243Y12.646
X60.205Y12.633
X60.168Y12.621
X60.13Y12.61
X60.092Y12.6
X60.053Y12.591
X60.014Y12.582
X59.975Y12.575
X59.936Y12.569
X59.897Y12.563
X59.858Y12.559
X59.818Y12.555
X59.779Y12.553
X59.739Y12.551
X59.7
X24.2
X24.16
X24.12Y12.553
X24.081Y12.555
X24.041Y12.559
X24.002Y12.563
X23.962Y12.569
X23.923Y12.575
X23.884Y12.583
X23.845Y12.591
X23.806Y12.6
X23.768Y12.611
X23.73Y12.622
X23.692Y12.634
X23.654Y12.647
X23.617Y12.661
X23.58Y12.676
X23.544Y12.692
X23.508Y12.709
X23.472Y12.727
X23.437Y12.746
X23.403Y12.765
X23.368Y12.785
X23.334Y12.807
X23.302Y12.829
X23.27Y12.851
X23.24Y12.873
X23.209Y12.897
X23.179Y12.921
X23.15Y12.946
X23.122Y12.972
X23.094Y12.998
X23.066Y13.025
X23.04Y13.053
X23.014Y13.081
X22.989Y13.11
X22.964Y13.14
X22.94Y13.17
X22.917Y13.201
X22.895Y13.232
X22.873Y13.264
X22.852Y13.296
X22.832Y13.329
X22.813Y13.362
X22.795Y13.396
X22.777Y13.43
X22.76Y13.464
X22.738Y13.513
X22.718Y13.563
X22.71Y13.584
X22.697Y13.619
X22.686Y13.653
X22.675Y13.688
X22.665Y13.724
X22.655Y13.763
X22.646Y13.802
X22.637Y13.841
X22.63Y13.881
X22.624Y13.921
X22.619Y13.961
X22.615Y14.001
X22.612Y14.036
X22.61Y14.071
X22.609Y14.107
Y14.142
Y15.551
X16.95
X16.912
X16.875Y15.553
X16.837Y15.555
X16.8Y15.558
X16.762Y15.562
X16.725Y15.567
X16.466Y15.604
X16.425Y15.61
X16.384Y15.618
X16.343Y15.626
X16.303Y15.636
X16.263Y15.646
X16.223Y15.658
X16.184Y15.671
X16.145Y15.684
X15.904Y15.772
X15.87Y15.785
X15.837Y15.799
X15.804Y15.813
X15.772Y15.828
X15.739Y15.843
X15.707Y15.86
X15.676Y15.877
X15.645Y15.895
X15.614Y15.913
X15.584Y15.932
X15.4Y16.051
X15.371Y16.071
X15.341Y16.091
X15.313Y16.112
X15.284Y16.134
X15.256Y16.157
X15.229Y16.179
X15.202Y16.203
X15.176Y16.227
X15.15Y16.252
X15.125Y16.277
X15.002Y16.404
X14.977Y16.43
X14.954Y16.456
X14.93Y16.483
X14.908Y16.51
X14.886Y16.538
X14.864Y16.566
X14.844Y16.594
X14.824Y16.624
X14.804Y16.653
X14.785Y16.683
X14.686Y16.845
X14.666Y16.879
X14.647Y16.912
X14.629Y16.947
X14.612Y16.982
X14.595Y17.017
X14.579Y17.052
X14.556Y17.11
X14.531Y17.18
X14.463Y17.39
X14.45Y17.432
X14.438Y17.475
X14.427Y17.518
X14.417Y17.561
X14.409Y17.604
X14.402Y17.647
X14.383Y17.769
X14.378Y17.81
X14.373Y17.85
X14.37Y17.891
X14.367Y17.931
X14.361Y18.066
X14.359Y18.104
Y18.142
Y33.642
Y33.674
X14.36Y33.707
X14.362Y33.74
X14.364Y33.772
X14.387Y34.053
X14.391Y34.091
X14.395Y34.128
X14.401Y34.165
X14.407Y34.203
X14.414Y34.24
X14.422Y34.277
X14.431Y34.313
X14.44Y34.35
X14.451Y34.386
X14.462Y34.422
X14.529Y34.625
X14.541Y34.659
X14.554Y34.693
X14.567Y34.727
X14.581Y34.76
X14.596Y34.794
X14.612Y34.827
X14.628Y34.859
X14.645Y34.891
X14.663Y34.923
X14.682Y34.954
X14.771Y35.1
X14.793Y35.135
X14.816Y35.169
X14.84Y35.203
X14.864Y35.237
X14.89Y35.269
X14.916Y35.301
X14.943Y35.332
X14.971Y35.363
X15.08Y35.478
X15.106Y35.505
X15.132Y35.531
X15.158Y35.556
X15.186Y35.58
X15.214Y35.604
X15.242Y35.628
X15.271Y35.65
X15.3Y35.672
X15.422Y35.761
X15.455Y35.785
X15.489Y35.808
X15.524Y35.83
X15.559Y35.851
X15.595Y35.871
X15.631Y35.89
X15.758Y35.956
X15.792Y35.972
X15.826Y35.989
X15.861Y36.004
X15.896Y36.018
X15.931Y36.032
X15.967Y36.045
X16.131Y36.102
X16.169Y36.114
X16.208Y36.126
X16.247Y36.137
X16.286Y36.147
X16.325Y36.155
X16.365Y36.163
X16.577Y36.202
X16.625Y36.21
X16.673Y36.216
X16.721Y36.221
X16.769Y36.225
X16.856Y36.23
X16.903Y36.232
X16.95Y36.233
X22.609
Y37.642
X22.61Y37.69
X22.612Y37.739
X22.615Y37.787
X22.621Y37.835
X22.627Y37.883
X22.635Y37.931
X22.642Y37.963
X22.649Y37.995
X22.665Y38.061
X22.675Y38.096
X22.686Y38.13
X22.697Y38.164
X22.709Y38.198
X22.722Y38.232
X22.736Y38.266
X22.751Y38.299
X22.766Y38.332
X22.782Y38.363
X22.798Y38.394
X22.815Y38.425
X22.832Y38.455
X22.85Y38.485
X22.869Y38.514
X22.889Y38.543
X22.918Y38.585
X22.954Y38.631
X22.985Y38.669
X22.996Y38.682
X23.022Y38.711
X23.047Y38.739
X23.074Y38.766
X23.101Y38.793
X23.129Y38.819
X23.158Y38.844
X23.187Y38.869
X23.217Y38.893
X23.247Y38.916
X23.278Y38.938
X23.309Y38.96
X23.341Y38.981
X23.373Y39.001
X23.406Y39.021
X23.44Y39.039
X23.473Y39.057
X23.507Y39.074
X23.543Y39.091
X23.579Y39.107
X23.616Y39.122
X23.653Y39.136
X23.691Y39.149
X23.729Y39.161
X23.767Y39.173
X23.806Y39.183
X23.844Y39.193
X23.883Y39.201
X23.922Y39.208
X23.962Y39.215
X24.001Y39.22
X24.041Y39.225
X24.08Y39.228
X24.12Y39.231
X24.16Y39.232
X24.2Y39.233
X59.7
X59.739Y39.232
X59.779Y39.231
X59.819Y39.228
X59.858Y39.225
X59.898Y39.22
X59.937Y39.215
X59.976Y39.209
X60.015Y39.201
X60.054Y39.193
X60.092Y39.184
X60.13Y39.173
X60.168Y39.162
X60.206Y39.15
X60.244Y39.137
X60.281Y39.123
X60.317Y39.108
X60.354Y39.092
X60.389Y39.076
X60.423Y39.059
X60.457Y39.041
X60.49Y39.023
X60.523Y39.003
X60.555Y38.983
X60.587Y38.962
X60.618Y38.941
X60.649Y38.919
X60.679Y38.895
X60.709Y38.872
X60.738Y38.847
X60.767Y38.822
X60.795Y38.796
X60.822Y38.77
X60.849Y38.742
X60.875Y38.715
X60.9Y38.686
X60.925Y38.657
X60.961Y38.612
X60.984Y38.582
X61.006Y38.551
X61.027Y38.52
X61.047Y38.488
X61.067Y38.456
X61.086Y38.423
X61.104Y38.39
X61.121Y38.357
X61.137Y38.324
X61.153Y38.29
X61.168Y38.256
X61.182Y38.221
X61.195Y38.186
X61.207Y38.151
X61.219Y38.116
X61.229Y38.08
X61.239Y38.044
X61.248Y38.008
X61.256Y37.972
X61.263Y37.936
X61.27Y37.899
X61.275Y37.862
X61.28Y37.826
X61.284Y37.789
X61.287Y37.752
X61.289Y37.716
X61.29Y37.679
X61.291Y37.642
Y36.233
G0Z1
X32.781Y28.964
G1Z-0.3F5
X32.819Y28.933F10
X32.863Y28.91
X32.904Y28.897
X32.963Y28.891
X33.008Y28.895
X33.055Y28.91
X33.099Y28.933
X33.137Y28.964
X33.168Y29.002
X33.191Y29.046
X33.205Y29.093
X33.21Y29.142
X33.205Y29.191
X33.191Y29.238
X33.168Y29.281
X33.137Y29.32
X33.098Y29.351
X33.055Y29.374
X33.008Y29.388
X32.959Y29.393
X32.91Y29.388
X32.863Y29.374
X32.819Y29.351
X32.781Y29.32
X32.75Y29.281
X32.727Y29.238
X32.713Y29.192
X32.708Y29.142
X32.712Y29.093
X32.727Y29.046
X32.75Y29.002
X32.781Y28.964
G0Z1
X41.432Y23.238
G1Z-0.3F5
X41.361Y23.094F10
X41.331Y22.964
Y22.82
X41.363Y22.681
X41.422Y22.558
X41.508Y22.448
X41.583Y22.381
X41.645Y22.341
X41.648Y22.339
X41.761Y22.295
X41.915Y22.27
X42.063Y22.278
X42.193Y22.316
X42.318Y22.387
X42.423Y22.483
X42.501Y22.596
X42.555Y22.724
X42.571Y22.802
X42.575Y22.855
X42.556Y23.021
X42.499Y23.177
X42.414Y23.303
X42.316Y23.393
X42.19Y23.464
X42.054Y23.504
X41.918Y23.513
X41.773Y23.492
X41.685Y23.463
X41.635Y23.437
X41.605Y23.418
X41.523Y23.352
X41.432Y23.238
G0Z1
X50.727Y29.002
G1Z-0.3F5
X50.758Y28.964F10
X50.796Y28.933
X50.839Y28.91
X50.886Y28.895
X50.935Y28.891
X50.985Y28.895
X51.032Y28.91
X51.075Y28.933
X51.113Y28.964
X51.144Y29.002
X51.168Y29.046
X51.182Y29.093
X51.187Y29.142
X51.182Y29.191
X51.168Y29.238
X51.144Y29.281
X51.113Y29.32
X51.075Y29.351
X51.032Y29.374
X50.984Y29.388
X50.935Y29.393
X50.886Y29.388
X50.839Y29.374
X50.796Y29.351
X50.758Y29.32
X50.727Y29.281
X50.703Y29.238
X50.689Y29.191
X50.684Y29.142
X50.689Y29.093
X50.703Y29.046
X50.727Y29.002
G0Z1
X61.291Y36.233
G1Z-0.3F5
X66.95F10
X66.987Y36.232
X67.023Y36.231
X67.06Y36.229
X67.097Y36.226
X67.133Y36.222
X67.17Y36.218
X67.429Y36.181
X67.47Y36.175
X67.511Y36.168
X67.552Y36.159
X67.592Y36.15
X67.633Y36.139
X67.673Y36.128
X67.712Y36.115
X67.752Y36.101
X67.993Y36.014
X68.026Y36.001
X68.06Y35.988
X68.093Y35.974
X68.126Y35.959
X68.158Y35.943
X68.19Y35.927
X68.222Y35.909
X68.253Y35.892
X68.284Y35.873
X68.315Y35.854
X68.498Y35.735
X68.528Y35.715
X68.557Y35.695
X68.586Y35.674
X68.615Y35.652
X68.643Y35.629
X68.67Y35.606
X68.697Y35.583
X68.723Y35.558
X68.749Y35.534
X68.774Y35.508
X68.898Y35.381
X68.922Y35.355
X68.946Y35.329
X68.97Y35.302
X68.992Y35.275
X69.014Y35.247
X69.036Y35.219
X69.056Y35.19
X69.077Y35.161
X69.096Y35.131
X69.115Y35.101
X69.214Y34.939
X69.233Y34.907
X69.251Y34.875
X69.269Y34.842
X69.285Y34.809
X69.301Y34.776
X69.316Y34.742
X69.331Y34.708
X69.344Y34.673
X69.357Y34.639
X69.369Y34.604
X69.437Y34.393
X69.45Y34.351
X69.462Y34.309
X69.473Y34.266
X69.483Y34.223
X69.491Y34.18
X69.498Y34.136
X69.517Y34.014
X69.522Y33.974
X69.527Y33.933
X69.53Y33.893
X69.533Y33.853
X69.539Y33.717
X69.54Y33.68
X69.541Y33.642
Y18.142
X69.54Y18.099
X69.539Y18.056
X69.536Y18.013
X69.532Y17.971
X69.501Y17.689
X69.497Y17.652
X69.491Y17.615
X69.485Y17.578
X69.478Y17.542
X69.47Y17.505
X69.462Y17.469
X69.452Y17.434
X69.442Y17.398
X69.431Y17.363
X69.419Y17.327
X69.346Y17.124
X69.334Y17.091
X69.321Y17.058
X69.308Y17.025
X69.293Y16.993
X69.278Y16.961
X69.262Y16.929
X69.245Y16.898
X69.228Y16.867
X69.21Y16.836
X69.192Y16.806
X69.099Y16.659
X69.077Y16.626
X69.054Y16.593
X69.031Y16.56
X69.006Y16.528
X68.981Y16.497
X68.955Y16.466
X68.928Y16.436
X68.901Y16.407
X68.79Y16.291
X68.764Y16.266
X68.739Y16.241
X68.713Y16.216
X68.686Y16.192
X68.659Y16.169
X68.631Y16.147
X68.603Y16.125
X68.574Y16.104
X68.451Y16.015
X68.423Y15.996
X68.395Y15.976
X68.366Y15.958
X68.336Y15.94
X68.307Y15.923
X68.277Y15.906
X68.247Y15.89
X68.216Y15.875
X68.047Y15.793
X68.011Y15.776
X67.974Y15.759
X67.937Y15.744
X67.899Y15.73
X67.861Y15.716
X67.823Y15.704
X67.784Y15.693
X67.745Y15.682
X67.464Y15.61
X67.421Y15.6
X67.379Y15.591
X67.335Y15.583
X67.292Y15.577
X67.249Y15.571
X67.205Y15.567
X67.084Y15.556
X67.051Y15.554
X67.017Y15.552
X66.983Y15.551
X66.95
X61.291
Y14.142
X61.29Y14.107
X61.289Y14.072
X61.287Y14.037
X61.285Y14.002
X61.281Y13.962
X61.276Y13.922
X61.27Y13.882
X61.262Y13.843
X61.254Y13.803
X61.245Y13.764
X61.235Y13.725
X61.225Y13.689
X61.214Y13.654
X61.202Y13.619
X61.181Y13.561
X61.161Y13.513
X61.153Y13.494
X61.137Y13.459
X61.12Y13.425
X61.102Y13.391
X61.084Y13.357
X61.065Y13.324
X61.044Y13.291
X61.023Y13.259
X61.002Y13.227
X60.979Y13.196
X60.956Y13.166
X60.932Y13.136
X60.908Y13.106
X60.882Y13.078
X60.856Y13.049
X60.83Y13.022
X60.802Y12.995
X60.774Y12.969
X60.746Y12.943
X60.717Y12.918
X60.687Y12.894
X60.656Y12.871
X60.626Y12.848
X60.594Y12.826
X60.561Y12.804
X60.528Y12.783
X60.494Y12.763
X60.459Y12.744
X60.424Y12.725
X60.389Y12.708
X60.353Y12.691
X60.316Y12.675
X60.28Y12.66
X60.243Y12.646
X60.205Y12.633
X60.168Y12.621
X60.13Y12.61
X60.092Y12.6
X60.053Y12.591
X60.014Y12.582
X59.975Y12.575
X59.936Y12.569
X59.897Y12.563
X59.858Y12.559
X59.818Y12.555
X59.779Y12.553
X59.739Y12.551
X59.7
X24.2
X24.16
X24.12Y12.553
X24.081Y12.555
X24.041Y12.559
X24.002Y12.563
X23.962Y12.569
X23.923Y12.575
X23.884Y12.583
X23.845Y12.591
X23.806Y12.6
X23.768Y12.611
X23.73Y12.622
X23.692Y12.634
X23.654Y12.647
X23.617Y12.661
X23.58Y12.676
X23.544Y12.692
X23.508Y12.709
X23.472Y12.727
X23.437Y12.746
X23.403Y12.765
X23.368Y12.785
X23.334Y12.807
X23.302Y12.829
X23.27Y12.851
X23.24Y12.873
X23.209Y12.897
X23.179Y12.921
X23.15Y12.946
X23.122Y12.972
X23.094Y12.998
X23.066Y13.025
X23.04Y13.053
X23.014Y13.081
X22.989Y13.11
X22.964Y13.14
X22.94Y13.17
X22.917Y13.201
X22.895Y13.232
X22.873Y13.264
X22.852Y13.296
X22.832Y13.329
X22.813Y13.362
X22.795Y13.396
X22.777Y13.43
X22.76Y13.464
X22.738Y13.513
X22.718Y13.563
X22.71Y13.584
X22.697Y13.619
X22.686Y13.653
X22.675Y13.688
X22.665Y13.724
X22.655Y13.763
X22.646Y13.802
X22.637Y13.841
X22.63Y13.881
X22.624Y13.921
X22.619Y13.961
X22.615Y14.001
X22.612Y14.036
X22.61Y14.071
X22.609Y14.107
Y14.142
Y15.551
X16.95
X16.912
X16.875Y15.553
X16.837Y15.555
X16.8Y15.558
X16.762Y15.562
X16.725Y15.567
X16.466Y15.604
X16.425Y15.61
X16.384Y15.618
X16.343Y15.626
X16.303Y15.636
X16.263Y15.646
X16.223Y15.658
X16.184Y15.671
X16.145Y15.684
X15.904Y15.772
X15.87Y15.785
X15.837Y15.799
X15.804Y15.813
X15.772Y15.828
X15.739Y15.843
X15.707Y15.86
X15.676Y15.877
X15.645Y15.895
X15.614Y15.913
X15.584Y15.932
X15.4Y16.051
X15.371Y16.071
X15.341Y16.091
X15.313Y16.112
X15.284Y16.134
X15.256Y16.157
X15.229Y16.179
X15.202Y16.203
X15.176Y16.227
X15.15Y16.252
X15.125Y16.277
X15.002Y16.404
X14.977Y16.43
X14.954Y16.456
X14.93Y16.483
X14.908Y16.51
X14.886Y16.538
X14.864Y16.566
X14.844Y16.594
X14.824Y16.624
X14.804Y16.653
X14.785Y16.683
X14.686Y16.845
X14.666Y16.879
X14.647Y16.912
X14.629Y16.947
X14.612Y16.982
X14.595Y17.017
X14.579Y17.052
X14.556Y17.11
X14.531Y17.18
X14.463Y17.39
X14.45Y17.432
X14.438Y17.475
X14.427Y17.518
X14.417Y17.561
X14.409Y17.604
X14.402Y17.647
X14.383Y17.769
X14.378Y17.81
X14.373Y17.85
X14.37Y17.891
X14.367Y17.931
X14.361Y18.066
X14.359Y18.104
Y18.142
Y33.642
Y33.674
X14.36Y33.707
X14.362Y33.74
X14.364Y33.772
X14.387Y34.053
X14.391Y34.091
X14.395Y34.128
X14.401Y34.165
X14.407Y34.203
X14.414Y34.24
X14.422Y34.277
X14.431Y34.313
X14.44Y34.35
X14.451Y34.386
X14.462Y34.422
X14.529Y34.625
X14.541Y34.659
X14.554Y34.693
X14.567Y34.727
X14.581Y34.76
X14.596Y34.794
X14.612Y34.827
X14.628Y34.859
X14.645Y34.891
X14.663Y34.923
X14.682Y34.954
X14.771Y35.1
X14.793Y35.135
X14.816Y35.169
X14.84Y35.203
X14.864Y35.237
X14.89Y35.269
X14.916Y35.301
X14.943Y35.332
X14.971Y35.363
X15.08Y35.478
X15.106Y35.505
X15.132Y35.531
X15.158Y35.556
X15.186Y35.58
X15.214Y35.604
X15.242Y35.628
X15.271Y35.65
X15.3Y35.672
X15.422Y35.761
X15.455Y35.785
X15.489Y35.808
X15.524Y35.83
X15.559Y35.851
X15.595Y35.871
X15.631Y35.89
X15.758Y35.956
X15.792Y35.972
X15.826Y35.989
X15.861Y36.004
X15.896Y36.018
X15.931Y36.032
X15.967Y36.045
X16.131Y36.102
X16.169Y36.114
X16.208Y36.126
X16.247Y36.137
X16.286Y36.147
X16.325Y36.155
X16.365Y36.163
X16.577Y36.202
X16.625Y36.21
X16.673Y36.216
X16.721Y36.221
X16.769Y36.225
X16.856Y36.23
X16.903Y36.232
X16.95Y36.233
X22.609
Y37.642
X22.61Y37.69
X22.612Y37.739
X22.615Y37.787
X22.621Y37.835
X22.627Y37.883
X22.635Y37.931
X22.642Y37.963
X22.649Y37.995
X22.665Y38.061
X22.675Y38.096
X22.686Y38.13
X22.697Y38.164
X22.709Y38.198
X22.722Y38.232
X22.736Y38.266
X22.751Y38.299
X22.766Y38.332
X22.782Y38.363
X22.798Y38.394
X22.815Y38.425
X22.832Y38.455
X22.85Y38.485
X22.869Y38.514
X22.889Y38.543
X22.918Y38.585
X22.954Y38.631
X22.985Y38.669
X22.996Y38.682
X23.022Y38.711
X23.047Y38.739
X23.074Y38.766
X23.101Y38.793
X23.129Y38.819
X23.158Y38.844
X23.187Y38.869
X23.217Y38.893
X23.247Y38.916
X23.278Y38.938
X23.309Y38.96
X23.341Y38.981
X23.373Y39.001
X23.406Y39.021
X23.44Y39.039
X23.473Y39.057
X23.507Y39.074
X23.543Y39.091
X23.579Y39.107
X23.616Y39.122
X23.653Y39.136
X23.691Y39.149
X23.729Y39.161
X23.767Y39.173
X23.806Y39.183
X23.844Y39.193
X23.883Y39.201
X23.922Y39.208
X23.962Y39.215
X24.001Y39.22
X24.041Y39.225
X24.08Y39.228
X24.12Y39.231
X24.16Y39.232
X24.2Y39.233
X59.7
X59.739Y39.232
X59.779Y39.231
X59.819Y39.228
X59.858Y39.225
X59.898Y39.22
X59.937Y39.215
X59.976Y39.209
X60.015Y39.201
X60.054Y39.193
X60.092Y39.184
X60.13Y39.173
X60.168Y39.162
X60.206Y39.15
X60.244Y39.137
X60.281Y39.123
X60.317Y39.108
X60.354Y39.092
X60.389Y39.076
X60.423Y39.059
X60.457Y39.041
X60.49Y39.023
X60.523Y39.003
X60.555Y38.983
X60.587Y38.962
X60.618Y38.941
X60.649Y38.919
X60.679Y38.895
X60.709Y38.872
X60.738Y38.847
X60.767Y38.822
X60.795Y38.796
X60.822Y38.77
X60.849Y38.742
X60.875Y38.715
X60.9Y38.686
X60.925Y38.657
X60.961Y38.612
X60.984Y38.582
X61.006Y38.551
X61.027Y38.52
X61.047Y38.488
X61.067Y38.456
X61.086Y38.423
X61.104Y38.39
X61.121Y38.357
X61.137Y38.324
X61.153Y38.29
X61.168Y38.256
X61.182Y38.221
X61.195Y38.186
X61.207Y38.151
X61.219Y38.116
X61.229Y38.08
X61.239Y38.044
X61.248Y38.008
X61.256Y37.972
X61.263Y37.936
X61.27Y37.899
X61.275Y37.862
X61.28Y37.826
X61.284Y37.789
X61.287Y37.752
X61.289Y37.716
X61.29Y37.679
X61.291Y37.642
Y36.233
G0Z1
X32.781Y28.964
G1Z-0.4F5
X32.819Y28.933F10
X32.863Y28.91
X32.904Y28.897
X32.963Y28.891
X33.008Y28.895
X33.055Y28.91
X33.099Y28.933
X33.137Y28.964
X33.168Y29.002
X33.191Y29.046
X33.205Y29.093
X33.21Y29.142
X33.205Y29.191
X33.191Y29.238
X33.168Y29.281
X33.137Y29.32
X33.098Y29.351
X33.055Y29.374
X33.008Y29.388
X32.959Y29.393
X32.91Y29.388
X32.863Y29.374
X32.819Y29.351
X32.781Y29.32
X32.75Y29.281
X32.727Y29.238
X32.713Y29.192
X32.708Y29.142
X32.712Y29.093
X32.727Y29.046
X32.75Y29.002
X32.781Y28.964
G0Z1
X41.432Y23.238
G1Z-0.4F5
X41.361Y23.094F10
X41.331Y22.964
Y22.82
X41.363Y22.681
X41.422Y22.558
X41.508Y22.448
X41.583Y22.381
X41.645Y22.341
X41.648Y22.339
X41.761Y22.295
X41.915Y22.27
X42.063Y22.278
X42.193Y22.316
X42.318Y22.387
X42.423Y22.483
X42.501Y22.596
X42.555Y22.724
X42.571Y22.802
X42.575Y22.855
X42.556Y23.021
X42.499Y23.177
X42.414Y23.303
X42.316Y23.393
X42.19Y23.464
X42.054Y23.504
X41.918Y23.513
X41.773Y23.492
X41.685Y23.463
X41.635Y23.437
X41.605Y23.418
X41.523Y23.352
X41.432Y23.238
G0Z1
X50.727Y29.002
G1Z-0.4F5
X50.758Y28.964F10
X50.796Y28.933
X50.839Y28.91
X50.886Y28.895
X50.935Y28.891
X50.985Y28.895
X51.032Y28.91
X51.075Y28.933
X51.113Y28.964
X51.144Y29.002
X51.168Y29.046
X51.182Y29.093
X51.187Y29.142
X51.182Y29.191
X51.168Y29.238
X51.144Y29.281
X51.113Y29.32
X51.075Y29.351
X51.032Y29.374
X50.984Y29.388
X50.935Y29.393
X50.886Y29.388
X50.839Y29.374
X50.796Y29.351
X50.758Y29.32
X50.727Y29.281
X50.703Y29.238
X50.689Y29.191
X50.684Y29.142
X50.689Y29.093
X50.703Y29.046
X50.727Y29.002
G0Z1
X61.291Y36.233
G1Z-0.4F5
X66.95F10
X66.987Y36.232
X67.023Y36.231
X67.06Y36.229
X67.097Y36.226
X67.133Y36.222
X67.17Y36.218
X67.429Y36.181
X67.47Y36.175
X67.511Y36.168
X67.552Y36.159
X67.592Y36.15
X67.633Y36.139
X67.673Y36.128
X67.712Y36.115
X67.752Y36.101
X67.993Y36.014
X68.026Y36.001
X68.06Y35.988
X68.093Y35.974
X68.126Y35.959
X68.158Y35.943
X68.19Y35.927
X68.222Y35.909
X68.253Y35.892
X68.284Y35.873
X68.315Y35.854
X68.498Y35.735
X68.528Y35.715
X68.557Y35.695
X68.586Y35.674
X68.615Y35.652
X68.643Y35.629
X68.67Y35.606
X68.697Y35.583
X68.723Y35.558
X68.749Y35.534
X68.774Y35.508
X68.898Y35.381
X68.922Y35.355
X68.946Y35.329
X68.97Y35.302
X68.992Y35.275
X69.014Y35.247
X69.036Y35.219
X69.056Y35.19
X69.077Y35.161
X69.096Y35.131
X69.115Y35.101
X69.214Y34.939
X69.233Y34.907
X69.251Y34.875
X69.269Y34.842
X69.285Y34.809
X69.301Y34.776
X69.316Y34.742
X69.331Y34.708
X69.344Y34.673
X69.357Y34.639
X69.369Y34.604
X69.437Y34.393
X69.45Y34.351
X69.462Y34.309
X69.473Y34.266
X69.483Y34.223
X69.491Y34.18
X69.498Y34.136
X69.517Y34.014
X69.522Y33.974
X69.527Y33.933
X69.53Y33.893
X69.533Y33.853
X69.539Y33.717
X69.54Y33.68
X69.541Y33.642
Y18.142
X69.54Y18.099
X69.539Y18.056
X69.536Y18.013
X69.532Y17.971
X69.501Y17.689
X69.497Y17.652
X69.491Y17.615
X69.485Y17.578
X69.478Y17.542
X69.47Y17.505
X69.462Y17.469
X69.452Y17.434
X69.442Y17.398
X69.431Y17.363
X69.419Y17.327
X69.346Y17.124
X69.334Y17.091
X69.321Y17.058
X69.308Y17.025
X69.293Y16.993
X69.278Y16.961
X69.262Y16.929
X69.245Y16.898
X69.228Y16.867
X69.21Y16.836
X69.192Y16.806
X69.099Y16.659
X69.077Y16.626
X69.054Y16.593
X69.031Y16.56
X69.006Y16.528
X68.981Y16.497
X68.955Y16.466
X68.928Y16.436
X68.901Y16.407
X68.79Y16.291
X68.764Y16.266
X68.739Y16.241
X68.713Y16.216
X68.686Y16.192
X68.659Y16.169
X68.631Y16.147
X68.603Y16.125
X68.574Y16.104
X68.451Y16.015
X68.423Y15.996
X68.395Y15.976
X68.366Y15.958
X68.336Y15.94
X68.307Y15.923
X68.277Y15.906
X68.247Y15.89
X68.216Y15.875
X68.047Y15.793
X68.011Y15.776
X67.974Y15.759
X67.937Y15.744
X67.899Y15.73
X67.861Y15.716
X67.823Y15.704
X67.784Y15.693
X67.745Y15.682
X67.464Y15.61
X67.421Y15.6
X67.379Y15.591
X67.335Y15.583
X67.292Y15.577
X67.249Y15.571
X67.205Y15.567
X67.084Y15.556
X67.051Y15.554
X67.017Y15.552
X66.983Y15.551
X66.95
X61.291
Y14.142
X61.29Y14.107
X61.289Y14.072
X61.287Y14.037
X61.285Y14.002
X61.281Y13.962
X61.276Y13.922
X61.27Y13.882
X61.262Y13.843
X61.254Y13.803
X61.245Y13.764
X61.235Y13.725
X61.225Y13.689
X61.214Y13.654
X61.202Y13.619
X61.181Y13.561
X61.161Y13.513
X61.153Y13.494
X61.137Y13.459
X61.12Y13.425
X61.102Y13.391
X61.084Y13.357
X61.065Y13.324
X61.044Y13.291
X61.023Y13.259
X61.002Y13.227
X60.979Y13.196
X60.956Y13.166
X60.932Y13.136
X60.908Y13.106
X60.882Y13.078
X60.856Y13.049
X60.83Y13.022
X60.802Y12.995
X60.774Y12.969
X60.746Y12.943
X60.717Y12.918
X60.687Y12.894
X60.656Y12.871
X60.626Y12.848
X60.594Y12.826
X60.561Y12.804
X60.528Y12.783
X60.494Y12.763
X60.459Y12.744
X60.424Y12.725
X60.389Y12.708
X60.353Y12.691
X60.316Y12.675
X60.28Y12.66
X60.243Y12.646
X60.205Y12.633
X60.168Y12.621
X60.13Y12.61
X60.092Y12.6
X60.053Y12.591
X60.014Y12.582
X59.975Y12.575
X59.936Y12.569
X59.897Y12.563
X59.858Y12.559
X59.818Y12.555
X59.779Y12.553
X59.739Y12.551
X59.7
X24.2
X24.16
X24.12Y12.553
X24.081Y12.555
X24.041Y12.559
X24.002Y12.563
X23.962Y12.569
X23.923Y12.575
X23.884Y12.583
X23.845Y12.591
X23.806Y12.6
X23.768Y12.611
X23.73Y12.622
X23.692Y12.634
X23.654Y12.647
X23.617Y12.661
X23.58Y12.676
X23.544Y12.692
X23.508Y12.709
X23.472Y12.727
X23.437Y12.746
X23.403Y12.765
X23.368Y12.785
X23.334Y12.807
X23.302Y12.829
X23.27Y12.851
X23.24Y12.873
X23.209Y12.897
X23.179Y12.921
X23.15Y12.946
X23.122Y12.972
X23.094Y12.998
X23.066Y13.025
X23.04Y13.053
X23.014Y13.081
X22.989Y13.11
X22.964Y13.14
X22.94Y13.17
X22.917Y13.201
X22.895Y13.232
X22.873Y13.264
X22.852Y13.296
X22.832Y13.329
X22.813Y13.362
X22.795Y13.396
X22.777Y13.43
X22.76Y13.464
X22.738Y13.513
X22.718Y13.563
X22.71Y13.584
X22.697Y13.619
X22.686Y13.653
X22.675Y13.688
X22.665Y13.724
X22.655Y13.763
X22.646Y13.802
X22.637Y13.841
X22.63Y13.881
X22.624Y13.921
X22.619Y13.961
X22.615Y14.001
X22.612Y14.036
X22.61Y14.071
X22.609Y14.107
Y14.142
Y15.551
X16.95
X16.912
X16.875Y15.553
X16.837Y15.555
X16.8Y15.558
X16.762Y15.562
X16.725Y15.567
X16.466Y15.604
X16.425Y15.61
X16.384Y15.618
X16.343Y15.626
X16.303Y15.636
X16.263Y15.646
X16.223Y15.658
X16.184Y15.671
X16.145Y15.684
X15.904Y15.772
X15.87Y15.785
X15.837Y15.799
X15.804Y15.813
X15.772Y15.828
X15.739Y15.843
X15.707Y15.86
X15.676Y15.877
X15.645Y15.895
X15.614Y15.913
X15.584Y15.932
X15.4Y16.051
X15.371Y16.071
X15.341Y16.091
X15.313Y16.112
X15.284Y16.134
X15.256Y16.157
X15.229Y16.179
X15.202Y16.203
X15.176Y16.227
X15.15Y16.252
X15.125Y16.277
X15.002Y16.404
X14.977Y16.43
X14.954Y16.456
X14.93Y16.483
X14.908Y16.51
X14.886Y16.538
X14.864Y16.566
X14.844Y16.594
X14.824Y16.624
X14.804Y16.653
X14.785Y16.683
X14.686Y16.845
X14.666Y16.879
X14.647Y16.912
X14.629Y16.947
X14.612Y16.982
X14.595Y17.017
X14.579Y17.052
X14.556Y17.11
X14.531Y17.18
X14.463Y17.39
X14.45Y17.432
X14.438Y17.475
X14.427Y17.518
X14.417Y17.561
X14.409Y17.604
X14.402Y17.647
X14.383Y17.769
X14.378Y17.81
X14.373Y17.85
X14.37Y17.891
X14.367Y17.931
X14.361Y18.066
X14.359Y18.104
Y18.142
Y33.642
Y33.674
X14.36Y33.707
X14.362Y33.74
X14.364Y33.772
X14.387Y34.053
X14.391Y34.091
X14.395Y34.128
X14.401Y34.165
X14.407Y34.203
X14.414Y34.24
X14.422Y34.277
X14.431Y34.313
X14.44Y34.35
X14.451Y34.386
X14.462Y34.422
X14.529Y34.625
X14.541Y34.659
X14.554Y34.693
X14.567Y34.727
X14.581Y34.76
X14.596Y34.794
X14.612Y34.827
X14.628Y34.859
X14.645Y34.891
X14.663Y34.923
X14.682Y34.954
X14.771Y35.1
X14.793Y35.135
X14.816Y35.169
X14.84Y35.203
X14.864Y35.237
X14.89Y35.269
X14.916Y35.301
X14.943Y35.332
X14.971Y35.363
X15.08Y35.478
X15.106Y35.505
X15.132Y35.531
X15.158Y35.556
X15.186Y35.58
X15.214Y35.604
X15.242Y35.628
X15.271Y35.65
X15.3Y35.672
X15.422Y35.761
X15.455Y35.785
X15.489Y35.808
X15.524Y35.83
X15.559Y35.851
X15.595Y35.871
X15.631Y35.89
X15.758Y35.956
X15.792Y35.972
X15.826Y35.989
X15.861Y36.004
X15.896Y36.018
X15.931Y36.032
X15.967Y36.045
X16.131Y36.102
X16.169Y36.114
X16.208Y36.126
X16.247Y36.137
X16.286Y36.147
X16.325Y36.155
X16.365Y36.163
X16.577Y36.202
X16.625Y36.21
X16.673Y36.216
X16.721Y36.221
X16.769Y36.225
X16.856Y36.23
X16.903Y36.232
X16.95Y36.233
X22.609
Y37.642
X22.61Y37.69
X22.612Y37.739
X22.615Y37.787
X22.621Y37.835
X22.627Y37.883
X22.635Y37.931
X22.642Y37.963
X22.649Y37.995
X22.665Y38.061
X22.675Y38.096
X22.686Y38.13
X22.697Y38.164
X22.709Y38.198
X22.722Y38.232
X22.736Y38.266
X22.751Y38.299
X22.766Y38.332
X22.782Y38.363
X22.798Y38.394
X22.815Y38.425
X22.832Y38.455
X22.85Y38.485
X22.869Y38.514
X22.889Y38.543
X22.918Y38.585
X22.954Y38.631
X22.985Y38.669
X22.996Y38.682
X23.022Y38.711
X23.047Y38.739
X23.074Y38.766
X23.101Y38.793
X23.129Y38.819
X23.158Y38.844
X23.187Y38.869
X23.217Y38.893
X23.247Y38.916
X23.278Y38.938
X23.309Y38.96
X23.341Y38.981
X23.373Y39.001
X23.406Y39.021
X23.44Y39.039
X23.473Y39.057
X23.507Y39.074
X23.543Y39.091
X23.579Y39.107
X23.616Y39.122
X23.653Y39.136
X23.691Y39.149
X23.729Y39.161
X23.767Y39.173
X23.806Y39.183
X23.844Y39.193
X23.883Y39.201
X23.922Y39.208
X23.962Y39.215
X24.001Y39.22
X24.041Y39.225
X24.08Y39.228
X24.12Y39.231
X24.16Y39.232
X24.2Y39.233
X59.7
X59.739Y39.232
X59.779Y39.231
X59.819Y39.228
X59.858Y39.225
X59.898Y39.22
X59.937Y39.215
X59.976Y39.209
X60.015Y39.201
X60.054Y39.193
X60.092Y39.184
X60.13Y39.173
X60.168Y39.162
X60.206Y39.15
X60.244Y39.137
X60.281Y39.123
X60.317Y39.108
X60.354Y39.092
X60.389Y39.076
X60.423Y39.059
X60.457Y39.041
X60.49Y39.023
X60.523Y39.003
X60.555Y38.983
X60.587Y38.962
X60.618Y38.941
X60.649Y38.919
X60.679Y38.895
X60.709Y38.872
X60.738Y38.847
X60.767Y38.822
X60.795Y38.796
X60.822Y38.77
X60.849Y38.742
X60.875Y38.715
X60.9Y38.686
X60.925Y38.657
X60.961Y38.612
X60.984Y38.582
X61.006Y38.551
X61.027Y38.52
X61.047Y38.488
X61.067Y38.456
X61.086Y38.423
X61.104Y38.39
X61.121Y38.357
X61.137Y38.324
X61.153Y38.29
X61.168Y38.256
X61.182Y38.221
X61.195Y38.186
X61.207Y38.151
X61.219Y38.116
X61.229Y38.08
X61.239Y38.044
X61.248Y38.008
X61.256Y37.972
X61.263Y37.936
X61.27Y37.899
X61.275Y37.862
X61.28Y37.826
X61.284Y37.789
X61.287Y37.752
X61.289Y37.716
X61.29Y37.679
X61.291Y37.642
Y36.233
G0Z1
X32.781Y28.964
G1Z-0.5F5
X32.819Y28.933F10
X32.863Y28.91
X32.904Y28.897
X32.963Y28.891
X33.008Y28.895
X33.055Y28.91
X33.099Y28.933
X33.137Y28.964
X33.168Y29.002
X33.191Y29.046
X33.205Y29.093
X33.21Y29.142
X33.205Y29.191
X33.191Y29.238
X33.168Y29.281
X33.137Y29.32
X33.098Y29.351
X33.055Y29.374
X33.008Y29.388
X32.959Y29.393
X32.91Y29.388
X32.863Y29.374
X32.819Y29.351
X32.781Y29.32
X32.75Y29.281
X32.727Y29.238
X32.713Y29.192
X32.708Y29.142
X32.712Y29.093
X32.727Y29.046
X32.75Y29.002
X32.781Y28.964
G0Z1
X41.432Y23.238
G1Z-0.5F5
X41.361Y23.094F10
X41.331Y22.964
Y22.82
X41.363Y22.681
X41.422Y22.558
X41.508Y22.448
X41.583Y22.381
X41.645Y22.341
X41.648Y22.339
X41.761Y22.295
X41.915Y22.27
X42.063Y22.278
X42.193Y22.316
X42.318Y22.387
X42.423Y22.483
X42.501Y22.596
X42.555Y22.724
X42.571Y22.802
X42.575Y22.855
X42.556Y23.021
X42.499Y23.177
X42.414Y23.303
X42.316Y23.393
X42.19Y23.464
X42.054Y23.504
X41.918Y23.513
X41.773Y23.492
X41.685Y23.463
X41.635Y23.437
X41.605Y23.418
X41.523Y23.352
X41.432Y23.238
G0Z1
X50.727Y29.002
G1Z-0.5F5
X50.758Y28.964F10
X50.796Y28.933
X50.839Y28.91
X50.886Y28.895
X50.935Y28.891
X50.985Y28.895
X51.032Y28.91
X51.075Y28.933
X51.113Y28.964
X51.144Y29.002
X51.168Y29.046
X51.182Y29.093
X51.187Y29.142
X51.182Y29.191
X51.168Y29.238
X51.144Y29.281
X51.113Y29.32
X51.075Y29.351
X51.032Y29.374
X50.984Y29.388
X50.935Y29.393
X50.886Y29.388
X50.839Y29.374
X50.796Y29.351
X50.758Y29.32
X50.727Y29.281
X50.703Y29.238
X50.689Y29.191
X50.684Y29.142
X50.689Y29.093
X50.703Y29.046
X50.727Y29.002
G0Z1
X61.291Y36.233
G1Z-0.5F5
X66.95F10
X66.987Y36.232
X67.023Y36.231
X67.06Y36.229
X67.097Y36.226
X67.133Y36.222
X67.17Y36.218
X67.429Y36.181
X67.47Y36.175
X67.511Y36.168
X67.552Y36.159
X67.592Y36.15
X67.633Y36.139
X67.673Y36.128
X67.712Y36.115
X67.752Y36.101
X67.993Y36.014
X68.026Y36.001
X68.06Y35.988
X68.093Y35.974
X68.126Y35.959
X68.158Y35.943
X68.19Y35.927
X68.222Y35.909
X68.253Y35.892
X68.284Y35.873
X68.315Y35.854
X68.498Y35.735
X68.528Y35.715
X68.557Y35.695
X68.586Y35.674
X68.615Y35.652
X68.643Y35.629
X68.67Y35.606
X68.697Y35.583
X68.723Y35.558
X68.749Y35.534
X68.774Y35.508
X68.898Y35.381
X68.922Y35.355
X68.946Y35.329
X68.97Y35.302
X68.992Y35.275
X69.014Y35.247
X69.036Y35.219
X69.056Y35.19
X69.077Y35.161
X69.096Y35.131
X69.115Y35.101
X69.214Y34.939
X69.233Y34.907
X69.251Y34.875
X69.269Y34.842
X69.285Y34.809
X69.301Y34.776
X69.316Y34.742
X69.331Y34.708
X69.344Y34.673
X69.357Y34.639
X69.369Y34.604
X69.437Y34.393
X69.45Y34.351
X69.462Y34.309
X69.473Y34.266
X69.483Y34.223
X69.491Y34.18
X69.498Y34.136
X69.517Y34.014
X69.522Y33.974
X69.527Y33.933
X69.53Y33.893
X69.533Y33.853
X69.539Y33.717
X69.54Y33.68
X69.541Y33.642
Y18.142
X69.54Y18.099
X69.539Y18.056
X69.536Y18.013
X69.532Y17.971
X69.501Y17.689
X69.497Y17.652
X69.491Y17.615
X69.485Y17.578
X69.478Y17.542
X69.47Y17.505
X69.462Y17.469
X69.452Y17.434
X69.442Y17.398
X69.431Y17.363
X69.419Y17.327
X69.346Y17.124
X69.334Y17.091
X69.321Y17.058
X69.308Y17.025
X69.293Y16.993
X69.278Y16.961
X69.262Y16.929
X69.245Y16.898
X69.228Y16.867
X69.21Y16.836
X69.192Y16.806
X69.099Y16.659
X69.077Y16.626
X69.054Y16.593
X69.031Y16.56
X69.006Y16.528
X68.981Y16.497
X68.955Y16.466
X68.928Y16.436
X68.901Y16.407
X68.79Y16.291
X68.764Y16.266
X68.739Y16.241
X68.713Y16.216
X68.686Y16.192
X68.659Y16.169
X68.631Y16.147
X68.603Y16.125
X68.574Y16.104
X68.451Y16.015
X68.423Y15.996
X68.395Y15.976
X68.366Y15.958
X68.336Y15.94
X68.307Y15.923
X68.277Y15.906
X68.247Y15.89
X68.216Y15.875
X68.047Y15.793
X68.011Y15.776
X67.974Y15.759
X67.937Y15.744
X67.899Y15.73
X67.861Y15.716
X67.823Y15.704
X67.784Y15.693
X67.745Y15.682
X67.464Y15.61
X67.421Y15.6
X67.379Y15.591
X67.335Y15.583
X67.292Y15.577
X67.249Y15.571
X67.205Y15.567
X67.084Y15.556
X67.051Y15.554
X67.017Y15.552
X66.983Y15.551
X66.95
X61.291
Y14.142
X61.29Y14.107
X61.289Y14.072
X61.287Y14.037
X61.285Y14.002
X61.281Y13.962
X61.276Y13.922
X61.27Y13.882
X61.262Y13.843
X61.254Y13.803
X61.245Y13.764
X61.235Y13.725
X61.225Y13.689
X61.214Y13.654
X61.202Y13.619
X61.181Y13.561
X61.161Y13.513
X61.153Y13.494
X61.137Y13.459
X61.12Y13.425
X61.102Y13.391
X61.084Y13.357
X61.065Y13.324
X61.044Y13.291
X61.023Y13.259
X61.002Y13.227
X60.979Y13.196
X60.956Y13.166
X60.932Y13.136
X60.908Y13.106
X60.882Y13.078
X60.856Y13.049
X60.83Y13.022
X60.802Y12.995
X60.774Y12.969
X60.746Y12.943
X60.717Y12.918
X60.687Y12.894
X60.656Y12.871
X60.626Y12.848
X60.594Y12.826
X60.561Y12.804
X60.528Y12.783
X60.494Y12.763
X60.459Y12.744
X60.424Y12.725
X60.389Y12.708
X60.353Y12.691
X60.316Y12.675
X60.28Y12.66
X60.243Y12.646
X60.205Y12.633
X60.168Y12.621
X60.13Y12.61
X60.092Y12.6
X60.053Y12.591
X60.014Y12.582
X59.975Y12.575
X59.936Y12.569
X59.897Y12.563
X59.858Y12.559
X59.818Y12.555
X59.779Y12.553
X59.739Y12.551
X59.7
X24.2
X24.16
X24.12Y12.553
X24.081Y12.555
X24.041Y12.559
X24.002Y12.563
X23.962Y12.569
X23.923Y12.575
X23.884Y12.583
X23.845Y12.591
X23.806Y12.6
X23.768Y12.611
X23.73Y12.622
X23.692Y12.634
X23.654Y12.647
X23.617Y12.661
X23.58Y12.676
X23.544Y12.692
X23.508Y12.709
X23.472Y12.727
X23.437Y12.746
X23.403Y12.765
X23.368Y12.785
X23.334Y12.807
X23.302Y12.829
X23.27Y12.851
X23.24Y12.873
X23.209Y12.897
X23.179Y12.921
X23.15Y12.946
X23.122Y12.972
X23.094Y12.998
X23.066Y13.025
X23.04Y13.053
X23.014Y13.081
X22.989Y13.11
X22.964Y13.14
X22.94Y13.17
X22.917Y13.201
X22.895Y13.232
X22.873Y13.264
X22.852Y13.296
X22.832Y13.329
X22.813Y13.362
X22.795Y13.396
X22.777Y13.43
X22.76Y13.464
X22.738Y13.513
X22.718Y13.563
X22.71Y13.584
X22.697Y13.619
X22.686Y13.653
X22.675Y13.688
X22.665Y13.724
X22.655Y13.763
X22.646Y13.802
X22.637Y13.841
X22.63Y13.881
X22.624Y13.921
X22.619Y13.961
X22.615Y14.001
X22.612Y14.036
X22.61Y14.071
X22.609Y14.107
Y14.142
Y15.551
X16.95
X16.912
X16.875Y15.553
X16.837Y15.555
X16.8Y15.558
X16.762Y15.562
X16.725Y15.567
X16.466Y15.604
X16.425Y15.61
X16.384Y15.618
X16.343Y15.626
X16.303Y15.636
X16.263Y15.646
X16.223Y15.658
X16.184Y15.671
X16.145Y15.684
X15.904Y15.772
X15.87Y15.785
X15.837Y15.799
X15.804Y15.813
X15.772Y15.828
X15.739Y15.843
X15.707Y15.86
X15.676Y15.877
X15.645Y15.895
X15.614Y15.913
X15.584Y15.932
X15.4Y16.051
X15.371Y16.071
X15.341Y16.091
X15.313Y16.112
X15.284Y16.134
X15.256Y16.157
X15.229Y16.179
X15.202Y16.203
X15.176Y16.227
X15.15Y16.252
X15.125Y16.277
X15.002Y16.404
X14.977Y16.43
X14.954Y16.456
X14.93Y16.483
X14.908Y16.51
X14.886Y16.538
X14.864Y16.566
X14.844Y16.594
X14.824Y16.624
X14.804Y16.653
X14.785Y16.683
X14.686Y16.845
X14.666Y16.879
X14.647Y16.912
X14.629Y16.947
X14.612Y16.982
X14.595Y17.017
X14.579Y17.052
X14.556Y17.11
X14.531Y17.18
X14.463Y17.39
X14.45Y17.432
X14.438Y17.475
X14.427Y17.518
X14.417Y17.561
X14.409Y17.604
X14.402Y17.647
X14.383Y17.769
X14.378Y17.81
X14.373Y17.85
X14.37Y17.891
X14.367Y17.931
X14.361Y18.066
X14.359Y18.104
Y18.142
Y33.642
Y33.674
X14.36Y33.707
X14.362Y33.74
X14.364Y33.772
X14.387Y34.053
X14.391Y34.091
X14.395Y34.128
X14.401Y34.165
X14.407Y34.203
X14.414Y34.24
X14.422Y34.277
X14.431Y34.313
X14.44Y34.35
X14.451Y34.386
X14.462Y34.422
X14.529Y34.625
X14.541Y34.659
X14.554Y34.693
X14.567Y34.727
X14.581Y34.76
X14.596Y34.794
X14.612Y34.827
X14.628Y34.859
X14.645Y34.891
X14.663Y34.923
X14.682Y34.954
X14.771Y35.1
X14.793Y35.135
X14.816Y35.169
X14.84Y35.203
X14.864Y35.237
X14.89Y35.269
X14.916Y35.301
X14.943Y35.332
X14.971Y35.363
X15.08Y35.478
X15.106Y35.505
X15.132Y35.531
X15.158Y35.556
X15.186Y35.58
X15.214Y35.604
X15.242Y35.628
X15.271Y35.65
X15.3Y35.672
X15.422Y35.761
X15.455Y35.785
X15.489Y35.808
X15.524Y35.83
X15.559Y35.851
X15.595Y35.871
X15.631Y35.89
X15.758Y35.956
X15.792Y35.972
X15.826Y35.989
X15.861Y36.004
X15.896Y36.018
X15.931Y36.032
X15.967Y36.045
X16.131Y36.102
X16.169Y36.114
X16.208Y36.126
X16.247Y36.137
X16.286Y36.147
X16.325Y36.155
X16.365Y36.163
X16.577Y36.202
X16.625Y36.21
X16.673Y36.216
X16.721Y36.221
X16.769Y36.225
X16.856Y36.23
X16.903Y36.232
X16.95Y36.233
X22.609
Y37.642
X22.61Y37.69
X22.612Y37.739
X22.615Y37.787
X22.621Y37.835
X22.627Y37.883
X22.635Y37.931
X22.642Y37.963
X22.649Y37.995
X22.665Y38.061
X22.675Y38.096
X22.686Y38.13
X22.697Y38.164
X22.709Y38.198
X22.722Y38.232
X22.736Y38.266
X22.751Y38.299
X22.766Y38.332
X22.782Y38.363
X22.798Y38.394
X22.815Y38.425
X22.832Y38.455
X22.85Y38.485
X22.869Y38.514
X22.889Y38.543
X22.918Y38.585
X22.954Y38.631
X22.985Y38.669
X22.996Y38.682
X23.022Y38.711
X23.047Y38.739
X23.074Y38.766
X23.101Y38.793
X23.129Y38.819
X23.158Y38.844
X23.187Y38.869
X23.217Y38.893
X23.247Y38.916
X23.278Y38.938
X23.309Y38.96
X23.341Y38.981
X23.373Y39.001
X23.406Y39.021
X23.44Y39.039
X23.473Y39.057
X23.507Y39.074
X23.543Y39.091
X23.579Y39.107
X23.616Y39.122
X23.653Y39.136
X23.691Y39.149
X23.729Y39.161
X23.767Y39.173
X23.806Y39.183
X23.844Y39.193
X23.883Y39.201
X23.922Y39.208
X23.962Y39.215
X24.001Y39.22
X24.041Y39.225
X24.08Y39.228
X24.12Y39.231
X24.16Y39.232
X24.2Y39.233
X59.7
X59.739Y39.232
X59.779Y39.231
X59.819Y39.228
X59.858Y39.225
X59.898Y39.22
X59.937Y39.215
X59.976Y39.209
X60.015Y39.201
X60.054Y39.193
X60.092Y39.184
X60.13Y39.173
X60.168Y39.162
X60.206Y39.15
X60.244Y39.137
X60.281Y39.123
X60.317Y39.108
X60.354Y39.092
X60.389Y39.076
X60.423Y39.059
X60.457Y39.041
X60.49Y39.023
X60.523Y39.003
X60.555Y38.983
X60.587Y38.962
X60.618Y38.941
X60.649Y38.919
X60.679Y38.895
X60.709Y38.872
X60.738Y38.847
X60.767Y38.822
X60.795Y38.796
X60.822Y38.77
X60.849Y38.742
X60.875Y38.715
X60.9Y38.686
X60.925Y38.657
X60.961Y38.612
X60.984Y38.582
X61.006Y38.551
X61.027Y38.52
X61.047Y38.488
X61.067Y38.456
X61.086Y38.423
X61.104Y38.39
X61.121Y38.357
X61.137Y38.324
X61.153Y38.29
X61.168Y38.256
X61.182Y38.221
X61.195Y38.186
X61.207Y38.151
X61.219Y38.116
X61.229Y38.08
X61.239Y38.044
X61.248Y38.008
X61.256Y37.972
X61.263Y37.936
X61.27Y37.899
X61.275Y37.862
X61.28Y37.826
X61.284Y37.789
X61.287Y37.752
X61.289Y37.716
X61.29Y37.679
X61.291Y37.642
Y36.233
G0Z1
X32.781Y28.964
G1Z-0.6F5
X32.819Y28.933F10
X32.863Y28.91
X32.904Y28.897
X32.963Y28.891
X33.008Y28.895
X33.055Y28.91
X33.099Y28.933
X33.137Y28.964
X33.168Y29.002
X33.191Y29.046
X33.205Y29.093
X33.21Y29.142
X33.205Y29.191
X33.191Y29.238
X33.168Y29.281
X33.137Y29.32
X33.098Y29.351
X33.055Y29.374
X33.008Y29.388
X32.959Y29.393
X32.91Y29.388
X32.863Y29.374
X32.819Y29.351
X32.781Y29.32
X32.75Y29.281
X32.727Y29.238
X32.713Y29.192
X32.708Y29.142
X32.712Y29.093
X32.727Y29.046
X32.75Y29.002
X32.781Y28.964
G0Z1
X41.432Y23.238
G1Z-0.6F5
X41.361Y23.094F10
X41.331Y22.964
Y22.82
X41.363Y22.681
X41.422Y22.558
X41.508Y22.448
X41.583Y22.381
X41.645Y22.341
X41.648Y22.339
X41.761Y22.295
X41.915Y22.27
X42.063Y22.278
X42.193Y22.316
X42.318Y22.387
X42.423Y22.483
X42.501Y22.596
X42.555Y22.724
X42.571Y22.802
X42.575Y22.855
X42.556Y23.021
X42.499Y23.177
X42.414Y23.303
X42.316Y23.393
X42.19Y23.464
X42.054Y23.504
X41.918Y23.513
X41.773Y23.492
X41.685Y23.463
X41.635Y23.437
X41.605Y23.418
X41.523Y23.352
X41.432Y23.238
G0Z1
X50.727Y29.002
G1Z-0.6F5
X50.758Y28.964F10
X50.796Y28.933
X50.839Y28.91
X50.886Y28.895
X50.935Y28.891
X50.985Y28.895
X51.032Y28.91
X51.075Y28.933
X51.113Y28.964
X51.144Y29.002
X51.168Y29.046
X51.182Y29.093
X51.187Y29.142
X51.182Y29.191
X51.168Y29.238
X51.144Y29.281
X51.113Y29.32
X51.075Y29.351
X51.032Y29.374
X50.984Y29.388
X50.935Y29.393
X50.886Y29.388
X50.839Y29.374
X50.796Y29.351
X50.758Y29.32
X50.727Y29.281
X50.703Y29.238
X50.689Y29.191
X50.684Y29.142
X50.689Y29.093
X50.703Y29.046
X50.727Y29.002
G0Z1
X61.291Y36.233
G1Z-0.6F5
X66.95F10
X66.987Y36.232
X67.023Y36.231
X67.06Y36.229
X67.097Y36.226
X67.133Y36.222
X67.17Y36.218
X67.429Y36.181
X67.47Y36.175
X67.511Y36.168
X67.552Y36.159
X67.592Y36.15
X67.633Y36.139
X67.673Y36.128
X67.712Y36.115
X67.752Y36.101
X67.993Y36.014
X68.026Y36.001
X68.06Y35.988
X68.093Y35.974
X68.126Y35.959
X68.158Y35.943
X68.19Y35.927
X68.222Y35.909
X68.253Y35.892
X68.284Y35.873
X68.315Y35.854
X68.498Y35.735
X68.528Y35.715
X68.557Y35.695
X68.586Y35.674
X68.615Y35.652
X68.643Y35.629
X68.67Y35.606
X68.697Y35.583
X68.723Y35.558
X68.749Y35.534
X68.774Y35.508
X68.898Y35.381
X68.922Y35.355
X68.946Y35.329
X68.97Y35.302
X68.992Y35.275
X69.014Y35.247
X69.036Y35.219
X69.056Y35.19
X69.077Y35.161
X69.096Y35.131
X69.115Y35.101
X69.214Y34.939
X69.233Y34.907
X69.251Y34.875
X69.269Y34.842
X69.285Y34.809
X69.301Y34.776
X69.316Y34.742
X69.331Y34.708
X69.344Y34.673
X69.357Y34.639
X69.369Y34.604
X69.437Y34.393
X69.45Y34.351
X69.462Y34.309
X69.473Y34.266
X69.483Y34.223
X69.491Y34.18
X69.498Y34.136
X69.517Y34.014
X69.522Y33.974
X69.527Y33.933
X69.53Y33.893
X69.533Y33.853
X69.539Y33.717
X69.54Y33.68
X69.541Y33.642
Y18.142
X69.54Y18.099
X69.539Y18.056
X69.536Y18.013
X69.532Y17.971
X69.501Y17.689
X69.497Y17.652
X69.491Y17.615
X69.485Y17.578
X69.478Y17.542
X69.47Y17.505
X69.462Y17.469
X69.452Y17.434
X69.442Y17.398
X69.431Y17.363
X69.419Y17.327
X69.346Y17.124
X69.334Y17.091
X69.321Y17.058
X69.308Y17.025
X69.293Y16.993
X69.278Y16.961
X69.262Y16.929
X69.245Y16.898
X69.228Y16.867
X69.21Y16.836
X69.192Y16.806
X69.099Y16.659
X69.077Y16.626
X69.054Y16.593
X69.031Y16.56
X69.006Y16.528
X68.981Y16.497
X68.955Y16.466
X68.928Y16.436
X68.901Y16.407
X68.79Y16.291
X68.764Y16.266
X68.739Y16.241
X68.713Y16.216
X68.686Y16.192
X68.659Y16.169
X68.631Y16.147
X68.603Y16.125
X68.574Y16.104
X68.451Y16.015
X68.423Y15.996
X68.395Y15.976
X68.366Y15.958
X68.336Y15.94
X68.307Y15.923
X68.277Y15.906
X68.247Y15.89
X68.216Y15.875
X68.047Y15.793
X68.011Y15.776
X67.974Y15.759
X67.937Y15.744
X67.899Y15.73
X67.861Y15.716
X67.823Y15.704
X67.784Y15.693
X67.745Y15.682
X67.464Y15.61
X67.421Y15.6
X67.379Y15.591
X67.335Y15.583
X67.292Y15.577
X67.249Y15.571
X67.205Y15.567
X67.084Y15.556
X67.051Y15.554
X67.017Y15.552
X66.983Y15.551
X66.95
X61.291
Y14.142
X61.29Y14.107
X61.289Y14.072
X61.287Y14.037
X61.285Y14.002
X61.281Y13.962
X61.276Y13.922
X61.27Y13.882
X61.262Y13.843
X61.254Y13.803
X61.245Y13.764
X61.235Y13.725
X61.225Y13.689
X61.214Y13.654
X61.202Y13.619
X61.181Y13.561
X61.161Y13.513
X61.153Y13.494
X61.137Y13.459
X61.12Y13.425
X61.102Y13.391
X61.084Y13.357
X61.065Y13.324
X61.044Y13.291
X61.023Y13.259
X61.002Y13.227
X60.979Y13.196
X60.956Y13.166
X60.932Y13.136
X60.908Y13.106
X60.882Y13.078
X60.856Y13.049
X60.83Y13.022
X60.802Y12.995
X60.774Y12.969
X60.746Y12.943
X60.717Y12.918
X60.687Y12.894
X60.656Y12.871
X60.626Y12.848
X60.594Y12.826
X60.561Y12.804
X60.528Y12.783
X60.494Y12.763
X60.459Y12.744
X60.424Y12.725
X60.389Y12.708
X60.353Y12.691
X60.316Y12.675
X60.28Y12.66
X60.243Y12.646
X60.205Y12.633
X60.168Y12.621
X60.13Y12.61
X60.092Y12.6
X60.053Y12.591
X60.014Y12.582
X59.975Y12.575
X59.936Y12.569
X59.897Y12.563
X59.858Y12.559
X59.818Y12.555
X59.779Y12.553
X59.739Y12.551
X59.7
X24.2
X24.16
X24.12Y12.553
X24.081Y12.555
X24.041Y12.559
X24.002Y12.563
X23.962Y12.569
X23.923Y12.575
X23.884Y12.583
X23.845Y12.591
X23.806Y12.6
X23.768Y12.611
X23.73Y12.622
X23.692Y12.634
X23.654Y12.647
X23.617Y12.661
X23.58Y12.676
X23.544Y12.692
X23.508Y12.709
X23.472Y12.727
X23.437Y12.746
X23.403Y12.765
X23.368Y12.785
X23.334Y12.807
X23.302Y12.829
X23.27Y12.851
X23.24Y12.873
X23.209Y12.897
X23.179Y12.921
X23.15Y12.946
X23.122Y12.972
X23.094Y12.998
X23.066Y13.025
X23.04Y13.053
X23.014Y13.081
X22.989Y13.11
X22.964Y13.14
X22.94Y13.17
X22.917Y13.201
X22.895Y13.232
X22.873Y13.264
X22.852Y13.296
X22.832Y13.329
X22.813Y13.362
X22.795Y13.396
X22.777Y13.43
X22.76Y13.464
X22.738Y13.513
X22.718Y13.563
X22.71Y13.584
X22.697Y13.619
X22.686Y13.653
X22.675Y13.688
X22.665Y13.724
X22.655Y13.763
X22.646Y13.802
X22.637Y13.841
X22.63Y13.881
X22.624Y13.921
X22.619Y13.961
X22.615Y14.001
X22.612Y14.036
X22.61Y14.071
X22.609Y14.107
Y14.142
Y15.551
X16.95
X16.912
X16.875Y15.553
X16.837Y15.555
X16.8Y15.558
X16.762Y15.562
X16.725Y15.567
X16.466Y15.604
X16.425Y15.61
X16.384Y15.618
X16.343Y15.626
X16.303Y15.636
X16.263Y15.646
X16.223Y15.658
X16.184Y15.671
X16.145Y15.684
X15.904Y15.772
X15.87Y15.785
X15.837Y15.799
X15.804Y15.813
X15.772Y15.828
X15.739Y15.843
X15.707Y15.86
X15.676Y15.877
X15.645Y15.895
X15.614Y15.913
X15.584Y15.932
X15.4Y16.051
X15.371Y16.071
X15.341Y16.091
X15.313Y16.112
X15.284Y16.134
X15.256Y16.157
X15.229Y16.179
X15.202Y16.203
X15.176Y16.227
X15.15Y16.252
X15.125Y16.277
X15.002Y16.404
X14.977Y16.43
X14.954Y16.456
X14.93Y16.483
X14.908Y16.51
X14.886Y16.538
X14.864Y16.566
X14.844Y16.594
X14.824Y16.624
X14.804Y16.653
X14.785Y16.683
X14.686Y16.845
X14.666Y16.879
X14.647Y16.912
X14.629Y16.947
X14.612Y16.982
X14.595Y17.017
X14.579Y17.052
X14.556Y17.11
X14.531Y17.18
X14.463Y17.39
X14.45Y17.432
X14.438Y17.475
X14.427Y17.518
X14.417Y17.561
X14.409Y17.604
X14.402Y17.647
X14.383Y17.769
X14.378Y17.81
X14.373Y17.85
X14.37Y17.891
X14.367Y17.931
X14.361Y18.066
X14.359Y18.104
Y18.142
Y33.642
Y33.674
X14.36Y33.707
X14.362Y33.74
X14.364Y33.772
X14.387Y34.053
X14.391Y34.091
X14.395Y34.128
X14.401Y34.165
X14.407Y34.203
X14.414Y34.24
X14.422Y34.277
X14.431Y34.313
X14.44Y34.35
X14.451Y34.386
X14.462Y34.422
X14.529Y34.625
X14.541Y34.659
X14.554Y34.693
X14.567Y34.727
X14.581Y34.76
X14.596Y34.794
X14.612Y34.827
X14.628Y34.859
X14.645Y34.891
X14.663Y34.923
X14.682Y34.954
X14.771Y35.1
X14.793Y35.135
X14.816Y35.169
X14.84Y35.203
X14.864Y35.237
X14.89Y35.269
X14.916Y35.301
X14.943Y35.332
X14.971Y35.363
X15.08Y35.478
X15.106Y35.505
X15.132Y35.531
X15.158Y35.556
X15.186Y35.58
X15.214Y35.604
X15.242Y35.628
X15.271Y35.65
X15.3Y35.672
X15.422Y35.761
X15.455Y35.785
X15.489Y35.808
X15.524Y35.83
X15.559Y35.851
X15.595Y35.871
X15.631Y35.89
X15.758Y35.956
X15.792Y35.972
X15.826Y35.989
X15.861Y36.004
X15.896Y36.018
X15.931Y36.032
X15.967Y36.045
X16.131Y36.102
X16.169Y36.114
X16.208Y36.126
X16.247Y36.137
X16.286Y36.147
X16.325Y36.155
X16.365Y36.163
X16.577Y36.202
X16.625Y36.21
X16.673Y36.216
X16.721Y36.221
X16.769Y36.225
X16.856Y36.23
X16.903Y36.232
X16.95Y36.233
X22.609
Y37.642
X22.61Y37.69
X22.612Y37.739
X22.615Y37.787
X22.621Y37.835
X22.627Y37.883
X22.635Y37.931
X22.642Y37.963
X22.649Y37.995
X22.665Y38.061
X22.675Y38.096
X22.686Y38.13
X22.697Y38.164
X22.709Y38.198
X22.722Y38.232
X22.736Y38.266
X22.751Y38.299
X22.766Y38.332
X22.782Y38.363
X22.798Y38.394
X22.815Y38.425
X22.832Y38.455
X22.85Y38.485
X22.869Y38.514
X22.889Y38.543
X22.918Y38.585
X22.954Y38.631
X22.985Y38.669
X22.996Y38.682
X23.022Y38.711
X23.047Y38.739
X23.074Y38.766
X23.101Y38.793
X23.129Y38.819
X23.158Y38.844
X23.187Y38.869
X23.217Y38.893
X23.247Y38.916
X23.278Y38.938
X23.309Y38.96
X23.341Y38.981
X23.373Y39.001
X23.406Y39.021
X23.44Y39.039
X23.473Y39.057
X23.507Y39.074
X23.543Y39.091
X23.579Y39.107
X23.616Y39.122
X23.653Y39.136
X23.691Y39.149
X23.729Y39.161
X23.767Y39.173
X23.806Y39.183
X23.844Y39.193
X23.883Y39.201
X23.922Y39.208
X23.962Y39.215
X24.001Y39.22
X24.041Y39.225
X24.08Y39.228
X24.12Y39.231
X24.16Y39.232
X24.2Y39.233
X59.7
X59.739Y39.232
X59.779Y39.231
X59.819Y39.228
X59.858Y39.225
X59.898Y39.22
X59.937Y39.215
X59.976Y39.209
X60.015Y39.201
X60.054Y39.193
X60.092Y39.184
X60.13Y39.173
X60.168Y39.162
X60.206Y39.15
X60.244Y39.137
X60.281Y39.123
X60.317Y39.108
X60.354Y39.092
X60.389Y39.076
X60.423Y39.059
X60.457Y39.041
X60.49Y39.023
X60.523Y39.003
X60.555Y38.983
X60.587Y38.962
X60.618Y38.941
X60.649Y38.919
X60.679Y38.895
X60.709Y38.872
X60.738Y38.847
X60.767Y38.822
X60.795Y38.796
X60.822Y38.77
X60.849Y38.742
X60.875Y38.715
X60.9Y38.686
X60.925Y38.657
X60.961Y38.612
X60.984Y38.582
X61.006Y38.551
X61.027Y38.52
X61.047Y38.488
X61.067Y38.456
X61.086Y38.423
X61.104Y38.39
X61.121Y38.357
X61.137Y38.324
X61.153Y38.29
X61.168Y38.256
X61.182Y38.221
X61.195Y38.186
X61.207Y38.151
X61.219Y38.116
X61.229Y38.08
X61.239Y38.044
X61.248Y38.008
X61.256Y37.972
X61.263Y37.936
X61.27Y37.899
X61.275Y37.862
X61.28Y37.826
X61.284Y37.789
X61.287Y37.752
X61.289Y37.716
X61.29Y37.679
X61.291Y37.642
Y36.233
G0Z1
X32.781Y28.964
G1Z-0.7F5
X32.819Y28.933F10
X32.863Y28.91
X32.904Y28.897
X32.963Y28.891
X33.008Y28.895
X33.055Y28.91
X33.099Y28.933
X33.137Y28.964
X33.168Y29.002
X33.191Y29.046
X33.205Y29.093
X33.21Y29.142
X33.205Y29.191
X33.191Y29.238
X33.168Y29.281
X33.137Y29.32
X33.098Y29.351
X33.055Y29.374
X33.008Y29.388
X32.959Y29.393
X32.91Y29.388
X32.863Y29.374
X32.819Y29.351
X32.781Y29.32
X32.75Y29.281
X32.727Y29.238
X32.713Y29.192
X32.708Y29.142
X32.712Y29.093
X32.727Y29.046
X32.75Y29.002
X32.781Y28.964
G0Z1
X41.432Y23.238
G1Z-0.7F5
X41.361Y23.094F10
X41.331Y22.964
Y22.82
X41.363Y22.681
X41.422Y22.558
X41.508Y22.448
X41.583Y22.381
X41.645Y22.341
X41.648Y22.339
X41.761Y22.295
X41.915Y22.27
X42.063Y22.278
X42.193Y22.316
X42.318Y22.387
X42.423Y22.483
X42.501Y22.596
X42.555Y22.724
X42.571Y22.802
X42.575Y22.855
X42.556Y23.021
X42.499Y23.177
X42.414Y23.303
X42.316Y23.393
X42.19Y23.464
X42.054Y23.504
X41.918Y23.513
X41.773Y23.492
X41.685Y23.463
X41.635Y23.437
X41.605Y23.418
X41.523Y23.352
X41.432Y23.238
G0Z1
X50.727Y29.002
G1Z-0.7F5
X50.758Y28.964F10
X50.796Y28.933
X50.839Y28.91
X50.886Y28.895
X50.935Y28.891
X50.985Y28.895
X51.032Y28.91
X51.075Y28.933
X51.113Y28.964
X51.144Y29.002
X51.168Y29.046
X51.182Y29.093
X51.187Y29.142
X51.182Y29.191
X51.168Y29.238
X51.144Y29.281
X51.113Y29.32
X51.075Y29.351
X51.032Y29.374
X50.984Y29.388
X50.935Y29.393
X50.886Y29.388
X50.839Y29.374
X50.796Y29.351
X50.758Y29.32
X50.727Y29.281
X50.703Y29.238
X50.689Y29.191
X50.684Y29.142
X50.689Y29.093
X50.703Y29.046
X50.727Y29.002
G0Z1
X61.291Y36.233
G1Z-0.7F5
X66.95F10
X66.987Y36.232
X67.023Y36.231
X67.06Y36.229
X67.097Y36.226
X67.133Y36.222
X67.17Y36.218
X67.429Y36.181
X67.47Y36.175
X67.511Y36.168
X67.552Y36.159
X67.592Y36.15
X67.633Y36.139
X67.673Y36.128
X67.712Y36.115
X67.752Y36.101
X67.993Y36.014
X68.026Y36.001
X68.06Y35.988
X68.093Y35.974
X68.126Y35.959
X68.158Y35.943
X68.19Y35.927
X68.222Y35.909
X68.253Y35.892
X68.284Y35.873
X68.315Y35.854
X68.498Y35.735
X68.528Y35.715
X68.557Y35.695
X68.586Y35.674
X68.615Y35.652
X68.643Y35.629
X68.67Y35.606
X68.697Y35.583
X68.723Y35.558
X68.749Y35.534
X68.774Y35.508
X68.898Y35.381
X68.922Y35.355
X68.946Y35.329
X68.97Y35.302
X68.992Y35.275
X69.014Y35.247
X69.036Y35.219
X69.056Y35.19
X69.077Y35.161
X69.096Y35.131
X69.115Y35.101
X69.214Y34.939
X69.233Y34.907
X69.251Y34.875
X69.269Y34.842
X69.285Y34.809
X69.301Y34.776
X69.316Y34.742
X69.331Y34.708
X69.344Y34.673
X69.357Y34.639
X69.369Y34.604
X69.437Y34.393
X69.45Y34.351
X69.462Y34.309
X69.473Y34.266
X69.483Y34.223
X69.491Y34.18
X69.498Y34.136
X69.517Y34.014
X69.522Y33.974
X69.527Y33.933
X69.53Y33.893
X69.533Y33.853
X69.539Y33.717
X69.54Y33.68
X69.541Y33.642
Y18.142
X69.54Y18.099
X69.539Y18.056
X69.536Y18.013
X69.532Y17.971
X69.501Y17.689
X69.497Y17.652
X69.491Y17.615
X69.485Y17.578
X69.478Y17.542
X69.47Y17.505
X69.462Y17.469
X69.452Y17.434
X69.442Y17.398
X69.431Y17.363
X69.419Y17.327
X69.346Y17.124
X69.334Y17.091
X69.321Y17.058
X69.308Y17.025
X69.293Y16.993
X69.278Y16.961
X69.262Y16.929
X69.245Y16.898
X69.228Y16.867
X69.21Y16.836
X69.192Y16.806
X69.099Y16.659
X69.077Y16.626
X69.054Y16.593
X69.031Y16.56
X69.006Y16.528
X68.981Y16.497
X68.955Y16.466
X68.928Y16.436
X68.901Y16.407
X68.79Y16.291
X68.764Y16.266
X68.739Y16.241
X68.713Y16.216
X68.686Y16.192
X68.659Y16.169
X68.631Y16.147
X68.603Y16.125
X68.574Y16.104
X68.451Y16.015
X68.423Y15.996
X68.395Y15.976
X68.366Y15.958
X68.336Y15.94
X68.307Y15.923
X68.277Y15.906
X68.247Y15.89
X68.216Y15.875
X68.047Y15.793
X68.011Y15.776
X67.974Y15.759
X67.937Y15.744
X67.899Y15.73
X67.861Y15.716
X67.823Y15.704
X67.784Y15.693
X67.745Y15.682
X67.464Y15.61
X67.421Y15.6
X67.379Y15.591
X67.335Y15.583
X67.292Y15.577
X67.249Y15.571
X67.205Y15.567
X67.084Y15.556
X67.051Y15.554
X67.017Y15.552
X66.983Y15.551
X66.95
X61.291
Y14.142
X61.29Y14.107
X61.289Y14.072
X61.287Y14.037
X61.285Y14.002
X61.281Y13.962
X61.276Y13.922
X61.27Y13.882
X61.262Y13.843
X61.254Y13.803
X61.245Y13.764
X61.235Y13.725
X61.225Y13.689
X61.214Y13.654
X61.202Y13.619
X61.181Y13.561
X61.161Y13.513
X61.153Y13.494
X61.137Y13.459
X61.12Y13.425
X61.102Y13.391
X61.084Y13.357
X61.065Y13.324
X61.044Y13.291
X61.023Y13.259
X61.002Y13.227
X60.979Y13.196
X60.956Y13.166
X60.932Y13.136
X60.908Y13.106
X60.882Y13.078
X60.856Y13.049
X60.83Y13.022
X60.802Y12.995
X60.774Y12.969
X60.746Y12.943
X60.717Y12.918
X60.687Y12.894
X60.656Y12.871
X60.626Y12.848
X60.594Y12.826
X60.561Y12.804
X60.528Y12.783
X60.494Y12.763
X60.459Y12.744
X60.424Y12.725
X60.389Y12.708
X60.353Y12.691
X60.316Y12.675
X60.28Y12.66
X60.243Y12.646
X60.205Y12.633
X60.168Y12.621
X60.13Y12.61
X60.092Y12.6
X60.053Y12.591
X60.014Y12.582
X59.975Y12.575
X59.936Y12.569
X59.897Y12.563
X59.858Y12.559
X59.818Y12.555
X59.779Y12.553
X59.739Y12.551
X59.7
X24.2
X24.16
X24.12Y12.553
X24.081Y12.555
X24.041Y12.559
X24.002Y12.563
X23.962Y12.569
X23.923Y12.575
X23.884Y12.583
X23.845Y12.591
X23.806Y12.6
X23.768Y12.611
X23.73Y12.622
X23.692Y12.634
X23.654Y12.647
X23.617Y12.661
X23.58Y12.676
X23.544Y12.692
X23.508Y12.709
X23.472Y12.727
X23.437Y12.746
X23.403Y12.765
X23.368Y12.785
X23.334Y12.807
X23.302Y12.829
X23.27Y12.851
X23.24Y12.873
X23.209Y12.897
X23.179Y12.921
X23.15Y12.946
X23.122Y12.972
X23.094Y12.998
X23.066Y13.025
X23.04Y13.053
X23.014Y13.081
X22.989Y13.11
X22.964Y13.14
X22.94Y13.17
X22.917Y13.201
X22.895Y13.232
X22.873Y13.264
X22.852Y13.296
X22.832Y13.329
X22.813Y13.362
X22.795Y13.396
X22.777Y13.43
X22.76Y13.464
X22.738Y13.513
X22.718Y13.563
X22.71Y13.584
X22.697Y13.619
X22.686Y13.653
X22.675Y13.688
X22.665Y13.724
X22.655Y13.763
X22.646Y13.802
X22.637Y13.841
X22.63Y13.881
X22.624Y13.921
X22.619Y13.961
X22.615Y14.001
X22.612Y14.036
X22.61Y14.071
X22.609Y14.107
Y14.142
Y15.551
X16.95
X16.912
X16.875Y15.553
X16.837Y15.555
X16.8Y15.558
X16.762Y15.562
X16.725Y15.567
X16.466Y15.604
X16.425Y15.61
X16.384Y15.618
X16.343Y15.626
X16.303Y15.636
X16.263Y15.646
X16.223Y15.658
X16.184Y15.671
X16.145Y15.684
X15.904Y15.772
X15.87Y15.785
X15.837Y15.799
X15.804Y15.813
X15.772Y15.828
X15.739Y15.843
X15.707Y15.86
X15.676Y15.877
X15.645Y15.895
X15.614Y15.913
X15.584Y15.932
X15.4Y16.051
X15.371Y16.071
X15.341Y16.091
X15.313Y16.112
X15.284Y16.134
X15.256Y16.157
X15.229Y16.179
X15.202Y16.203
X15.176Y16.227
X15.15Y16.252
X15.125Y16.277
X15.002Y16.404
X14.977Y16.43
X14.954Y16.456
X14.93Y16.483
X14.908Y16.51
X14.886Y16.538
X14.864Y16.566
X14.844Y16.594
X14.824Y16.624
X14.804Y16.653
X14.785Y16.683
X14.686Y16.845
X14.666Y16.879
X14.647Y16.912
X14.629Y16.947
X14.612Y16.982
X14.595Y17.017
X14.579Y17.052
X14.556Y17.11
X14.531Y17.18
X14.463Y17.39
X14.45Y17.432
X14.438Y17.475
X14.427Y17.518
X14.417Y17.561
X14.409Y17.604
X14.402Y17.647
X14.383Y17.769
X14.378Y17.81
X14.373Y17.85
X14.37Y17.891
X14.367Y17.931
X14.361Y18.066
X14.359Y18.104
Y18.142
Y33.642
Y33.674
X14.36Y33.707
X14.362Y33.74
X14.364Y33.772
X14.387Y34.053
X14.391Y34.091
X14.395Y34.128
X14.401Y34.165
X14.407Y34.203
X14.414Y34.24
X14.422Y34.277
X14.431Y34.313
X14.44Y34.35
X14.451Y34.386
X14.462Y34.422
X14.529Y34.625
X14.541Y34.659
X14.554Y34.693
X14.567Y34.727
X14.581Y34.76
X14.596Y34.794
X14.612Y34.827
X14.628Y34.859
X14.645Y34.891
X14.663Y34.923
X14.682Y34.954
X14.771Y35.1
X14.793Y35.135
X14.816Y35.169
X14.84Y35.203
X14.864Y35.237
X14.89Y35.269
X14.916Y35.301
X14.943Y35.332
X14.971Y35.363
X15.08Y35.478
X15.106Y35.505
X15.132Y35.531
X15.158Y35.556
X15.186Y35.58
X15.214Y35.604
X15.242Y35.628
X15.271Y35.65
X15.3Y35.672
X15.422Y35.761
X15.455Y35.785
X15.489Y35.808
X15.524Y35.83
X15.559Y35.851
X15.595Y35.871
X15.631Y35.89
X15.758Y35.956
X15.792Y35.972
X15.826Y35.989
X15.861Y36.004
X15.896Y36.018
X15.931Y36.032
X15.967Y36.045
X16.131Y36.102
X16.169Y36.114
X16.208Y36.126
X16.247Y36.137
X16.286Y36.147
X16.325Y36.155
X16.365Y36.163
X16.577Y36.202
X16.625Y36.21
X16.673Y36.216
X16.721Y36.221
X16.769Y36.225
X16.856Y36.23
X16.903Y36.232
X16.95Y36.233
X22.609
Y37.642
X22.61Y37.69
X22.612Y37.739
X22.615Y37.787
X22.621Y37.835
X22.627Y37.883
X22.635Y37.931
X22.642Y37.963
X22.649Y37.995
X22.665Y38.061
X22.675Y38.096
X22.686Y38.13
X22.697Y38.164
X22.709Y38.198
X22.722Y38.232
X22.736Y38.266
X22.751Y38.299
X22.766Y38.332
X22.782Y38.363
X22.798Y38.394
X22.815Y38.425
X22.832Y38.455
X22.85Y38.485
X22.869Y38.514
X22.889Y38.543
X22.918Y38.585
X22.954Y38.631
X22.985Y38.669
X22.996Y38.682
X23.022Y38.711
X23.047Y38.739
X23.074Y38.766
X23.101Y38.793
X23.129Y38.819
X23.158Y38.844
X23.187Y38.869
X23.217Y38.893
X23.247Y38.916
X23.278Y38.938
X23.309Y38.96
X23.341Y38.981
X23.373Y39.001
X23.406Y39.021
X23.44Y39.039
X23.473Y39.057
X23.507Y39.074
X23.543Y39.091
X23.579Y39.107
X23.616Y39.122
X23.653Y39.136
X23.691Y39.149
X23.729Y39.161
X23.767Y39.173
X23.806Y39.183
X23.844Y39.193
X23.883Y39.201
X23.922Y39.208
X23.962Y39.215
X24.001Y39.22
X24.041Y39.225
X24.08Y39.228
X24.12Y39.231
X24.16Y39.232
X24.2Y39.233
X59.7
X59.739Y39.232
X59.779Y39.231
X59.819Y39.228
X59.858Y39.225
X59.898Y39.22
X59.937Y39.215
X59.976Y39.209
X60.015Y39.201
X60.054Y39.193
X60.092Y39.184
X60.13Y39.173
X60.168Y39.162
X60.206Y39.15
X60.244Y39.137
X60.281Y39.123
X60.317Y39.108
X60.354Y39.092
X60.389Y39.076
X60.423Y39.059
X60.457Y39.041
X60.49Y39.023
X60.523Y39.003
X60.555Y38.983
X60.587Y38.962
X60.618Y38.941
X60.649Y38.919
X60.679Y38.895
X60.709Y38.872
X60.738Y38.847
X60.767Y38.822
X60.795Y38.796
X60.822Y38.77
X60.849Y38.742
X60.875Y38.715
X60.9Y38.686
X60.925Y38.657
X60.961Y38.612
X60.984Y38.582
X61.006Y38.551
X61.027Y38.52
X61.047Y38.488
X61.067Y38.456
X61.086Y38.423
X61.104Y38.39
X61.121Y38.357
X61.137Y38.324
X61.153Y38.29
X61.168Y38.256
X61.182Y38.221
X61.195Y38.186
X61.207Y38.151
X61.219Y38.116
X61.229Y38.08
X61.239Y38.044
X61.248Y38.008
X61.256Y37.972
X61.263Y37.936
X61.27Y37.899
X61.275Y37.862
X61.28Y37.826
X61.284Y37.789
X61.287Y37.752
X61.289Y37.716
X61.29Y37.679
X61.291Y37.642
Y36.233
G0Z1
X32.781Y28.964
G1Z-0.8F5
X32.819Y28.933F10
X32.863Y28.91
X32.904Y28.897
X32.963Y28.891
X33.008Y28.895
X33.055Y28.91
X33.099Y28.933
X33.137Y28.964
X33.168Y29.002
X33.191Y29.046
X33.205Y29.093
X33.21Y29.142
X33.205Y29.191
X33.191Y29.238
X33.168Y29.281
X33.137Y29.32
X33.098Y29.351
X33.055Y29.374
X33.008Y29.388
X32.959Y29.393
X32.91Y29.388
X32.863Y29.374
X32.819Y29.351
X32.781Y29.32
X32.75Y29.281
X32.727Y29.238
X32.713Y29.192
X32.708Y29.142
X32.712Y29.093
X32.727Y29.046
X32.75Y29.002
X32.781Y28.964
G0Z1
X41.432Y23.238
G1Z-0.8F5
X41.361Y23.094F10
X41.331Y22.964
Y22.82
X41.363Y22.681
X41.422Y22.558
X41.508Y22.448
X41.583Y22.381
X41.645Y22.341
X41.648Y22.339
X41.761Y22.295
X41.915Y22.27
X42.063Y22.278
X42.193Y22.316
X42.318Y22.387
X42.423Y22.483
X42.501Y22.596
X42.555Y22.724
X42.571Y22.802
X42.575Y22.855
X42.556Y23.021
X42.499Y23.177
X42.414Y23.303
X42.316Y23.393
X42.19Y23.464
X42.054Y23.504
X41.918Y23.513
X41.773Y23.492
X41.685Y23.463
X41.635Y23.437
X41.605Y23.418
X41.523Y23.352
X41.432Y23.238
G0Z1
X50.727Y29.002
G1Z-0.8F5
X50.758Y28.964F10
X50.796Y28.933
X50.839Y28.91
X50.886Y28.895
X50.935Y28.891
X50.985Y28.895
X51.032Y28.91
X51.075Y28.933
X51.113Y28.964
X51.144Y29.002
X51.168Y29.046
X51.182Y29.093
X51.187Y29.142
X51.182Y29.191
X51.168Y29.238
X51.144Y29.281
X51.113Y29.32
X51.075Y29.351
X51.032Y29.374
X50.984Y29.388
X50.935Y29.393
X50.886Y29.388
X50.839Y29.374
X50.796Y29.351
X50.758Y29.32
X50.727Y29.281
X50.703Y29.238
X50.689Y29.191
X50.684Y29.142
X50.689Y29.093
X50.703Y29.046
X50.727Y29.002
G0Z1
X61.291Y36.233
G1Z-0.8F5
X66.95F10
X66.987Y36.232
X67.023Y36.231
X67.06Y36.229
X67.097Y36.226
X67.133Y36.222
X67.17Y36.218
X67.429Y36.181
X67.47Y36.175
X67.511Y36.168
X67.552Y36.159
X67.592Y36.15
X67.633Y36.139
X67.673Y36.128
X67.712Y36.115
X67.752Y36.101
X67.993Y36.014
X68.026Y36.001
X68.06Y35.988
X68.093Y35.974
X68.126Y35.959
X68.158Y35.943
X68.19Y35.927
X68.222Y35.909
X68.253Y35.892
X68.284Y35.873
X68.315Y35.854
X68.498Y35.735
X68.528Y35.715
X68.557Y35.695
X68.586Y35.674
X68.615Y35.652
X68.643Y35.629
X68.67Y35.606
X68.697Y35.583
X68.723Y35.558
X68.749Y35.534
X68.774Y35.508
X68.898Y35.381
X68.922Y35.355
X68.946Y35.329
X68.97Y35.302
X68.992Y35.275
X69.014Y35.247
X69.036Y35.219
X69.056Y35.19
X69.077Y35.161
X69.096Y35.131
X69.115Y35.101
X69.214Y34.939
X69.233Y34.907
X69.251Y34.875
X69.269Y34.842
X69.285Y34.809
X69.301Y34.776
X69.316Y34.742
X69.331Y34.708
X69.344Y34.673
X69.357Y34.639
X69.369Y34.604
X69.437Y34.393
X69.45Y34.351
X69.462Y34.309
X69.473Y34.266
X69.483Y34.223
X69.491Y34.18
X69.498Y34.136
X69.517Y34.014
X69.522Y33.974
X69.527Y33.933
X69.53Y33.893
X69.533Y33.853
X69.539Y33.717
X69.54Y33.68
X69.541Y33.642
Y18.142
X69.54Y18.099
X69.539Y18.056
X69.536Y18.013
X69.532Y17.971
X69.501Y17.689
X69.497Y17.652
X69.491Y17.615
X69.485Y17.578
X69.478Y17.542
X69.47Y17.505
X69.462Y17.469
X69.452Y17.434
X69.442Y17.398
X69.431Y17.363
X69.419Y17.327
X69.346Y17.124
X69.334Y17.091
X69.321Y17.058
X69.308Y17.025
X69.293Y16.993
X69.278Y16.961
X69.262Y16.929
X69.245Y16.898
X69.228Y16.867
X69.21Y16.836
X69.192Y16.806
X69.099Y16.659
X69.077Y16.626
X69.054Y16.593
X69.031Y16.56
X69.006Y16.528
X68.981Y16.497
X68.955Y16.466
X68.928Y16.436
X68.901Y16.407
X68.79Y16.291
X68.764Y16.266
X68.739Y16.241
X68.713Y16.216
X68.686Y16.192
X68.659Y16.169
X68.631Y16.147
X68.603Y16.125
X68.574Y16.104
X68.451Y16.015
X68.423Y15.996
X68.395Y15.976
X68.366Y15.958
X68.336Y15.94
X68.307Y15.923
X68.277Y15.906
X68.247Y15.89
X68.216Y15.875
X68.047Y15.793
X68.011Y15.776
X67.974Y15.759
X67.937Y15.744
X67.899Y15.73
X67.861Y15.716
X67.823Y15.704
X67.784Y15.693
X67.745Y15.682
X67.464Y15.61
X67.421Y15.6
X67.379Y15.591
X67.335Y15.583
X67.292Y15.577
X67.249Y15.571
X67.205Y15.567
X67.084Y15.556
X67.051Y15.554
X67.017Y15.552
X66.983Y15.551
X66.95
X61.291
Y14.142
X61.29Y14.107
X61.289Y14.072
X61.287Y14.037
X61.285Y14.002
X61.281Y13.962
X61.276Y13.922
X61.27Y13.882
X61.262Y13.843
X61.254Y13.803
X61.245Y13.764
X61.235Y13.725
X61.225Y13.689
X61.214Y13.654
X61.202Y13.619
X61.181Y13.561
X61.161Y13.513
X61.153Y13.494
X61.137Y13.459
X61.12Y13.425
X61.102Y13.391
X61.084Y13.357
X61.065Y13.324
X61.044Y13.291
X61.023Y13.259
X61.002Y13.227
X60.979Y13.196
X60.956Y13.166
X60.932Y13.136
X60.908Y13.106
X60.882Y13.078
X60.856Y13.049
X60.83Y13.022
X60.802Y12.995
X60.774Y12.969
X60.746Y12.943
X60.717Y12.918
X60.687Y12.894
X60.656Y12.871
X60.626Y12.848
X60.594Y12.826
X60.561Y12.804
X60.528Y12.783
X60.494Y12.763
X60.459Y12.744
X60.424Y12.725
X60.389Y12.708
X60.353Y12.691
X60.316Y12.675
X60.28Y12.66
X60.243Y12.646
X60.205Y12.633
X60.168Y12.621
X60.13Y12.61
X60.092Y12.6
X60.053Y12.591
X60.014Y12.582
X59.975Y12.575
X59.936Y12.569
X59.897Y12.563
X59.858Y12.559
X59.818Y12.555
X59.779Y12.553
X59.739Y12.551
X59.7
X24.2
X24.16
X24.12Y12.553
X24.081Y12.555
X24.041Y12.559
X24.002Y12.563
X23.962Y12.569
X23.923Y12.575
X23.884Y12.583
X23.845Y12.591
X23.806Y12.6
X23.768Y12.611
X23.73Y12.622
X23.692Y12.634
X23.654Y12.647
X23.617Y12.661
X23.58Y12.676
X23.544Y12.692
X23.508Y12.709
X23.472Y12.727
X23.437Y12.746
X23.403Y12.765
X23.368Y12.785
X23.334Y12.807
X23.302Y12.829
X23.27Y12.851
X23.24Y12.873
X23.209Y12.897
X23.179Y12.921
X23.15Y12.946
X23.122Y12.972
X23.094Y12.998
X23.066Y13.025
X23.04Y13.053
X23.014Y13.081
X22.989Y13.11
X22.964Y13.14
X22.94Y13.17
X22.917Y13.201
X22.895Y13.232
X22.873Y13.264
X22.852Y13.296
X22.832Y13.329
X22.813Y13.362
X22.795Y13.396
X22.777Y13.43
X22.76Y13.464
X22.738Y13.513
X22.718Y13.563
X22.71Y13.584
X22.697Y13.619
X22.686Y13.653
X22.675Y13.688
X22.665Y13.724
X22.655Y13.763
X22.646Y13.802
X22.637Y13.841
X22.63Y13.881
X22.624Y13.921
X22.619Y13.961
X22.615Y14.001
X22.612Y14.036
X22.61Y14.071
X22.609Y14.107
Y14.142
Y15.551
X16.95
X16.912
X16.875Y15.553
X16.837Y15.555
X16.8Y15.558
X16.762Y15.562
X16.725Y15.567
X16.466Y15.604
X16.425Y15.61
X16.384Y15.618
X16.343Y15.626
X16.303Y15.636
X16.263Y15.646
X16.223Y15.658
X16.184Y15.671
X16.145Y15.684
X15.904Y15.772
X15.87Y15.785
X15.837Y15.799
X15.804Y15.813
X15.772Y15.828
X15.739Y15.843
X15.707Y15.86
X15.676Y15.877
X15.645Y15.895
X15.614Y15.913
X15.584Y15.932
X15.4Y16.051
X15.371Y16.071
X15.341Y16.091
X15.313Y16.112
X15.284Y16.134
X15.256Y16.157
X15.229Y16.179
X15.202Y16.203
X15.176Y16.227
X15.15Y16.252
X15.125Y16.277
X15.002Y16.404
X14.977Y16.43
X14.954Y16.456
X14.93Y16.483
X14.908Y16.51
X14.886Y16.538
X14.864Y16.566
X14.844Y16.594
X14.824Y16.624
X14.804Y16.653
X14.785Y16.683
X14.686Y16.845
X14.666Y16.879
X14.647Y16.912
X14.629Y16.947
X14.612Y16.982
X14.595Y17.017
X14.579Y17.052
X14.556Y17.11
X14.531Y17.18
X14.463Y17.39
X14.45Y17.432
X14.438Y17.475
X14.427Y17.518
X14.417Y17.561
X14.409Y17.604
X14.402Y17.647
X14.383Y17.769
X14.378Y17.81
X14.373Y17.85
X14.37Y17.891
X14.367Y17.931
X14.361Y18.066
X14.359Y18.104
Y18.142
Y33.642
Y33.674
X14.36Y33.707
X14.362Y33.74
X14.364Y33.772
X14.387Y34.053
X14.391Y34.091
X14.395Y34.128
X14.401Y34.165
X14.407Y34.203
X14.414Y34.24
X14.422Y34.277
X14.431Y34.313
X14.44Y34.35
X14.451Y34.386
X14.462Y34.422
X14.529Y34.625
X14.541Y34.659
X14.554Y34.693
X14.567Y34.727
X14.581Y34.76
X14.596Y34.794
X14.612Y34.827
X14.628Y34.859
X14.645Y34.891
X14.663Y34.923
X14.682Y34.954
X14.771Y35.1
X14.793Y35.135
X14.816Y35.169
X14.84Y35.203
X14.864Y35.237
X14.89Y35.269
X14.916Y35.301
X14.943Y35.332
X14.971Y35.363
X15.08Y35.478
X15.106Y35.505
X15.132Y35.531
X15.158Y35.556
X15.186Y35.58
X15.214Y35.604
X15.242Y35.628
X15.271Y35.65
X15.3Y35.672
X15.422Y35.761
X15.455Y35.785
X15.489Y35.808
X15.524Y35.83
X15.559Y35.851
X15.595Y35.871
X15.631Y35.89
X15.758Y35.956
X15.792Y35.972
X15.826Y35.989
X15.861Y36.004
X15.896Y36.018
X15.931Y36.032
X15.967Y36.045
X16.131Y36.102
X16.169Y36.114
X16.208Y36.126
X16.247Y36.137
X16.286Y36.147
X16.325Y36.155
X16.365Y36.163
X16.577Y36.202
X16.625Y36.21
X16.673Y36.216
X16.721Y36.221
X16.769Y36.225
X16.856Y36.23
X16.903Y36.232
X16.95Y36.233
X22.609
Y37.642
X22.61Y37.69
X22.612Y37.739
X22.615Y37.787
X22.621Y37.835
X22.627Y37.883
X22.635Y37.931
X22.642Y37.963
X22.649Y37.995
X22.665Y38.061
X22.675Y38.096
X22.686Y38.13
X22.697Y38.164
X22.709Y38.198
X22.722Y38.232
X22.736Y38.266
X22.751Y38.299
X22.766Y38.332
X22.782Y38.363
X22.798Y38.394
X22.815Y38.425
X22.832Y38.455
X22.85Y38.485
X22.869Y38.514
X22.889Y38.543
X22.918Y38.585
X22.954Y38.631
X22.985Y38.669
X22.996Y38.682
X23.022Y38.711
X23.047Y38.739
X23.074Y38.766
X23.101Y38.793
X23.129Y38.819
X23.158Y38.844
X23.187Y38.869
X23.217Y38.893
X23.247Y38.916
X23.278Y38.938
X23.309Y38.96
X23.341Y38.981
X23.373Y39.001
X23.406Y39.021
X23.44Y39.039
X23.473Y39.057
X23.507Y39.074
X23.543Y39.091
X23.579Y39.107
X23.616Y39.122
X23.653Y39.136
X23.691Y39.149
X23.729Y39.161
X23.767Y39.173
X23.806Y39.183
X23.844Y39.193
X23.883Y39.201
X23.922Y39.208
X23.962Y39.215
X24.001Y39.22
X24.041Y39.225
X24.08Y39.228
X24.12Y39.231
X24.16Y39.232
X24.2Y39.233
X59.7
X59.739Y39.232
X59.779Y39.231
X59.819Y39.228
X59.858Y39.225
X59.898Y39.22
X59.937Y39.215
X59.976Y39.209
X60.015Y39.201
X60.054Y39.193
X60.092Y39.184
X60.13Y39.173
X60.168Y39.162
X60.206Y39.15
X60.244Y39.137
X60.281Y39.123
X60.317Y39.108
X60.354Y39.092
X60.389Y39.076
X60.423Y39.059
X60.457Y39.041
X60.49Y39.023
X60.523Y39.003
X60.555Y38.983
X60.587Y38.962
X60.618Y38.941
X60.649Y38.919
X60.679Y38.895
X60.709Y38.872
X60.738Y38.847
X60.767Y38.822
X60.795Y38.796
X60.822Y38.77
X60.849Y38.742
X60.875Y38.715
X60.9Y38.686
X60.925Y38.657
X60.961Y38.612
X60.984Y38.582
X61.006Y38.551
X61.027Y38.52
X61.047Y38.488
X61.067Y38.456
X61.086Y38.423
X61.104Y38.39
X61.121Y38.357
X61.137Y38.324
X61.153Y38.29
X61.168Y38.256
X61.182Y38.221
X61.195Y38.186
X61.207Y38.151
X61.219Y38.116
X61.229Y38.08
X61.239Y38.044
X61.248Y38.008
X61.256Y37.972
X61.263Y37.936
X61.27Y37.899
X61.275Y37.862
X61.28Y37.826
X61.284Y37.789
X61.287Y37.752
X61.289Y37.716
X61.29Y37.679
X61.291Y37.642
Y36.233
G0Z1
X32.781Y28.964
G1Z-0.9F5
X32.819Y28.933F10
X32.863Y28.91
X32.904Y28.897
X32.963Y28.891
X33.008Y28.895
X33.055Y28.91
X33.099Y28.933
X33.137Y28.964
X33.168Y29.002
X33.191Y29.046
X33.205Y29.093
X33.21Y29.142
X33.205Y29.191
X33.191Y29.238
X33.168Y29.281
X33.137Y29.32
X33.098Y29.351
X33.055Y29.374
X33.008Y29.388
X32.959Y29.393
X32.91Y29.388
X32.863Y29.374
X32.819Y29.351
X32.781Y29.32
X32.75Y29.281
X32.727Y29.238
X32.713Y29.192
X32.708Y29.142
X32.712Y29.093
X32.727Y29.046
X32.75Y29.002
X32.781Y28.964
G0Z1
X41.432Y23.238
G1Z-0.9F5
X41.361Y23.094F10
X41.331Y22.964
Y22.82
X41.363Y22.681
X41.422Y22.558
X41.508Y22.448
X41.583Y22.381
X41.645Y22.341
X41.648Y22.339
X41.761Y22.295
X41.915Y22.27
X42.063Y22.278
X42.193Y22.316
X42.318Y22.387
X42.423Y22.483
X42.501Y22.596
X42.555Y22.724
X42.571Y22.802
X42.575Y22.855
X42.556Y23.021
X42.499Y23.177
X42.414Y23.303
X42.316Y23.393
X42.19Y23.464
X42.054Y23.504
X41.918Y23.513
X41.773Y23.492
X41.685Y23.463
X41.635Y23.437
X41.605Y23.418
X41.523Y23.352
X41.432Y23.238
G0Z1
X50.727Y29.002
G1Z-0.9F5
X50.758Y28.964F10
X50.796Y28.933
X50.839Y28.91
X50.886Y28.895
X50.935Y28.891
X50.985Y28.895
X51.032Y28.91
X51.075Y28.933
X51.113Y28.964
X51.144Y29.002
X51.168Y29.046
X51.182Y29.093
X51.187Y29.142
X51.182Y29.191
X51.168Y29.238
X51.144Y29.281
X51.113Y29.32
X51.075Y29.351
X51.032Y29.374
X50.984Y29.388
X50.935Y29.393
X50.886Y29.388
X50.839Y29.374
X50.796Y29.351
X50.758Y29.32
X50.727Y29.281
X50.703Y29.238
X50.689Y29.191
X50.684Y29.142
X50.689Y29.093
X50.703Y29.046
X50.727Y29.002
G0Z1
X61.291Y36.233
G1Z-0.9F5
X66.95F10
X66.987Y36.232
X67.023Y36.231
X67.06Y36.229
X67.097Y36.226
X67.133Y36.222
X67.17Y36.218
X67.429Y36.181
X67.47Y36.175
X67.511Y36.168
X67.552Y36.159
X67.592Y36.15
X67.633Y36.139
X67.673Y36.128
X67.712Y36.115
X67.752Y36.101
X67.993Y36.014
X68.026Y36.001
X68.06Y35.988
X68.093Y35.974
X68.126Y35.959
X68.158Y35.943
X68.19Y35.927
X68.222Y35.909
X68.253Y35.892
X68.284Y35.873
X68.315Y35.854
X68.498Y35.735
X68.528Y35.715
X68.557Y35.695
X68.586Y35.674
X68.615Y35.652
X68.643Y35.629
X68.67Y35.606
X68.697Y35.583
X68.723Y35.558
X68.749Y35.534
X68.774Y35.508
X68.898Y35.381
X68.922Y35.355
X68.946Y35.329
X68.97Y35.302
X68.992Y35.275
X69.014Y35.247
X69.036Y35.219
X69.056Y35.19
X69.077Y35.161
X69.096Y35.131
X69.115Y35.101
X69.214Y34.939
X69.233Y34.907
X69.251Y34.875
X69.269Y34.842
X69.285Y34.809
X69.301Y34.776
X69.316Y34.742
X69.331Y34.708
X69.344Y34.673
X69.357Y34.639
X69.369Y34.604
X69.437Y34.393
X69.45Y34.351
X69.462Y34.309
X69.473Y34.266
X69.483Y34.223
X69.491Y34.18
X69.498Y34.136
X69.517Y34.014
X69.522Y33.974
X69.527Y33.933
X69.53Y33.893
X69.533Y33.853
X69.539Y33.717
X69.54Y33.68
X69.541Y33.642
Y18.142
X69.54Y18.099
X69.539Y18.056
X69.536Y18.013
X69.532Y17.971
X69.501Y17.689
X69.497Y17.652
X69.491Y17.615
X69.485Y17.578
X69.478Y17.542
X69.47Y17.505
X69.462Y17.469
X69.452Y17.434
X69.442Y17.398
X69.431Y17.363
X69.419Y17.327
X69.346Y17.124
X69.334Y17.091
X69.321Y17.058
X69.308Y17.025
X69.293Y16.993
X69.278Y16.961
X69.262Y16.929
X69.245Y16.898
X69.228Y16.867
X69.21Y16.836
X69.192Y16.806
X69.099Y16.659
X69.077Y16.626
X69.054Y16.593
X69.031Y16.56
X69.006Y16.528
X68.981Y16.497
X68.955Y16.466
X68.928Y16.436
X68.901Y16.407
X68.79Y16.291
X68.764Y16.266
X68.739Y16.241
X68.713Y16.216
X68.686Y16.192
X68.659Y16.169
X68.631Y16.147
X68.603Y16.125
X68.574Y16.104
X68.451Y16.015
X68.423Y15.996
X68.395Y15.976
X68.366Y15.958
X68.336Y15.94
X68.307Y15.923
X68.277Y15.906
X68.247Y15.89
X68.216Y15.875
X68.047Y15.793
X68.011Y15.776
X67.974Y15.759
X67.937Y15.744
X67.899Y15.73
X67.861Y15.716
X67.823Y15.704
X67.784Y15.693
X67.745Y15.682
X67.464Y15.61
X67.421Y15.6
X67.379Y15.591
X67.335Y15.583
X67.292Y15.577
X67.249Y15.571
X67.205Y15.567
X67.084Y15.556
X67.051Y15.554
X67.017Y15.552
X66.983Y15.551
X66.95
X61.291
Y14.142
X61.29Y14.107
X61.289Y14.072
X61.287Y14.037
X61.285Y14.002
X61.281Y13.962
X61.276Y13.922
X61.27Y13.882
X61.262Y13.843
X61.254Y13.803
X61.245Y13.764
X61.235Y13.725
X61.225Y13.689
X61.214Y13.654
X61.202Y13.619
X61.181Y13.561
X61.161Y13.513
X61.153Y13.494
X61.137Y13.459
X61.12Y13.425
X61.102Y13.391
X61.084Y13.357
X61.065Y13.324
X61.044Y13.291
X61.023Y13.259
X61.002Y13.227
X60.979Y13.196
X60.956Y13.166
X60.932Y13.136
X60.908Y13.106
X60.882Y13.078
X60.856Y13.049
X60.83Y13.022
X60.802Y12.995
X60.774Y12.969
X60.746Y12.943
X60.717Y12.918
X60.687Y12.894
X60.656Y12.871
X60.626Y12.848
X60.594Y12.826
X60.561Y12.804
X60.528Y12.783
X60.494Y12.763
X60.459Y12.744
X60.424Y12.725
X60.389Y12.708
X60.353Y12.691
X60.316Y12.675
X60.28Y12.66
X60.243Y12.646
X60.205Y12.633
X60.168Y12.621
X60.13Y12.61
X60.092Y12.6
X60.053Y12.591
X60.014Y12.582
X59.975Y12.575
X59.936Y12.569
X59.897Y12.563
X59.858Y12.559
X59.818Y12.555
X59.779Y12.553
X59.739Y12.551
X59.7
X24.2
X24.16
X24.12Y12.553
X24.081Y12.555
X24.041Y12.559
X24.002Y12.563
X23.962Y12.569
X23.923Y12.575
X23.884Y12.583
X23.845Y12.591
X23.806Y12.6
X23.768Y12.611
X23.73Y12.622
X23.692Y12.634
X23.654Y12.647
X23.617Y12.661
X23.58Y12.676
X23.544Y12.692
X23.508Y12.709
X23.472Y12.727
X23.437Y12.746
X23.403Y12.765
X23.368Y12.785
X23.334Y12.807
X23.302Y12.829
X23.27Y12.851
X23.24Y12.873
X23.209Y12.897
X23.179Y12.921
X23.15Y12.946
X23.122Y12.972
X23.094Y12.998
X23.066Y13.025
X23.04Y13.053
X23.014Y13.081
X22.989Y13.11
X22.964Y13.14
X22.94Y13.17
X22.917Y13.201
X22.895Y13.232
X22.873Y13.264
X22.852Y13.296
X22.832Y13.329
X22.813Y13.362
X22.795Y13.396
X22.777Y13.43
X22.76Y13.464
X22.738Y13.513
X22.718Y13.563
X22.71Y13.584
X22.697Y13.619
X22.686Y13.653
X22.675Y13.688
X22.665Y13.724
X22.655Y13.763
X22.646Y13.802
X22.637Y13.841
X22.63Y13.881
X22.624Y13.921
X22.619Y13.961
X22.615Y14.001
X22.612Y14.036
X22.61Y14.071
X22.609Y14.107
Y14.142
Y15.551
X16.95
X16.912
X16.875Y15.553
X16.837Y15.555
X16.8Y15.558
X16.762Y15.562
X16.725Y15.567
X16.466Y15.604
X16.425Y15.61
X16.384Y15.618
X16.343Y15.626
X16.303Y15.636
X16.263Y15.646
X16.223Y15.658
X16.184Y15.671
X16.145Y15.684
X15.904Y15.772
X15.87Y15.785
X15.837Y15.799
X15.804Y15.813
X15.772Y15.828
X15.739Y15.843
X15.707Y15.86
X15.676Y15.877
X15.645Y15.895
X15.614Y15.913
X15.584Y15.932
X15.4Y16.051
X15.371Y16.071
X15.341Y16.091
X15.313Y16.112
X15.284Y16.134
X15.256Y16.157
X15.229Y16.179
X15.202Y16.203
X15.176Y16.227
X15.15Y16.252
X15.125Y16.277
X15.002Y16.404
X14.977Y16.43
X14.954Y16.456
X14.93Y16.483
X14.908Y16.51
X14.886Y16.538
X14.864Y16.566
X14.844Y16.594
X14.824Y16.624
X14.804Y16.653
X14.785Y16.683
X14.686Y16.845
X14.666Y16.879
X14.647Y16.912
X14.629Y16.947
X14.612Y16.982
X14.595Y17.017
X14.579Y17.052
X14.556Y17.11
X14.531Y17.18
X14.463Y17.39
X14.45Y17.432
X14.438Y17.475
X14.427Y17.518
X14.417Y17.561
X14.409Y17.604
X14.402Y17.647
X14.383Y17.769
X14.378Y17.81
X14.373Y17.85
X14.37Y17.891
X14.367Y17.931
X14.361Y18.066
X14.359Y18.104
Y18.142
Y33.642
Y33.674
X14.36Y33.707
X14.362Y33.74
X14.364Y33.772
X14.387Y34.053
X14.391Y34.091
X14.395Y34.128
X14.401Y34.165
X14.407Y34.203
X14.414Y34.24
X14.422Y34.277
X14.431Y34.313
X14.44Y34.35
X14.451Y34.386
X14.462Y34.422
X14.529Y34.625
X14.541Y34.659
X14.554Y34.693
X14.567Y34.727
X14.581Y34.76
X14.596Y34.794
X14.612Y34.827
X14.628Y34.859
X14.645Y34.891
X14.663Y34.923
X14.682Y34.954
X14.771Y35.1
X14.793Y35.135
X14.816Y35.169
X14.84Y35.203
X14.864Y35.237
X14.89Y35.269
X14.916Y35.301
X14.943Y35.332
X14.971Y35.363
X15.08Y35.478
X15.106Y35.505
X15.132Y35.531
X15.158Y35.556
X15.186Y35.58
X15.214Y35.604
X15.242Y35.628
X15.271Y35.65
X15.3Y35.672
X15.422Y35.761
X15.455Y35.785
X15.489Y35.808
X15.524Y35.83
X15.559Y35.851
X15.595Y35.871
X15.631Y35.89
X15.758Y35.956
X15.792Y35.972
X15.826Y35.989
X15.861Y36.004
X15.896Y36.018
X15.931Y36.032
X15.967Y36.045
X16.131Y36.102
X16.169Y36.114
X16.208Y36.126
X16.247Y36.137
X16.286Y36.147
X16.325Y36.155
X16.365Y36.163
X16.577Y36.202
X16.625Y36.21
X16.673Y36.216
X16.721Y36.221
X16.769Y36.225
X16.856Y36.23
X16.903Y36.232
X16.95Y36.233
X22.609
Y37.642
X22.61Y37.69
X22.612Y37.739
X22.615Y37.787
X22.621Y37.835
X22.627Y37.883
X22.635Y37.931
X22.642Y37.963
X22.649Y37.995
X22.665Y38.061
X22.675Y38.096
X22.686Y38.13
X22.697Y38.164
X22.709Y38.198
X22.722Y38.232
X22.736Y38.266
X22.751Y38.299
X22.766Y38.332
X22.782Y38.363
X22.798Y38.394
X22.815Y38.425
X22.832Y38.455
X22.85Y38.485
X22.869Y38.514
X22.889Y38.543
X22.918Y38.585
X22.954Y38.631
X22.985Y38.669
X22.996Y38.682
X23.022Y38.711
X23.047Y38.739
X23.074Y38.766
X23.101Y38.793
X23.129Y38.819
X23.158Y38.844
X23.187Y38.869
X23.217Y38.893
X23.247Y38.916
X23.278Y38.938
X23.309Y38.96
X23.341Y38.981
X23.373Y39.001
X23.406Y39.021
X23.44Y39.039
X23.473Y39.057
X23.507Y39.074
X23.543Y39.091
X23.579Y39.107
X23.616Y39.122
X23.653Y39.136
X23.691Y39.149
X23.729Y39.161
X23.767Y39.173
X23.806Y39.183
X23.844Y39.193
X23.883Y39.201
X23.922Y39.208
X23.962Y39.215
X24.001Y39.22
X24.041Y39.225
X24.08Y39.228
X24.12Y39.231
X24.16Y39.232
X24.2Y39.233
X59.7
X59.739Y39.232
X59.779Y39.231
X59.819Y39.228
X59.858Y39.225
X59.898Y39.22
X59.937Y39.215
X59.976Y39.209
X60.015Y39.201
X60.054Y39.193
X60.092Y39.184
X60.13Y39.173
X60.168Y39.162
X60.206Y39.15
X60.244Y39.137
X60.281Y39.123
X60.317Y39.108
X60.354Y39.092
X60.389Y39.076
X60.423Y39.059
X60.457Y39.041
X60.49Y39.023
X60.523Y39.003
X60.555Y38.983
X60.587Y38.962
X60.618Y38.941
X60.649Y38.919
X60.679Y38.895
X60.709Y38.872
X60.738Y38.847
X60.767Y38.822
X60.795Y38.796
X60.822Y38.77
X60.849Y38.742
X60.875Y38.715
X60.9Y38.686
X60.925Y38.657
X60.961Y38.612
X60.984Y38.582
X61.006Y38.551
X61.027Y38.52
X61.047Y38.488
X61.067Y38.456
X61.086Y38.423
X61.104Y38.39
X61.121Y38.357
X61.137Y38.324
X61.153Y38.29
X61.168Y38.256
X61.182Y38.221
X61.195Y38.186
X61.207Y38.151
X61.219Y38.116
X61.229Y38.08
X61.239Y38.044
X61.248Y38.008
X61.256Y37.972
X61.263Y37.936
X61.27Y37.899
X61.275Y37.862
X61.28Y37.826
X61.284Y37.789
X61.287Y37.752
X61.289Y37.716
X61.29Y37.679
X61.291Y37.642
Y36.233
G0Z1
X32.781Y28.964
G1Z-1F5
X32.819Y28.933F10
X32.863Y28.91
X32.904Y28.897
X32.963Y28.891
X33.008Y28.895
X33.055Y28.91
X33.099Y28.933
X33.137Y28.964
X33.168Y29.002
X33.191Y29.046
X33.205Y29.093
X33.21Y29.142
X33.205Y29.191
X33.191Y29.238
X33.168Y29.281
X33.137Y29.32
X33.098Y29.351
X33.055Y29.374
X33.008Y29.388
X32.959Y29.393
X32.91Y29.388
X32.863Y29.374
X32.819Y29.351
X32.781Y29.32
X32.75Y29.281
X32.727Y29.238
X32.713Y29.192
X32.708Y29.142
X32.712Y29.093
X32.727Y29.046
X32.75Y29.002
X32.781Y28.964
G0Z1
X41.432Y23.238
G1Z-1F5
X41.361Y23.094F10
X41.331Y22.964
Y22.82
X41.363Y22.681
X41.422Y22.558
X41.508Y22.448
X41.583Y22.381
X41.645Y22.341
X41.648Y22.339
X41.761Y22.295
X41.915Y22.27
X42.063Y22.278
X42.193Y22.316
X42.318Y22.387
X42.423Y22.483
X42.501Y22.596
X42.555Y22.724
X42.571Y22.802
X42.575Y22.855
X42.556Y23.021
X42.499Y23.177
X42.414Y23.303
X42.316Y23.393
X42.19Y23.464
X42.054Y23.504
X41.918Y23.513
X41.773Y23.492
X41.685Y23.463
X41.635Y23.437
X41.605Y23.418
X41.523Y23.352
X41.432Y23.238
G0Z1
X50.727Y29.002
G1Z-1F5
X50.758Y28.964F10
X50.796Y28.933
X50.839Y28.91
X50.886Y28.895
X50.935Y28.891
X50.985Y28.895
X51.032Y28.91
X51.075Y28.933
X51.113Y28.964
X51.144Y29.002
X51.168Y29.046
X51.182Y29.093
X51.187Y29.142
X51.182Y29.191
X51.168Y29.238
X51.144Y29.281
X51.113Y29.32
X51.075Y29.351
X51.032Y29.374
X50.984Y29.388
X50.935Y29.393
X50.886Y29.388
X50.839Y29.374
X50.796Y29.351
X50.758Y29.32
X50.727Y29.281
X50.703Y29.238
X50.689Y29.191
X50.684Y29.142
X50.689Y29.093
X50.703Y29.046
X50.727Y29.002
G0Z1
X61.291Y36.233
G1Z-1F5
X66.95F10
X66.987Y36.232
X67.023Y36.231
X67.06Y36.229
X67.097Y36.226
X67.133Y36.222
X67.17Y36.218
X67.429Y36.181
X67.47Y36.175
X67.511Y36.168
X67.552Y36.159
X67.592Y36.15
X67.633Y36.139
X67.673Y36.128
X67.712Y36.115
X67.752Y36.101
X67.993Y36.014
X68.026Y36.001
X68.06Y35.988
X68.093Y35.974
X68.126Y35.959
X68.158Y35.943
X68.19Y35.927
X68.222Y35.909
X68.253Y35.892
X68.284Y35.873
X68.315Y35.854
X68.498Y35.735
X68.528Y35.715
X68.557Y35.695
X68.586Y35.674
X68.615Y35.652
X68.643Y35.629
X68.67Y35.606
X68.697Y35.583
X68.723Y35.558
X68.749Y35.534
X68.774Y35.508
X68.898Y35.381
X68.922Y35.355
X68.946Y35.329
X68.97Y35.302
X68.992Y35.275
X69.014Y35.247
X69.036Y35.219
X69.056Y35.19
X69.077Y35.161
X69.096Y35.131
X69.115Y35.101
X69.214Y34.939
X69.233Y34.907
X69.251Y34.875
X69.269Y34.842
X69.285Y34.809
X69.301Y34.776
X69.316Y34.742
X69.331Y34.708
X69.344Y34.673
X69.357Y34.639
X69.369Y34.604
X69.437Y34.393
X69.45Y34.351
X69.462Y34.309
X69.473Y34.266
X69.483Y34.223
X69.491Y34.18
X69.498Y34.136
X69.517Y34.014
X69.522Y33.974
X69.527Y33.933
X69.53Y33.893
X69.533Y33.853
X69.539Y33.717
X69.54Y33.68
X69.541Y33.642
Y18.142
X69.54Y18.099
X69.539Y18.056
X69.536Y18.013
X69.532Y17.971
X69.501Y17.689
X69.497Y17.652
X69.491Y17.615
X69.485Y17.578
X69.478Y17.542
X69.47Y17.505
X69.462Y17.469
X69.452Y17.434
X69.442Y17.398
X69.431Y17.363
X69.419Y17.327
X69.346Y17.124
X69.334Y17.091
X69.321Y17.058
X69.308Y17.025
X69.293Y16.993
X69.278Y16.961
X69.262Y16.929
X69.245Y16.898
X69.228Y16.867
X69.21Y16.836
X69.192Y16.806
X69.099Y16.659
X69.077Y16.626
X69.054Y16.593
X69.031Y16.56
X69.006Y16.528
X68.981Y16.497
X68.955Y16.466
X68.928Y16.436
X68.901Y16.407
X68.79Y16.291
X68.764Y16.266
X68.739Y16.241
X68.713Y16.216
X68.686Y16.192
X68.659Y16.169
X68.631Y16.147
X68.603Y16.125
X68.574Y16.104
X68.451Y16.015
X68.423Y15.996
X68.395Y15.976
X68.366Y15.958
X68.336Y15.94
X68.307Y15.923
X68.277Y15.906
X68.247Y15.89
X68.216Y15.875
X68.047Y15.793
X68.011Y15.776
X67.974Y15.759
X67.937Y15.744
X67.899Y15.73
X67.861Y15.716
X67.823Y15.704
X67.784Y15.693
X67.745Y15.682
X67.464Y15.61
X67.421Y15.6
X67.379Y15.591
X67.335Y15.583
X67.292Y15.577
X67.249Y15.571
X67.205Y15.567
X67.084Y15.556
X67.051Y15.554
X67.017Y15.552
X66.983Y15.551
X66.95
X61.291
Y14.142
X61.29Y14.107
X61.289Y14.072
X61.287Y14.037
X61.285Y14.002
X61.281Y13.962
X61.276Y13.922
X61.27Y13.882
X61.262Y13.843
X61.254Y13.803
X61.245Y13.764
X61.235Y13.725
X61.225Y13.689
X61.214Y13.654
X61.202Y13.619
X61.181Y13.561
X61.161Y13.513
X61.153Y13.494
X61.137Y13.459
X61.12Y13.425
X61.102Y13.391
X61.084Y13.357
X61.065Y13.324
X61.044Y13.291
X61.023Y13.259
X61.002Y13.227
X60.979Y13.196
X60.956Y13.166
X60.932Y13.136
X60.908Y13.106
X60.882Y13.078
X60.856Y13.049
X60.83Y13.022
X60.802Y12.995
X60.774Y12.969
X60.746Y12.943
X60.717Y12.918
X60.687Y12.894
X60.656Y12.871
X60.626Y12.848
X60.594Y12.826
X60.561Y12.804
X60.528Y12.783
X60.494Y12.763
X60.459Y12.744
X60.424Y12.725
X60.389Y12.708
X60.353Y12.691
X60.316Y12.675
X60.28Y12.66
X60.243Y12.646
X60.205Y12.633
X60.168Y12.621
X60.13Y12.61
X60.092Y12.6
X60.053Y12.591
X60.014Y12.582
X59.975Y12.575
X59.936Y12.569
X59.897Y12.563
X59.858Y12.559
X59.818Y12.555
X59.779Y12.553
X59.739Y12.551
X59.7
X24.2
X24.16
X24.12Y12.553
X24.081Y12.555
X24.041Y12.559
X24.002Y12.563
X23.962Y12.569
X23.923Y12.575
X23.884Y12.583
X23.845Y12.591
X23.806Y12.6
X23.768Y12.611
X23.73Y12.622
X23.692Y12.634
X23.654Y12.647
X23.617Y12.661
X23.58Y12.676
X23.544Y12.692
X23.508Y12.709
X23.472Y12.727
X23.437Y12.746
X23.403Y12.765
X23.368Y12.785
X23.334Y12.807
X23.302Y12.829
X23.27Y12.851
X23.24Y12.873
X23.209Y12.897
X23.179Y12.921
X23.15Y12.946
X23.122Y12.972
X23.094Y12.998
X23.066Y13.025
X23.04Y13.053
X23.014Y13.081
X22.989Y13.11
X22.964Y13.14
X22.94Y13.17
X22.917Y13.201
X22.895Y13.232
X22.873Y13.264
X22.852Y13.296
X22.832Y13.329
X22.813Y13.362
X22.795Y13.396
X22.777Y13.43
X22.76Y13.464
X22.738Y13.513
X22.718Y13.563
X22.71Y13.584
X22.697Y13.619
X22.686Y13.653
X22.675Y13.688
X22.665Y13.724
X22.655Y13.763
X22.646Y13.802
X22.637Y13.841
X22.63Y13.881
X22.624Y13.921
X22.619Y13.961
X22.615Y14.001
X22.612Y14.036
X22.61Y14.071
X22.609Y14.107
Y14.142
Y15.551
X16.95
X16.912
X16.875Y15.553
X16.837Y15.555
X16.8Y15.558
X16.762Y15.562
X16.725Y15.567
X16.466Y15.604
X16.425Y15.61
X16.384Y15.618
X16.343Y15.626
X16.303Y15.636
X16.263Y15.646
X16.223Y15.658
X16.184Y15.671
X16.145Y15.684
X15.904Y15.772
X15.87Y15.785
X15.837Y15.799
X15.804Y15.813
X15.772Y15.828
X15.739Y15.843
X15.707Y15.86
X15.676Y15.877
X15.645Y15.895
X15.614Y15.913
X15.584Y15.932
X15.4Y16.051
X15.371Y16.071
X15.341Y16.091
X15.313Y16.112
X15.284Y16.134
X15.256Y16.157
X15.229Y16.179
X15.202Y16.203
X15.176Y16.227
X15.15Y16.252
X15.125Y16.277
X15.002Y16.404
X14.977Y16.43
X14.954Y16.456
X14.93Y16.483
X14.908Y16.51
X14.886Y16.538
X14.864Y16.566
X14.844Y16.594
X14.824Y16.624
X14.804Y16.653
X14.785Y16.683
X14.686Y16.845
X14.666Y16.879
X14.647Y16.912
X14.629Y16.947
X14.612Y16.982
X14.595Y17.017
X14.579Y17.052
X14.556Y17.11
X14.531Y17.18
X14.463Y17.39
X14.45Y17.432
X14.438Y17.475
X14.427Y17.518
X14.417Y17.561
X14.409Y17.604
X14.402Y17.647
X14.383Y17.769
X14.378Y17.81
X14.373Y17.85
X14.37Y17.891
X14.367Y17.931
X14.361Y18.066
X14.359Y18.104
Y18.142
Y33.642
Y33.674
X14.36Y33.707
X14.362Y33.74
X14.364Y33.772
X14.387Y34.053
X14.391Y34.091
X14.395Y34.128
X14.401Y34.165
X14.407Y34.203
X14.414Y34.24
X14.422Y34.277
X14.431Y34.313
X14.44Y34.35
X14.451Y34.386
X14.462Y34.422
X14.529Y34.625
X14.541Y34.659
X14.554Y34.693
X14.567Y34.727
X14.581Y34.76
X14.596Y34.794
X14.612Y34.827
X14.628Y34.859
X14.645Y34.891
X14.663Y34.923
X14.682Y34.954
X14.771Y35.1
X14.793Y35.135
X14.816Y35.169
X14.84Y35.203
X14.864Y35.237
X14.89Y35.269
X14.916Y35.301
X14.943Y35.332
X14.971Y35.363
X15.08Y35.478
X15.106Y35.505
X15.132Y35.531
X15.158Y35.556
X15.186Y35.58
X15.214Y35.604
X15.242Y35.628
X15.271Y35.65
X15.3Y35.672
X15.422Y35.761
X15.455Y35.785
X15.489Y35.808
X15.524Y35.83
X15.559Y35.851
X15.595Y35.871
X15.631Y35.89
X15.758Y35.956
X15.792Y35.972
X15.826Y35.989
X15.861Y36.004
X15.896Y36.018
X15.931Y36.032
X15.967Y36.045
X16.131Y36.102
X16.169Y36.114
X16.208Y36.126
X16.247Y36.137
X16.286Y36.147
X16.325Y36.155
X16.365Y36.163
X16.577Y36.202
X16.625Y36.21
X16.673Y36.216
X16.721Y36.221
X16.769Y36.225
X16.856Y36.23
X16.903Y36.232
X16.95Y36.233
X22.609
Y37.642
X22.61Y37.69
X22.612Y37.739
X22.615Y37.787
X22.621Y37.835
X22.627Y37.883
X22.635Y37.931
X22.642Y37.963
X22.649Y37.995
X22.665Y38.061
X22.675Y38.096
X22.686Y38.13
X22.697Y38.164
X22.709Y38.198
X22.722Y38.232
X22.736Y38.266
X22.751Y38.299
X22.766Y38.332
X22.782Y38.363
X22.798Y38.394
X22.815Y38.425
X22.832Y38.455
X22.85Y38.485
X22.869Y38.514
X22.889Y38.543
X22.918Y38.585
X22.954Y38.631
X22.985Y38.669
X22.996Y38.682
X23.022Y38.711
X23.047Y38.739
X23.074Y38.766
X23.101Y38.793
X23.129Y38.819
X23.158Y38.844
X23.187Y38.869
X23.217Y38.893
X23.247Y38.916
X23.278Y38.938
X23.309Y38.96
X23.341Y38.981
X23.373Y39.001
X23.406Y39.021
X23.44Y39.039
X23.473Y39.057
X23.507Y39.074
X23.543Y39.091
X23.579Y39.107
X23.616Y39.122
X23.653Y39.136
X23.691Y39.149
X23.729Y39.161
X23.767Y39.173
X23.806Y39.183
X23.844Y39.193
X23.883Y39.201
X23.922Y39.208
X23.962Y39.215
X24.001Y39.22
X24.041Y39.225
X24.08Y39.228
X24.12Y39.231
X24.16Y39.232
X24.2Y39.233
X59.7
X59.739Y39.232
X59.779Y39.231
X59.819Y39.228
X59.858Y39.225
X59.898Y39.22
X59.937Y39.215
X59.976Y39.209
X60.015Y39.201
X60.054Y39.193
X60.092Y39.184
X60.13Y39.173
X60.168Y39.162
X60.206Y39.15
X60.244Y39.137
X60.281Y39.123
X60.317Y39.108
X60.354Y39.092
X60.389Y39.076
X60.423Y39.059
X60.457Y39.041
X60.49Y39.023
X60.523Y39.003
X60.555Y38.983
X60.587Y38.962
X60.618Y38.941
X60.649Y38.919
X60.679Y38.895
X60.709Y38.872
X60.738Y38.847
X60.767Y38.822
X60.795Y38.796
X60.822Y38.77
X60.849Y38.742
X60.875Y38.715
X60.9Y38.686
X60.925Y38.657
X60.961Y38.612
X60.984Y38.582
X61.006Y38.551
X61.027Y38.52
X61.047Y38.488
X61.067Y38.456
X61.086Y38.423
X61.104Y38.39
X61.121Y38.357
X61.137Y38.324
X61.153Y38.29
X61.168Y38.256
X61.182Y38.221
X61.195Y38.186
X61.207Y38.151
X61.219Y38.116
X61.229Y38.08
X61.239Y38.044
X61.248Y38.008
X61.256Y37.972
X61.263Y37.936
X61.27Y37.899
X61.275Y37.862
X61.28Y37.826
X61.284Y37.789
X61.287Y37.752
X61.289Y37.716
X61.29Y37.679
X61.291Y37.642
Y36.233
G0Z1
X32.781Y28.964
G1Z-1.1F5
X32.819Y28.933F10
X32.863Y28.91
X32.904Y28.897
X32.963Y28.891
X33.008Y28.895
X33.055Y28.91
X33.099Y28.933
X33.137Y28.964
X33.168Y29.002
X33.191Y29.046
X33.205Y29.093
X33.21Y29.142
X33.205Y29.191
X33.191Y29.238
X33.168Y29.281
X33.137Y29.32
X33.098Y29.351
X33.055Y29.374
X33.008Y29.388
X32.959Y29.393
X32.91Y29.388
X32.863Y29.374
X32.819Y29.351
X32.781Y29.32
X32.75Y29.281
X32.727Y29.238
X32.713Y29.192
X32.708Y29.142
X32.712Y29.093
X32.727Y29.046
X32.75Y29.002
X32.781Y28.964
G0Z1
X41.432Y23.238
G1Z-1.1F5
X41.361Y23.094F10
X41.331Y22.964
Y22.82
X41.363Y22.681
X41.422Y22.558
X41.508Y22.448
X41.583Y22.381
X41.645Y22.341
X41.648Y22.339
X41.761Y22.295
X41.915Y22.27
X42.063Y22.278
X42.193Y22.316
X42.318Y22.387
X42.423Y22.483
X42.501Y22.596
X42.555Y22.724
X42.571Y22.802
X42.575Y22.855
X42.556Y23.021
X42.499Y23.177
X42.414Y23.303
X42.316Y23.393
X42.19Y23.464
X42.054Y23.504
X41.918Y23.513
X41.773Y23.492
X41.685Y23.463
X41.635Y23.437
X41.605Y23.418
X41.523Y23.352
X41.432Y23.238
G0Z1
X50.727Y29.002
G1Z-1.1F5
X50.758Y28.964F10
X50.796Y28.933
X50.839Y28.91
X50.886Y28.895
X50.935Y28.891
X50.985Y28.895
X51.032Y28.91
X51.075Y28.933
X51.113Y28.964
X51.144Y29.002
X51.168Y29.046
X51.182Y29.093
X51.187Y29.142
X51.182Y29.191
X51.168Y29.238
X51.144Y29.281
X51.113Y29.32
X51.075Y29.351
X51.032Y29.374
X50.984Y29.388
X50.935Y29.393
X50.886Y29.388
X50.839Y29.374
X50.796Y29.351
X50.758Y29.32
X50.727Y29.281
X50.703Y29.238
X50.689Y29.191
X50.684Y29.142
X50.689Y29.093
X50.703Y29.046
X50.727Y29.002
G0Z1
X61.291Y36.233
G1Z-1.1F5
X66.95F10
X66.987Y36.232
X67.023Y36.231
X67.06Y36.229
X67.097Y36.226
X67.133Y36.222
X67.17Y36.218
X67.429Y36.181
X67.47Y36.175
X67.511Y36.168
X67.552Y36.159
X67.592Y36.15
X67.633Y36.139
X67.673Y36.128
X67.712Y36.115
X67.752Y36.101
X67.993Y36.014
X68.026Y36.001
X68.06Y35.988
X68.093Y35.974
X68.126Y35.959
X68.158Y35.943
X68.19Y35.927
X68.222Y35.909
X68.253Y35.892
X68.284Y35.873
X68.315Y35.854
X68.498Y35.735
X68.528Y35.715
X68.557Y35.695
X68.586Y35.674
X68.615Y35.652
X68.643Y35.629
X68.67Y35.606
X68.697Y35.583
X68.723Y35.558
X68.749Y35.534
X68.774Y35.508
X68.898Y35.381
X68.922Y35.355
X68.946Y35.329
X68.97Y35.302
X68.992Y35.275
X69.014Y35.247
X69.036Y35.219
X69.056Y35.19
X69.077Y35.161
X69.096Y35.131
X69.115Y35.101
X69.214Y34.939
X69.233Y34.907
X69.251Y34.875
X69.269Y34.842
X69.285Y34.809
X69.301Y34.776
X69.316Y34.742
X69.331Y34.708
X69.344Y34.673
X69.357Y34.639
X69.369Y34.604
X69.437Y34.393
X69.45Y34.351
X69.462Y34.309
X69.473Y34.266
X69.483Y34.223
X69.491Y34.18
X69.498Y34.136
X69.517Y34.014
X69.522Y33.974
X69.527Y33.933
X69.53Y33.893
X69.533Y33.853
X69.539Y33.717
X69.54Y33.68
X69.541Y33.642
Y18.142
X69.54Y18.099
X69.539Y18.056
X69.536Y18.013
X69.532Y17.971
X69.501Y17.689
X69.497Y17.652
X69.491Y17.615
X69.485Y17.578
