(Created with grbl post processor 2024/11/24 13:46)
G21
(G-code generated with BlenderCAM and NC library)
G17G90
(Tool: D = 3.18 mm  type END flutes 2)
S1000M03
G00 Z1.0

G0X0Y0Z1
X101.756Y44.223
G1Z-0.1F5
X101.742Y44.259F10
X101.728Y44.295
X101.715Y44.331
X101.703Y44.368
X101.692Y44.405
X101.682Y44.442
X101.673Y44.48
X101.664Y44.517
X101.657Y44.555
X101.65Y44.593
X101.645Y44.631
X101.64Y44.669
X101.636Y44.708
X101.633Y44.746
X101.631Y44.785
X101.63Y44.823
Y44.862
X101.631Y44.901
X101.633Y44.939
X101.636Y44.976
X101.639Y45.014
X101.644Y45.051
X101.649Y45.088
X101.655Y45.126
X101.663Y45.163
X101.671Y45.2
X101.679Y45.236
X101.689Y45.273
X101.7Y45.309
X101.711Y45.345
X109.255Y68.101
Y82.589
X98.46Y115.346
X98.448Y115.384
X98.437Y115.423
X98.427Y115.461
X98.418Y115.5
X98.41Y115.539
X98.403Y115.579
X98.396Y115.618
X98.391Y115.658
X98.387Y115.698
X98.384Y115.738
X98.382Y115.777
X98.381Y115.817
X98.38Y115.858
X98.381Y115.898
X98.383Y115.937
X98.386Y115.977
X98.39Y116.016
X98.394Y116.056
X98.4Y116.095
X98.407Y116.134
X98.415Y116.173
X98.423Y116.211
X98.433Y116.25
X98.444Y116.288
X98.455Y116.326
X98.468Y116.364
X98.481Y116.401
X98.495Y116.438
X98.511Y116.475
X98.527Y116.511
X98.544Y116.546
X98.562Y116.582
X98.581Y116.617
X98.6Y116.651
X98.621Y116.685
X98.642Y116.718
X98.664Y116.751
X98.687Y116.783
X98.711Y116.815
X98.735Y116.845
X98.76Y116.876
X98.786Y116.905
X98.813Y116.934
X98.84Y116.963
X98.868Y116.99
X98.897Y117.017
X98.926Y117.044
X98.956Y117.069
X98.987Y117.094
X99.019Y117.118
X99.051Y117.142
X99.083Y117.164
X99.117Y117.186
X99.15Y117.207
X99.184Y117.227
X99.219Y117.246
X99.256Y117.265
X99.293Y117.283
X99.33Y117.3
X99.399Y117.329
X99.421Y117.337
X99.46Y117.351
X99.5Y117.364
X99.54Y117.375
X99.58Y117.386
X99.62Y117.396
X99.661Y117.404
X99.702Y117.412
X99.74Y117.418
X99.778Y117.423
X99.817Y117.428
X99.855Y117.431
X99.894Y117.433
X99.933Y117.435
X99.971
X110.255
Y120.844
X110.256Y120.883
X110.257Y120.922
X110.26Y120.96
X110.263Y120.999
X110.267Y121.037
X110.272Y121.076
X110.278Y121.114
X110.285Y121.152
X110.293Y121.19
X110.302Y121.228
X110.312Y121.265
X110.323Y121.303
X110.371Y121.463
X110.382Y121.499
X110.394Y121.534
X110.408Y121.57
X110.421Y121.605
X110.436Y121.64
X110.452Y121.675
X110.468Y121.709
X110.485Y121.743
X110.567Y121.898
X110.584Y121.93
X110.601Y121.961
X110.62Y121.992
X110.639Y122.022
X110.659Y122.052
X110.679Y122.082
X110.701Y122.111
X110.722Y122.139
X110.82Y122.264
X110.847Y122.297
X110.874Y122.33
X110.903Y122.361
X110.932Y122.392
X110.962Y122.422
X110.992Y122.452
X111.024Y122.48
X111.056Y122.508
X111.227Y122.65
X111.258Y122.675
X111.289Y122.699
X111.322Y122.723
X111.354Y122.745
X111.388Y122.767
X111.422Y122.788
X111.456Y122.808
X111.491Y122.828
X111.526Y122.846
X111.562Y122.864
X111.78Y122.967
X111.816Y122.984
X111.854Y123
X111.891Y123.015
X111.93Y123.029
X111.968Y123.042
X112.007Y123.054
X112.045Y123.065
X112.085Y123.075
X112.272Y123.121
X112.313Y123.131
X112.353Y123.139
X112.394Y123.146
X112.435Y123.152
X112.476Y123.157
X112.517Y123.161
X112.739Y123.18
X112.772Y123.182
X112.805Y123.184
X112.838Y123.185
X112.871
X129.846
X129.887
X129.927Y123.183
X129.968Y123.18
X130.008Y123.177
X130.369Y123.14
X130.406Y123.136
X130.444Y123.13
X130.481Y123.124
X130.518Y123.117
X130.555Y123.11
X130.592Y123.101
X130.628Y123.091
X130.665Y123.081
X130.701Y123.07
X130.736Y123.058
X130.976Y122.973
X131.013Y122.959
X131.049Y122.945
X131.086Y122.93
X131.121Y122.913
X131.157Y122.896
X131.192Y122.878
X131.226Y122.859
X131.261Y122.84
X131.294Y122.819
X131.327Y122.798
X131.483Y122.694
X131.515Y122.672
X131.546Y122.65
X131.576Y122.627
X131.606Y122.604
X131.635Y122.579
X131.664Y122.554
X131.692Y122.528
X131.72Y122.502
X131.746Y122.475
X131.773Y122.447
X131.882Y122.329
X131.911Y122.296
X131.939Y122.263
X131.966Y122.229
X131.993Y122.195
X132.018Y122.159
X132.042Y122.123
X132.066Y122.086
X132.088Y122.049
X132.158Y121.928
X132.176Y121.896
X132.194Y121.864
X132.21Y121.831
X132.226Y121.798
X132.241Y121.765
X132.255Y121.731
X132.269Y121.697
X132.281Y121.663
X132.321Y121.55
X132.336Y121.508
X132.349Y121.466
X132.361Y121.422
X132.372Y121.379
X132.381Y121.335
X132.39Y121.292
X132.412Y121.168
X132.417Y121.132
X132.422Y121.096
X132.427Y121.06
X132.43Y121.023
X132.433Y120.987
X132.435Y120.95
X132.437Y120.873
Y120.844
Y112.844
Y112.805
X132.435Y112.766
X132.433Y112.727
X132.43Y112.688
X132.425Y112.649
X132.42Y112.611
X132.414Y112.572
X132.407Y112.534
X132.399Y112.496
X132.39Y112.458
X132.38Y112.42
X132.369Y112.383
X132.357Y112.345
X132.344Y112.308
X132.331Y112.272
X132.316Y112.236
X132.301Y112.2
X132.285Y112.164
X132.268Y112.129
X132.25Y112.095
X132.231Y112.06
X132.211Y112.027
X132.191Y111.993
X132.169Y111.961
X132.147Y111.929
X132.124Y111.897
X132.101Y111.866
X132.076Y111.835
X132.051Y111.806
X132.025Y111.776
X131.999Y111.748
X131.971Y111.719
X131.943Y111.692
X131.914Y111.665
X131.885Y111.639
X131.855Y111.614
X131.825Y111.59
X131.793Y111.566
X131.762Y111.543
X131.73Y111.521
X131.697Y111.5
X131.664Y111.479
X131.63Y111.46
X131.596Y111.441
X131.561Y111.423
X131.526Y111.406
X131.491Y111.389
X131.455Y111.374
X131.419Y111.36
X131.382Y111.346
X131.345Y111.333
X131.308Y111.322
X131.27Y111.311
X131.233Y111.301
X131.195Y111.292
X131.157Y111.284
X131.118Y111.276
X131.08Y111.27
X131.041Y111.265
X131.002Y111.261
X130.963Y111.257
X130.924Y111.255
X130.885Y111.254
X130.846Y111.253
X125.473
X122.921Y108.872
X120.433Y106.196
X118.757Y104
X118.215Y103.099
X117.839Y102.283
X117.116Y99.847
X116.643Y97.221
X116.341Y93.677
X116.332Y89.641
X116.677Y84.926
X116.924Y83.051
X116.928Y83.017
X116.931Y82.983
X116.934Y82.948
X116.936Y82.913
X116.937Y82.879
Y82.844
Y67.844
Y67.8
X116.935Y67.756
X116.932Y67.713
X116.928Y67.669
X116.444Y63.294
X116.286Y58.905
X116.446Y55.168
X116.918Y51.73
X117.316Y50.024
X117.823Y48.448
X118.488Y47.125
X119.932Y45.107
X122.135Y42.625
X124.754Y40.063
X125.455Y39.435
X130.846
X130.885
X130.924Y39.433
X130.963Y39.431
X131.002Y39.427
X131.041Y39.423
X131.08Y39.418
X131.118Y39.412
X131.157Y39.405
X131.195Y39.396
X131.233Y39.387
X131.27Y39.377
X131.308Y39.367
X131.345Y39.355
X131.382Y39.342
X131.419Y39.329
X131.455Y39.314
X131.491Y39.299
X131.526Y39.282
X131.561Y39.265
X131.596Y39.247
X131.63Y39.229
X131.664Y39.209
X131.697Y39.188
X131.73Y39.167
X131.762Y39.145
X131.793Y39.122
X131.825Y39.099
X131.855Y39.074
X131.885Y39.049
X131.914Y39.023
X131.943Y38.997
X131.972Y38.968
X131.999Y38.94
X132.025Y38.912
X132.051Y38.883
X132.076Y38.853
X132.101Y38.822
X132.124Y38.791
X132.147Y38.76
X132.169Y38.727
X132.191Y38.695
X132.211Y38.662
X132.231Y38.628
X132.25Y38.594
X132.268Y38.559
X132.285Y38.524
X132.301Y38.488
X132.316Y38.453
X132.331Y38.416
X132.344Y38.38
X132.357Y38.343
X132.369Y38.306
X132.38Y38.268
X132.39Y38.23
X132.399Y38.192
X132.407Y38.154
X132.414Y38.116
X132.42Y38.077
X132.425Y38.039
X132.43Y38
X132.433Y37.961
X132.435Y37.922
X132.437Y37.883
Y37.844
Y29.844
Y29.807
X132.436Y29.771
X132.434Y29.734
X132.431Y29.698
X132.427Y29.661
X132.422Y29.625
X132.404Y29.494
X132.398Y29.456
X132.391Y29.418
X132.384Y29.38
X132.375Y29.342
X132.366Y29.305
X132.355Y29.267
X132.344Y29.231
X132.332Y29.194
X132.286Y29.062
X132.274Y29.028
X132.261Y28.994
X132.248Y28.961
X132.233Y28.928
X132.218Y28.895
X132.202Y28.862
X132.185Y28.83
X132.168Y28.799
X132.105Y28.688
X132.084Y28.652
X132.062Y28.616
X132.039Y28.581
X132.014Y28.546
X131.989Y28.512
X131.964Y28.479
X131.937Y28.446
X131.909Y28.414
X131.79Y28.28
X131.764Y28.251
X131.737Y28.223
X131.71Y28.196
X131.681Y28.169
X131.652Y28.143
X131.622Y28.117
X131.592Y28.093
X131.561Y28.069
X131.53Y28.046
X131.498Y28.023
X131.337Y27.913
X131.306Y27.892
X131.274Y27.872
X131.242Y27.853
X131.21Y27.835
X131.177Y27.817
X131.144Y27.8
X131.11Y27.784
X131.076Y27.769
X131.042Y27.754
X131.007Y27.741
X130.787Y27.657
X130.744Y27.641
X130.701Y27.627
X130.657Y27.613
X130.614Y27.602
X130.569Y27.591
X130.525Y27.582
X130.353Y27.548
X130.307Y27.54
X130.261Y27.533
X130.215Y27.527
X130.168Y27.523
X129.967Y27.508
X129.937Y27.506
X129.907Y27.504
X129.877Y27.503
X129.846
X112.871
X112.837
X112.803Y27.505
X112.769Y27.506
X112.734Y27.509
X112.7Y27.512
X112.666Y27.516
X112.269Y27.568
X112.23Y27.573
X112.191Y27.58
X112.152Y27.588
X112.114Y27.596
X112.075Y27.606
X112.037Y27.616
X111.999Y27.627
X111.961Y27.64
X111.924Y27.653
X111.887Y27.667
X111.653Y27.76
X111.618Y27.775
X111.582Y27.79
X111.547Y27.806
X111.513Y27.824
X111.479Y27.842
X111.445Y27.861
X111.412Y27.88
X111.379Y27.901
X111.347Y27.922
X111.316Y27.944
X111.159Y28.056
X111.129Y28.078
X111.1Y28.1
X111.071Y28.123
X111.043Y28.147
X111.015Y28.172
X110.988Y28.197
X110.962Y28.222
X110.936Y28.249
X110.911Y28.276
X110.886Y28.303
X110.778Y28.427
X110.751Y28.459
X110.725Y28.491
X110.7Y28.523
X110.676Y28.557
X110.652Y28.591
X110.63Y28.626
X110.608Y28.661
X110.587Y28.697
X110.518Y28.82
X110.502Y28.851
X110.486Y28.881
X110.471Y28.912
X110.456Y28.944
X110.442Y28.976
X110.429Y29.008
X110.416Y29.04
X110.405Y29.072
X110.366Y29.183
X110.353Y29.22
X110.342Y29.258
X110.331Y29.296
X110.321Y29.334
X110.313Y29.372
X110.305Y29.411
X110.286Y29.509
X110.278Y29.555
X110.271Y29.601
X110.266Y29.647
X110.262Y29.693
X110.259Y29.731
X110.256Y29.788
X110.255Y29.844
Y43.253
X103.221
X103.181Y43.254
X103.14Y43.255
X103.1Y43.258
X103.06Y43.261
X103.02Y43.266
X102.98Y43.272
X102.939Y43.278
X102.901Y43.286
X102.862Y43.294
X102.824Y43.303
X102.786Y43.314
X102.749Y43.325
X102.711Y43.337
X102.674Y43.35
X102.638Y43.364
X102.602Y43.378
X102.561Y43.396
X102.537Y43.408
X102.512Y43.42
X102.48Y43.437
X102.447Y43.454
X102.415Y43.472
X102.384Y43.491
X102.353Y43.511
X102.322Y43.531
X102.292Y43.553
X102.261Y43.576
X102.23Y43.6
X102.199Y43.625
X102.169Y43.65
X102.14Y43.677
X102.112Y43.704
X102.084Y43.732
X102.057Y43.76
X102.03Y43.789
X102.005Y43.819
X101.98Y43.849
X101.956Y43.88
X101.921Y43.927
X101.888Y43.976
X101.862Y44.018
X101.842Y44.051
X101.823Y44.085
X101.805Y44.119
X101.788Y44.153
X101.772Y44.188
X101.756Y44.223
Z-0.2F5
X101.742Y44.259F10
X101.728Y44.295
X101.715Y44.331
X101.703Y44.368
X101.692Y44.405
X101.682Y44.442
X101.673Y44.48
X101.664Y44.517
X101.657Y44.555
X101.65Y44.593
X101.645Y44.631
X101.64Y44.669
X101.636Y44.708
X101.633Y44.746
X101.631Y44.785
X101.63Y44.823
Y44.862
X101.631Y44.901
X101.633Y44.939
X101.636Y44.976
X101.639Y45.014
X101.644Y45.051
X101.649Y45.088
X101.655Y45.126
X101.663Y45.163
X101.671Y45.2
X101.679Y45.236
X101.689Y45.273
X101.7Y45.309
X101.711Y45.345
X109.255Y68.101
Y82.589
X98.46Y115.346
X98.448Y115.384
X98.437Y115.423
X98.427Y115.461
X98.418Y115.5
X98.41Y115.539
X98.403Y115.579
X98.396Y115.618
X98.391Y115.658
X98.387Y115.698
X98.384Y115.738
X98.382Y115.777
X98.381Y115.817
X98.38Y115.858
X98.381Y115.898
X98.383Y115.937
X98.386Y115.977
X98.39Y116.016
X98.394Y116.056
X98.4Y116.095
X98.407Y116.134
X98.415Y116.173
X98.423Y116.211
X98.433Y116.25
X98.444Y116.288
X98.455Y116.326
X98.468Y116.364
X98.481Y116.401
X98.495Y116.438
X98.511Y116.475
X98.527Y116.511
X98.544Y116.546
X98.562Y116.582
X98.581Y116.617
X98.6Y116.651
X98.621Y116.685
X98.642Y116.718
X98.664Y116.751
X98.687Y116.783
X98.711Y116.815
X98.735Y116.845
X98.76Y116.876
X98.786Y116.905
X98.813Y116.934
X98.84Y116.963
X98.868Y116.99
X98.897Y117.017
X98.926Y117.044
X98.956Y117.069
X98.987Y117.094
X99.019Y117.118
X99.051Y117.142
X99.083Y117.164
X99.117Y117.186
X99.15Y117.207
X99.184Y117.227
X99.219Y117.246
X99.256Y117.265
X99.293Y117.283
X99.33Y117.3
X99.399Y117.329
X99.421Y117.337
X99.46Y117.351
X99.5Y117.364
X99.54Y117.375
X99.58Y117.386
X99.62Y117.396
X99.661Y117.404
X99.702Y117.412
X99.74Y117.418
X99.778Y117.423
X99.817Y117.428
X99.855Y117.431
X99.894Y117.433
X99.933Y117.435
X99.971
X110.255
Y120.844
X110.256Y120.883
X110.257Y120.922
X110.26Y120.96
X110.263Y120.999
X110.267Y121.037
X110.272Y121.076
X110.278Y121.114
X110.285Y121.152
X110.293Y121.19
X110.302Y121.228
X110.312Y121.265
X110.323Y121.303
X110.371Y121.463
X110.382Y121.499
X110.394Y121.534
X110.408Y121.57
X110.421Y121.605
X110.436Y121.64
X110.452Y121.675
X110.468Y121.709
X110.485Y121.743
X110.567Y121.898
X110.584Y121.93
X110.601Y121.961
X110.62Y121.992
X110.639Y122.022
X110.659Y122.052
X110.679Y122.082
X110.701Y122.111
X110.722Y122.139
X110.82Y122.264
X110.847Y122.297
X110.874Y122.33
X110.903Y122.361
X110.932Y122.392
X110.962Y122.422
X110.992Y122.452
X111.024Y122.48
X111.056Y122.508
X111.227Y122.65
X111.258Y122.675
X111.289Y122.699
X111.322Y122.723
X111.354Y122.745
X111.388Y122.767
X111.422Y122.788
X111.456Y122.808
X111.491Y122.828
X111.526Y122.846
X111.562Y122.864
X111.78Y122.967
X111.816Y122.984
X111.854Y123
X111.891Y123.015
X111.93Y123.029
X111.968Y123.042
X112.007Y123.054
X112.045Y123.065
X112.085Y123.075
X112.272Y123.121
X112.313Y123.131
X112.353Y123.139
X112.394Y123.146
X112.435Y123.152
X112.476Y123.157
X112.517Y123.161
X112.739Y123.18
X112.772Y123.182
X112.805Y123.184
X112.838Y123.185
X112.871
X129.846
X129.887
X129.927Y123.183
X129.968Y123.18
X130.008Y123.177
X130.369Y123.14
X130.406Y123.136
X130.444Y123.13
X130.481Y123.124
X130.518Y123.117
X130.555Y123.11
X130.592Y123.101
X130.628Y123.091
X130.665Y123.081
X130.701Y123.07
X130.736Y123.058
X130.976Y122.973
X131.013Y122.959
X131.049Y122.945
X131.086Y122.93
X131.121Y122.913
X131.157Y122.896
X131.192Y122.878
X131.226Y122.859
X131.261Y122.84
X131.294Y122.819
X131.327Y122.798
X131.483Y122.694
X131.515Y122.672
X131.546Y122.65
X131.576Y122.627
X131.606Y122.604
X131.635Y122.579
X131.664Y122.554
X131.692Y122.528
X131.72Y122.502
X131.746Y122.475
X131.773Y122.447
X131.882Y122.329
X131.911Y122.296
X131.939Y122.263
X131.966Y122.229
X131.993Y122.195
X132.018Y122.159
X132.042Y122.123
X132.066Y122.086
X132.088Y122.049
X132.158Y121.928
X132.176Y121.896
X132.194Y121.864
X132.21Y121.831
X132.226Y121.798
X132.241Y121.765
X132.255Y121.731
X132.269Y121.697
X132.281Y121.663
X132.321Y121.55
X132.336Y121.508
X132.349Y121.466
X132.361Y121.422
X132.372Y121.379
X132.381Y121.335
X132.39Y121.292
X132.412Y121.168
X132.417Y121.132
X132.422Y121.096
X132.427Y121.06
X132.43Y121.023
X132.433Y120.987
X132.435Y120.95
X132.437Y120.873
Y120.844
Y112.844
Y112.805
X132.435Y112.766
X132.433Y112.727
X132.43Y112.688
X132.425Y112.649
X132.42Y112.611
X132.414Y112.572
X132.407Y112.534
X132.399Y112.496
X132.39Y112.458
X132.38Y112.42
X132.369Y112.383
X132.357Y112.345
X132.344Y112.308
X132.331Y112.272
X132.316Y112.236
X132.301Y112.2
X132.285Y112.164
X132.268Y112.129
X132.25Y112.095
X132.231Y112.06
X132.211Y112.027
X132.191Y111.993
X132.169Y111.961
X132.147Y111.929
X132.124Y111.897
X132.101Y111.866
X132.076Y111.835
X132.051Y111.806
X132.025Y111.776
X131.999Y111.748
X131.971Y111.719
X131.943Y111.692
X131.914Y111.665
X131.885Y111.639
X131.855Y111.614
X131.825Y111.59
X131.793Y111.566
X131.762Y111.543
X131.73Y111.521
X131.697Y111.5
X131.664Y111.479
X131.63Y111.46
X131.596Y111.441
X131.561Y111.423
X131.526Y111.406
X131.491Y111.389
X131.455Y111.374
X131.419Y111.36
X131.382Y111.346
X131.345Y111.333
X131.308Y111.322
X131.27Y111.311
X131.233Y111.301
X131.195Y111.292
X131.157Y111.284
X131.118Y111.276
X131.08Y111.27
X131.041Y111.265
X131.002Y111.261
X130.963Y111.257
X130.924Y111.255
X130.885Y111.254
X130.846Y111.253
X125.473
X122.921Y108.872
X120.433Y106.196
X118.757Y104
X118.215Y103.099
X117.839Y102.283
X117.116Y99.847
X116.643Y97.221
X116.341Y93.677
X116.332Y89.641
X116.677Y84.926
X116.924Y83.051
X116.928Y83.017
X116.931Y82.983
X116.934Y82.948
X116.936Y82.913
X116.937Y82.879
Y82.844
Y67.844
Y67.8
X116.935Y67.756
X116.932Y67.713
X116.928Y67.669
X116.444Y63.294
X116.286Y58.905
X116.446Y55.168
X116.918Y51.73
X117.316Y50.024
X117.823Y48.448
X118.488Y47.125
X119.932Y45.107
X122.135Y42.625
X124.754Y40.063
X125.455Y39.435
X130.846
X130.885
X130.924Y39.433
X130.963Y39.431
X131.002Y39.427
X131.041Y39.423
X131.08Y39.418
X131.118Y39.412
X131.157Y39.405
X131.195Y39.396
X131.233Y39.387
X131.27Y39.377
X131.308Y39.367
X131.345Y39.355
X131.382Y39.342
X131.419Y39.329
X131.455Y39.314
X131.491Y39.299
X131.526Y39.282
X131.561Y39.265
X131.596Y39.247
X131.63Y39.229
X131.664Y39.209
X131.697Y39.188
X131.73Y39.167
X131.762Y39.145
X131.793Y39.122
X131.825Y39.099
X131.855Y39.074
X131.885Y39.049
X131.914Y39.023
X131.943Y38.997
X131.972Y38.968
X131.999Y38.94
X132.025Y38.912
X132.051Y38.883
X132.076Y38.853
X132.101Y38.822
X132.124Y38.791
X132.147Y38.76
X132.169Y38.727
X132.191Y38.695
X132.211Y38.662
X132.231Y38.628
X132.25Y38.594
X132.268Y38.559
X132.285Y38.524
X132.301Y38.488
X132.316Y38.453
X132.331Y38.416
X132.344Y38.38
X132.357Y38.343
X132.369Y38.306
X132.38Y38.268
X132.39Y38.23
X132.399Y38.192
X132.407Y38.154
X132.414Y38.116
X132.42Y38.077
X132.425Y38.039
X132.43Y38
X132.433Y37.961
X132.435Y37.922
X132.437Y37.883
Y37.844
Y29.844
Y29.807
X132.436Y29.771
X132.434Y29.734
X132.431Y29.698
X132.427Y29.661
X132.422Y29.625
X132.404Y29.494
X132.398Y29.456
X132.391Y29.418
X132.384Y29.38
X132.375Y29.342
X132.366Y29.305
X132.355Y29.267
X132.344Y29.231
X132.332Y29.194
X132.286Y29.062
X132.274Y29.028
X132.261Y28.994
X132.248Y28.961
X132.233Y28.928
X132.218Y28.895
X132.202Y28.862
X132.185Y28.83
X132.168Y28.799
X132.105Y28.688
X132.084Y28.652
X132.062Y28.616
X132.039Y28.581
X132.014Y28.546
X131.989Y28.512
X131.964Y28.479
X131.937Y28.446
X131.909Y28.414
X131.79Y28.28
X131.764Y28.251
X131.737Y28.223
X131.71Y28.196
X131.681Y28.169
X131.652Y28.143
X131.622Y28.117
X131.592Y28.093
X131.561Y28.069
X131.53Y28.046
X131.498Y28.023
X131.337Y27.913
X131.306Y27.892
X131.274Y27.872
X131.242Y27.853
X131.21Y27.835
X131.177Y27.817
X131.144Y27.8
X131.11Y27.784
X131.076Y27.769
X131.042Y27.754
X131.007Y27.741
X130.787Y27.657
X130.744Y27.641
X130.701Y27.627
X130.657Y27.613
X130.614Y27.602
X130.569Y27.591
X130.525Y27.582
X130.353Y27.548
X130.307Y27.54
X130.261Y27.533
X130.215Y27.527
X130.168Y27.523
X129.967Y27.508
X129.937Y27.506
X129.907Y27.504
X129.877Y27.503
X129.846
X112.871
X112.837
X112.803Y27.505
X112.769Y27.506
X112.734Y27.509
X112.7Y27.512
X112.666Y27.516
X112.269Y27.568
X112.23Y27.573
X112.191Y27.58
X112.152Y27.588
X112.114Y27.596
X112.075Y27.606
X112.037Y27.616
X111.999Y27.627
X111.961Y27.64
X111.924Y27.653
X111.887Y27.667
X111.653Y27.76
X111.618Y27.775
X111.582Y27.79
X111.547Y27.806
X111.513Y27.824
X111.479Y27.842
X111.445Y27.861
X111.412Y27.88
X111.379Y27.901
X111.347Y27.922
X111.316Y27.944
X111.159Y28.056
X111.129Y28.078
X111.1Y28.1
X111.071Y28.123
X111.043Y28.147
X111.015Y28.172
X110.988Y28.197
X110.962Y28.222
X110.936Y28.249
X110.911Y28.276
X110.886Y28.303
X110.778Y28.427
X110.751Y28.459
X110.725Y28.491
X110.7Y28.523
X110.676Y28.557
X110.652Y28.591
X110.63Y28.626
X110.608Y28.661
X110.587Y28.697
X110.518Y28.82
X110.502Y28.851
X110.486Y28.881
X110.471Y28.912
X110.456Y28.944
X110.442Y28.976
X110.429Y29.008
X110.416Y29.04
X110.405Y29.072
X110.366Y29.183
X110.353Y29.22
X110.342Y29.258
X110.331Y29.296
X110.321Y29.334
X110.313Y29.372
X110.305Y29.411
X110.286Y29.509
X110.278Y29.555
X110.271Y29.601
X110.266Y29.647
X110.262Y29.693
X110.259Y29.731
X110.256Y29.788
X110.255Y29.844
Y43.253
X103.221
X103.181Y43.254
X103.14Y43.255
X103.1Y43.258
X103.06Y43.261
X103.02Y43.266
X102.98Y43.272
X102.939Y43.278
X102.901Y43.286
X102.862Y43.294
X102.824Y43.303
X102.786Y43.314
X102.749Y43.325
X102.711Y43.337
X102.674Y43.35
X102.638Y43.364
X102.602Y43.378
X102.561Y43.396
X102.537Y43.408
X102.512Y43.42
X102.48Y43.437
X102.447Y43.454
X102.415Y43.472
X102.384Y43.491
X102.353Y43.511
X102.322Y43.531
X102.292Y43.553
X102.261Y43.576
X102.23Y43.6
X102.199Y43.625
X102.169Y43.65
X102.14Y43.677
X102.112Y43.704
X102.084Y43.732
X102.057Y43.76
X102.03Y43.789
X102.005Y43.819
X101.98Y43.849
X101.956Y43.88
X101.921Y43.927
X101.888Y43.976
X101.862Y44.018
X101.842Y44.051
X101.823Y44.085
X101.805Y44.119
X101.788Y44.153
X101.772Y44.188
X101.756Y44.223
Z-0.3F5
X101.742Y44.259F10
X101.728Y44.295
X101.715Y44.331
X101.703Y44.368
X101.692Y44.405
X101.682Y44.442
X101.673Y44.48
X101.664Y44.517
X101.657Y44.555
X101.65Y44.593
X101.645Y44.631
X101.64Y44.669
X101.636Y44.708
X101.633Y44.746
X101.631Y44.785
X101.63Y44.823
Y44.862
X101.631Y44.901
X101.633Y44.939
X101.636Y44.976
X101.639Y45.014
X101.644Y45.051
X101.649Y45.088
X101.655Y45.126
X101.663Y45.163
X101.671Y45.2
X101.679Y45.236
X101.689Y45.273
X101.7Y45.309
X101.711Y45.345
X109.255Y68.101
Y82.589
X98.46Y115.346
X98.448Y115.384
X98.437Y115.423
X98.427Y115.461
X98.418Y115.5
X98.41Y115.539
X98.403Y115.579
X98.396Y115.618
X98.391Y115.658
X98.387Y115.698
X98.384Y115.738
X98.382Y115.777
X98.381Y115.817
X98.38Y115.858
X98.381Y115.898
X98.383Y115.937
X98.386Y115.977
X98.39Y116.016
X98.394Y116.056
X98.4Y116.095
X98.407Y116.134
X98.415Y116.173
X98.423Y116.211
X98.433Y116.25
X98.444Y116.288
X98.455Y116.326
X98.468Y116.364
X98.481Y116.401
X98.495Y116.438
X98.511Y116.475
X98.527Y116.511
X98.544Y116.546
X98.562Y116.582
X98.581Y116.617
X98.6Y116.651
X98.621Y116.685
X98.642Y116.718
X98.664Y116.751
X98.687Y116.783
X98.711Y116.815
X98.735Y116.845
X98.76Y116.876
X98.786Y116.905
X98.813Y116.934
X98.84Y116.963
X98.868Y116.99
X98.897Y117.017
X98.926Y117.044
X98.956Y117.069
X98.987Y117.094
X99.019Y117.118
X99.051Y117.142
X99.083Y117.164
X99.117Y117.186
X99.15Y117.207
X99.184Y117.227
X99.219Y117.246
X99.256Y117.265
X99.293Y117.283
X99.33Y117.3
X99.399Y117.329
X99.421Y117.337
X99.46Y117.351
X99.5Y117.364
X99.54Y117.375
X99.58Y117.386
X99.62Y117.396
X99.661Y117.404
X99.702Y117.412
X99.74Y117.418
X99.778Y117.423
X99.817Y117.428
X99.855Y117.431
X99.894Y117.433
X99.933Y117.435
X99.971
X110.255
Y120.844
X110.256Y120.883
X110.257Y120.922
X110.26Y120.96
X110.263Y120.999
X110.267Y121.037
X110.272Y121.076
X110.278Y121.114
X110.285Y121.152
X110.293Y121.19
X110.302Y121.228
X110.312Y121.265
X110.323Y121.303
X110.371Y121.463
X110.382Y121.499
X110.394Y121.534
X110.408Y121.57
X110.421Y121.605
X110.436Y121.64
X110.452Y121.675
X110.468Y121.709
X110.485Y121.743
X110.567Y121.898
X110.584Y121.93
X110.601Y121.961
X110.62Y121.992
X110.639Y122.022
X110.659Y122.052
X110.679Y122.082
X110.701Y122.111
X110.722Y122.139
X110.82Y122.264
X110.847Y122.297
X110.874Y122.33
X110.903Y122.361
X110.932Y122.392
X110.962Y122.422
X110.992Y122.452
X111.024Y122.48
X111.056Y122.508
X111.227Y122.65
X111.258Y122.675
X111.289Y122.699
X111.322Y122.723
X111.354Y122.745
X111.388Y122.767
X111.422Y122.788
X111.456Y122.808
X111.491Y122.828
X111.526Y122.846
X111.562Y122.864
X111.78Y122.967
X111.816Y122.984
X111.854Y123
X111.891Y123.015
X111.93Y123.029
X111.968Y123.042
X112.007Y123.054
X112.045Y123.065
X112.085Y123.075
X112.272Y123.121
X112.313Y123.131
X112.353Y123.139
X112.394Y123.146
X112.435Y123.152
X112.476Y123.157
X112.517Y123.161
X112.739Y123.18
X112.772Y123.182
X112.805Y123.184
X112.838Y123.185
X112.871
X129.846
X129.887
X129.927Y123.183
X129.968Y123.18
X130.008Y123.177
X130.369Y123.14
X130.406Y123.136
X130.444Y123.13
X130.481Y123.124
X130.518Y123.117
X130.555Y123.11
X130.592Y123.101
X130.628Y123.091
X130.665Y123.081
X130.701Y123.07
X130.736Y123.058
X130.976Y122.973
X131.013Y122.959
X131.049Y122.945
X131.086Y122.93
X131.121Y122.913
X131.157Y122.896
X131.192Y122.878
X131.226Y122.859
X131.261Y122.84
X131.294Y122.819
X131.327Y122.798
X131.483Y122.694
X131.515Y122.672
X131.546Y122.65
X131.576Y122.627
X131.606Y122.604
X131.635Y122.579
X131.664Y122.554
X131.692Y122.528
X131.72Y122.502
X131.746Y122.475
X131.773Y122.447
X131.882Y122.329
X131.911Y122.296
X131.939Y122.263
X131.966Y122.229
X131.993Y122.195
X132.018Y122.159
X132.042Y122.123
X132.066Y122.086
X132.088Y122.049
X132.158Y121.928
X132.176Y121.896
X132.194Y121.864
X132.21Y121.831
X132.226Y121.798
X132.241Y121.765
X132.255Y121.731
X132.269Y121.697
X132.281Y121.663
X132.321Y121.55
X132.336Y121.508
X132.349Y121.466
X132.361Y121.422
X132.372Y121.379
X132.381Y121.335
X132.39Y121.292
X132.412Y121.168
X132.417Y121.132
X132.422Y121.096
X132.427Y121.06
X132.43Y121.023
X132.433Y120.987
X132.435Y120.95
X132.437Y120.873
Y120.844
Y112.844
Y112.805
X132.435Y112.766
X132.433Y112.727
X132.43Y112.688
X132.425Y112.649
X132.42Y112.611
X132.414Y112.572
X132.407Y112.534
X132.399Y112.496
X132.39Y112.458
X132.38Y112.42
X132.369Y112.383
X132.357Y112.345
X132.344Y112.308
X132.331Y112.272
X132.316Y112.236
X132.301Y112.2
X132.285Y112.164
X132.268Y112.129
X132.25Y112.095
X132.231Y112.06
X132.211Y112.027
X132.191Y111.993
X132.169Y111.961
X132.147Y111.929
X132.124Y111.897
X132.101Y111.866
X132.076Y111.835
X132.051Y111.806
X132.025Y111.776
X131.999Y111.748
X131.971Y111.719
X131.943Y111.692
X131.914Y111.665
X131.885Y111.639
X131.855Y111.614
X131.825Y111.59
X131.793Y111.566
X131.762Y111.543
X131.73Y111.521
X131.697Y111.5
X131.664Y111.479
X131.63Y111.46
X131.596Y111.441
X131.561Y111.423
X131.526Y111.406
X131.491Y111.389
X131.455Y111.374
X131.419Y111.36
X131.382Y111.346
X131.345Y111.333
X131.308Y111.322
X131.27Y111.311
X131.233Y111.301
X131.195Y111.292
X131.157Y111.284
X131.118Y111.276
X131.08Y111.27
X131.041Y111.265
X131.002Y111.261
X130.963Y111.257
X130.924Y111.255
X130.885Y111.254
X130.846Y111.253
X125.473
X122.921Y108.872
X120.433Y106.196
X118.757Y104
X118.215Y103.099
X117.839Y102.283
X117.116Y99.847
X116.643Y97.221
X116.341Y93.677
X116.332Y89.641
X116.677Y84.926
X116.924Y83.051
X116.928Y83.017
X116.931Y82.983
X116.934Y82.948
X116.936Y82.913
X116.937Y82.879
Y82.844
Y67.844
Y67.8
X116.935Y67.756
X116.932Y67.713
X116.928Y67.669
X116.444Y63.294
X116.286Y58.905
X116.446Y55.168
X116.918Y51.73
X117.316Y50.024
X117.823Y48.448
X118.488Y47.125
X119.932Y45.107
X122.135Y42.625
X124.754Y40.063
X125.455Y39.435
X130.846
X130.885
X130.924Y39.433
X130.963Y39.431
X131.002Y39.427
X131.041Y39.423
X131.08Y39.418
X131.118Y39.412
X131.157Y39.405
X131.195Y39.396
X131.233Y39.387
X131.27Y39.377
X131.308Y39.367
X131.345Y39.355
X131.382Y39.342
X131.419Y39.329
X131.455Y39.314
X131.491Y39.299
X131.526Y39.282
X131.561Y39.265
X131.596Y39.247
X131.63Y39.229
X131.664Y39.209
X131.697Y39.188
X131.73Y39.167
X131.762Y39.145
X131.793Y39.122
X131.825Y39.099
X131.855Y39.074
X131.885Y39.049
X131.914Y39.023
X131.943Y38.997
X131.972Y38.968
X131.999Y38.94
X132.025Y38.912
X132.051Y38.883
X132.076Y38.853
X132.101Y38.822
X132.124Y38.791
X132.147Y38.76
X132.169Y38.727
X132.191Y38.695
X132.211Y38.662
X132.231Y38.628
X132.25Y38.594
X132.268Y38.559
X132.285Y38.524
X132.301Y38.488
X132.316Y38.453
X132.331Y38.416
X132.344Y38.38
X132.357Y38.343
X132.369Y38.306
X132.38Y38.268
X132.39Y38.23
X132.399Y38.192
X132.407Y38.154
X132.414Y38.116
X132.42Y38.077
X132.425Y38.039
X132.43Y38
X132.433Y37.961
X132.435Y37.922
X132.437Y37.883
Y37.844
Y29.844
Y29.807
X132.436Y29.771
X132.434Y29.734
X132.431Y29.698
X132.427Y29.661
X132.422Y29.625
X132.404Y29.494
X132.398Y29.456
X132.391Y29.418
X132.384Y29.38
X132.375Y29.342
X132.366Y29.305
X132.355Y29.267
X132.344Y29.231
X132.332Y29.194
X132.286Y29.062
X132.274Y29.028
X132.261Y28.994
X132.248Y28.961
X132.233Y28.928
X132.218Y28.895
X132.202Y28.862
X132.185Y28.83
X132.168Y28.799
X132.105Y28.688
X132.084Y28.652
X132.062Y28.616
X132.039Y28.581
X132.014Y28.546
X131.989Y28.512
X131.964Y28.479
X131.937Y28.446
X131.909Y28.414
X131.79Y28.28
X131.764Y28.251
X131.737Y28.223
X131.71Y28.196
X131.681Y28.169
X131.652Y28.143
X131.622Y28.117
X131.592Y28.093
X131.561Y28.069
X131.53Y28.046
X131.498Y28.023
X131.337Y27.913
X131.306Y27.892
X131.274Y27.872
X131.242Y27.853
X131.21Y27.835
X131.177Y27.817
X131.144Y27.8
X131.11Y27.784
X131.076Y27.769
X131.042Y27.754
X131.007Y27.741
X130.787Y27.657
X130.744Y27.641
X130.701Y27.627
X130.657Y27.613
X130.614Y27.602
X130.569Y27.591
X130.525Y27.582
X130.353Y27.548
X130.307Y27.54
X130.261Y27.533
X130.215Y27.527
X130.168Y27.523
X129.967Y27.508
X129.937Y27.506
X129.907Y27.504
X129.877Y27.503
X129.846
X112.871
X112.837
X112.803Y27.505
X112.769Y27.506
X112.734Y27.509
X112.7Y27.512
X112.666Y27.516
X112.269Y27.568
X112.23Y27.573
X112.191Y27.58
X112.152Y27.588
X112.114Y27.596
X112.075Y27.606
X112.037Y27.616
X111.999Y27.627
X111.961Y27.64
X111.924Y27.653
X111.887Y27.667
X111.653Y27.76
X111.618Y27.775
X111.582Y27.79
X111.547Y27.806
X111.513Y27.824
X111.479Y27.842
X111.445Y27.861
X111.412Y27.88
X111.379Y27.901
X111.347Y27.922
X111.316Y27.944
X111.159Y28.056
X111.129Y28.078
X111.1Y28.1
X111.071Y28.123
X111.043Y28.147
X111.015Y28.172
X110.988Y28.197
X110.962Y28.222
X110.936Y28.249
X110.911Y28.276
X110.886Y28.303
X110.778Y28.427
X110.751Y28.459
X110.725Y28.491
X110.7Y28.523
X110.676Y28.557
X110.652Y28.591
X110.63Y28.626
X110.608Y28.661
X110.587Y28.697
X110.518Y28.82
X110.502Y28.851
X110.486Y28.881
X110.471Y28.912
X110.456Y28.944
X110.442Y28.976
X110.429Y29.008
X110.416Y29.04
X110.405Y29.072
X110.366Y29.183
X110.353Y29.22
X110.342Y29.258
X110.331Y29.296
X110.321Y29.334
X110.313Y29.372
X110.305Y29.411
X110.286Y29.509
X110.278Y29.555
X110.271Y29.601
X110.266Y29.647
X110.262Y29.693
X110.259Y29.731
X110.256Y29.788
X110.255Y29.844
Y43.253
X103.221
X103.181Y43.254
X103.14Y43.255
X103.1Y43.258
X103.06Y43.261
X103.02Y43.266
X102.98Y43.272
X102.939Y43.278
X102.901Y43.286
X102.862Y43.294
X102.824Y43.303
X102.786Y43.314
X102.749Y43.325
X102.711Y43.337
X102.674Y43.35
X102.638Y43.364
X102.602Y43.378
X102.561Y43.396
X102.537Y43.408
X102.512Y43.42
X102.48Y43.437
X102.447Y43.454
X102.415Y43.472
X102.384Y43.491
X102.353Y43.511
X102.322Y43.531
X102.292Y43.553
X102.261Y43.576
X102.23Y43.6
X102.199Y43.625
X102.169Y43.65
X102.14Y43.677
X102.112Y43.704
X102.084Y43.732
X102.057Y43.76
X102.03Y43.789
X102.005Y43.819
X101.98Y43.849
X101.956Y43.88
X101.921Y43.927
X101.888Y43.976
X101.862Y44.018
X101.842Y44.051
X101.823Y44.085
X101.805Y44.119
X101.788Y44.153
X101.772Y44.188
X101.756Y44.223
Z-0.4F5
X101.742Y44.259F10
X101.728Y44.295
X101.715Y44.331
X101.703Y44.368
X101.692Y44.405
X101.682Y44.442
X101.673Y44.48
X101.664Y44.517
X101.657Y44.555
X101.65Y44.593
X101.645Y44.631
X101.64Y44.669
X101.636Y44.708
X101.633Y44.746
X101.631Y44.785
X101.63Y44.823
Y44.862
X101.631Y44.901
X101.633Y44.939
X101.636Y44.976
X101.639Y45.014
X101.644Y45.051
X101.649Y45.088
X101.655Y45.126
X101.663Y45.163
X101.671Y45.2
X101.679Y45.236
X101.689Y45.273
X101.7Y45.309
X101.711Y45.345
X109.255Y68.101
Y82.589
X98.46Y115.346
X98.448Y115.384
X98.437Y115.423
X98.427Y115.461
X98.418Y115.5
X98.41Y115.539
X98.403Y115.579
X98.396Y115.618
X98.391Y115.658
X98.387Y115.698
X98.384Y115.738
X98.382Y115.777
X98.381Y115.817
X98.38Y115.858
X98.381Y115.898
X98.383Y115.937
X98.386Y115.977
X98.39Y116.016
X98.394Y116.056
X98.4Y116.095
X98.407Y116.134
X98.415Y116.173
X98.423Y116.211
X98.433Y116.25
X98.444Y116.288
X98.455Y116.326
X98.468Y116.364
X98.481Y116.401
X98.495Y116.438
X98.511Y116.475
X98.527Y116.511
X98.544Y116.546
X98.562Y116.582
X98.581Y116.617
X98.6Y116.651
X98.621Y116.685
X98.642Y116.718
X98.664Y116.751
X98.687Y116.783
X98.711Y116.815
X98.735Y116.845
X98.76Y116.876
X98.786Y116.905
X98.813Y116.934
X98.84Y116.963
X98.868Y116.99
X98.897Y117.017
X98.926Y117.044
X98.956Y117.069
X98.987Y117.094
X99.019Y117.118
X99.051Y117.142
X99.083Y117.164
X99.117Y117.186
X99.15Y117.207
X99.184Y117.227
X99.219Y117.246
X99.256Y117.265
X99.293Y117.283
X99.33Y117.3
X99.399Y117.329
X99.421Y117.337
X99.46Y117.351
X99.5Y117.364
X99.54Y117.375
X99.58Y117.386
X99.62Y117.396
X99.661Y117.404
X99.702Y117.412
X99.74Y117.418
X99.778Y117.423
X99.817Y117.428
X99.855Y117.431
X99.894Y117.433
X99.933Y117.435
X99.971
X110.255
Y120.844
X110.256Y120.883
X110.257Y120.922
X110.26Y120.96
X110.263Y120.999
X110.267Y121.037
X110.272Y121.076
X110.278Y121.114
X110.285Y121.152
X110.293Y121.19
X110.302Y121.228
X110.312Y121.265
X110.323Y121.303
X110.371Y121.463
X110.382Y121.499
X110.394Y121.534
X110.408Y121.57
X110.421Y121.605
X110.436Y121.64
X110.452Y121.675
X110.468Y121.709
X110.485Y121.743
X110.567Y121.898
X110.584Y121.93
X110.601Y121.961
X110.62Y121.992
X110.639Y122.022
X110.659Y122.052
X110.679Y122.082
X110.701Y122.111
X110.722Y122.139
X110.82Y122.264
X110.847Y122.297
X110.874Y122.33
X110.903Y122.361
X110.932Y122.392
X110.962Y122.422
X110.992Y122.452
X111.024Y122.48
X111.056Y122.508
X111.227Y122.65
X111.258Y122.675
X111.289Y122.699
X111.322Y122.723
X111.354Y122.745
X111.388Y122.767
X111.422Y122.788
X111.456Y122.808
X111.491Y122.828
X111.526Y122.846
X111.562Y122.864
X111.78Y122.967
X111.816Y122.984
X111.854Y123
X111.891Y123.015
X111.93Y123.029
X111.968Y123.042
X112.007Y123.054
X112.045Y123.065
X112.085Y123.075
X112.272Y123.121
X112.313Y123.131
X112.353Y123.139
X112.394Y123.146
X112.435Y123.152
X112.476Y123.157
X112.517Y123.161
X112.739Y123.18
X112.772Y123.182
X112.805Y123.184
X112.838Y123.185
X112.871
X129.846
X129.887
X129.927Y123.183
X129.968Y123.18
X130.008Y123.177
X130.369Y123.14
X130.406Y123.136
X130.444Y123.13
X130.481Y123.124
X130.518Y123.117
X130.555Y123.11
X130.592Y123.101
X130.628Y123.091
X130.665Y123.081
X130.701Y123.07
X130.736Y123.058
X130.976Y122.973
X131.013Y122.959
X131.049Y122.945
X131.086Y122.93
X131.121Y122.913
X131.157Y122.896
X131.192Y122.878
X131.226Y122.859
X131.261Y122.84
X131.294Y122.819
X131.327Y122.798
X131.483Y122.694
X131.515Y122.672
X131.546Y122.65
X131.576Y122.627
X131.606Y122.604
X131.635Y122.579
X131.664Y122.554
X131.692Y122.528
X131.72Y122.502
X131.746Y122.475
X131.773Y122.447
X131.882Y122.329
X131.911Y122.296
X131.939Y122.263
X131.966Y122.229
X131.993Y122.195
X132.018Y122.159
X132.042Y122.123
X132.066Y122.086
X132.088Y122.049
X132.158Y121.928
X132.176Y121.896
X132.194Y121.864
X132.21Y121.831
X132.226Y121.798
X132.241Y121.765
X132.255Y121.731
X132.269Y121.697
X132.281Y121.663
X132.321Y121.55
X132.336Y121.508
X132.349Y121.466
X132.361Y121.422
X132.372Y121.379
X132.381Y121.335
X132.39Y121.292
X132.412Y121.168
X132.417Y121.132
X132.422Y121.096
X132.427Y121.06
X132.43Y121.023
X132.433Y120.987
X132.435Y120.95
X132.437Y120.873
Y120.844
Y112.844
Y112.805
X132.435Y112.766
X132.433Y112.727
X132.43Y112.688
X132.425Y112.649
X132.42Y112.611
X132.414Y112.572
X132.407Y112.534
X132.399Y112.496
X132.39Y112.458
X132.38Y112.42
X132.369Y112.383
X132.357Y112.345
X132.344Y112.308
X132.331Y112.272
X132.316Y112.236
X132.301Y112.2
X132.285Y112.164
X132.268Y112.129
X132.25Y112.095
X132.231Y112.06
X132.211Y112.027
X132.191Y111.993
X132.169Y111.961
X132.147Y111.929
X132.124Y111.897
X132.101Y111.866
X132.076Y111.835
X132.051Y111.806
X132.025Y111.776
X131.999Y111.748
X131.971Y111.719
X131.943Y111.692
X131.914Y111.665
X131.885Y111.639
X131.855Y111.614
X131.825Y111.59
X131.793Y111.566
X131.762Y111.543
X131.73Y111.521
X131.697Y111.5
X131.664Y111.479
X131.63Y111.46
X131.596Y111.441
X131.561Y111.423
X131.526Y111.406
X131.491Y111.389
X131.455Y111.374
X131.419Y111.36
X131.382Y111.346
X131.345Y111.333
X131.308Y111.322
X131.27Y111.311
X131.233Y111.301
X131.195Y111.292
X131.157Y111.284
X131.118Y111.276
X131.08Y111.27
X131.041Y111.265
X131.002Y111.261
X130.963Y111.257
X130.924Y111.255
X130.885Y111.254
X130.846Y111.253
X125.473
X122.921Y108.872
X120.433Y106.196
X118.757Y104
X118.215Y103.099
X117.839Y102.283
X117.116Y99.847
X116.643Y97.221
X116.341Y93.677
X116.332Y89.641
X116.677Y84.926
X116.924Y83.051
X116.928Y83.017
X116.931Y82.983
X116.934Y82.948
X116.936Y82.913
X116.937Y82.879
Y82.844
Y67.844
Y67.8
X116.935Y67.756
X116.932Y67.713
X116.928Y67.669
X116.444Y63.294
X116.286Y58.905
X116.446Y55.168
X116.918Y51.73
X117.316Y50.024
X117.823Y48.448
X118.488Y47.125
X119.932Y45.107
X122.135Y42.625
X124.754Y40.063
X125.455Y39.435
X130.846
X130.885
X130.924Y39.433
X130.963Y39.431
X131.002Y39.427
X131.041Y39.423
X131.08Y39.418
X131.118Y39.412
X131.157Y39.405
X131.195Y39.396
X131.233Y39.387
X131.27Y39.377
X131.308Y39.367
X131.345Y39.355
X131.382Y39.342
X131.419Y39.329
X131.455Y39.314
X131.491Y39.299
X131.526Y39.282
X131.561Y39.265
X131.596Y39.247
X131.63Y39.229
X131.664Y39.209
X131.697Y39.188
X131.73Y39.167
X131.762Y39.145
X131.793Y39.122
X131.825Y39.099
X131.855Y39.074
X131.885Y39.049
X131.914Y39.023
X131.943Y38.997
X131.972Y38.968
X131.999Y38.94
X132.025Y38.912
X132.051Y38.883
X132.076Y38.853
X132.101Y38.822
X132.124Y38.791
X132.147Y38.76
X132.169Y38.727
X132.191Y38.695
X132.211Y38.662
X132.231Y38.628
X132.25Y38.594
X132.268Y38.559
X132.285Y38.524
X132.301Y38.488
X132.316Y38.453
X132.331Y38.416
X132.344Y38.38
X132.357Y38.343
X132.369Y38.306
X132.38Y38.268
X132.39Y38.23
X132.399Y38.192
X132.407Y38.154
X132.414Y38.116
X132.42Y38.077
X132.425Y38.039
X132.43Y38
X132.433Y37.961
X132.435Y37.922
X132.437Y37.883
Y37.844
Y29.844
Y29.807
X132.436Y29.771
X132.434Y29.734
X132.431Y29.698
X132.427Y29.661
X132.422Y29.625
X132.404Y29.494
X132.398Y29.456
X132.391Y29.418
X132.384Y29.38
X132.375Y29.342
X132.366Y29.305
X132.355Y29.267
X132.344Y29.231
X132.332Y29.194
X132.286Y29.062
X132.274Y29.028
X132.261Y28.994
X132.248Y28.961
X132.233Y28.928
X132.218Y28.895
X132.202Y28.862
X132.185Y28.83
X132.168Y28.799
X132.105Y28.688
X132.084Y28.652
X132.062Y28.616
X132.039Y28.581
X132.014Y28.546
X131.989Y28.512
X131.964Y28.479
X131.937Y28.446
X131.909Y28.414
X131.79Y28.28
X131.764Y28.251
X131.737Y28.223
X131.71Y28.196
X131.681Y28.169
X131.652Y28.143
X131.622Y28.117
X131.592Y28.093
X131.561Y28.069
X131.53Y28.046
X131.498Y28.023
X131.337Y27.913
X131.306Y27.892
X131.274Y27.872
X131.242Y27.853
X131.21Y27.835
X131.177Y27.817
X131.144Y27.8
X131.11Y27.784
X131.076Y27.769
X131.042Y27.754
X131.007Y27.741
X130.787Y27.657
X130.744Y27.641
X130.701Y27.627
X130.657Y27.613
X130.614Y27.602
X130.569Y27.591
X130.525Y27.582
X130.353Y27.548
X130.307Y27.54
X130.261Y27.533
X130.215Y27.527
X130.168Y27.523
X129.967Y27.508
X129.937Y27.506
X129.907Y27.504
X129.877Y27.503
X129.846
X112.871
X112.837
X112.803Y27.505
X112.769Y27.506
X112.734Y27.509
X112.7Y27.512
X112.666Y27.516
X112.269Y27.568
X112.23Y27.573
X112.191Y27.58
X112.152Y27.588
X112.114Y27.596
X112.075Y27.606
X112.037Y27.616
X111.999Y27.627
X111.961Y27.64
X111.924Y27.653
X111.887Y27.667
X111.653Y27.76
X111.618Y27.775
X111.582Y27.79
X111.547Y27.806
X111.513Y27.824
X111.479Y27.842
X111.445Y27.861
X111.412Y27.88
X111.379Y27.901
X111.347Y27.922
X111.316Y27.944
X111.159Y28.056
X111.129Y28.078
X111.1Y28.1
X111.071Y28.123
X111.043Y28.147
X111.015Y28.172
X110.988Y28.197
X110.962Y28.222
X110.936Y28.249
X110.911Y28.276
X110.886Y28.303
X110.778Y28.427
X110.751Y28.459
X110.725Y28.491
X110.7Y28.523
X110.676Y28.557
X110.652Y28.591
X110.63Y28.626
X110.608Y28.661
X110.587Y28.697
X110.518Y28.82
X110.502Y28.851
X110.486Y28.881
X110.471Y28.912
X110.456Y28.944
X110.442Y28.976
X110.429Y29.008
X110.416Y29.04
X110.405Y29.072
X110.366Y29.183
X110.353Y29.22
X110.342Y29.258
X110.331Y29.296
X110.321Y29.334
X110.313Y29.372
X110.305Y29.411
X110.286Y29.509
X110.278Y29.555
X110.271Y29.601
X110.266Y29.647
X110.262Y29.693
X110.259Y29.731
X110.256Y29.788
X110.255Y29.844
Y43.253
X103.221
X103.181Y43.254
X103.14Y43.255
X103.1Y43.258
X103.06Y43.261
X103.02Y43.266
X102.98Y43.272
X102.939Y43.278
X102.901Y43.286
X102.862Y43.294
X102.824Y43.303
X102.786Y43.314
X102.749Y43.325
X102.711Y43.337
X102.674Y43.35
X102.638Y43.364
X102.602Y43.378
X102.561Y43.396
X102.537Y43.408
X102.512Y43.42
X102.48Y43.437
X102.447Y43.454
X102.415Y43.472
X102.384Y43.491
X102.353Y43.511
X102.322Y43.531
X102.292Y43.553
X102.261Y43.576
X102.23Y43.6
X102.199Y43.625
X102.169Y43.65
X102.14Y43.677
X102.112Y43.704
X102.084Y43.732
X102.057Y43.76
X102.03Y43.789
X102.005Y43.819
X101.98Y43.849
X101.956Y43.88
X101.921Y43.927
X101.888Y43.976
X101.862Y44.018
X101.842Y44.051
X101.823Y44.085
X101.805Y44.119
X101.788Y44.153
X101.772Y44.188
X101.756Y44.223
Z-0.5F5
X101.742Y44.259F10
X101.728Y44.295
X101.715Y44.331
X101.703Y44.368
X101.692Y44.405
X101.682Y44.442
X101.673Y44.48
X101.664Y44.517
X101.657Y44.555
X101.65Y44.593
X101.645Y44.631
X101.64Y44.669
X101.636Y44.708
X101.633Y44.746
X101.631Y44.785
X101.63Y44.823
Y44.862
X101.631Y44.901
X101.633Y44.939
X101.636Y44.976
X101.639Y45.014
X101.644Y45.051
X101.649Y45.088
X101.655Y45.126
X101.663Y45.163
X101.671Y45.2
X101.679Y45.236
X101.689Y45.273
X101.7Y45.309
X101.711Y45.345
X109.255Y68.101
Y82.589
X98.46Y115.346
X98.448Y115.384
X98.437Y115.423
X98.427Y115.461
X98.418Y115.5
X98.41Y115.539
X98.403Y115.579
X98.396Y115.618
X98.391Y115.658
X98.387Y115.698
X98.384Y115.738
X98.382Y115.777
X98.381Y115.817
X98.38Y115.858
X98.381Y115.898
X98.383Y115.937
X98.386Y115.977
X98.39Y116.016
X98.394Y116.056
X98.4Y116.095
X98.407Y116.134
X98.415Y116.173
X98.423Y116.211
X98.433Y116.25
X98.444Y116.288
X98.455Y116.326
X98.468Y116.364
X98.481Y116.401
X98.495Y116.438
X98.511Y116.475
X98.527Y116.511
X98.544Y116.546
X98.562Y116.582
X98.581Y116.617
X98.6Y116.651
X98.621Y116.685
X98.642Y116.718
X98.664Y116.751
X98.687Y116.783
X98.711Y116.815
X98.735Y116.845
X98.76Y116.876
X98.786Y116.905
X98.813Y116.934
X98.84Y116.963
X98.868Y116.99
X98.897Y117.017
X98.926Y117.044
X98.956Y117.069
X98.987Y117.094
X99.019Y117.118
X99.051Y117.142
X99.083Y117.164
X99.117Y117.186
X99.15Y117.207
X99.184Y117.227
X99.219Y117.246
X99.256Y117.265
X99.293Y117.283
X99.33Y117.3
X99.399Y117.329
X99.421Y117.337
X99.46Y117.351
X99.5Y117.364
X99.54Y117.375
X99.58Y117.386
X99.62Y117.396
X99.661Y117.404
X99.702Y117.412
X99.74Y117.418
X99.778Y117.423
X99.817Y117.428
X99.855Y117.431
X99.894Y117.433
X99.933Y117.435
X99.971
X110.255
Y120.844
X110.256Y120.883
X110.257Y120.922
X110.26Y120.96
X110.263Y120.999
X110.267Y121.037
X110.272Y121.076
X110.278Y121.114
X110.285Y121.152
X110.293Y121.19
X110.302Y121.228
X110.312Y121.265
X110.323Y121.303
X110.371Y121.463
X110.382Y121.499
X110.394Y121.534
X110.408Y121.57
X110.421Y121.605
X110.436Y121.64
X110.452Y121.675
X110.468Y121.709
X110.485Y121.743
X110.567Y121.898
X110.584Y121.93
X110.601Y121.961
X110.62Y121.992
X110.639Y122.022
X110.659Y122.052
X110.679Y122.082
X110.701Y122.111
X110.722Y122.139
X110.82Y122.264
X110.847Y122.297
X110.874Y122.33
X110.903Y122.361
X110.932Y122.392
X110.962Y122.422
X110.992Y122.452
X111.024Y122.48
X111.056Y122.508
X111.227Y122.65
X111.258Y122.675
X111.289Y122.699
X111.322Y122.723
X111.354Y122.745
X111.388Y122.767
X111.422Y122.788
X111.456Y122.808
X111.491Y122.828
X111.526Y122.846
X111.562Y122.864
X111.78Y122.967
X111.816Y122.984
X111.854Y123
X111.891Y123.015
X111.93Y123.029
X111.968Y123.042
X112.007Y123.054
X112.045Y123.065
X112.085Y123.075
X112.272Y123.121
X112.313Y123.131
X112.353Y123.139
X112.394Y123.146
X112.435Y123.152
X112.476Y123.157
X112.517Y123.161
X112.739Y123.18
X112.772Y123.182
X112.805Y123.184
X112.838Y123.185
X112.871
X129.846
X129.887
X129.927Y123.183
X129.968Y123.18
X130.008Y123.177
X130.369Y123.14
X130.406Y123.136
X130.444Y123.13
X130.481Y123.124
X130.518Y123.117
X130.555Y123.11
X130.592Y123.101
X130.628Y123.091
X130.665Y123.081
X130.701Y123.07
X130.736Y123.058
X130.976Y122.973
X131.013Y122.959
X131.049Y122.945
X131.086Y122.93
X131.121Y122.913
X131.157Y122.896
X131.192Y122.878
X131.226Y122.859
X131.261Y122.84
X131.294Y122.819
X131.327Y122.798
X131.483Y122.694
X131.515Y122.672
X131.546Y122.65
X131.576Y122.627
X131.606Y122.604
X131.635Y122.579
X131.664Y122.554
X131.692Y122.528
X131.72Y122.502
X131.746Y122.475
X131.773Y122.447
X131.882Y122.329
X131.911Y122.296
X131.939Y122.263
X131.966Y122.229
X131.993Y122.195
X132.018Y122.159
X132.042Y122.123
X132.066Y122.086
X132.088Y122.049
X132.158Y121.928
X132.176Y121.896
X132.194Y121.864
X132.21Y121.831
X132.226Y121.798
X132.241Y121.765
X132.255Y121.731
X132.269Y121.697
X132.281Y121.663
X132.321Y121.55
X132.336Y121.508
X132.349Y121.466
X132.361Y121.422
X132.372Y121.379
X132.381Y121.335
X132.39Y121.292
X132.412Y121.168
X132.417Y121.132
X132.422Y121.096
X132.427Y121.06
X132.43Y121.023
X132.433Y120.987
X132.435Y120.95
X132.437Y120.873
Y120.844
Y112.844
Y112.805
X132.435Y112.766
X132.433Y112.727
X132.43Y112.688
X132.425Y112.649
X132.42Y112.611
X132.414Y112.572
X132.407Y112.534
X132.399Y112.496
X132.39Y112.458
X132.38Y112.42
X132.369Y112.383
X132.357Y112.345
X132.344Y112.308
X132.331Y112.272
X132.316Y112.236
X132.301Y112.2
X132.285Y112.164
X132.268Y112.129
X132.25Y112.095
X132.231Y112.06
X132.211Y112.027
X132.191Y111.993
X132.169Y111.961
X132.147Y111.929
X132.124Y111.897
X132.101Y111.866
X132.076Y111.835
X132.051Y111.806
X132.025Y111.776
X131.999Y111.748
X131.971Y111.719
X131.943Y111.692
X131.914Y111.665
X131.885Y111.639
X131.855Y111.614
X131.825Y111.59
X131.793Y111.566
X131.762Y111.543
X131.73Y111.521
X131.697Y111.5
X131.664Y111.479
X131.63Y111.46
X131.596Y111.441
X131.561Y111.423
X131.526Y111.406
X131.491Y111.389
X131.455Y111.374
X131.419Y111.36
X131.382Y111.346
X131.345Y111.333
X131.308Y111.322
X131.27Y111.311
X131.233Y111.301
X131.195Y111.292
X131.157Y111.284
X131.118Y111.276
X131.08Y111.27
X131.041Y111.265
X131.002Y111.261
X130.963Y111.257
X130.924Y111.255
X130.885Y111.254
X130.846Y111.253
X125.473
X122.921Y108.872
X120.433Y106.196
X118.757Y104
X118.215Y103.099
X117.839Y102.283
X117.116Y99.847
X116.643Y97.221
X116.341Y93.677
X116.332Y89.641
X116.677Y84.926
X116.924Y83.051
X116.928Y83.017
X116.931Y82.983
X116.934Y82.948
X116.936Y82.913
X116.937Y82.879
Y82.844
Y67.844
Y67.8
X116.935Y67.756
X116.932Y67.713
X116.928Y67.669
X116.444Y63.294
X116.286Y58.905
X116.446Y55.168
X116.918Y51.73
X117.316Y50.024
X117.823Y48.448
X118.488Y47.125
X119.932Y45.107
X122.135Y42.625
X124.754Y40.063
X125.455Y39.435
X130.846
X130.885
X130.924Y39.433
X130.963Y39.431
X131.002Y39.427
X131.041Y39.423
X131.08Y39.418
X131.118Y39.412
X131.157Y39.405
X131.195Y39.396
X131.233Y39.387
X131.27Y39.377
X131.308Y39.367
X131.345Y39.355
X131.382Y39.342
X131.419Y39.329
X131.455Y39.314
X131.491Y39.299
X131.526Y39.282
X131.561Y39.265
X131.596Y39.247
X131.63Y39.229
X131.664Y39.209
X131.697Y39.188
X131.73Y39.167
X131.762Y39.145
X131.793Y39.122
X131.825Y39.099
X131.855Y39.074
X131.885Y39.049
X131.914Y39.023
X131.943Y38.997
X131.972Y38.968
X131.999Y38.94
X132.025Y38.912
X132.051Y38.883
X132.076Y38.853
X132.101Y38.822
X132.124Y38.791
X132.147Y38.76
X132.169Y38.727
X132.191Y38.695
X132.211Y38.662
X132.231Y38.628
X132.25Y38.594
X132.268Y38.559
X132.285Y38.524
X132.301Y38.488
X132.316Y38.453
X132.331Y38.416
X132.344Y38.38
X132.357Y38.343
X132.369Y38.306
X132.38Y38.268
X132.39Y38.23
X132.399Y38.192
X132.407Y38.154
X132.414Y38.116
X132.42Y38.077
X132.425Y38.039
X132.43Y38
X132.433Y37.961
X132.435Y37.922
X132.437Y37.883
Y37.844
Y29.844
Y29.807
X132.436Y29.771
X132.434Y29.734
X132.431Y29.698
X132.427Y29.661
X132.422Y29.625
X132.404Y29.494
X132.398Y29.456
X132.391Y29.418
X132.384Y29.38
X132.375Y29.342
X132.366Y29.305
X132.355Y29.267
X132.344Y29.231
X132.332Y29.194
X132.286Y29.062
X132.274Y29.028
X132.261Y28.994
X132.248Y28.961
X132.233Y28.928
X132.218Y28.895
X132.202Y28.862
X132.185Y28.83
X132.168Y28.799
X132.105Y28.688
X132.084Y28.652
X132.062Y28.616
X132.039Y28.581
X132.014Y28.546
X131.989Y28.512
X131.964Y28.479
X131.937Y28.446
X131.909Y28.414
X131.79Y28.28
X131.764Y28.251
X131.737Y28.223
X131.71Y28.196
X131.681Y28.169
X131.652Y28.143
X131.622Y28.117
X131.592Y28.093
X131.561Y28.069
X131.53Y28.046
X131.498Y28.023
X131.337Y27.913
X131.306Y27.892
X131.274Y27.872
X131.242Y27.853
X131.21Y27.835
X131.177Y27.817
X131.144Y27.8
X131.11Y27.784
X131.076Y27.769
X131.042Y27.754
X131.007Y27.741
X130.787Y27.657
X130.744Y27.641
X130.701Y27.627
X130.657Y27.613
X130.614Y27.602
X130.569Y27.591
X130.525Y27.582
X130.353Y27.548
X130.307Y27.54
X130.261Y27.533
X130.215Y27.527
X130.168Y27.523
X129.967Y27.508
X129.937Y27.506
X129.907Y27.504
X129.877Y27.503
X129.846
X112.871
X112.837
X112.803Y27.505
X112.769Y27.506
X112.734Y27.509
X112.7Y27.512
X112.666Y27.516
X112.269Y27.568
X112.23Y27.573
X112.191Y27.58
X112.152Y27.588
X112.114Y27.596
X112.075Y27.606
X112.037Y27.616
X111.999Y27.627
X111.961Y27.64
X111.924Y27.653
X111.887Y27.667
X111.653Y27.76
X111.618Y27.775
X111.582Y27.79
X111.547Y27.806
X111.513Y27.824
X111.479Y27.842
X111.445Y27.861
X111.412Y27.88
X111.379Y27.901
X111.347Y27.922
X111.316Y27.944
X111.159Y28.056
X111.129Y28.078
X111.1Y28.1
X111.071Y28.123
X111.043Y28.147
X111.015Y28.172
X110.988Y28.197
X110.962Y28.222
X110.936Y28.249
X110.911Y28.276
X110.886Y28.303
X110.778Y28.427
X110.751Y28.459
X110.725Y28.491
X110.7Y28.523
X110.676Y28.557
X110.652Y28.591
X110.63Y28.626
X110.608Y28.661
X110.587Y28.697
X110.518Y28.82
X110.502Y28.851
X110.486Y28.881
X110.471Y28.912
X110.456Y28.944
X110.442Y28.976
X110.429Y29.008
X110.416Y29.04
X110.405Y29.072
X110.366Y29.183
X110.353Y29.22
X110.342Y29.258
X110.331Y29.296
X110.321Y29.334
X110.313Y29.372
X110.305Y29.411
X110.286Y29.509
X110.278Y29.555
X110.271Y29.601
X110.266Y29.647
X110.262Y29.693
X110.259Y29.731
X110.256Y29.788
X110.255Y29.844
Y43.253
X103.221
X103.181Y43.254
X103.14Y43.255
X103.1Y43.258
X103.06Y43.261
X103.02Y43.266
X102.98Y43.272
X102.939Y43.278
X102.901Y43.286
X102.862Y43.294
X102.824Y43.303
X102.786Y43.314
X102.749Y43.325
X102.711Y43.337
X102.674Y43.35
X102.638Y43.364
X102.602Y43.378
X102.561Y43.396
X102.537Y43.408
X102.512Y43.42
X102.48Y43.437
X102.447Y43.454
X102.415Y43.472
X102.384Y43.491
X102.353Y43.511
X102.322Y43.531
X102.292Y43.553
X102.261Y43.576
X102.23Y43.6
X102.199Y43.625
X102.169Y43.65
X102.14Y43.677
X102.112Y43.704
X102.084Y43.732
X102.057Y43.76
X102.03Y43.789
X102.005Y43.819
X101.98Y43.849
X101.956Y43.88
X101.921Y43.927
X101.888Y43.976
X101.862Y44.018
X101.842Y44.051
X101.823Y44.085
X101.805Y44.119
X101.788Y44.153
X101.772Y44.188
X101.756Y44.223
Z-0.6F5
X101.742Y44.259F10
X101.728Y44.295
X101.715Y44.331
X101.703Y44.368
X101.692Y44.405
X101.682Y44.442
X101.673Y44.48
X101.664Y44.517
X101.657Y44.555
X101.65Y44.593
X101.645Y44.631
X101.64Y44.669
X101.636Y44.708
X101.633Y44.746
X101.631Y44.785
X101.63Y44.823
Y44.862
X101.631Y44.901
X101.633Y44.939
X101.636Y44.976
X101.639Y45.014
X101.644Y45.051
X101.649Y45.088
X101.655Y45.126
X101.663Y45.163
X101.671Y45.2
X101.679Y45.236
X101.689Y45.273
X101.7Y45.309
X101.711Y45.345
X109.255Y68.101
Y82.589
X98.46Y115.346
X98.448Y115.384
X98.437Y115.423
X98.427Y115.461
X98.418Y115.5
X98.41Y115.539
X98.403Y115.579
X98.396Y115.618
X98.391Y115.658
X98.387Y115.698
X98.384Y115.738
X98.382Y115.777
X98.381Y115.817
X98.38Y115.858
X98.381Y115.898
X98.383Y115.937
X98.386Y115.977
X98.39Y116.016
X98.394Y116.056
X98.4Y116.095
X98.407Y116.134
X98.415Y116.173
X98.423Y116.211
X98.433Y116.25
X98.444Y116.288
X98.455Y116.326
X98.468Y116.364
X98.481Y116.401
X98.495Y116.438
X98.511Y116.475
X98.527Y116.511
X98.544Y116.546
X98.562Y116.582
X98.581Y116.617
X98.6Y116.651
X98.621Y116.685
X98.642Y116.718
X98.664Y116.751
X98.687Y116.783
X98.711Y116.815
X98.735Y116.845
X98.76Y116.876
X98.786Y116.905
X98.813Y116.934
X98.84Y116.963
X98.868Y116.99
X98.897Y117.017
X98.926Y117.044
X98.956Y117.069
X98.987Y117.094
X99.019Y117.118
X99.051Y117.142
X99.083Y117.164
X99.117Y117.186
X99.15Y117.207
X99.184Y117.227
X99.219Y117.246
X99.256Y117.265
X99.293Y117.283
X99.33Y117.3
X99.399Y117.329
X99.421Y117.337
X99.46Y117.351
X99.5Y117.364
X99.54Y117.375
X99.58Y117.386
X99.62Y117.396
X99.661Y117.404
X99.702Y117.412
X99.74Y117.418
X99.778Y117.423
X99.817Y117.428
X99.855Y117.431
X99.894Y117.433
X99.933Y117.435
X99.971
X110.255
Y120.844
X110.256Y120.883
X110.257Y120.922
X110.26Y120.96
X110.263Y120.999
X110.267Y121.037
X110.272Y121.076
X110.278Y121.114
X110.285Y121.152
X110.293Y121.19
X110.302Y121.228
X110.312Y121.265
X110.323Y121.303
X110.371Y121.463
X110.382Y121.499
X110.394Y121.534
X110.408Y121.57
X110.421Y121.605
X110.436Y121.64
X110.452Y121.675
X110.468Y121.709
X110.485Y121.743
X110.567Y121.898
X110.584Y121.93
X110.601Y121.961
X110.62Y121.992
X110.639Y122.022
X110.659Y122.052
X110.679Y122.082
X110.701Y122.111
X110.722Y122.139
X110.82Y122.264
X110.847Y122.297
X110.874Y122.33
X110.903Y122.361
X110.932Y122.392
X110.962Y122.422
X110.992Y122.452
X111.024Y122.48
X111.056Y122.508
X111.227Y122.65
X111.258Y122.675
X111.289Y122.699
X111.322Y122.723
X111.354Y122.745
X111.388Y122.767
X111.422Y122.788
X111.456Y122.808
X111.491Y122.828
X111.526Y122.846
X111.562Y122.864
X111.78Y122.967
X111.816Y122.984
X111.854Y123
X111.891Y123.015
X111.93Y123.029
X111.968Y123.042
X112.007Y123.054
X112.045Y123.065
X112.085Y123.075
X112.272Y123.121
X112.313Y123.131
X112.353Y123.139
X112.394Y123.146
X112.435Y123.152
X112.476Y123.157
X112.517Y123.161
X112.739Y123.18
X112.772Y123.182
X112.805Y123.184
X112.838Y123.185
X112.871
X129.846
X129.887
X129.927Y123.183
X129.968Y123.18
X130.008Y123.177
X130.369Y123.14
X130.406Y123.136
X130.444Y123.13
X130.481Y123.124
X130.518Y123.117
X130.555Y123.11
X130.592Y123.101
X130.628Y123.091
X130.665Y123.081
X130.701Y123.07
X130.736Y123.058
X130.976Y122.973
X131.013Y122.959
X131.049Y122.945
X131.086Y122.93
X131.121Y122.913
X131.157Y122.896
X131.192Y122.878
X131.226Y122.859
X131.261Y122.84
X131.294Y122.819
X131.327Y122.798
X131.483Y122.694
X131.515Y122.672
X131.546Y122.65
X131.576Y122.627
X131.606Y122.604
X131.635Y122.579
X131.664Y122.554
X131.692Y122.528
X131.72Y122.502
X131.746Y122.475
X131.773Y122.447
X131.882Y122.329
X131.911Y122.296
X131.939Y122.263
X131.966Y122.229
X131.993Y122.195
X132.018Y122.159
X132.042Y122.123
X132.066Y122.086
X132.088Y122.049
X132.158Y121.928
X132.176Y121.896
X132.194Y121.864
X132.21Y121.831
X132.226Y121.798
X132.241Y121.765
X132.255Y121.731
X132.269Y121.697
X132.281Y121.663
X132.321Y121.55
X132.336Y121.508
X132.349Y121.466
X132.361Y121.422
X132.372Y121.379
X132.381Y121.335
X132.39Y121.292
X132.412Y121.168
X132.417Y121.132
X132.422Y121.096
X132.427Y121.06
X132.43Y121.023
X132.433Y120.987
X132.435Y120.95
X132.437Y120.873
Y120.844
Y112.844
Y112.805
X132.435Y112.766
X132.433Y112.727
X132.43Y112.688
X132.425Y112.649
X132.42Y112.611
X132.414Y112.572
X132.407Y112.534
X132.399Y112.496
X132.39Y112.458
X132.38Y112.42
X132.369Y112.383
X132.357Y112.345
X132.344Y112.308
X132.331Y112.272
X132.316Y112.236
X132.301Y112.2
X132.285Y112.164
X132.268Y112.129
X132.25Y112.095
X132.231Y112.06
X132.211Y112.027
X132.191Y111.993
X132.169Y111.961
X132.147Y111.929
X132.124Y111.897
X132.101Y111.866
X132.076Y111.835
X132.051Y111.806
X132.025Y111.776
X131.999Y111.748
X131.971Y111.719
X131.943Y111.692
X131.914Y111.665
X131.885Y111.639
X131.855Y111.614
X131.825Y111.59
X131.793Y111.566
X131.762Y111.543
X131.73Y111.521
X131.697Y111.5
X131.664Y111.479
X131.63Y111.46
X131.596Y111.441
X131.561Y111.423
X131.526Y111.406
X131.491Y111.389
X131.455Y111.374
X131.419Y111.36
X131.382Y111.346
X131.345Y111.333
X131.308Y111.322
X131.27Y111.311
X131.233Y111.301
X131.195Y111.292
X131.157Y111.284
X131.118Y111.276
X131.08Y111.27
X131.041Y111.265
X131.002Y111.261
X130.963Y111.257
X130.924Y111.255
X130.885Y111.254
X130.846Y111.253
X125.473
X122.921Y108.872
X120.433Y106.196
X118.757Y104
X118.215Y103.099
X117.839Y102.283
X117.116Y99.847
X116.643Y97.221
X116.341Y93.677
X116.332Y89.641
X116.677Y84.926
X116.924Y83.051
X116.928Y83.017
X116.931Y82.983
X116.934Y82.948
X116.936Y82.913
X116.937Y82.879
Y82.844
Y67.844
Y67.8
X116.935Y67.756
X116.932Y67.713
X116.928Y67.669
X116.444Y63.294
X116.286Y58.905
X116.446Y55.168
X116.918Y51.73
X117.316Y50.024
X117.823Y48.448
X118.488Y47.125
X119.932Y45.107
X122.135Y42.625
X124.754Y40.063
X125.455Y39.435
X130.846
X130.885
X130.924Y39.433
X130.963Y39.431
X131.002Y39.427
X131.041Y39.423
X131.08Y39.418
X131.118Y39.412
X131.157Y39.405
X131.195Y39.396
X131.233Y39.387
X131.27Y39.377
X131.308Y39.367
X131.345Y39.355
X131.382Y39.342
X131.419Y39.329
X131.455Y39.314
X131.491Y39.299
X131.526Y39.282
X131.561Y39.265
X131.596Y39.247
X131.63Y39.229
X131.664Y39.209
X131.697Y39.188
X131.73Y39.167
X131.762Y39.145
X131.793Y39.122
X131.825Y39.099
X131.855Y39.074
X131.885Y39.049
X131.914Y39.023
X131.943Y38.997
X131.972Y38.968
X131.999Y38.94
X132.025Y38.912
X132.051Y38.883
X132.076Y38.853
X132.101Y38.822
X132.124Y38.791
X132.147Y38.76
X132.169Y38.727
X132.191Y38.695
X132.211Y38.662
X132.231Y38.628
X132.25Y38.594
X132.268Y38.559
X132.285Y38.524
X132.301Y38.488
X132.316Y38.453
X132.331Y38.416
X132.344Y38.38
X132.357Y38.343
X132.369Y38.306
X132.38Y38.268
X132.39Y38.23
X132.399Y38.192
X132.407Y38.154
X132.414Y38.116
X132.42Y38.077
X132.425Y38.039
X132.43Y38
X132.433Y37.961
X132.435Y37.922
X132.437Y37.883
Y37.844
Y29.844
Y29.807
X132.436Y29.771
X132.434Y29.734
X132.431Y29.698
X132.427Y29.661
X132.422Y29.625
X132.404Y29.494
X132.398Y29.456
X132.391Y29.418
X132.384Y29.38
X132.375Y29.342
X132.366Y29.305
X132.355Y29.267
X132.344Y29.231
X132.332Y29.194
X132.286Y29.062
X132.274Y29.028
X132.261Y28.994
X132.248Y28.961
X132.233Y28.928
X132.218Y28.895
X132.202Y28.862
X132.185Y28.83
X132.168Y28.799
X132.105Y28.688
X132.084Y28.652
X132.062Y28.616
X132.039Y28.581
X132.014Y28.546
X131.989Y28.512
X131.964Y28.479
X131.937Y28.446
X131.909Y28.414
X131.79Y28.28
X131.764Y28.251
X131.737Y28.223
X131.71Y28.196
X131.681Y28.169
X131.652Y28.143
X131.622Y28.117
X131.592Y28.093
X131.561Y28.069
X131.53Y28.046
X131.498Y28.023
X131.337Y27.913
X131.306Y27.892
X131.274Y27.872
X131.242Y27.853
X131.21Y27.835
X131.177Y27.817
X131.144Y27.8
X131.11Y27.784
X131.076Y27.769
X131.042Y27.754
X131.007Y27.741
X130.787Y27.657
X130.744Y27.641
X130.701Y27.627
X130.657Y27.613
X130.614Y27.602
X130.569Y27.591
X130.525Y27.582
X130.353Y27.548
X130.307Y27.54
X130.261Y27.533
X130.215Y27.527
X130.168Y27.523
X129.967Y27.508
X129.937Y27.506
X129.907Y27.504
X129.877Y27.503
X129.846
X112.871
X112.837
X112.803Y27.505
X112.769Y27.506
X112.734Y27.509
X112.7Y27.512
X112.666Y27.516
X112.269Y27.568
X112.23Y27.573
X112.191Y27.58
X112.152Y27.588
X112.114Y27.596
X112.075Y27.606
X112.037Y27.616
X111.999Y27.627
X111.961Y27.64
X111.924Y27.653
X111.887Y27.667
X111.653Y27.76
X111.618Y27.775
X111.582Y27.79
X111.547Y27.806
X111.513Y27.824
X111.479Y27.842
X111.445Y27.861
X111.412Y27.88
X111.379Y27.901
X111.347Y27.922
X111.316Y27.944
X111.159Y28.056
X111.129Y28.078
X111.1Y28.1
X111.071Y28.123
X111.043Y28.147
X111.015Y28.172
X110.988Y28.197
X110.962Y28.222
X110.936Y28.249
X110.911Y28.276
X110.886Y28.303
X110.778Y28.427
X110.751Y28.459
X110.725Y28.491
X110.7Y28.523
X110.676Y28.557
X110.652Y28.591
X110.63Y28.626
X110.608Y28.661
X110.587Y28.697
X110.518Y28.82
X110.502Y28.851
X110.486Y28.881
X110.471Y28.912
X110.456Y28.944
X110.442Y28.976
X110.429Y29.008
X110.416Y29.04
X110.405Y29.072
X110.366Y29.183
X110.353Y29.22
X110.342Y29.258
X110.331Y29.296
X110.321Y29.334
X110.313Y29.372
X110.305Y29.411
X110.286Y29.509
X110.278Y29.555
X110.271Y29.601
X110.266Y29.647
X110.262Y29.693
X110.259Y29.731
X110.256Y29.788
X110.255Y29.844
Y43.253
X103.221
X103.181Y43.254
X103.14Y43.255
X103.1Y43.258
X103.06Y43.261
X103.02Y43.266
X102.98Y43.272
X102.939Y43.278
X102.901Y43.286
X102.862Y43.294
X102.824Y43.303
X102.786Y43.314
X102.749Y43.325
X102.711Y43.337
X102.674Y43.35
X102.638Y43.364
X102.602Y43.378
X102.561Y43.396
X102.537Y43.408
X102.512Y43.42
X102.48Y43.437
X102.447Y43.454
X102.415Y43.472
X102.384Y43.491
X102.353Y43.511
X102.322Y43.531
X102.292Y43.553
X102.261Y43.576
X102.23Y43.6
X102.199Y43.625
X102.169Y43.65
X102.14Y43.677
X102.112Y43.704
X102.084Y43.732
X102.057Y43.76
X102.03Y43.789
X102.005Y43.819
X101.98Y43.849
X101.956Y43.88
X101.921Y43.927
X101.888Y43.976
X101.862Y44.018
X101.842Y44.051
X101.823Y44.085
X101.805Y44.119
X101.788Y44.153
X101.772Y44.188
X101.756Y44.223
Z-0.7F5
X101.742Y44.259F10
X101.728Y44.295
X101.715Y44.331
X101.703Y44.368
X101.692Y44.405
X101.682Y44.442
X101.673Y44.48
X101.664Y44.517
X101.657Y44.555
X101.65Y44.593
X101.645Y44.631
X101.64Y44.669
X101.636Y44.708
X101.633Y44.746
X101.631Y44.785
X101.63Y44.823
Y44.862
X101.631Y44.901
X101.633Y44.939
X101.636Y44.976
X101.639Y45.014
X101.644Y45.051
X101.649Y45.088
X101.655Y45.126
X101.663Y45.163
X101.671Y45.2
X101.679Y45.236
X101.689Y45.273
X101.7Y45.309
X101.711Y45.345
X109.255Y68.101
Y82.589
X98.46Y115.346
X98.448Y115.384
X98.437Y115.423
X98.427Y115.461
X98.418Y115.5
X98.41Y115.539
X98.403Y115.579
X98.396Y115.618
X98.391Y115.658
X98.387Y115.698
X98.384Y115.738
X98.382Y115.777
X98.381Y115.817
X98.38Y115.858
X98.381Y115.898
X98.383Y115.937
X98.386Y115.977
X98.39Y116.016
X98.394Y116.056
X98.4Y116.095
X98.407Y116.134
X98.415Y116.173
X98.423Y116.211
X98.433Y116.25
X98.444Y116.288
X98.455Y116.326
X98.468Y116.364
X98.481Y116.401
X98.495Y116.438
X98.511Y116.475
X98.527Y116.511
X98.544Y116.546
X98.562Y116.582
X98.581Y116.617
X98.6Y116.651
X98.621Y116.685
X98.642Y116.718
X98.664Y116.751
X98.687Y116.783
X98.711Y116.815
X98.735Y116.845
X98.76Y116.876
X98.786Y116.905
X98.813Y116.934
X98.84Y116.963
X98.868Y116.99
X98.897Y117.017
X98.926Y117.044
X98.956Y117.069
X98.987Y117.094
X99.019Y117.118
X99.051Y117.142
X99.083Y117.164
X99.117Y117.186
X99.15Y117.207
X99.184Y117.227
X99.219Y117.246
X99.256Y117.265
X99.293Y117.283
X99.33Y117.3
X99.399Y117.329
X99.421Y117.337
X99.46Y117.351
X99.5Y117.364
X99.54Y117.375
X99.58Y117.386
X99.62Y117.396
X99.661Y117.404
X99.702Y117.412
X99.74Y117.418
X99.778Y117.423
X99.817Y117.428
X99.855Y117.431
X99.894Y117.433
X99.933Y117.435
X99.971
X110.255
Y120.844
X110.256Y120.883
X110.257Y120.922
X110.26Y120.96
X110.263Y120.999
X110.267Y121.037
X110.272Y121.076
X110.278Y121.114
X110.285Y121.152
X110.293Y121.19
X110.302Y121.228
X110.312Y121.265
X110.323Y121.303
X110.371Y121.463
X110.382Y121.499
X110.394Y121.534
X110.408Y121.57
X110.421Y121.605
X110.436Y121.64
X110.452Y121.675
X110.468Y121.709
X110.485Y121.743
X110.567Y121.898
X110.584Y121.93
X110.601Y121.961
X110.62Y121.992
X110.639Y122.022
X110.659Y122.052
X110.679Y122.082
X110.701Y122.111
X110.722Y122.139
X110.82Y122.264
X110.847Y122.297
X110.874Y122.33
X110.903Y122.361
X110.932Y122.392
X110.962Y122.422
X110.992Y122.452
X111.024Y122.48
X111.056Y122.508
X111.227Y122.65
X111.258Y122.675
X111.289Y122.699
X111.322Y122.723
X111.354Y122.745
X111.388Y122.767
X111.422Y122.788
X111.456Y122.808
X111.491Y122.828
X111.526Y122.846
X111.562Y122.864
X111.78Y122.967
X111.816Y122.984
X111.854Y123
X111.891Y123.015
X111.93Y123.029
X111.968Y123.042
X112.007Y123.054
X112.045Y123.065
X112.085Y123.075
X112.272Y123.121
X112.313Y123.131
X112.353Y123.139
X112.394Y123.146
X112.435Y123.152
X112.476Y123.157
X112.517Y123.161
X112.739Y123.18
X112.772Y123.182
X112.805Y123.184
X112.838Y123.185
X112.871
X129.846
X129.887
X129.927Y123.183
X129.968Y123.18
X130.008Y123.177
X130.369Y123.14
X130.406Y123.136
X130.444Y123.13
X130.481Y123.124
X130.518Y123.117
X130.555Y123.11
X130.592Y123.101
X130.628Y123.091
X130.665Y123.081
X130.701Y123.07
X130.736Y123.058
X130.976Y122.973
X131.013Y122.959
X131.049Y122.945
X131.086Y122.93
X131.121Y122.913
X131.157Y122.896
X131.192Y122.878
X131.226Y122.859
X131.261Y122.84
X131.294Y122.819
X131.327Y122.798
X131.483Y122.694
X131.515Y122.672
X131.546Y122.65
X131.576Y122.627
X131.606Y122.604
X131.635Y122.579
X131.664Y122.554
X131.692Y122.528
X131.72Y122.502
X131.746Y122.475
X131.773Y122.447
X131.882Y122.329
X131.911Y122.296
X131.939Y122.263
X131.966Y122.229
X131.993Y122.195
X132.018Y122.159
X132.042Y122.123
X132.066Y122.086
X132.088Y122.049
X132.158Y121.928
X132.176Y121.896
X132.194Y121.864
X132.21Y121.831
X132.226Y121.798
X132.241Y121.765
X132.255Y121.731
X132.269Y121.697
X132.281Y121.663
X132.321Y121.55
X132.336Y121.508
X132.349Y121.466
X132.361Y121.422
X132.372Y121.379
X132.381Y121.335
X132.39Y121.292
X132.412Y121.168
X132.417Y121.132
X132.422Y121.096
X132.427Y121.06
X132.43Y121.023
X132.433Y120.987
X132.435Y120.95
X132.437Y120.873
Y120.844
Y112.844
Y112.805
X132.435Y112.766
X132.433Y112.727
X132.43Y112.688
X132.425Y112.649
X132.42Y112.611
X132.414Y112.572
X132.407Y112.534
X132.399Y112.496
X132.39Y112.458
X132.38Y112.42
X132.369Y112.383
X132.357Y112.345
X132.344Y112.308
X132.331Y112.272
X132.316Y112.236
X132.301Y112.2
X132.285Y112.164
X132.268Y112.129
X132.25Y112.095
X132.231Y112.06
X132.211Y112.027
X132.191Y111.993
X132.169Y111.961
X132.147Y111.929
X132.124Y111.897
X132.101Y111.866
X132.076Y111.835
X132.051Y111.806
X132.025Y111.776
X131.999Y111.748
X131.971Y111.719
X131.943Y111.692
X131.914Y111.665
X131.885Y111.639
X131.855Y111.614
X131.825Y111.59
X131.793Y111.566
X131.762Y111.543
X131.73Y111.521
X131.697Y111.5
X131.664Y111.479
X131.63Y111.46
X131.596Y111.441
X131.561Y111.423
X131.526Y111.406
X131.491Y111.389
X131.455Y111.374
X131.419Y111.36
X131.382Y111.346
X131.345Y111.333
X131.308Y111.322
X131.27Y111.311
X131.233Y111.301
X131.195Y111.292
X131.157Y111.284
X131.118Y111.276
X131.08Y111.27
X131.041Y111.265
X131.002Y111.261
X130.963Y111.257
X130.924Y111.255
X130.885Y111.254
X130.846Y111.253
X125.473
X122.921Y108.872
X120.433Y106.196
X118.757Y104
X118.215Y103.099
X117.839Y102.283
X117.116Y99.847
X116.643Y97.221
X116.341Y93.677
X116.332Y89.641
X116.677Y84.926
X116.924Y83.051
X116.928Y83.017
X116.931Y82.983
X116.934Y82.948
X116.936Y82.913
X116.937Y82.879
Y82.844
Y67.844
Y67.8
X116.935Y67.756
X116.932Y67.713
X116.928Y67.669
X116.444Y63.294
X116.286Y58.905
X116.446Y55.168
X116.918Y51.73
X117.316Y50.024
X117.823Y48.448
X118.488Y47.125
X119.932Y45.107
X122.135Y42.625
X124.754Y40.063
X125.455Y39.435
X130.846
X130.885
X130.924Y39.433
X130.963Y39.431
X131.002Y39.427
X131.041Y39.423
X131.08Y39.418
X131.118Y39.412
X131.157Y39.405
X131.195Y39.396
X131.233Y39.387
X131.27Y39.377
X131.308Y39.367
X131.345Y39.355
X131.382Y39.342
X131.419Y39.329
X131.455Y39.314
X131.491Y39.299
X131.526Y39.282
X131.561Y39.265
X131.596Y39.247
X131.63Y39.229
X131.664Y39.209
X131.697Y39.188
X131.73Y39.167
X131.762Y39.145
X131.793Y39.122
X131.825Y39.099
X131.855Y39.074
X131.885Y39.049
X131.914Y39.023
X131.943Y38.997
X131.972Y38.968
X131.999Y38.94
X132.025Y38.912
X132.051Y38.883
X132.076Y38.853
X132.101Y38.822
X132.124Y38.791
X132.147Y38.76
X132.169Y38.727
X132.191Y38.695
X132.211Y38.662
X132.231Y38.628
X132.25Y38.594
X132.268Y38.559
X132.285Y38.524
X132.301Y38.488
X132.316Y38.453
X132.331Y38.416
X132.344Y38.38
X132.357Y38.343
X132.369Y38.306
X132.38Y38.268
X132.39Y38.23
X132.399Y38.192
X132.407Y38.154
X132.414Y38.116
X132.42Y38.077
X132.425Y38.039
X132.43Y38
X132.433Y37.961
X132.435Y37.922
X132.437Y37.883
Y37.844
Y29.844
Y29.807
X132.436Y29.771
X132.434Y29.734
X132.431Y29.698
X132.427Y29.661
X132.422Y29.625
X132.404Y29.494
X132.398Y29.456
X132.391Y29.418
X132.384Y29.38
X132.375Y29.342
X132.366Y29.305
X132.355Y29.267
X132.344Y29.231
X132.332Y29.194
X132.286Y29.062
X132.274Y29.028
X132.261Y28.994
X132.248Y28.961
X132.233Y28.928
X132.218Y28.895
X132.202Y28.862
X132.185Y28.83
X132.168Y28.799
X132.105Y28.688
X132.084Y28.652
X132.062Y28.616
X132.039Y28.581
X132.014Y28.546
X131.989Y28.512
X131.964Y28.479
X131.937Y28.446
X131.909Y28.414
X131.79Y28.28
X131.764Y28.251
X131.737Y28.223
X131.71Y28.196
X131.681Y28.169
X131.652Y28.143
X131.622Y28.117
X131.592Y28.093
X131.561Y28.069
X131.53Y28.046
X131.498Y28.023
X131.337Y27.913
X131.306Y27.892
X131.274Y27.872
X131.242Y27.853
X131.21Y27.835
X131.177Y27.817
X131.144Y27.8
X131.11Y27.784
X131.076Y27.769
X131.042Y27.754
X131.007Y27.741
X130.787Y27.657
X130.744Y27.641
X130.701Y27.627
X130.657Y27.613
X130.614Y27.602
X130.569Y27.591
X130.525Y27.582
X130.353Y27.548
X130.307Y27.54
X130.261Y27.533
X130.215Y27.527
X130.168Y27.523
X129.967Y27.508
X129.937Y27.506
X129.907Y27.504
X129.877Y27.503
X129.846
X112.871
X112.837
X112.803Y27.505
X112.769Y27.506
X112.734Y27.509
X112.7Y27.512
X112.666Y27.516
X112.269Y27.568
X112.23Y27.573
X112.191Y27.58
X112.152Y27.588
X112.114Y27.596
X112.075Y27.606
X112.037Y27.616
X111.999Y27.627
X111.961Y27.64
X111.924Y27.653
X111.887Y27.667
X111.653Y27.76
X111.618Y27.775
X111.582Y27.79
X111.547Y27.806
X111.513Y27.824
X111.479Y27.842
X111.445Y27.861
X111.412Y27.88
X111.379Y27.901
X111.347Y27.922
X111.316Y27.944
X111.159Y28.056
X111.129Y28.078
X111.1Y28.1
X111.071Y28.123
X111.043Y28.147
X111.015Y28.172
X110.988Y28.197
X110.962Y28.222
X110.936Y28.249
X110.911Y28.276
X110.886Y28.303
X110.778Y28.427
X110.751Y28.459
X110.725Y28.491
X110.7Y28.523
X110.676Y28.557
X110.652Y28.591
X110.63Y28.626
X110.608Y28.661
X110.587Y28.697
X110.518Y28.82
X110.502Y28.851
X110.486Y28.881
X110.471Y28.912
X110.456Y28.944
X110.442Y28.976
X110.429Y29.008
X110.416Y29.04
X110.405Y29.072
X110.366Y29.183
X110.353Y29.22
X110.342Y29.258
X110.331Y29.296
X110.321Y29.334
X110.313Y29.372
X110.305Y29.411
X110.286Y29.509
X110.278Y29.555
X110.271Y29.601
X110.266Y29.647
X110.262Y29.693
X110.259Y29.731
X110.256Y29.788
X110.255Y29.844
Y43.253
X103.221
X103.181Y43.254
X103.14Y43.255
X103.1Y43.258
X103.06Y43.261
X103.02Y43.266
X102.98Y43.272
X102.939Y43.278
X102.901Y43.286
X102.862Y43.294
X102.824Y43.303
X102.786Y43.314
X102.749Y43.325
X102.711Y43.337
X102.674Y43.35
X102.638Y43.364
X102.602Y43.378
X102.561Y43.396
X102.537Y43.408
X102.512Y43.42
X102.48Y43.437
X102.447Y43.454
X102.415Y43.472
X102.384Y43.491
X102.353Y43.511
X102.322Y43.531
X102.292Y43.553
X102.261Y43.576
X102.23Y43.6
X102.199Y43.625
X102.169Y43.65
X102.14Y43.677
X102.112Y43.704
X102.084Y43.732
X102.057Y43.76
X102.03Y43.789
X102.005Y43.819
X101.98Y43.849
X101.956Y43.88
X101.921Y43.927
X101.888Y43.976
X101.862Y44.018
X101.842Y44.051
X101.823Y44.085
X101.805Y44.119
X101.788Y44.153
X101.772Y44.188
X101.756Y44.223
Z-0.8F5
X101.742Y44.259F10
X101.728Y44.295
X101.715Y44.331
X101.703Y44.368
X101.692Y44.405
X101.682Y44.442
X101.673Y44.48
X101.664Y44.517
X101.657Y44.555
X101.65Y44.593
X101.645Y44.631
X101.64Y44.669
X101.636Y44.708
X101.633Y44.746
X101.631Y44.785
X101.63Y44.823
Y44.862
X101.631Y44.901
X101.633Y44.939
X101.636Y44.976
X101.639Y45.014
X101.644Y45.051
X101.649Y45.088
X101.655Y45.126
X101.663Y45.163
X101.671Y45.2
X101.679Y45.236
X101.689Y45.273
X101.7Y45.309
X101.711Y45.345
X109.255Y68.101
Y82.589
X98.46Y115.346
X98.448Y115.384
X98.437Y115.423
X98.427Y115.461
X98.418Y115.5
X98.41Y115.539
X98.403Y115.579
X98.396Y115.618
X98.391Y115.658
X98.387Y115.698
X98.384Y115.738
X98.382Y115.777
X98.381Y115.817
X98.38Y115.858
X98.381Y115.898
X98.383Y115.937
X98.386Y115.977
X98.39Y116.016
X98.394Y116.056
X98.4Y116.095
X98.407Y116.134
X98.415Y116.173
X98.423Y116.211
X98.433Y116.25
X98.444Y116.288
X98.455Y116.326
X98.468Y116.364
X98.481Y116.401
X98.495Y116.438
X98.511Y116.475
X98.527Y116.511
X98.544Y116.546
X98.562Y116.582
X98.581Y116.617
X98.6Y116.651
X98.621Y116.685
X98.642Y116.718
X98.664Y116.751
X98.687Y116.783
X98.711Y116.815
X98.735Y116.845
X98.76Y116.876
X98.786Y116.905
X98.813Y116.934
X98.84Y116.963
X98.868Y116.99
X98.897Y117.017
X98.926Y117.044
X98.956Y117.069
X98.987Y117.094
X99.019Y117.118
X99.051Y117.142
X99.083Y117.164
X99.117Y117.186
X99.15Y117.207
X99.184Y117.227
X99.219Y117.246
X99.256Y117.265
X99.293Y117.283
X99.33Y117.3
X99.399Y117.329
X99.421Y117.337
X99.46Y117.351
X99.5Y117.364
X99.54Y117.375
X99.58Y117.386
X99.62Y117.396
X99.661Y117.404
X99.702Y117.412
X99.74Y117.418
X99.778Y117.423
X99.817Y117.428
X99.855Y117.431
X99.894Y117.433
X99.933Y117.435
X99.971
X110.255
Y120.844
X110.256Y120.883
X110.257Y120.922
X110.26Y120.96
X110.263Y120.999
X110.267Y121.037
X110.272Y121.076
X110.278Y121.114
X110.285Y121.152
X110.293Y121.19
X110.302Y121.228
X110.312Y121.265
X110.323Y121.303
X110.371Y121.463
X110.382Y121.499
X110.394Y121.534
X110.408Y121.57
X110.421Y121.605
X110.436Y121.64
X110.452Y121.675
X110.468Y121.709
X110.485Y121.743
X110.567Y121.898
X110.584Y121.93
X110.601Y121.961
X110.62Y121.992
X110.639Y122.022
X110.659Y122.052
X110.679Y122.082
X110.701Y122.111
X110.722Y122.139
X110.82Y122.264
X110.847Y122.297
X110.874Y122.33
X110.903Y122.361
X110.932Y122.392
X110.962Y122.422
X110.992Y122.452
X111.024Y122.48
X111.056Y122.508
X111.227Y122.65
X111.258Y122.675
X111.289Y122.699
X111.322Y122.723
X111.354Y122.745
X111.388Y122.767
X111.422Y122.788
X111.456Y122.808
X111.491Y122.828
X111.526Y122.846
X111.562Y122.864
X111.78Y122.967
X111.816Y122.984
X111.854Y123
X111.891Y123.015
X111.93Y123.029
X111.968Y123.042
X112.007Y123.054
X112.045Y123.065
X112.085Y123.075
X112.272Y123.121
X112.313Y123.131
X112.353Y123.139
X112.394Y123.146
X112.435Y123.152
X112.476Y123.157
X112.517Y123.161
X112.739Y123.18
X112.772Y123.182
X112.805Y123.184
X112.838Y123.185
X112.871
X129.846
X129.887
X129.927Y123.183
X129.968Y123.18
X130.008Y123.177
X130.369Y123.14
X130.406Y123.136
X130.444Y123.13
X130.481Y123.124
X130.518Y123.117
X130.555Y123.11
X130.592Y123.101
X130.628Y123.091
X130.665Y123.081
X130.701Y123.07
X130.736Y123.058
X130.976Y122.973
X131.013Y122.959
X131.049Y122.945
X131.086Y122.93
X131.121Y122.913
X131.157Y122.896
X131.192Y122.878
X131.226Y122.859
X131.261Y122.84
X131.294Y122.819
X131.327Y122.798
X131.483Y122.694
X131.515Y122.672
X131.546Y122.65
X131.576Y122.627
X131.606Y122.604
X131.635Y122.579
X131.664Y122.554
X131.692Y122.528
X131.72Y122.502
X131.746Y122.475
X131.773Y122.447
X131.882Y122.329
X131.911Y122.296
X131.939Y122.263
X131.966Y122.229
X131.993Y122.195
X132.018Y122.159
X132.042Y122.123
X132.066Y122.086
X132.088Y122.049
X132.158Y121.928
X132.176Y121.896
X132.194Y121.864
X132.21Y121.831
X132.226Y121.798
X132.241Y121.765
X132.255Y121.731
X132.269Y121.697
X132.281Y121.663
X132.321Y121.55
X132.336Y121.508
X132.349Y121.466
X132.361Y121.422
X132.372Y121.379
X132.381Y121.335
X132.39Y121.292
X132.412Y121.168
X132.417Y121.132
X132.422Y121.096
X132.427Y121.06
X132.43Y121.023
X132.433Y120.987
X132.435Y120.95
X132.437Y120.873
Y120.844
Y112.844
Y112.805
X132.435Y112.766
X132.433Y112.727
X132.43Y112.688
X132.425Y112.649
X132.42Y112.611
X132.414Y112.572
X132.407Y112.534
X132.399Y112.496
X132.39Y112.458
X132.38Y112.42
X132.369Y112.383
X132.357Y112.345
X132.344Y112.308
X132.331Y112.272
X132.316Y112.236
X132.301Y112.2
X132.285Y112.164
X132.268Y112.129
X132.25Y112.095
X132.231Y112.06
X132.211Y112.027
X132.191Y111.993
X132.169Y111.961
X132.147Y111.929
X132.124Y111.897
X132.101Y111.866
X132.076Y111.835
X132.051Y111.806
X132.025Y111.776
X131.999Y111.748
X131.971Y111.719
X131.943Y111.692
X131.914Y111.665
X131.885Y111.639
X131.855Y111.614
X131.825Y111.59
X131.793Y111.566
X131.762Y111.543
X131.73Y111.521
X131.697Y111.5
X131.664Y111.479
X131.63Y111.46
X131.596Y111.441
X131.561Y111.423
X131.526Y111.406
X131.491Y111.389
X131.455Y111.374
X131.419Y111.36
X131.382Y111.346
X131.345Y111.333
X131.308Y111.322
X131.27Y111.311
X131.233Y111.301
X131.195Y111.292
X131.157Y111.284
X131.118Y111.276
X131.08Y111.27
X131.041Y111.265
X131.002Y111.261
X130.963Y111.257
X130.924Y111.255
X130.885Y111.254
X130.846Y111.253
X125.473
X122.921Y108.872
X120.433Y106.196
X118.757Y104
X118.215Y103.099
X117.839Y102.283
X117.116Y99.847
X116.643Y97.221
X116.341Y93.677
X116.332Y89.641
X116.677Y84.926
X116.924Y83.051
X116.928Y83.017
X116.931Y82.983
X116.934Y82.948
X116.936Y82.913
X116.937Y82.879
Y82.844
Y67.844
Y67.8
X116.935Y67.756
X116.932Y67.713
X116.928Y67.669
X116.444Y63.294
X116.286Y58.905
X116.446Y55.168
X116.918Y51.73
X117.316Y50.024
X117.823Y48.448
X118.488Y47.125
X119.932Y45.107
X122.135Y42.625
X124.754Y40.063
X125.455Y39.435
X130.846
X130.885
X130.924Y39.433
X130.963Y39.431
X131.002Y39.427
X131.041Y39.423
X131.08Y39.418
X131.118Y39.412
X131.157Y39.405
X131.195Y39.396
X131.233Y39.387
X131.27Y39.377
X131.308Y39.367
X131.345Y39.355
X131.382Y39.342
X131.419Y39.329
X131.455Y39.314
X131.491Y39.299
X131.526Y39.282
X131.561Y39.265
X131.596Y39.247
X131.63Y39.229
X131.664Y39.209
X131.697Y39.188
X131.73Y39.167
X131.762Y39.145
X131.793Y39.122
X131.825Y39.099
X131.855Y39.074
X131.885Y39.049
X131.914Y39.023
X131.943Y38.997
X131.972Y38.968
X131.999Y38.94
X132.025Y38.912
X132.051Y38.883
X132.076Y38.853
X132.101Y38.822
X132.124Y38.791
X132.147Y38.76
X132.169Y38.727
X132.191Y38.695
X132.211Y38.662
X132.231Y38.628
X132.25Y38.594
X132.268Y38.559
X132.285Y38.524
X132.301Y38.488
X132.316Y38.453
X132.331Y38.416
X132.344Y38.38
X132.357Y38.343
X132.369Y38.306
X132.38Y38.268
X132.39Y38.23
X132.399Y38.192
X132.407Y38.154
X132.414Y38.116
X132.42Y38.077
X132.425Y38.039
X132.43Y38
X132.433Y37.961
X132.435Y37.922
X132.437Y37.883
Y37.844
Y29.844
Y29.807
X132.436Y29.771
X132.434Y29.734
X132.431Y29.698
X132.427Y29.661
X132.422Y29.625
X132.404Y29.494
X132.398Y29.456
X132.391Y29.418
X132.384Y29.38
X132.375Y29.342
X132.366Y29.305
X132.355Y29.267
X132.344Y29.231
X132.332Y29.194
X132.286Y29.062
X132.274Y29.028
X132.261Y28.994
X132.248Y28.961
X132.233Y28.928
X132.218Y28.895
X132.202Y28.862
X132.185Y28.83
X132.168Y28.799
X132.105Y28.688
X132.084Y28.652
X132.062Y28.616
X132.039Y28.581
X132.014Y28.546
X131.989Y28.512
X131.964Y28.479
X131.937Y28.446
X131.909Y28.414
X131.79Y28.28
X131.764Y28.251
X131.737Y28.223
X131.71Y28.196
X131.681Y28.169
X131.652Y28.143
X131.622Y28.117
X131.592Y28.093
X131.561Y28.069
X131.53Y28.046
X131.498Y28.023
X131.337Y27.913
X131.306Y27.892
X131.274Y27.872
X131.242Y27.853
X131.21Y27.835
X131.177Y27.817
X131.144Y27.8
X131.11Y27.784
X131.076Y27.769
X131.042Y27.754
X131.007Y27.741
X130.787Y27.657
X130.744Y27.641
X130.701Y27.627
X130.657Y27.613
X130.614Y27.602
X130.569Y27.591
X130.525Y27.582
X130.353Y27.548
X130.307Y27.54
X130.261Y27.533
X130.215Y27.527
X130.168Y27.523
X129.967Y27.508
X129.937Y27.506
X129.907Y27.504
X129.877Y27.503
X129.846
X112.871
X112.837
X112.803Y27.505
X112.769Y27.506
X112.734Y27.509
X112.7Y27.512
X112.666Y27.516
X112.269Y27.568
X112.23Y27.573
X112.191Y27.58
X112.152Y27.588
X112.114Y27.596
X112.075Y27.606
X112.037Y27.616
X111.999Y27.627
X111.961Y27.64
X111.924Y27.653
X111.887Y27.667
X111.653Y27.76
X111.618Y27.775
X111.582Y27.79
X111.547Y27.806
X111.513Y27.824
X111.479Y27.842
X111.445Y27.861
X111.412Y27.88
X111.379Y27.901
X111.347Y27.922
X111.316Y27.944
X111.159Y28.056
X111.129Y28.078
X111.1Y28.1
X111.071Y28.123
X111.043Y28.147
X111.015Y28.172
X110.988Y28.197
X110.962Y28.222
X110.936Y28.249
X110.911Y28.276
X110.886Y28.303
X110.778Y28.427
X110.751Y28.459
X110.725Y28.491
X110.7Y28.523
X110.676Y28.557
X110.652Y28.591
X110.63Y28.626
X110.608Y28.661
X110.587Y28.697
X110.518Y28.82
X110.502Y28.851
X110.486Y28.881
X110.471Y28.912
X110.456Y28.944
X110.442Y28.976
X110.429Y29.008
X110.416Y29.04
X110.405Y29.072
X110.366Y29.183
X110.353Y29.22
X110.342Y29.258
X110.331Y29.296
X110.321Y29.334
X110.313Y29.372
X110.305Y29.411
X110.286Y29.509
X110.278Y29.555
X110.271Y29.601
X110.266Y29.647
X110.262Y29.693
X110.259Y29.731
X110.256Y29.788
X110.255Y29.844
Y43.253
X103.221
X103.181Y43.254
X103.14Y43.255
X103.1Y43.258
X103.06Y43.261
X103.02Y43.266
X102.98Y43.272
X102.939Y43.278
X102.901Y43.286
X102.862Y43.294
X102.824Y43.303
X102.786Y43.314
X102.749Y43.325
X102.711Y43.337
X102.674Y43.35
X102.638Y43.364
X102.602Y43.378
X102.561Y43.396
X102.537Y43.408
X102.512Y43.42
X102.48Y43.437
X102.447Y43.454
X102.415Y43.472
X102.384Y43.491
X102.353Y43.511
X102.322Y43.531
X102.292Y43.553
X102.261Y43.576
X102.23Y43.6
X102.199Y43.625
X102.169Y43.65
X102.14Y43.677
X102.112Y43.704
X102.084Y43.732
X102.057Y43.76
X102.03Y43.789
X102.005Y43.819
X101.98Y43.849
X101.956Y43.88
X101.921Y43.927
X101.888Y43.976
X101.862Y44.018
X101.842Y44.051
X101.823Y44.085
X101.805Y44.119
X101.788Y44.153
X101.772Y44.188
X101.756Y44.223
Z-0.9F5
X101.742Y44.259F10
X101.728Y44.295
X101.715Y44.331
X101.703Y44.368
X101.692Y44.405
X101.682Y44.442
X101.673Y44.48
X101.664Y44.517
X101.657Y44.555
X101.65Y44.593
X101.645Y44.631
X101.64Y44.669
X101.636Y44.708
X101.633Y44.746
X101.631Y44.785
X101.63Y44.823
Y44.862
X101.631Y44.901
X101.633Y44.939
X101.636Y44.976
X101.639Y45.014
X101.644Y45.051
X101.649Y45.088
X101.655Y45.126
X101.663Y45.163
X101.671Y45.2
X101.679Y45.236
X101.689Y45.273
X101.7Y45.309
X101.711Y45.345
X109.255Y68.101
Y82.589
X98.46Y115.346
X98.448Y115.384
X98.437Y115.423
X98.427Y115.461
X98.418Y115.5
X98.41Y115.539
X98.403Y115.579
X98.396Y115.618
X98.391Y115.658
X98.387Y115.698
X98.384Y115.738
X98.382Y115.777
X98.381Y115.817
X98.38Y115.858
X98.381Y115.898
X98.383Y115.937
X98.386Y115.977
X98.39Y116.016
X98.394Y116.056
X98.4Y116.095
X98.407Y116.134
X98.415Y116.173
X98.423Y116.211
X98.433Y116.25
X98.444Y116.288
X98.455Y116.326
X98.468Y116.364
X98.481Y116.401
X98.495Y116.438
X98.511Y116.475
X98.527Y116.511
X98.544Y116.546
X98.562Y116.582
X98.581Y116.617
X98.6Y116.651
X98.621Y116.685
X98.642Y116.718
X98.664Y116.751
X98.687Y116.783
X98.711Y116.815
X98.735Y116.845
X98.76Y116.876
X98.786Y116.905
X98.813Y116.934
X98.84Y116.963
X98.868Y116.99
X98.897Y117.017
X98.926Y117.044
X98.956Y117.069
X98.987Y117.094
X99.019Y117.118
X99.051Y117.142
X99.083Y117.164
X99.117Y117.186
X99.15Y117.207
X99.184Y117.227
X99.219Y117.246
X99.256Y117.265
X99.293Y117.283
X99.33Y117.3
X99.399Y117.329
X99.421Y117.337
X99.46Y117.351
X99.5Y117.364
X99.54Y117.375
X99.58Y117.386
X99.62Y117.396
X99.661Y117.404
X99.702Y117.412
X99.74Y117.418
X99.778Y117.423
X99.817Y117.428
X99.855Y117.431
X99.894Y117.433
X99.933Y117.435
X99.971
X110.255
Y120.844
X110.256Y120.883
X110.257Y120.922
X110.26Y120.96
X110.263Y120.999
X110.267Y121.037
X110.272Y121.076
X110.278Y121.114
X110.285Y121.152
X110.293Y121.19
X110.302Y121.228
X110.312Y121.265
X110.323Y121.303
X110.371Y121.463
X110.382Y121.499
X110.394Y121.534
X110.408Y121.57
X110.421Y121.605
X110.436Y121.64
X110.452Y121.675
X110.468Y121.709
X110.485Y121.743
X110.567Y121.898
X110.584Y121.93
X110.601Y121.961
X110.62Y121.992
X110.639Y122.022
X110.659Y122.052
X110.679Y122.082
X110.701Y122.111
X110.722Y122.139
X110.82Y122.264
X110.847Y122.297
X110.874Y122.33
X110.903Y122.361
X110.932Y122.392
X110.962Y122.422
X110.992Y122.452
X111.024Y122.48
X111.056Y122.508
X111.227Y122.65
X111.258Y122.675
X111.289Y122.699
X111.322Y122.723
X111.354Y122.745
X111.388Y122.767
X111.422Y122.788
X111.456Y122.808
X111.491Y122.828
X111.526Y122.846
X111.562Y122.864
X111.78Y122.967
X111.816Y122.984
X111.854Y123
X111.891Y123.015
X111.93Y123.029
X111.968Y123.042
X112.007Y123.054
X112.045Y123.065
X112.085Y123.075
X112.272Y123.121
X112.313Y123.131
X112.353Y123.139
X112.394Y123.146
X112.435Y123.152
X112.476Y123.157
X112.517Y123.161
X112.739Y123.18
X112.772Y123.182
X112.805Y123.184
X112.838Y123.185
X112.871
X129.846
X129.887
X129.927Y123.183
X129.968Y123.18
X130.008Y123.177
X130.369Y123.14
X130.406Y123.136
X130.444Y123.13
X130.481Y123.124
X130.518Y123.117
X130.555Y123.11
X130.592Y123.101
X130.628Y123.091
X130.665Y123.081
X130.701Y123.07
X130.736Y123.058
X130.976Y122.973
X131.013Y122.959
X131.049Y122.945
X131.086Y122.93
X131.121Y122.913
X131.157Y122.896
X131.192Y122.878
X131.226Y122.859
X131.261Y122.84
X131.294Y122.819
X131.327Y122.798
X131.483Y122.694
X131.515Y122.672
X131.546Y122.65
X131.576Y122.627
X131.606Y122.604
X131.635Y122.579
X131.664Y122.554
X131.692Y122.528
X131.72Y122.502
X131.746Y122.475
X131.773Y122.447
X131.882Y122.329
X131.911Y122.296
X131.939Y122.263
X131.966Y122.229
X131.993Y122.195
X132.018Y122.159
X132.042Y122.123
X132.066Y122.086
X132.088Y122.049
X132.158Y121.928
X132.176Y121.896
X132.194Y121.864
X132.21Y121.831
X132.226Y121.798
X132.241Y121.765
X132.255Y121.731
X132.269Y121.697
X132.281Y121.663
X132.321Y121.55
X132.336Y121.508
X132.349Y121.466
X132.361Y121.422
X132.372Y121.379
X132.381Y121.335
X132.39Y121.292
X132.412Y121.168
X132.417Y121.132
X132.422Y121.096
X132.427Y121.06
X132.43Y121.023
X132.433Y120.987
X132.435Y120.95
X132.437Y120.873
Y120.844
Y112.844
Y112.805
X132.435Y112.766
X132.433Y112.727
X132.43Y112.688
X132.425Y112.649
X132.42Y112.611
X132.414Y112.572
X132.407Y112.534
X132.399Y112.496
X132.39Y112.458
X132.38Y112.42
X132.369Y112.383
X132.357Y112.345
X132.344Y112.308
X132.331Y112.272
X132.316Y112.236
X132.301Y112.2
X132.285Y112.164
X132.268Y112.129
X132.25Y112.095
X132.231Y112.06
X132.211Y112.027
X132.191Y111.993
X132.169Y111.961
X132.147Y111.929
X132.124Y111.897
X132.101Y111.866
X132.076Y111.835
X132.051Y111.806
X132.025Y111.776
X131.999Y111.748
X131.971Y111.719
X131.943Y111.692
X131.914Y111.665
X131.885Y111.639
X131.855Y111.614
X131.825Y111.59
X131.793Y111.566
X131.762Y111.543
X131.73Y111.521
X131.697Y111.5
X131.664Y111.479
X131.63Y111.46
X131.596Y111.441
X131.561Y111.423
X131.526Y111.406
X131.491Y111.389
X131.455Y111.374
X131.419Y111.36
X131.382Y111.346
X131.345Y111.333
X131.308Y111.322
X131.27Y111.311
X131.233Y111.301
X131.195Y111.292
X131.157Y111.284
X131.118Y111.276
X131.08Y111.27
X131.041Y111.265
X131.002Y111.261
X130.963Y111.257
X130.924Y111.255
X130.885Y111.254
X130.846Y111.253
X125.473
X122.921Y108.872
X120.433Y106.196
X118.757Y104
X118.215Y103.099
X117.839Y102.283
X117.116Y99.847
X116.643Y97.221
X116.341Y93.677
X116.332Y89.641
X116.677Y84.926
X116.924Y83.051
X116.928Y83.017
X116.931Y82.983
X116.934Y82.948
X116.936Y82.913
X116.937Y82.879
Y82.844
Y67.844
Y67.8
X116.935Y67.756
X116.932Y67.713
X116.928Y67.669
X116.444Y63.294
X116.286Y58.905
X116.446Y55.168
X116.918Y51.73
X117.316Y50.024
X117.823Y48.448
X118.488Y47.125
X119.932Y45.107
X122.135Y42.625
X124.754Y40.063
X125.455Y39.435
X130.846
X130.885
X130.924Y39.433
X130.963Y39.431
X131.002Y39.427
X131.041Y39.423
X131.08Y39.418
X131.118Y39.412
X131.157Y39.405
X131.195Y39.396
X131.233Y39.387
X131.27Y39.377
X131.308Y39.367
X131.345Y39.355
X131.382Y39.342
X131.419Y39.329
X131.455Y39.314
X131.491Y39.299
X131.526Y39.282
X131.561Y39.265
X131.596Y39.247
X131.63Y39.229
X131.664Y39.209
X131.697Y39.188
X131.73Y39.167
X131.762Y39.145
X131.793Y39.122
X131.825Y39.099
X131.855Y39.074
X131.885Y39.049
X131.914Y39.023
X131.943Y38.997
X131.972Y38.968
X131.999Y38.94
X132.025Y38.912
X132.051Y38.883
X132.076Y38.853
X132.101Y38.822
X132.124Y38.791
X132.147Y38.76
X132.169Y38.727
X132.191Y38.695
X132.211Y38.662
X132.231Y38.628
X132.25Y38.594
X132.268Y38.559
X132.285Y38.524
X132.301Y38.488
X132.316Y38.453
X132.331Y38.416
X132.344Y38.38
X132.357Y38.343
X132.369Y38.306
X132.38Y38.268
X132.39Y38.23
X132.399Y38.192
X132.407Y38.154
X132.414Y38.116
X132.42Y38.077
X132.425Y38.039
X132.43Y38
X132.433Y37.961
X132.435Y37.922
X132.437Y37.883
Y37.844
Y29.844
Y29.807
X132.436Y29.771
X132.434Y29.734
X132.431Y29.698
X132.427Y29.661
X132.422Y29.625
X132.404Y29.494
X132.398Y29.456
X132.391Y29.418
X132.384Y29.38
X132.375Y29.342
X132.366Y29.305
X132.355Y29.267
X132.344Y29.231
X132.332Y29.194
X132.286Y29.062
X132.274Y29.028
X132.261Y28.994
X132.248Y28.961
X132.233Y28.928
X132.218Y28.895
X132.202Y28.862
X132.185Y28.83
X132.168Y28.799
X132.105Y28.688
X132.084Y28.652
X132.062Y28.616
X132.039Y28.581
X132.014Y28.546
X131.989Y28.512
X131.964Y28.479
X131.937Y28.446
X131.909Y28.414
X131.79Y28.28
X131.764Y28.251
X131.737Y28.223
X131.71Y28.196
X131.681Y28.169
X131.652Y28.143
X131.622Y28.117
X131.592Y28.093
X131.561Y28.069
X131.53Y28.046
X131.498Y28.023
X131.337Y27.913
X131.306Y27.892
X131.274Y27.872
X131.242Y27.853
X131.21Y27.835
X131.177Y27.817
X131.144Y27.8
X131.11Y27.784
X131.076Y27.769
X131.042Y27.754
X131.007Y27.741
X130.787Y27.657
X130.744Y27.641
X130.701Y27.627
X130.657Y27.613
X130.614Y27.602
X130.569Y27.591
X130.525Y27.582
X130.353Y27.548
X130.307Y27.54
X130.261Y27.533
X130.215Y27.527
X130.168Y27.523
X129.967Y27.508
X129.937Y27.506
X129.907Y27.504
X129.877Y27.503
X129.846
X112.871
X112.837
X112.803Y27.505
X112.769Y27.506
X112.734Y27.509
X112.7Y27.512
X112.666Y27.516
X112.269Y27.568
X112.23Y27.573
X112.191Y27.58
X112.152Y27.588
X112.114Y27.596
X112.075Y27.606
X112.037Y27.616
X111.999Y27.627
X111.961Y27.64
X111.924Y27.653
X111.887Y27.667
X111.653Y27.76
X111.618Y27.775
X111.582Y27.79
X111.547Y27.806
X111.513Y27.824
X111.479Y27.842
X111.445Y27.861
X111.412Y27.88
X111.379Y27.901
X111.347Y27.922
X111.316Y27.944
X111.159Y28.056
X111.129Y28.078
X111.1Y28.1
X111.071Y28.123
X111.043Y28.147
X111.015Y28.172
X110.988Y28.197
X110.962Y28.222
X110.936Y28.249
X110.911Y28.276
X110.886Y28.303
X110.778Y28.427
X110.751Y28.459
X110.725Y28.491
X110.7Y28.523
X110.676Y28.557
X110.652Y28.591
X110.63Y28.626
X110.608Y28.661
X110.587Y28.697
X110.518Y28.82
X110.502Y28.851
X110.486Y28.881
X110.471Y28.912
X110.456Y28.944
X110.442Y28.976
X110.429Y29.008
X110.416Y29.04
X110.405Y29.072
X110.366Y29.183
X110.353Y29.22
X110.342Y29.258
X110.331Y29.296
X110.321Y29.334
X110.313Y29.372
X110.305Y29.411
X110.286Y29.509
X110.278Y29.555
X110.271Y29.601
X110.266Y29.647
X110.262Y29.693
X110.259Y29.731
X110.256Y29.788
X110.255Y29.844
Y43.253
X103.221
X103.181Y43.254
X103.14Y43.255
X103.1Y43.258
X103.06Y43.261
X103.02Y43.266
X102.98Y43.272
X102.939Y43.278
X102.901Y43.286
X102.862Y43.294
X102.824Y43.303
X102.786Y43.314
X102.749Y43.325
X102.711Y43.337
X102.674Y43.35
X102.638Y43.364
X102.602Y43.378
X102.561Y43.396
X102.537Y43.408
X102.512Y43.42
X102.48Y43.437
X102.447Y43.454
X102.415Y43.472
X102.384Y43.491
X102.353Y43.511
X102.322Y43.531
X102.292Y43.553
X102.261Y43.576
X102.23Y43.6
X102.199Y43.625
X102.169Y43.65
X102.14Y43.677
X102.112Y43.704
X102.084Y43.732
X102.057Y43.76
X102.03Y43.789
X102.005Y43.819
X101.98Y43.849
X101.956Y43.88
X101.921Y43.927
X101.888Y43.976
X101.862Y44.018
X101.842Y44.051
X101.823Y44.085
X101.805Y44.119
X101.788Y44.153
X101.772Y44.188
X101.756Y44.223
Z-1F5
X101.742Y44.259F10
X101.728Y44.295
X101.715Y44.331
X101.703Y44.368
X101.692Y44.405
X101.682Y44.442
X101.673Y44.48
X101.664Y44.517
X101.657Y44.555
X101.65Y44.593
X101.645Y44.631
X101.64Y44.669
X101.636Y44.708
X101.633Y44.746
X101.631Y44.785
X101.63Y44.823
Y44.862
X101.631Y44.901
X101.633Y44.939
X101.636Y44.976
X101.639Y45.014
X101.644Y45.051
X101.649Y45.088
X101.655Y45.126
X101.663Y45.163
X101.671Y45.2
X101.679Y45.236
X101.689Y45.273
X101.7Y45.309
X101.711Y45.345
X109.255Y68.101
Y82.589
X98.46Y115.346
X98.448Y115.384
X98.437Y115.423
X98.427Y115.461
X98.418Y115.5
X98.41Y115.539
X98.403Y115.579
X98.396Y115.618
X98.391Y115.658
X98.387Y115.698
X98.384Y115.738
X98.382Y115.777
X98.381Y115.817
X98.38Y115.858
X98.381Y115.898
X98.383Y115.937
X98.386Y115.977
X98.39Y116.016
X98.394Y116.056
X98.4Y116.095
X98.407Y116.134
X98.415Y116.173
X98.423Y116.211
X98.433Y116.25
X98.444Y116.288
X98.455Y116.326
X98.468Y116.364
X98.481Y116.401
X98.495Y116.438
X98.511Y116.475
X98.527Y116.511
X98.544Y116.546
X98.562Y116.582
X98.581Y116.617
X98.6Y116.651
X98.621Y116.685
X98.642Y116.718
X98.664Y116.751
X98.687Y116.783
X98.711Y116.815
X98.735Y116.845
X98.76Y116.876
X98.786Y116.905
X98.813Y116.934
X98.84Y116.963
X98.868Y116.99
X98.897Y117.017
X98.926Y117.044
X98.956Y117.069
X98.987Y117.094
X99.019Y117.118
X99.051Y117.142
X99.083Y117.164
X99.117Y117.186
X99.15Y117.207
X99.184Y117.227
X99.219Y117.246
X99.256Y117.265
X99.293Y117.283
X99.33Y117.3
X99.399Y117.329
X99.421Y117.337
X99.46Y117.351
X99.5Y117.364
X99.54Y117.375
X99.58Y117.386
X99.62Y117.396
X99.661Y117.404
X99.702Y117.412
X99.74Y117.418
X99.778Y117.423
X99.817Y117.428
X99.855Y117.431
X99.894Y117.433
X99.933Y117.435
X99.971
X110.255
Y120.844
X110.256Y120.883
X110.257Y120.922
X110.26Y120.96
X110.263Y120.999
X110.267Y121.037
X110.272Y121.076
X110.278Y121.114
X110.285Y121.152
X110.293Y121.19
X110.302Y121.228
X110.312Y121.265
X110.323Y121.303
X110.371Y121.463
X110.382Y121.499
X110.394Y121.534
X110.408Y121.57
X110.421Y121.605
X110.436Y121.64
X110.452Y121.675
X110.468Y121.709
X110.485Y121.743
X110.567Y121.898
X110.584Y121.93
X110.601Y121.961
X110.62Y121.992
X110.639Y122.022
X110.659Y122.052
X110.679Y122.082
X110.701Y122.111
X110.722Y122.139
X110.82Y122.264
X110.847Y122.297
X110.874Y122.33
X110.903Y122.361
X110.932Y122.392
X110.962Y122.422
X110.992Y122.452
X111.024Y122.48
X111.056Y122.508
X111.227Y122.65
X111.258Y122.675
X111.289Y122.699
X111.322Y122.723
X111.354Y122.745
X111.388Y122.767
X111.422Y122.788
X111.456Y122.808
X111.491Y122.828
X111.526Y122.846
X111.562Y122.864
X111.78Y122.967
X111.816Y122.984
X111.854Y123
X111.891Y123.015
X111.93Y123.029
X111.968Y123.042
X112.007Y123.054
X112.045Y123.065
X112.085Y123.075
X112.272Y123.121
X112.313Y123.131
X112.353Y123.139
X112.394Y123.146
X112.435Y123.152
X112.476Y123.157
X112.517Y123.161
X112.739Y123.18
X112.772Y123.182
X112.805Y123.184
X112.838Y123.185
X112.871
X129.846
X129.887
X129.927Y123.183
X129.968Y123.18
X130.008Y123.177
X130.369Y123.14
X130.406Y123.136
X130.444Y123.13
X130.481Y123.124
X130.518Y123.117
X130.555Y123.11
X130.592Y123.101
X130.628Y123.091
X130.665Y123.081
X130.701Y123.07
X130.736Y123.058
X130.976Y122.973
X131.013Y122.959
X131.049Y122.945
X131.086Y122.93
X131.121Y122.913
X131.157Y122.896
X131.192Y122.878
X131.226Y122.859
X131.261Y122.84
X131.294Y122.819
X131.327Y122.798
X131.483Y122.694
X131.515Y122.672
X131.546Y122.65
X131.576Y122.627
X131.606Y122.604
X131.635Y122.579
X131.664Y122.554
X131.692Y122.528
X131.72Y122.502
X131.746Y122.475
X131.773Y122.447
X131.882Y122.329
X131.911Y122.296
X131.939Y122.263
X131.966Y122.229
X131.993Y122.195
X132.018Y122.159
X132.042Y122.123
X132.066Y122.086
X132.088Y122.049
X132.158Y121.928
X132.176Y121.896
X132.194Y121.864
X132.21Y121.831
X132.226Y121.798
X132.241Y121.765
X132.255Y121.731
X132.269Y121.697
X132.281Y121.663
X132.321Y121.55
X132.336Y121.508
X132.349Y121.466
X132.361Y121.422
X132.372Y121.379
X132.381Y121.335
X132.39Y121.292
X132.412Y121.168
X132.417Y121.132
X132.422Y121.096
X132.427Y121.06
X132.43Y121.023
X132.433Y120.987
X132.435Y120.95
X132.437Y120.873
Y120.844
Y112.844
Y112.805
X132.435Y112.766
X132.433Y112.727
X132.43Y112.688
X132.425Y112.649
X132.42Y112.611
X132.414Y112.572
X132.407Y112.534
X132.399Y112.496
X132.39Y112.458
X132.38Y112.42
X132.369Y112.383
X132.357Y112.345
X132.344Y112.308
X132.331Y112.272
X132.316Y112.236
X132.301Y112.2
X132.285Y112.164
X132.268Y112.129
X132.25Y112.095
X132.231Y112.06
X132.211Y112.027
X132.191Y111.993
X132.169Y111.961
X132.147Y111.929
X132.124Y111.897
X132.101Y111.866
X132.076Y111.835
X132.051Y111.806
X132.025Y111.776
X131.999Y111.748
X131.971Y111.719
X131.943Y111.692
X131.914Y111.665
X131.885Y111.639
X131.855Y111.614
X131.825Y111.59
X131.793Y111.566
X131.762Y111.543
X131.73Y111.521
X131.697Y111.5
X131.664Y111.479
X131.63Y111.46
X131.596Y111.441
X131.561Y111.423
X131.526Y111.406
X131.491Y111.389
X131.455Y111.374
X131.419Y111.36
X131.382Y111.346
X131.345Y111.333
X131.308Y111.322
X131.27Y111.311
X131.233Y111.301
X131.195Y111.292
X131.157Y111.284
X131.118Y111.276
X131.08Y111.27
X131.041Y111.265
X131.002Y111.261
X130.963Y111.257
X130.924Y111.255
X130.885Y111.254
X130.846Y111.253
X125.473
X122.921Y108.872
X120.433Y106.196
X118.757Y104
X118.215Y103.099
X117.839Y102.283
X117.116Y99.847
X116.643Y97.221
X116.341Y93.677
X116.332Y89.641
X116.677Y84.926
X116.924Y83.051
X116.928Y83.017
X116.931Y82.983
X116.934Y82.948
X116.936Y82.913
X116.937Y82.879
Y82.844
Y67.844
Y67.8
X116.935Y67.756
X116.932Y67.713
X116.928Y67.669
X116.444Y63.294
X116.286Y58.905
X116.446Y55.168
X116.918Y51.73
X117.316Y50.024
X117.823Y48.448
X118.488Y47.125
X119.932Y45.107
X122.135Y42.625
X124.754Y40.063
X125.455Y39.435
X130.846
X130.885
X130.924Y39.433
X130.963Y39.431
X131.002Y39.427
X131.041Y39.423
X131.08Y39.418
X131.118Y39.412
X131.157Y39.405
X131.195Y39.396
X131.233Y39.387
X131.27Y39.377
X131.308Y39.367
X131.345Y39.355
X131.382Y39.342
X131.419Y39.329
X131.455Y39.314
X131.491Y39.299
X131.526Y39.282
X131.561Y39.265
X131.596Y39.247
X131.63Y39.229
X131.664Y39.209
X131.697Y39.188
X131.73Y39.167
X131.762Y39.145
X131.793Y39.122
X131.825Y39.099
X131.855Y39.074
X131.885Y39.049
X131.914Y39.023
X131.943Y38.997
X131.972Y38.968
X131.999Y38.94
X132.025Y38.912
X132.051Y38.883
X132.076Y38.853
X132.101Y38.822
X132.124Y38.791
X132.147Y38.76
X132.169Y38.727
X132.191Y38.695
X132.211Y38.662
X132.231Y38.628
X132.25Y38.594
X132.268Y38.559
X132.285Y38.524
X132.301Y38.488
X132.316Y38.453
X132.331Y38.416
X132.344Y38.38
X132.357Y38.343
X132.369Y38.306
X132.38Y38.268
X132.39Y38.23
X132.399Y38.192
X132.407Y38.154
X132.414Y38.116
X132.42Y38.077
X132.425Y38.039
X132.43Y38
X132.433Y37.961
X132.435Y37.922
X132.437Y37.883
Y37.844
Y29.844
Y29.807
X132.436Y29.771
X132.434Y29.734
X132.431Y29.698
X132.427Y29.661
X132.422Y29.625
X132.404Y29.494
X132.398Y29.456
X132.391Y29.418
X132.384Y29.38
X132.375Y29.342
X132.366Y29.305
X132.355Y29.267
X132.344Y29.231
X132.332Y29.194
X132.286Y29.062
X132.274Y29.028
X132.261Y28.994
X132.248Y28.961
X132.233Y28.928
X132.218Y28.895
X132.202Y28.862
X132.185Y28.83
X132.168Y28.799
X132.105Y28.688
X132.084Y28.652
X132.062Y28.616
X132.039Y28.581
X132.014Y28.546
X131.989Y28.512
X131.964Y28.479
X131.937Y28.446
X131.909Y28.414
X131.79Y28.28
X131.764Y28.251
X131.737Y28.223
X131.71Y28.196
X131.681Y28.169
X131.652Y28.143
X131.622Y28.117
X131.592Y28.093
X131.561Y28.069
X131.53Y28.046
X131.498Y28.023
X131.337Y27.913
X131.306Y27.892
X131.274Y27.872
X131.242Y27.853
X131.21Y27.835
X131.177Y27.817
X131.144Y27.8
X131.11Y27.784
X131.076Y27.769
X131.042Y27.754
X131.007Y27.741
X130.787Y27.657
X130.744Y27.641
X130.701Y27.627
X130.657Y27.613
X130.614Y27.602
X130.569Y27.591
X130.525Y27.582
X130.353Y27.548
X130.307Y27.54
X130.261Y27.533
X130.215Y27.527
X130.168Y27.523
X129.967Y27.508
X129.937Y27.506
X129.907Y27.504
X129.877Y27.503
X129.846
X112.871
X112.837
X112.803Y27.505
X112.769Y27.506
X112.734Y27.509
X112.7Y27.512
X112.666Y27.516
X112.269Y27.568
X112.23Y27.573
X112.191Y27.58
X112.152Y27.588
X112.114Y27.596
X112.075Y27.606
X112.037Y27.616
X111.999Y27.627
X111.961Y27.64
X111.924Y27.653
X111.887Y27.667
X111.653Y27.76
X111.618Y27.775
X111.582Y27.79
X111.547Y27.806
X111.513Y27.824
X111.479Y27.842
X111.445Y27.861
X111.412Y27.88
X111.379Y27.901
X111.347Y27.922
X111.316Y27.944
X111.159Y28.056
X111.129Y28.078
X111.1Y28.1
X111.071Y28.123
X111.043Y28.147
X111.015Y28.172
X110.988Y28.197
X110.962Y28.222
X110.936Y28.249
X110.911Y28.276
X110.886Y28.303
X110.778Y28.427
X110.751Y28.459
X110.725Y28.491
X110.7Y28.523
X110.676Y28.557
X110.652Y28.591
X110.63Y28.626
X110.608Y28.661
X110.587Y28.697
X110.518Y28.82
X110.502Y28.851
X110.486Y28.881
X110.471Y28.912
X110.456Y28.944
X110.442Y28.976
X110.429Y29.008
X110.416Y29.04
X110.405Y29.072
X110.366Y29.183
X110.353Y29.22
X110.342Y29.258
X110.331Y29.296
X110.321Y29.334
X110.313Y29.372
X110.305Y29.411
X110.286Y29.509
X110.278Y29.555
X110.271Y29.601
X110.266Y29.647
X110.262Y29.693
X110.259Y29.731
X110.256Y29.788
X110.255Y29.844
Y43.253
X103.221
X103.181Y43.254
X103.14Y43.255
X103.1Y43.258
X103.06Y43.261
X103.02Y43.266
X102.98Y43.272
X102.939Y43.278
X102.901Y43.286
X102.862Y43.294
X102.824Y43.303
X102.786Y43.314
X102.749Y43.325
X102.711Y43.337
X102.674Y43.35
X102.638Y43.364
X102.602Y43.378
X102.561Y43.396
X102.537Y43.408
X102.512Y43.42
X102.48Y43.437
X102.447Y43.454
X102.415Y43.472
X102.384Y43.491
X102.353Y43.511
X102.322Y43.531
X102.292Y43.553
X102.261Y43.576
X102.23Y43.6
X102.199Y43.625
X102.169Y43.65
X102.14Y43.677
X102.112Y43.704
X102.084Y43.732
X102.057Y43.76
X102.03Y43.789
X102.005Y43.819
X101.98Y43.849
X101.956Y43.88
X101.921Y43.927
X101.888Y43.976
X101.862Y44.018
X101.842Y44.051
X101.823Y44.085
X101.805Y44.119
X101.788Y44.153
X101.772Y44.188
X101.756Y44.223
Z-1.1F5
X101.742Y44.259F10
X101.728Y44.295
X101.715Y44.331
X101.703Y44.368
X101.692Y44.405
X101.682Y44.442
X101.673Y44.48
X101.664Y44.517
X101.657Y44.555
X101.65Y44.593
X101.645Y44.631
X101.64Y44.669
X101.636Y44.708
X101.633Y44.746
X101.631Y44.785
X101.63Y44.823
Y44.862
X101.631Y44.901
X101.633Y44.939
X101.636Y44.976
X101.639Y45.014
X101.644Y45.051
X101.649Y45.088
X101.655Y45.126
X101.663Y45.163
X101.671Y45.2
X101.679Y45.236
X101.689Y45.273
X101.7Y45.309
X101.711Y45.345
X109.255Y68.101
Y82.589
X98.46Y115.346
X98.448Y115.384
X98.437Y115.423
X98.427Y115.461
X98.418Y115.5
X98.41Y115.539
X98.403Y115.579
X98.396Y115.618
X98.391Y115.658
X98.387Y115.698
X98.384Y115.738
X98.382Y115.777
X98.381Y115.817
X98.38Y115.858
X98.381Y115.898
X98.383Y115.937
X98.386Y115.977
X98.39Y116.016
X98.394Y116.056
X98.4Y116.095
X98.407Y116.134
X98.415Y116.173
X98.423Y116.211
X98.433Y116.25
X98.444Y116.288
X98.455Y116.326
X98.468Y116.364
X98.481Y116.401
X98.495Y116.438
X98.511Y116.475
X98.527Y116.511
X98.544Y116.546
X98.562Y116.582
X98.581Y116.617
X98.6Y116.651
X98.621Y116.685
X98.642Y116.718
X98.664Y116.751
X98.687Y116.783
X98.711Y116.815
X98.735Y116.845
X98.76Y116.876
X98.786Y116.905
X98.813Y116.934
X98.84Y116.963
X98.868Y116.99
X98.897Y117.017
X98.926Y117.044
X98.956Y117.069
X98.987Y117.094
X99.019Y117.118
X99.051Y117.142
X99.083Y117.164
X99.117Y117.186
X99.15Y117.207
X99.184Y117.227
X99.219Y117.246
X99.256Y117.265
X99.293Y117.283
X99.33Y117.3
X99.399Y117.329
X99.421Y117.337
X99.46Y117.351
X99.5Y117.364
X99.54Y117.375
X99.58Y117.386
X99.62Y117.396
X99.661Y117.404
X99.702Y117.412
X99.74Y117.418
X99.778Y117.423
X99.817Y117.428
X99.855Y117.431
X99.894Y117.433
X99.933Y117.435
X99.971
X110.255
Y120.844
X110.256Y120.883
X110.257Y120.922
X110.26Y120.96
X110.263Y120.999
X110.267Y121.037
X110.272Y121.076
X110.278Y121.114
X110.285Y121.152
X110.293Y121.19
X110.302Y121.228
X110.312Y121.265
X110.323Y121.303
X110.371Y121.463
X110.382Y121.499
X110.394Y121.534
X110.408Y121.57
X110.421Y121.605
X110.436Y121.64
X110.452Y121.675
X110.468Y121.709
X110.485Y121.743
X110.567Y121.898
X110.584Y121.93
X110.601Y121.961
X110.62Y121.992
X110.639Y122.022
X110.659Y122.052
X110.679Y122.082
X110.701Y122.111
X110.722Y122.139
X110.82Y122.264
X110.847Y122.297
X110.874Y122.33
X110.903Y122.361
X110.932Y122.392
X110.962Y122.422
X110.992Y122.452
X111.024Y122.48
X111.056Y122.508
X111.227Y122.65
X111.258Y122.675
X111.289Y122.699
X111.322Y122.723
X111.354Y122.745
X111.388Y122.767
X111.422Y122.788
X111.456Y122.808
X111.491Y122.828
X111.526Y122.846
X111.562Y122.864
X111.78Y122.967
X111.816Y122.984
X111.854Y123
X111.891Y123.015
X111.93Y123.029
X111.968Y123.042
X112.007Y123.054
X112.045Y123.065
X112.085Y123.075
X112.272Y123.121
X112.313Y123.131
X112.353Y123.139
X112.394Y123.146
X112.435Y123.152
X112.476Y123.157
X112.517Y123.161
X112.739Y123.18
X112.772Y123.182
X112.805Y123.184
X112.838Y123.185
X112.871
X129.846
X129.887
X129.927Y123.183
X129.968Y123.18
X130.008Y123.177
X130.369Y123.14
X130.406Y123.136
X130.444Y123.13
X130.481Y123.124
X130.518Y123.117
X130.555Y123.11
X130.592Y123.101
X130.628Y123.091
X130.665Y123.081
