(Created with grbl post processor 2024/11/24 13:46)
G21
(G-code generated with BlenderCAM and NC library)
G17G90
(Tool: D = 3.18 mm  type END flutes 2)
S1000M03
G00 Z1.0

G0X0Y0Z1
X72.979Y32.672
G1Z-0.1F5
X72.963Y32.707F10
X72.949Y32.743
X72.935Y32.779
X72.922Y32.815
X72.91Y32.852
X72.899Y32.889
X72.889Y32.926
X72.88Y32.963
X72.871Y33.001
X72.864Y33.039
X72.857Y33.077
X72.852Y33.115
X72.847Y33.153
X72.843Y33.192
X72.84Y33.23
X72.838Y33.269
X72.837Y33.307
Y33.346
X72.838Y33.385
X72.84Y33.422
X72.843Y33.46
X72.846Y33.498
X72.851Y33.535
X72.856Y33.572
X72.862Y33.609
X72.87Y33.647
X72.878Y33.683
X72.886Y33.72
X72.896Y33.756
X72.907Y33.793
X72.918Y33.829
X80.462Y56.585
Y71.073
X69.667Y103.83
X69.655Y103.868
X69.644Y103.906
X69.634Y103.945
X69.625Y103.984
X69.617Y104.023
X69.61Y104.063
X69.603Y104.102
X69.598Y104.142
X69.594Y104.181
X69.591Y104.221
X69.589Y104.261
X69.588Y104.301
X69.587Y104.342
X69.588Y104.382
X69.59Y104.421
X69.593Y104.461
X69.597Y104.5
X69.601Y104.539
X69.607Y104.579
X69.614Y104.618
X69.622Y104.657
X69.63Y104.695
X69.64Y104.734
X69.65Y104.772
X69.662Y104.81
X69.675Y104.847
X69.688Y104.885
X69.702Y104.922
X69.718Y104.958
X69.734Y104.995
X69.751Y105.03
X69.769Y105.066
X69.787Y105.101
X69.807Y105.135
X69.828Y105.169
X69.849Y105.202
X69.871Y105.235
X69.894Y105.267
X69.917Y105.298
X69.942Y105.329
X69.967Y105.36
X69.993Y105.389
X70.02Y105.418
X70.047Y105.447
X70.075Y105.474
X70.104Y105.501
X70.133Y105.528
X70.163Y105.553
X70.194Y105.578
X70.226Y105.602
X70.258Y105.626
X70.29Y105.648
X70.323Y105.67
X70.357Y105.691
X70.391Y105.711
X70.426Y105.73
X70.463Y105.749
X70.5Y105.767
X70.537Y105.784
X70.606Y105.813
X70.628Y105.821
X70.667Y105.835
X70.707Y105.847
X70.746Y105.859
X70.787Y105.87
X70.827Y105.88
X70.868Y105.888
X70.909Y105.896
X70.947Y105.902
X70.985Y105.907
X71.024Y105.911
X71.062Y105.915
X71.101Y105.917
X71.14Y105.918
X71.178Y105.919
X81.462
Y109.328
X81.463Y109.367
X81.464Y109.405
X81.467Y109.444
X81.47Y109.483
X81.474Y109.521
X81.479Y109.56
X81.485Y109.598
X81.492Y109.636
X81.5Y109.674
X81.509Y109.712
X81.519Y109.749
X81.53Y109.786
X81.578Y109.946
X81.589Y109.982
X81.601Y110.018
X81.614Y110.054
X81.628Y110.089
X81.643Y110.124
X81.659Y110.159
X81.675Y110.193
X81.692Y110.226
X81.774Y110.382
X81.791Y110.413
X81.808Y110.445
X81.827Y110.475
X81.846Y110.506
X81.866Y110.536
X81.886Y110.565
X81.908Y110.594
X81.929Y110.623
X82.027Y110.748
X82.054Y110.781
X82.081Y110.814
X82.109Y110.845
X82.139Y110.876
X82.169Y110.906
X82.199Y110.935
X82.231Y110.964
X82.263Y110.991
X82.434Y111.133
X82.465Y111.159
X82.496Y111.183
X82.529Y111.206
X82.561Y111.229
X82.595Y111.251
X82.629Y111.272
X82.663Y111.292
X82.698Y111.312
X82.733Y111.33
X82.769Y111.348
X82.987Y111.451
X83.023Y111.468
X83.061Y111.484
X83.098Y111.499
X83.136Y111.513
X83.175Y111.526
X83.213Y111.538
X83.252Y111.549
X83.292Y111.559
X83.479Y111.605
X83.52Y111.614
X83.56Y111.623
X83.601Y111.63
X83.642Y111.636
X83.683Y111.641
X83.724Y111.645
X83.946Y111.663
X83.979Y111.666
X84.012Y111.668
X84.045Y111.669
X84.078
X101.053
X101.094Y111.668
X101.134Y111.667
X101.175Y111.664
X101.215Y111.661
X101.576Y111.624
X101.613Y111.619
X101.651Y111.614
X101.688Y111.608
X101.725Y111.601
X101.762Y111.593
X101.799Y111.585
X101.835Y111.575
X101.872Y111.565
X101.908Y111.553
X101.943Y111.541
X102.183Y111.457
X102.22Y111.443
X102.256Y111.429
X102.293Y111.414
X102.328Y111.397
X102.364Y111.38
X102.399Y111.362
X102.433Y111.343
X102.467Y111.323
X102.501Y111.303
X102.534Y111.282
X102.69Y111.178
X102.722Y111.156
X102.753Y111.134
X102.783Y111.111
X102.813Y111.087
X102.842Y111.063
X102.871Y111.038
X102.899Y111.012
X102.927Y110.986
X102.953Y110.959
X102.979Y110.931
X103.089Y110.813
X103.118Y110.78
X103.146Y110.747
X103.173Y110.713
X103.2Y110.678
X103.225Y110.643
X103.249Y110.607
X103.273Y110.57
X103.295Y110.533
X103.365Y110.412
X103.383Y110.38
X103.401Y110.348
X103.417Y110.315
X103.433Y110.282
X103.448Y110.249
X103.462Y110.215
X103.475Y110.181
X103.488Y110.147
X103.528Y110.034
X103.543Y109.992
X103.556Y109.949
X103.568Y109.906
X103.579Y109.863
X103.588Y109.819
X103.597Y109.775
X103.618Y109.652
X103.624Y109.616
X103.629Y109.58
X103.634Y109.543
X103.637Y109.507
X103.64Y109.471
X103.641Y109.434
X103.644Y109.357
Y109.328
Y101.328
Y101.289
X103.642Y101.25
X103.64Y101.211
X103.637Y101.172
X103.632Y101.133
X103.627Y101.095
X103.621Y101.056
X103.614Y101.018
X103.606Y100.98
X103.597Y100.942
X103.587Y100.904
X103.576Y100.866
X103.564Y100.829
X103.551Y100.792
X103.538Y100.756
X103.523Y100.719
X103.508Y100.684
X103.492Y100.648
X103.474Y100.613
X103.457Y100.578
X103.438Y100.544
X103.418Y100.51
X103.398Y100.477
X103.376Y100.445
X103.354Y100.412
X103.331Y100.381
X103.308Y100.35
X103.283Y100.319
X103.258Y100.289
X103.232Y100.26
X103.206Y100.232
X103.178Y100.203
X103.15Y100.175
X103.121Y100.149
X103.092Y100.123
X103.062Y100.098
X103.031Y100.073
X103Y100.05
X102.969Y100.027
X102.937Y100.005
X102.904Y99.984
X102.871Y99.963
X102.837Y99.943
X102.803Y99.925
X102.768Y99.907
X102.733Y99.89
X102.698Y99.873
X102.662Y99.858
X102.626Y99.843
X102.589Y99.83
X102.552Y99.817
X102.515Y99.805
X102.477Y99.794
X102.44Y99.785
X102.402Y99.776
X102.363Y99.767
X102.325Y99.76
X102.287Y99.754
X102.248Y99.749
X102.209Y99.745
X102.17Y99.741
X102.131Y99.739
X102.092Y99.737
X102.053
X96.68
X94.128Y97.356
X91.64Y94.68
X89.964Y92.484
X89.422Y91.583
X89.046Y90.766
X88.323Y88.331
X87.85Y85.705
X87.548Y82.161
X87.539Y78.125
X87.884Y73.409
X88.131Y71.535
X88.135Y71.501
X88.138Y71.466
X88.141Y71.432
X88.143Y71.397
X88.144Y71.363
Y71.328
Y56.328
Y56.284
X88.142Y56.24
X88.139Y56.197
X88.135Y56.153
X87.65Y51.778
X87.493Y47.389
X87.653Y43.652
X88.125Y40.213
X88.523Y38.508
X89.03Y36.932
X89.695Y35.608
X91.139Y33.591
X93.342Y31.109
X95.961Y28.547
X96.662Y27.919
X102.053
X102.092Y27.918
X102.131Y27.917
X102.17Y27.915
X102.209Y27.911
X102.248Y27.907
X102.287Y27.902
X102.325Y27.895
X102.363Y27.888
X102.402Y27.88
X102.44Y27.871
X102.477Y27.861
X102.515Y27.85
X102.552Y27.839
X102.589Y27.826
X102.626Y27.812
X102.662Y27.798
X102.698Y27.782
X102.733Y27.766
X102.768Y27.749
X102.803Y27.731
X102.837Y27.712
X102.871Y27.693
X102.904Y27.672
X102.937Y27.651
X102.969Y27.629
X103Y27.606
X103.031Y27.582
X103.062Y27.558
X103.092Y27.533
X103.121Y27.507
X103.15Y27.48
X103.179Y27.452
X103.206Y27.424
X103.232Y27.396
X103.258Y27.366
X103.283Y27.337
X103.308Y27.306
X103.331Y27.275
X103.354Y27.243
X103.376Y27.211
X103.398Y27.179
X103.418Y27.145
X103.438Y27.112
X103.457Y27.077
X103.475Y27.043
X103.492Y27.008
X103.508Y26.972
X103.523Y26.936
X103.538Y26.9
X103.551Y26.864
X103.564Y26.827
X103.576Y26.789
X103.587Y26.752
X103.597Y26.714
X103.606Y26.676
X103.614Y26.638
X103.621Y26.6
X103.627Y26.561
X103.632Y26.523
X103.637Y26.484
X103.64Y26.445
X103.642Y26.406
X103.644Y26.367
Y26.328
Y18.328
Y18.291
X103.643Y18.255
X103.64Y18.218
X103.638Y18.181
X103.634Y18.145
X103.629Y18.109
X103.611Y17.978
X103.605Y17.94
X103.598Y17.902
X103.591Y17.864
X103.582Y17.826
X103.573Y17.789
X103.562Y17.751
X103.551Y17.714
X103.539Y17.678
X103.493Y17.546
X103.481Y17.512
X103.468Y17.478
X103.454Y17.445
X103.44Y17.411
X103.425Y17.379
X103.409Y17.346
X103.392Y17.314
X103.375Y17.282
X103.312Y17.172
X103.291Y17.135
X103.269Y17.1
X103.246Y17.064
X103.221Y17.03
X103.196Y16.996
X103.171Y16.962
X103.144Y16.93
X103.116Y16.898
X102.997Y16.764
X102.971Y16.735
X102.944Y16.707
X102.917Y16.68
X102.888Y16.653
X102.859Y16.626
X102.829Y16.601
X102.799Y16.576
X102.768Y16.552
X102.737Y16.529
X102.705Y16.507
X102.544Y16.397
X102.513Y16.376
X102.481Y16.356
X102.449Y16.337
X102.417Y16.319
X102.384Y16.301
X102.351Y16.284
X102.317Y16.268
X102.283Y16.253
X102.249Y16.238
X102.214Y16.224
X101.994Y16.14
X101.951Y16.125
X101.908Y16.11
X101.864Y16.097
X101.821Y16.085
X101.776Y16.075
X101.732Y16.065
X101.56Y16.032
X101.514Y16.024
X101.468Y16.017
X101.422Y16.011
X101.375Y16.007
X101.174Y15.991
X101.144Y15.989
X101.114Y15.988
X101.084Y15.987
X101.053
X84.078
X84.044
X84.01Y15.988
X83.976Y15.99
X83.941Y15.993
X83.907Y15.996
X83.873Y16
X83.476Y16.052
X83.437Y16.057
X83.398Y16.064
X83.359Y16.071
X83.321Y16.08
X83.282Y16.089
X83.244Y16.1
X83.206Y16.111
X83.168Y16.123
X83.131Y16.137
X83.094Y16.151
X82.86Y16.244
X82.824Y16.258
X82.789Y16.274
X82.754Y16.29
X82.72Y16.307
X82.686Y16.326
X82.652Y16.344
X82.619Y16.364
X82.586Y16.384
X82.554Y16.406
X82.523Y16.428
X82.366Y16.54
X82.336Y16.561
X82.307Y16.584
X82.278Y16.607
X82.25Y16.631
X82.222Y16.655
X82.195Y16.681
X82.169Y16.706
X82.143Y16.733
X82.118Y16.759
X82.093Y16.787
X81.985Y16.911
X81.958Y16.942
X81.932Y16.974
X81.907Y17.007
X81.882Y17.041
X81.859Y17.075
X81.837Y17.11
X81.815Y17.145
X81.794Y17.181
X81.725Y17.304
X81.709Y17.334
X81.693Y17.365
X81.678Y17.396
X81.663Y17.428
X81.649Y17.459
X81.636Y17.491
X81.623Y17.524
X81.612Y17.556
X81.573Y17.666
X81.56Y17.704
X81.549Y17.741
X81.538Y17.779
X81.528Y17.818
X81.52Y17.856
X81.512Y17.895
X81.493Y17.993
X81.485Y18.039
X81.478Y18.085
X81.473Y18.131
X81.469Y18.177
X81.466Y18.215
X81.463Y18.271
X81.462Y18.328
Y31.737
X74.428
X74.388
X74.347Y31.739
X74.307Y31.742
X74.267Y31.745
X74.227Y31.75
X74.187Y31.755
X74.146Y31.762
X74.108Y31.77
X74.069Y31.778
X74.031Y31.787
X73.993Y31.797
X73.956Y31.809
X73.918Y31.821
X73.881Y31.834
X73.845Y31.848
X73.809Y31.862
X73.768Y31.88
X73.744Y31.891
X73.719Y31.904
X73.687Y31.92
X73.654Y31.938
X73.622Y31.956
X73.591Y31.975
X73.56Y31.995
X73.529Y32.015
X73.499Y32.036
X73.467Y32.06
X73.436Y32.084
X73.406Y32.109
X73.376Y32.134
X73.347Y32.161
X73.319Y32.188
X73.291Y32.215
X73.264Y32.244
X73.237Y32.273
X73.212Y32.303
X73.187Y32.333
X73.163Y32.364
X73.128Y32.411
X73.095Y32.46
X73.069Y32.502
X73.049Y32.535
X73.03Y32.568
X73.012Y32.603
X72.995Y32.637
X72.979Y32.672
Z-0.2F5
X72.963Y32.707F10
X72.949Y32.743
X72.935Y32.779
X72.922Y32.815
X72.91Y32.852
X72.899Y32.889
X72.889Y32.926
X72.88Y32.963
X72.871Y33.001
X72.864Y33.039
X72.857Y33.077
X72.852Y33.115
X72.847Y33.153
X72.843Y33.192
X72.84Y33.23
X72.838Y33.269
X72.837Y33.307
Y33.346
X72.838Y33.385
X72.84Y33.422
X72.843Y33.46
X72.846Y33.498
X72.851Y33.535
X72.856Y33.572
X72.862Y33.609
X72.87Y33.647
X72.878Y33.683
X72.886Y33.72
X72.896Y33.756
X72.907Y33.793
X72.918Y33.829
X80.462Y56.585
Y71.073
X69.667Y103.83
X69.655Y103.868
X69.644Y103.906
X69.634Y103.945
X69.625Y103.984
X69.617Y104.023
X69.61Y104.063
X69.603Y104.102
X69.598Y104.142
X69.594Y104.181
X69.591Y104.221
X69.589Y104.261
X69.588Y104.301
X69.587Y104.342
X69.588Y104.382
X69.59Y104.421
X69.593Y104.461
X69.597Y104.5
X69.601Y104.539
X69.607Y104.579
X69.614Y104.618
X69.622Y104.657
X69.63Y104.695
X69.64Y104.734
X69.65Y104.772
X69.662Y104.81
X69.675Y104.847
X69.688Y104.885
X69.702Y104.922
X69.718Y104.958
X69.734Y104.995
X69.751Y105.03
X69.769Y105.066
X69.787Y105.101
X69.807Y105.135
X69.828Y105.169
X69.849Y105.202
X69.871Y105.235
X69.894Y105.267
X69.917Y105.298
X69.942Y105.329
X69.967Y105.36
X69.993Y105.389
X70.02Y105.418
X70.047Y105.447
X70.075Y105.474
X70.104Y105.501
X70.133Y105.528
X70.163Y105.553
X70.194Y105.578
X70.226Y105.602
X70.258Y105.626
X70.29Y105.648
X70.323Y105.67
X70.357Y105.691
X70.391Y105.711
X70.426Y105.73
X70.463Y105.749
X70.5Y105.767
X70.537Y105.784
X70.606Y105.813
X70.628Y105.821
X70.667Y105.835
X70.707Y105.847
X70.746Y105.859
X70.787Y105.87
X70.827Y105.88
X70.868Y105.888
X70.909Y105.896
X70.947Y105.902
X70.985Y105.907
X71.024Y105.911
X71.062Y105.915
X71.101Y105.917
X71.14Y105.918
X71.178Y105.919
X81.462
Y109.328
X81.463Y109.367
X81.464Y109.405
X81.467Y109.444
X81.47Y109.483
X81.474Y109.521
X81.479Y109.56
X81.485Y109.598
X81.492Y109.636
X81.5Y109.674
X81.509Y109.712
X81.519Y109.749
X81.53Y109.786
X81.578Y109.946
X81.589Y109.982
X81.601Y110.018
X81.614Y110.054
X81.628Y110.089
X81.643Y110.124
X81.659Y110.159
X81.675Y110.193
X81.692Y110.226
X81.774Y110.382
X81.791Y110.413
X81.808Y110.445
X81.827Y110.475
X81.846Y110.506
X81.866Y110.536
X81.886Y110.565
X81.908Y110.594
X81.929Y110.623
X82.027Y110.748
X82.054Y110.781
X82.081Y110.814
X82.109Y110.845
X82.139Y110.876
X82.169Y110.906
X82.199Y110.935
X82.231Y110.964
X82.263Y110.991
X82.434Y111.133
X82.465Y111.159
X82.496Y111.183
X82.529Y111.206
X82.561Y111.229
X82.595Y111.251
X82.629Y111.272
X82.663Y111.292
X82.698Y111.312
X82.733Y111.33
X82.769Y111.348
X82.987Y111.451
X83.023Y111.468
X83.061Y111.484
X83.098Y111.499
X83.136Y111.513
X83.175Y111.526
X83.213Y111.538
X83.252Y111.549
X83.292Y111.559
X83.479Y111.605
X83.52Y111.614
X83.56Y111.623
X83.601Y111.63
X83.642Y111.636
X83.683Y111.641
X83.724Y111.645
X83.946Y111.663
X83.979Y111.666
X84.012Y111.668
X84.045Y111.669
X84.078
X101.053
X101.094Y111.668
X101.134Y111.667
X101.175Y111.664
X101.215Y111.661
X101.576Y111.624
X101.613Y111.619
X101.651Y111.614
X101.688Y111.608
X101.725Y111.601
X101.762Y111.593
X101.799Y111.585
X101.835Y111.575
X101.872Y111.565
X101.908Y111.553
X101.943Y111.541
X102.183Y111.457
X102.22Y111.443
X102.256Y111.429
X102.293Y111.414
X102.328Y111.397
X102.364Y111.38
X102.399Y111.362
X102.433Y111.343
X102.467Y111.323
X102.501Y111.303
X102.534Y111.282
X102.69Y111.178
X102.722Y111.156
X102.753Y111.134
X102.783Y111.111
X102.813Y111.087
X102.842Y111.063
X102.871Y111.038
X102.899Y111.012
X102.927Y110.986
X102.953Y110.959
X102.979Y110.931
X103.089Y110.813
X103.118Y110.78
X103.146Y110.747
X103.173Y110.713
X103.2Y110.678
X103.225Y110.643
X103.249Y110.607
X103.273Y110.57
X103.295Y110.533
X103.365Y110.412
X103.383Y110.38
X103.401Y110.348
X103.417Y110.315
X103.433Y110.282
X103.448Y110.249
X103.462Y110.215
X103.475Y110.181
X103.488Y110.147
X103.528Y110.034
X103.543Y109.992
X103.556Y109.949
X103.568Y109.906
X103.579Y109.863
X103.588Y109.819
X103.597Y109.775
X103.618Y109.652
X103.624Y109.616
X103.629Y109.58
X103.634Y109.543
X103.637Y109.507
X103.64Y109.471
X103.641Y109.434
X103.644Y109.357
Y109.328
Y101.328
Y101.289
X103.642Y101.25
X103.64Y101.211
X103.637Y101.172
X103.632Y101.133
X103.627Y101.095
X103.621Y101.056
X103.614Y101.018
X103.606Y100.98
X103.597Y100.942
X103.587Y100.904
X103.576Y100.866
X103.564Y100.829
X103.551Y100.792
X103.538Y100.756
X103.523Y100.719
X103.508Y100.684
X103.492Y100.648
X103.474Y100.613
X103.457Y100.578
X103.438Y100.544
X103.418Y100.51
X103.398Y100.477
X103.376Y100.445
X103.354Y100.412
X103.331Y100.381
X103.308Y100.35
X103.283Y100.319
X103.258Y100.289
X103.232Y100.26
X103.206Y100.232
X103.178Y100.203
X103.15Y100.175
X103.121Y100.149
X103.092Y100.123
X103.062Y100.098
X103.031Y100.073
X103Y100.05
X102.969Y100.027
X102.937Y100.005
X102.904Y99.984
X102.871Y99.963
X102.837Y99.943
X102.803Y99.925
X102.768Y99.907
X102.733Y99.89
X102.698Y99.873
X102.662Y99.858
X102.626Y99.843
X102.589Y99.83
X102.552Y99.817
X102.515Y99.805
X102.477Y99.794
X102.44Y99.785
X102.402Y99.776
X102.363Y99.767
X102.325Y99.76
X102.287Y99.754
X102.248Y99.749
X102.209Y99.745
X102.17Y99.741
X102.131Y99.739
X102.092Y99.737
X102.053
X96.68
X94.128Y97.356
X91.64Y94.68
X89.964Y92.484
X89.422Y91.583
X89.046Y90.766
X88.323Y88.331
X87.85Y85.705
X87.548Y82.161
X87.539Y78.125
X87.884Y73.409
X88.131Y71.535
X88.135Y71.501
X88.138Y71.466
X88.141Y71.432
X88.143Y71.397
X88.144Y71.363
Y71.328
Y56.328
Y56.284
X88.142Y56.24
X88.139Y56.197
X88.135Y56.153
X87.65Y51.778
X87.493Y47.389
X87.653Y43.652
X88.125Y40.213
X88.523Y38.508
X89.03Y36.932
X89.695Y35.608
X91.139Y33.591
X93.342Y31.109
X95.961Y28.547
X96.662Y27.919
X102.053
X102.092Y27.918
X102.131Y27.917
X102.17Y27.915
X102.209Y27.911
X102.248Y27.907
X102.287Y27.902
X102.325Y27.895
X102.363Y27.888
X102.402Y27.88
X102.44Y27.871
X102.477Y27.861
X102.515Y27.85
X102.552Y27.839
X102.589Y27.826
X102.626Y27.812
X102.662Y27.798
X102.698Y27.782
X102.733Y27.766
X102.768Y27.749
X102.803Y27.731
X102.837Y27.712
X102.871Y27.693
X102.904Y27.672
X102.937Y27.651
X102.969Y27.629
X103Y27.606
X103.031Y27.582
X103.062Y27.558
X103.092Y27.533
X103.121Y27.507
X103.15Y27.48
X103.179Y27.452
X103.206Y27.424
X103.232Y27.396
X103.258Y27.366
X103.283Y27.337
X103.308Y27.306
X103.331Y27.275
X103.354Y27.243
X103.376Y27.211
X103.398Y27.179
X103.418Y27.145
X103.438Y27.112
X103.457Y27.077
X103.475Y27.043
X103.492Y27.008
X103.508Y26.972
X103.523Y26.936
X103.538Y26.9
X103.551Y26.864
X103.564Y26.827
X103.576Y26.789
X103.587Y26.752
X103.597Y26.714
X103.606Y26.676
X103.614Y26.638
X103.621Y26.6
X103.627Y26.561
X103.632Y26.523
X103.637Y26.484
X103.64Y26.445
X103.642Y26.406
X103.644Y26.367
Y26.328
Y18.328
Y18.291
X103.643Y18.255
X103.64Y18.218
X103.638Y18.181
X103.634Y18.145
X103.629Y18.109
X103.611Y17.978
X103.605Y17.94
X103.598Y17.902
X103.591Y17.864
X103.582Y17.826
X103.573Y17.789
X103.562Y17.751
X103.551Y17.714
X103.539Y17.678
X103.493Y17.546
X103.481Y17.512
X103.468Y17.478
X103.454Y17.445
X103.44Y17.411
X103.425Y17.379
X103.409Y17.346
X103.392Y17.314
X103.375Y17.282
X103.312Y17.172
X103.291Y17.135
X103.269Y17.1
X103.246Y17.064
X103.221Y17.03
X103.196Y16.996
X103.171Y16.962
X103.144Y16.93
X103.116Y16.898
X102.997Y16.764
X102.971Y16.735
X102.944Y16.707
X102.917Y16.68
X102.888Y16.653
X102.859Y16.626
X102.829Y16.601
X102.799Y16.576
X102.768Y16.552
X102.737Y16.529
X102.705Y16.507
X102.544Y16.397
X102.513Y16.376
X102.481Y16.356
X102.449Y16.337
X102.417Y16.319
X102.384Y16.301
X102.351Y16.284
X102.317Y16.268
X102.283Y16.253
X102.249Y16.238
X102.214Y16.224
X101.994Y16.14
X101.951Y16.125
X101.908Y16.11
X101.864Y16.097
X101.821Y16.085
X101.776Y16.075
X101.732Y16.065
X101.56Y16.032
X101.514Y16.024
X101.468Y16.017
X101.422Y16.011
X101.375Y16.007
X101.174Y15.991
X101.144Y15.989
X101.114Y15.988
X101.084Y15.987
X101.053
X84.078
X84.044
X84.01Y15.988
X83.976Y15.99
X83.941Y15.993
X83.907Y15.996
X83.873Y16
X83.476Y16.052
X83.437Y16.057
X83.398Y16.064
X83.359Y16.071
X83.321Y16.08
X83.282Y16.089
X83.244Y16.1
X83.206Y16.111
X83.168Y16.123
X83.131Y16.137
X83.094Y16.151
X82.86Y16.244
X82.824Y16.258
X82.789Y16.274
X82.754Y16.29
X82.72Y16.307
X82.686Y16.326
X82.652Y16.344
X82.619Y16.364
X82.586Y16.384
X82.554Y16.406
X82.523Y16.428
X82.366Y16.54
X82.336Y16.561
X82.307Y16.584
X82.278Y16.607
X82.25Y16.631
X82.222Y16.655
X82.195Y16.681
X82.169Y16.706
X82.143Y16.733
X82.118Y16.759
X82.093Y16.787
X81.985Y16.911
X81.958Y16.942
X81.932Y16.974
X81.907Y17.007
X81.882Y17.041
X81.859Y17.075
X81.837Y17.11
X81.815Y17.145
X81.794Y17.181
X81.725Y17.304
X81.709Y17.334
X81.693Y17.365
X81.678Y17.396
X81.663Y17.428
X81.649Y17.459
X81.636Y17.491
X81.623Y17.524
X81.612Y17.556
X81.573Y17.666
X81.56Y17.704
X81.549Y17.741
X81.538Y17.779
X81.528Y17.818
X81.52Y17.856
X81.512Y17.895
X81.493Y17.993
X81.485Y18.039
X81.478Y18.085
X81.473Y18.131
X81.469Y18.177
X81.466Y18.215
X81.463Y18.271
X81.462Y18.328
Y31.737
X74.428
X74.388
X74.347Y31.739
X74.307Y31.742
X74.267Y31.745
X74.227Y31.75
X74.187Y31.755
X74.146Y31.762
X74.108Y31.77
X74.069Y31.778
X74.031Y31.787
X73.993Y31.797
X73.956Y31.809
X73.918Y31.821
X73.881Y31.834
X73.845Y31.848
X73.809Y31.862
X73.768Y31.88
X73.744Y31.891
X73.719Y31.904
X73.687Y31.92
X73.654Y31.938
X73.622Y31.956
X73.591Y31.975
X73.56Y31.995
X73.529Y32.015
X73.499Y32.036
X73.467Y32.06
X73.436Y32.084
X73.406Y32.109
X73.376Y32.134
X73.347Y32.161
X73.319Y32.188
X73.291Y32.215
X73.264Y32.244
X73.237Y32.273
X73.212Y32.303
X73.187Y32.333
X73.163Y32.364
X73.128Y32.411
X73.095Y32.46
X73.069Y32.502
X73.049Y32.535
X73.03Y32.568
X73.012Y32.603
X72.995Y32.637
X72.979Y32.672
Z-0.3F5
X72.963Y32.707F10
X72.949Y32.743
X72.935Y32.779
X72.922Y32.815
X72.91Y32.852
X72.899Y32.889
X72.889Y32.926
X72.88Y32.963
X72.871Y33.001
X72.864Y33.039
X72.857Y33.077
X72.852Y33.115
X72.847Y33.153
X72.843Y33.192
X72.84Y33.23
X72.838Y33.269
X72.837Y33.307
Y33.346
X72.838Y33.385
X72.84Y33.422
X72.843Y33.46
X72.846Y33.498
X72.851Y33.535
X72.856Y33.572
X72.862Y33.609
X72.87Y33.647
X72.878Y33.683
X72.886Y33.72
X72.896Y33.756
X72.907Y33.793
X72.918Y33.829
X80.462Y56.585
Y71.073
X69.667Y103.83
X69.655Y103.868
X69.644Y103.906
X69.634Y103.945
X69.625Y103.984
X69.617Y104.023
X69.61Y104.063
X69.603Y104.102
X69.598Y104.142
X69.594Y104.181
X69.591Y104.221
X69.589Y104.261
X69.588Y104.301
X69.587Y104.342
X69.588Y104.382
X69.59Y104.421
X69.593Y104.461
X69.597Y104.5
X69.601Y104.539
X69.607Y104.579
X69.614Y104.618
X69.622Y104.657
X69.63Y104.695
X69.64Y104.734
X69.65Y104.772
X69.662Y104.81
X69.675Y104.847
X69.688Y104.885
X69.702Y104.922
X69.718Y104.958
X69.734Y104.995
X69.751Y105.03
X69.769Y105.066
X69.787Y105.101
X69.807Y105.135
X69.828Y105.169
X69.849Y105.202
X69.871Y105.235
X69.894Y105.267
X69.917Y105.298
X69.942Y105.329
X69.967Y105.36
X69.993Y105.389
X70.02Y105.418
X70.047Y105.447
X70.075Y105.474
X70.104Y105.501
X70.133Y105.528
X70.163Y105.553
X70.194Y105.578
X70.226Y105.602
X70.258Y105.626
X70.29Y105.648
X70.323Y105.67
X70.357Y105.691
X70.391Y105.711
X70.426Y105.73
X70.463Y105.749
X70.5Y105.767
X70.537Y105.784
X70.606Y105.813
X70.628Y105.821
X70.667Y105.835
X70.707Y105.847
X70.746Y105.859
X70.787Y105.87
X70.827Y105.88
X70.868Y105.888
X70.909Y105.896
X70.947Y105.902
X70.985Y105.907
X71.024Y105.911
X71.062Y105.915
X71.101Y105.917
X71.14Y105.918
X71.178Y105.919
X81.462
Y109.328
X81.463Y109.367
X81.464Y109.405
X81.467Y109.444
X81.47Y109.483
X81.474Y109.521
X81.479Y109.56
X81.485Y109.598
X81.492Y109.636
X81.5Y109.674
X81.509Y109.712
X81.519Y109.749
X81.53Y109.786
X81.578Y109.946
X81.589Y109.982
X81.601Y110.018
X81.614Y110.054
X81.628Y110.089
X81.643Y110.124
X81.659Y110.159
X81.675Y110.193
X81.692Y110.226
X81.774Y110.382
X81.791Y110.413
X81.808Y110.445
X81.827Y110.475
X81.846Y110.506
X81.866Y110.536
X81.886Y110.565
X81.908Y110.594
X81.929Y110.623
X82.027Y110.748
X82.054Y110.781
X82.081Y110.814
X82.109Y110.845
X82.139Y110.876
X82.169Y110.906
X82.199Y110.935
X82.231Y110.964
X82.263Y110.991
X82.434Y111.133
X82.465Y111.159
X82.496Y111.183
X82.529Y111.206
X82.561Y111.229
X82.595Y111.251
X82.629Y111.272
X82.663Y111.292
X82.698Y111.312
X82.733Y111.33
X82.769Y111.348
X82.987Y111.451
X83.023Y111.468
X83.061Y111.484
X83.098Y111.499
X83.136Y111.513
X83.175Y111.526
X83.213Y111.538
X83.252Y111.549
X83.292Y111.559
X83.479Y111.605
X83.52Y111.614
X83.56Y111.623
X83.601Y111.63
X83.642Y111.636
X83.683Y111.641
X83.724Y111.645
X83.946Y111.663
X83.979Y111.666
X84.012Y111.668
X84.045Y111.669
X84.078
X101.053
X101.094Y111.668
X101.134Y111.667
X101.175Y111.664
X101.215Y111.661
X101.576Y111.624
X101.613Y111.619
X101.651Y111.614
X101.688Y111.608
X101.725Y111.601
X101.762Y111.593
X101.799Y111.585
X101.835Y111.575
X101.872Y111.565
X101.908Y111.553
X101.943Y111.541
X102.183Y111.457
X102.22Y111.443
X102.256Y111.429
X102.293Y111.414
X102.328Y111.397
X102.364Y111.38
X102.399Y111.362
X102.433Y111.343
X102.467Y111.323
X102.501Y111.303
X102.534Y111.282
X102.69Y111.178
X102.722Y111.156
X102.753Y111.134
X102.783Y111.111
X102.813Y111.087
X102.842Y111.063
X102.871Y111.038
X102.899Y111.012
X102.927Y110.986
X102.953Y110.959
X102.979Y110.931
X103.089Y110.813
X103.118Y110.78
X103.146Y110.747
X103.173Y110.713
X103.2Y110.678
X103.225Y110.643
X103.249Y110.607
X103.273Y110.57
X103.295Y110.533
X103.365Y110.412
X103.383Y110.38
X103.401Y110.348
X103.417Y110.315
X103.433Y110.282
X103.448Y110.249
X103.462Y110.215
X103.475Y110.181
X103.488Y110.147
X103.528Y110.034
X103.543Y109.992
X103.556Y109.949
X103.568Y109.906
X103.579Y109.863
X103.588Y109.819
X103.597Y109.775
X103.618Y109.652
X103.624Y109.616
X103.629Y109.58
X103.634Y109.543
X103.637Y109.507
X103.64Y109.471
X103.641Y109.434
X103.644Y109.357
Y109.328
Y101.328
Y101.289
X103.642Y101.25
X103.64Y101.211
X103.637Y101.172
X103.632Y101.133
X103.627Y101.095
X103.621Y101.056
X103.614Y101.018
X103.606Y100.98
X103.597Y100.942
X103.587Y100.904
X103.576Y100.866
X103.564Y100.829
X103.551Y100.792
X103.538Y100.756
X103.523Y100.719
X103.508Y100.684
X103.492Y100.648
X103.474Y100.613
X103.457Y100.578
X103.438Y100.544
X103.418Y100.51
X103.398Y100.477
X103.376Y100.445
X103.354Y100.412
X103.331Y100.381
X103.308Y100.35
X103.283Y100.319
X103.258Y100.289
X103.232Y100.26
X103.206Y100.232
X103.178Y100.203
X103.15Y100.175
X103.121Y100.149
X103.092Y100.123
X103.062Y100.098
X103.031Y100.073
X103Y100.05
X102.969Y100.027
X102.937Y100.005
X102.904Y99.984
X102.871Y99.963
X102.837Y99.943
X102.803Y99.925
X102.768Y99.907
X102.733Y99.89
X102.698Y99.873
X102.662Y99.858
X102.626Y99.843
X102.589Y99.83
X102.552Y99.817
X102.515Y99.805
X102.477Y99.794
X102.44Y99.785
X102.402Y99.776
X102.363Y99.767
X102.325Y99.76
X102.287Y99.754
X102.248Y99.749
X102.209Y99.745
X102.17Y99.741
X102.131Y99.739
X102.092Y99.737
X102.053
X96.68
X94.128Y97.356
X91.64Y94.68
X89.964Y92.484
X89.422Y91.583
X89.046Y90.766
X88.323Y88.331
X87.85Y85.705
X87.548Y82.161
X87.539Y78.125
X87.884Y73.409
X88.131Y71.535
X88.135Y71.501
X88.138Y71.466
X88.141Y71.432
X88.143Y71.397
X88.144Y71.363
Y71.328
Y56.328
Y56.284
X88.142Y56.24
X88.139Y56.197
X88.135Y56.153
X87.65Y51.778
X87.493Y47.389
X87.653Y43.652
X88.125Y40.213
X88.523Y38.508
X89.03Y36.932
X89.695Y35.608
X91.139Y33.591
X93.342Y31.109
X95.961Y28.547
X96.662Y27.919
X102.053
X102.092Y27.918
X102.131Y27.917
X102.17Y27.915
X102.209Y27.911
X102.248Y27.907
X102.287Y27.902
X102.325Y27.895
X102.363Y27.888
X102.402Y27.88
X102.44Y27.871
X102.477Y27.861
X102.515Y27.85
X102.552Y27.839
X102.589Y27.826
X102.626Y27.812
X102.662Y27.798
X102.698Y27.782
X102.733Y27.766
X102.768Y27.749
X102.803Y27.731
X102.837Y27.712
X102.871Y27.693
X102.904Y27.672
X102.937Y27.651
X102.969Y27.629
X103Y27.606
X103.031Y27.582
X103.062Y27.558
X103.092Y27.533
X103.121Y27.507
X103.15Y27.48
X103.179Y27.452
X103.206Y27.424
X103.232Y27.396
X103.258Y27.366
X103.283Y27.337
X103.308Y27.306
X103.331Y27.275
X103.354Y27.243
X103.376Y27.211
X103.398Y27.179
X103.418Y27.145
X103.438Y27.112
X103.457Y27.077
X103.475Y27.043
X103.492Y27.008
X103.508Y26.972
X103.523Y26.936
X103.538Y26.9
X103.551Y26.864
X103.564Y26.827
X103.576Y26.789
X103.587Y26.752
X103.597Y26.714
X103.606Y26.676
X103.614Y26.638
X103.621Y26.6
X103.627Y26.561
X103.632Y26.523
X103.637Y26.484
X103.64Y26.445
X103.642Y26.406
X103.644Y26.367
Y26.328
Y18.328
Y18.291
X103.643Y18.255
X103.64Y18.218
X103.638Y18.181
X103.634Y18.145
X103.629Y18.109
X103.611Y17.978
X103.605Y17.94
X103.598Y17.902
X103.591Y17.864
X103.582Y17.826
X103.573Y17.789
X103.562Y17.751
X103.551Y17.714
X103.539Y17.678
X103.493Y17.546
X103.481Y17.512
X103.468Y17.478
X103.454Y17.445
X103.44Y17.411
X103.425Y17.379
X103.409Y17.346
X103.392Y17.314
X103.375Y17.282
X103.312Y17.172
X103.291Y17.135
X103.269Y17.1
X103.246Y17.064
X103.221Y17.03
X103.196Y16.996
X103.171Y16.962
X103.144Y16.93
X103.116Y16.898
X102.997Y16.764
X102.971Y16.735
X102.944Y16.707
X102.917Y16.68
X102.888Y16.653
X102.859Y16.626
X102.829Y16.601
X102.799Y16.576
X102.768Y16.552
X102.737Y16.529
X102.705Y16.507
X102.544Y16.397
X102.513Y16.376
X102.481Y16.356
X102.449Y16.337
X102.417Y16.319
X102.384Y16.301
X102.351Y16.284
X102.317Y16.268
X102.283Y16.253
X102.249Y16.238
X102.214Y16.224
X101.994Y16.14
X101.951Y16.125
X101.908Y16.11
X101.864Y16.097
X101.821Y16.085
X101.776Y16.075
X101.732Y16.065
X101.56Y16.032
X101.514Y16.024
X101.468Y16.017
X101.422Y16.011
X101.375Y16.007
X101.174Y15.991
X101.144Y15.989
X101.114Y15.988
X101.084Y15.987
X101.053
X84.078
X84.044
X84.01Y15.988
X83.976Y15.99
X83.941Y15.993
X83.907Y15.996
X83.873Y16
X83.476Y16.052
X83.437Y16.057
X83.398Y16.064
X83.359Y16.071
X83.321Y16.08
X83.282Y16.089
X83.244Y16.1
X83.206Y16.111
X83.168Y16.123
X83.131Y16.137
X83.094Y16.151
X82.86Y16.244
X82.824Y16.258
X82.789Y16.274
X82.754Y16.29
X82.72Y16.307
X82.686Y16.326
X82.652Y16.344
X82.619Y16.364
X82.586Y16.384
X82.554Y16.406
X82.523Y16.428
X82.366Y16.54
X82.336Y16.561
X82.307Y16.584
X82.278Y16.607
X82.25Y16.631
X82.222Y16.655
X82.195Y16.681
X82.169Y16.706
X82.143Y16.733
X82.118Y16.759
X82.093Y16.787
X81.985Y16.911
X81.958Y16.942
X81.932Y16.974
X81.907Y17.007
X81.882Y17.041
X81.859Y17.075
X81.837Y17.11
X81.815Y17.145
X81.794Y17.181
X81.725Y17.304
X81.709Y17.334
X81.693Y17.365
X81.678Y17.396
X81.663Y17.428
X81.649Y17.459
X81.636Y17.491
X81.623Y17.524
X81.612Y17.556
X81.573Y17.666
X81.56Y17.704
X81.549Y17.741
X81.538Y17.779
X81.528Y17.818
X81.52Y17.856
X81.512Y17.895
X81.493Y17.993
X81.485Y18.039
X81.478Y18.085
X81.473Y18.131
X81.469Y18.177
X81.466Y18.215
X81.463Y18.271
X81.462Y18.328
Y31.737
X74.428
X74.388
X74.347Y31.739
X74.307Y31.742
X74.267Y31.745
X74.227Y31.75
X74.187Y31.755
X74.146Y31.762
X74.108Y31.77
X74.069Y31.778
X74.031Y31.787
X73.993Y31.797
X73.956Y31.809
X73.918Y31.821
X73.881Y31.834
X73.845Y31.848
X73.809Y31.862
X73.768Y31.88
X73.744Y31.891
X73.719Y31.904
X73.687Y31.92
X73.654Y31.938
X73.622Y31.956
X73.591Y31.975
X73.56Y31.995
X73.529Y32.015
X73.499Y32.036
X73.467Y32.06
X73.436Y32.084
X73.406Y32.109
X73.376Y32.134
X73.347Y32.161
X73.319Y32.188
X73.291Y32.215
X73.264Y32.244
X73.237Y32.273
X73.212Y32.303
X73.187Y32.333
X73.163Y32.364
X73.128Y32.411
X73.095Y32.46
X73.069Y32.502
X73.049Y32.535
X73.03Y32.568
X73.012Y32.603
X72.995Y32.637
X72.979Y32.672
Z-0.4F5
X72.963Y32.707F10
X72.949Y32.743
X72.935Y32.779
X72.922Y32.815
X72.91Y32.852
X72.899Y32.889
X72.889Y32.926
X72.88Y32.963
X72.871Y33.001
X72.864Y33.039
X72.857Y33.077
X72.852Y33.115
X72.847Y33.153
X72.843Y33.192
X72.84Y33.23
X72.838Y33.269
X72.837Y33.307
Y33.346
X72.838Y33.385
X72.84Y33.422
X72.843Y33.46
X72.846Y33.498
X72.851Y33.535
X72.856Y33.572
X72.862Y33.609
X72.87Y33.647
X72.878Y33.683
X72.886Y33.72
X72.896Y33.756
X72.907Y33.793
X72.918Y33.829
X80.462Y56.585
Y71.073
X69.667Y103.83
X69.655Y103.868
X69.644Y103.906
X69.634Y103.945
X69.625Y103.984
X69.617Y104.023
X69.61Y104.063
X69.603Y104.102
X69.598Y104.142
X69.594Y104.181
X69.591Y104.221
X69.589Y104.261
X69.588Y104.301
X69.587Y104.342
X69.588Y104.382
X69.59Y104.421
X69.593Y104.461
X69.597Y104.5
X69.601Y104.539
X69.607Y104.579
X69.614Y104.618
X69.622Y104.657
X69.63Y104.695
X69.64Y104.734
X69.65Y104.772
X69.662Y104.81
X69.675Y104.847
X69.688Y104.885
X69.702Y104.922
X69.718Y104.958
X69.734Y104.995
X69.751Y105.03
X69.769Y105.066
X69.787Y105.101
X69.807Y105.135
X69.828Y105.169
X69.849Y105.202
X69.871Y105.235
X69.894Y105.267
X69.917Y105.298
X69.942Y105.329
X69.967Y105.36
X69.993Y105.389
X70.02Y105.418
X70.047Y105.447
X70.075Y105.474
X70.104Y105.501
X70.133Y105.528
X70.163Y105.553
X70.194Y105.578
X70.226Y105.602
X70.258Y105.626
X70.29Y105.648
X70.323Y105.67
X70.357Y105.691
X70.391Y105.711
X70.426Y105.73
X70.463Y105.749
X70.5Y105.767
X70.537Y105.784
X70.606Y105.813
X70.628Y105.821
X70.667Y105.835
X70.707Y105.847
X70.746Y105.859
X70.787Y105.87
X70.827Y105.88
X70.868Y105.888
X70.909Y105.896
X70.947Y105.902
X70.985Y105.907
X71.024Y105.911
X71.062Y105.915
X71.101Y105.917
X71.14Y105.918
X71.178Y105.919
X81.462
Y109.328
X81.463Y109.367
X81.464Y109.405
X81.467Y109.444
X81.47Y109.483
X81.474Y109.521
X81.479Y109.56
X81.485Y109.598
X81.492Y109.636
X81.5Y109.674
X81.509Y109.712
X81.519Y109.749
X81.53Y109.786
X81.578Y109.946
X81.589Y109.982
X81.601Y110.018
X81.614Y110.054
X81.628Y110.089
X81.643Y110.124
X81.659Y110.159
X81.675Y110.193
X81.692Y110.226
X81.774Y110.382
X81.791Y110.413
X81.808Y110.445
X81.827Y110.475
X81.846Y110.506
X81.866Y110.536
X81.886Y110.565
X81.908Y110.594
X81.929Y110.623
X82.027Y110.748
X82.054Y110.781
X82.081Y110.814
X82.109Y110.845
X82.139Y110.876
X82.169Y110.906
X82.199Y110.935
X82.231Y110.964
X82.263Y110.991
X82.434Y111.133
X82.465Y111.159
X82.496Y111.183
X82.529Y111.206
X82.561Y111.229
X82.595Y111.251
X82.629Y111.272
X82.663Y111.292
X82.698Y111.312
X82.733Y111.33
X82.769Y111.348
X82.987Y111.451
X83.023Y111.468
X83.061Y111.484
X83.098Y111.499
X83.136Y111.513
X83.175Y111.526
X83.213Y111.538
X83.252Y111.549
X83.292Y111.559
X83.479Y111.605
X83.52Y111.614
X83.56Y111.623
X83.601Y111.63
X83.642Y111.636
X83.683Y111.641
X83.724Y111.645
X83.946Y111.663
X83.979Y111.666
X84.012Y111.668
X84.045Y111.669
X84.078
X101.053
X101.094Y111.668
X101.134Y111.667
X101.175Y111.664
X101.215Y111.661
X101.576Y111.624
X101.613Y111.619
X101.651Y111.614
X101.688Y111.608
X101.725Y111.601
X101.762Y111.593
X101.799Y111.585
X101.835Y111.575
X101.872Y111.565
X101.908Y111.553
X101.943Y111.541
X102.183Y111.457
X102.22Y111.443
X102.256Y111.429
X102.293Y111.414
X102.328Y111.397
X102.364Y111.38
X102.399Y111.362
X102.433Y111.343
X102.467Y111.323
X102.501Y111.303
X102.534Y111.282
X102.69Y111.178
X102.722Y111.156
X102.753Y111.134
X102.783Y111.111
X102.813Y111.087
X102.842Y111.063
X102.871Y111.038
X102.899Y111.012
X102.927Y110.986
X102.953Y110.959
X102.979Y110.931
X103.089Y110.813
X103.118Y110.78
X103.146Y110.747
X103.173Y110.713
X103.2Y110.678
X103.225Y110.643
X103.249Y110.607
X103.273Y110.57
X103.295Y110.533
X103.365Y110.412
X103.383Y110.38
X103.401Y110.348
X103.417Y110.315
X103.433Y110.282
X103.448Y110.249
X103.462Y110.215
X103.475Y110.181
X103.488Y110.147
X103.528Y110.034
X103.543Y109.992
X103.556Y109.949
X103.568Y109.906
X103.579Y109.863
X103.588Y109.819
X103.597Y109.775
X103.618Y109.652
X103.624Y109.616
X103.629Y109.58
X103.634Y109.543
X103.637Y109.507
X103.64Y109.471
X103.641Y109.434
X103.644Y109.357
Y109.328
Y101.328
Y101.289
X103.642Y101.25
X103.64Y101.211
X103.637Y101.172
X103.632Y101.133
X103.627Y101.095
X103.621Y101.056
X103.614Y101.018
X103.606Y100.98
X103.597Y100.942
X103.587Y100.904
X103.576Y100.866
X103.564Y100.829
X103.551Y100.792
X103.538Y100.756
X103.523Y100.719
X103.508Y100.684
X103.492Y100.648
X103.474Y100.613
X103.457Y100.578
X103.438Y100.544
X103.418Y100.51
X103.398Y100.477
X103.376Y100.445
X103.354Y100.412
X103.331Y100.381
X103.308Y100.35
X103.283Y100.319
X103.258Y100.289
X103.232Y100.26
X103.206Y100.232
X103.178Y100.203
X103.15Y100.175
X103.121Y100.149
X103.092Y100.123
X103.062Y100.098
X103.031Y100.073
X103Y100.05
X102.969Y100.027
X102.937Y100.005
X102.904Y99.984
X102.871Y99.963
X102.837Y99.943
X102.803Y99.925
X102.768Y99.907
X102.733Y99.89
X102.698Y99.873
X102.662Y99.858
X102.626Y99.843
X102.589Y99.83
X102.552Y99.817
X102.515Y99.805
X102.477Y99.794
X102.44Y99.785
X102.402Y99.776
X102.363Y99.767
X102.325Y99.76
X102.287Y99.754
X102.248Y99.749
X102.209Y99.745
X102.17Y99.741
X102.131Y99.739
X102.092Y99.737
X102.053
X96.68
X94.128Y97.356
X91.64Y94.68
X89.964Y92.484
X89.422Y91.583
X89.046Y90.766
X88.323Y88.331
X87.85Y85.705
X87.548Y82.161
X87.539Y78.125
X87.884Y73.409
X88.131Y71.535
X88.135Y71.501
X88.138Y71.466
X88.141Y71.432
X88.143Y71.397
X88.144Y71.363
Y71.328
Y56.328
Y56.284
X88.142Y56.24
X88.139Y56.197
X88.135Y56.153
X87.65Y51.778
X87.493Y47.389
X87.653Y43.652
X88.125Y40.213
X88.523Y38.508
X89.03Y36.932
X89.695Y35.608
X91.139Y33.591
X93.342Y31.109
X95.961Y28.547
X96.662Y27.919
X102.053
X102.092Y27.918
X102.131Y27.917
X102.17Y27.915
X102.209Y27.911
X102.248Y27.907
X102.287Y27.902
X102.325Y27.895
X102.363Y27.888
X102.402Y27.88
X102.44Y27.871
X102.477Y27.861
X102.515Y27.85
X102.552Y27.839
X102.589Y27.826
X102.626Y27.812
X102.662Y27.798
X102.698Y27.782
X102.733Y27.766
X102.768Y27.749
X102.803Y27.731
X102.837Y27.712
X102.871Y27.693
X102.904Y27.672
X102.937Y27.651
X102.969Y27.629
X103Y27.606
X103.031Y27.582
X103.062Y27.558
X103.092Y27.533
X103.121Y27.507
X103.15Y27.48
X103.179Y27.452
X103.206Y27.424
X103.232Y27.396
X103.258Y27.366
X103.283Y27.337
X103.308Y27.306
X103.331Y27.275
X103.354Y27.243
X103.376Y27.211
X103.398Y27.179
X103.418Y27.145
X103.438Y27.112
X103.457Y27.077
X103.475Y27.043
X103.492Y27.008
X103.508Y26.972
X103.523Y26.936
X103.538Y26.9
X103.551Y26.864
X103.564Y26.827
X103.576Y26.789
X103.587Y26.752
X103.597Y26.714
X103.606Y26.676
X103.614Y26.638
X103.621Y26.6
X103.627Y26.561
X103.632Y26.523
X103.637Y26.484
X103.64Y26.445
X103.642Y26.406
X103.644Y26.367
Y26.328
Y18.328
Y18.291
X103.643Y18.255
X103.64Y18.218
X103.638Y18.181
X103.634Y18.145
X103.629Y18.109
X103.611Y17.978
X103.605Y17.94
X103.598Y17.902
X103.591Y17.864
X103.582Y17.826
X103.573Y17.789
X103.562Y17.751
X103.551Y17.714
X103.539Y17.678
X103.493Y17.546
X103.481Y17.512
X103.468Y17.478
X103.454Y17.445
X103.44Y17.411
X103.425Y17.379
X103.409Y17.346
X103.392Y17.314
X103.375Y17.282
X103.312Y17.172
X103.291Y17.135
X103.269Y17.1
X103.246Y17.064
X103.221Y17.03
X103.196Y16.996
X103.171Y16.962
X103.144Y16.93
X103.116Y16.898
X102.997Y16.764
X102.971Y16.735
X102.944Y16.707
X102.917Y16.68
X102.888Y16.653
X102.859Y16.626
X102.829Y16.601
X102.799Y16.576
X102.768Y16.552
X102.737Y16.529
X102.705Y16.507
X102.544Y16.397
X102.513Y16.376
X102.481Y16.356
X102.449Y16.337
X102.417Y16.319
X102.384Y16.301
X102.351Y16.284
X102.317Y16.268
X102.283Y16.253
X102.249Y16.238
X102.214Y16.224
X101.994Y16.14
X101.951Y16.125
X101.908Y16.11
X101.864Y16.097
X101.821Y16.085
X101.776Y16.075
X101.732Y16.065
X101.56Y16.032
X101.514Y16.024
X101.468Y16.017
X101.422Y16.011
X101.375Y16.007
X101.174Y15.991
X101.144Y15.989
X101.114Y15.988
X101.084Y15.987
X101.053
X84.078
X84.044
X84.01Y15.988
X83.976Y15.99
X83.941Y15.993
X83.907Y15.996
X83.873Y16
X83.476Y16.052
X83.437Y16.057
X83.398Y16.064
X83.359Y16.071
X83.321Y16.08
X83.282Y16.089
X83.244Y16.1
X83.206Y16.111
X83.168Y16.123
X83.131Y16.137
X83.094Y16.151
X82.86Y16.244
X82.824Y16.258
X82.789Y16.274
X82.754Y16.29
X82.72Y16.307
X82.686Y16.326
X82.652Y16.344
X82.619Y16.364
X82.586Y16.384
X82.554Y16.406
X82.523Y16.428
X82.366Y16.54
X82.336Y16.561
X82.307Y16.584
X82.278Y16.607
X82.25Y16.631
X82.222Y16.655
X82.195Y16.681
X82.169Y16.706
X82.143Y16.733
X82.118Y16.759
X82.093Y16.787
X81.985Y16.911
X81.958Y16.942
X81.932Y16.974
X81.907Y17.007
X81.882Y17.041
X81.859Y17.075
X81.837Y17.11
X81.815Y17.145
X81.794Y17.181
X81.725Y17.304
X81.709Y17.334
X81.693Y17.365
X81.678Y17.396
X81.663Y17.428
X81.649Y17.459
X81.636Y17.491
X81.623Y17.524
X81.612Y17.556
X81.573Y17.666
X81.56Y17.704
X81.549Y17.741
X81.538Y17.779
X81.528Y17.818
X81.52Y17.856
X81.512Y17.895
X81.493Y17.993
X81.485Y18.039
X81.478Y18.085
X81.473Y18.131
X81.469Y18.177
X81.466Y18.215
X81.463Y18.271
X81.462Y18.328
Y31.737
X74.428
X74.388
X74.347Y31.739
X74.307Y31.742
X74.267Y31.745
X74.227Y31.75
X74.187Y31.755
X74.146Y31.762
X74.108Y31.77
X74.069Y31.778
X74.031Y31.787
X73.993Y31.797
X73.956Y31.809
X73.918Y31.821
X73.881Y31.834
X73.845Y31.848
X73.809Y31.862
X73.768Y31.88
X73.744Y31.891
X73.719Y31.904
X73.687Y31.92
X73.654Y31.938
X73.622Y31.956
X73.591Y31.975
X73.56Y31.995
X73.529Y32.015
X73.499Y32.036
X73.467Y32.06
X73.436Y32.084
X73.406Y32.109
X73.376Y32.134
X73.347Y32.161
X73.319Y32.188
X73.291Y32.215
X73.264Y32.244
X73.237Y32.273
X73.212Y32.303
X73.187Y32.333
X73.163Y32.364
X73.128Y32.411
X73.095Y32.46
X73.069Y32.502
X73.049Y32.535
X73.03Y32.568
X73.012Y32.603
X72.995Y32.637
X72.979Y32.672
Z-0.5F5
X72.963Y32.707F10
X72.949Y32.743
X72.935Y32.779
X72.922Y32.815
X72.91Y32.852
X72.899Y32.889
X72.889Y32.926
X72.88Y32.963
X72.871Y33.001
X72.864Y33.039
X72.857Y33.077
X72.852Y33.115
X72.847Y33.153
X72.843Y33.192
X72.84Y33.23
X72.838Y33.269
X72.837Y33.307
Y33.346
X72.838Y33.385
X72.84Y33.422
X72.843Y33.46
X72.846Y33.498
X72.851Y33.535
X72.856Y33.572
X72.862Y33.609
X72.87Y33.647
X72.878Y33.683
X72.886Y33.72
X72.896Y33.756
X72.907Y33.793
X72.918Y33.829
X80.462Y56.585
Y71.073
X69.667Y103.83
X69.655Y103.868
X69.644Y103.906
X69.634Y103.945
X69.625Y103.984
X69.617Y104.023
X69.61Y104.063
X69.603Y104.102
X69.598Y104.142
X69.594Y104.181
X69.591Y104.221
X69.589Y104.261
X69.588Y104.301
X69.587Y104.342
X69.588Y104.382
X69.59Y104.421
X69.593Y104.461
X69.597Y104.5
X69.601Y104.539
X69.607Y104.579
X69.614Y104.618
X69.622Y104.657
X69.63Y104.695
X69.64Y104.734
X69.65Y104.772
X69.662Y104.81
X69.675Y104.847
X69.688Y104.885
X69.702Y104.922
X69.718Y104.958
X69.734Y104.995
X69.751Y105.03
X69.769Y105.066
X69.787Y105.101
X69.807Y105.135
X69.828Y105.169
X69.849Y105.202
X69.871Y105.235
X69.894Y105.267
X69.917Y105.298
X69.942Y105.329
X69.967Y105.36
X69.993Y105.389
X70.02Y105.418
X70.047Y105.447
X70.075Y105.474
X70.104Y105.501
X70.133Y105.528
X70.163Y105.553
X70.194Y105.578
X70.226Y105.602
X70.258Y105.626
X70.29Y105.648
X70.323Y105.67
X70.357Y105.691
X70.391Y105.711
X70.426Y105.73
X70.463Y105.749
X70.5Y105.767
X70.537Y105.784
X70.606Y105.813
X70.628Y105.821
X70.667Y105.835
X70.707Y105.847
X70.746Y105.859
X70.787Y105.87
X70.827Y105.88
X70.868Y105.888
X70.909Y105.896
X70.947Y105.902
X70.985Y105.907
X71.024Y105.911
X71.062Y105.915
X71.101Y105.917
X71.14Y105.918
X71.178Y105.919
X81.462
Y109.328
X81.463Y109.367
X81.464Y109.405
X81.467Y109.444
X81.47Y109.483
X81.474Y109.521
X81.479Y109.56
X81.485Y109.598
X81.492Y109.636
X81.5Y109.674
X81.509Y109.712
X81.519Y109.749
X81.53Y109.786
X81.578Y109.946
X81.589Y109.982
X81.601Y110.018
X81.614Y110.054
X81.628Y110.089
X81.643Y110.124
X81.659Y110.159
X81.675Y110.193
X81.692Y110.226
X81.774Y110.382
X81.791Y110.413
X81.808Y110.445
X81.827Y110.475
X81.846Y110.506
X81.866Y110.536
X81.886Y110.565
X81.908Y110.594
X81.929Y110.623
X82.027Y110.748
X82.054Y110.781
X82.081Y110.814
X82.109Y110.845
X82.139Y110.876
X82.169Y110.906
X82.199Y110.935
X82.231Y110.964
X82.263Y110.991
X82.434Y111.133
X82.465Y111.159
X82.496Y111.183
X82.529Y111.206
X82.561Y111.229
X82.595Y111.251
X82.629Y111.272
X82.663Y111.292
X82.698Y111.312
X82.733Y111.33
X82.769Y111.348
X82.987Y111.451
X83.023Y111.468
X83.061Y111.484
X83.098Y111.499
X83.136Y111.513
X83.175Y111.526
X83.213Y111.538
X83.252Y111.549
X83.292Y111.559
X83.479Y111.605
X83.52Y111.614
X83.56Y111.623
X83.601Y111.63
X83.642Y111.636
X83.683Y111.641
X83.724Y111.645
X83.946Y111.663
X83.979Y111.666
X84.012Y111.668
X84.045Y111.669
X84.078
X101.053
X101.094Y111.668
X101.134Y111.667
X101.175Y111.664
X101.215Y111.661
X101.576Y111.624
X101.613Y111.619
X101.651Y111.614
X101.688Y111.608
X101.725Y111.601
X101.762Y111.593
X101.799Y111.585
X101.835Y111.575
X101.872Y111.565
X101.908Y111.553
X101.943Y111.541
X102.183Y111.457
X102.22Y111.443
X102.256Y111.429
X102.293Y111.414
X102.328Y111.397
X102.364Y111.38
X102.399Y111.362
X102.433Y111.343
X102.467Y111.323
X102.501Y111.303
X102.534Y111.282
X102.69Y111.178
X102.722Y111.156
X102.753Y111.134
X102.783Y111.111
X102.813Y111.087
X102.842Y111.063
X102.871Y111.038
X102.899Y111.012
X102.927Y110.986
X102.953Y110.959
X102.979Y110.931
X103.089Y110.813
X103.118Y110.78
X103.146Y110.747
X103.173Y110.713
X103.2Y110.678
X103.225Y110.643
X103.249Y110.607
X103.273Y110.57
X103.295Y110.533
X103.365Y110.412
X103.383Y110.38
X103.401Y110.348
X103.417Y110.315
X103.433Y110.282
X103.448Y110.249
X103.462Y110.215
X103.475Y110.181
X103.488Y110.147
X103.528Y110.034
X103.543Y109.992
X103.556Y109.949
X103.568Y109.906
X103.579Y109.863
X103.588Y109.819
X103.597Y109.775
X103.618Y109.652
X103.624Y109.616
X103.629Y109.58
X103.634Y109.543
X103.637Y109.507
X103.64Y109.471
X103.641Y109.434
X103.644Y109.357
Y109.328
Y101.328
Y101.289
X103.642Y101.25
X103.64Y101.211
X103.637Y101.172
X103.632Y101.133
X103.627Y101.095
X103.621Y101.056
X103.614Y101.018
X103.606Y100.98
X103.597Y100.942
X103.587Y100.904
X103.576Y100.866
X103.564Y100.829
X103.551Y100.792
X103.538Y100.756
X103.523Y100.719
X103.508Y100.684
X103.492Y100.648
X103.474Y100.613
X103.457Y100.578
X103.438Y100.544
X103.418Y100.51
X103.398Y100.477
X103.376Y100.445
X103.354Y100.412
X103.331Y100.381
X103.308Y100.35
X103.283Y100.319
X103.258Y100.289
X103.232Y100.26
X103.206Y100.232
X103.178Y100.203
X103.15Y100.175
X103.121Y100.149
X103.092Y100.123
X103.062Y100.098
X103.031Y100.073
X103Y100.05
X102.969Y100.027
X102.937Y100.005
X102.904Y99.984
X102.871Y99.963
X102.837Y99.943
X102.803Y99.925
X102.768Y99.907
X102.733Y99.89
X102.698Y99.873
X102.662Y99.858
X102.626Y99.843
X102.589Y99.83
X102.552Y99.817
X102.515Y99.805
X102.477Y99.794
X102.44Y99.785
X102.402Y99.776
X102.363Y99.767
X102.325Y99.76
X102.287Y99.754
X102.248Y99.749
X102.209Y99.745
X102.17Y99.741
X102.131Y99.739
X102.092Y99.737
X102.053
X96.68
X94.128Y97.356
X91.64Y94.68
X89.964Y92.484
X89.422Y91.583
X89.046Y90.766
X88.323Y88.331
X87.85Y85.705
X87.548Y82.161
X87.539Y78.125
X87.884Y73.409
X88.131Y71.535
X88.135Y71.501
X88.138Y71.466
X88.141Y71.432
X88.143Y71.397
X88.144Y71.363
Y71.328
Y56.328
Y56.284
X88.142Y56.24
X88.139Y56.197
X88.135Y56.153
X87.65Y51.778
X87.493Y47.389
X87.653Y43.652
X88.125Y40.213
X88.523Y38.508
X89.03Y36.932
X89.695Y35.608
X91.139Y33.591
X93.342Y31.109
X95.961Y28.547
X96.662Y27.919
X102.053
X102.092Y27.918
X102.131Y27.917
X102.17Y27.915
X102.209Y27.911
X102.248Y27.907
X102.287Y27.902
X102.325Y27.895
X102.363Y27.888
X102.402Y27.88
X102.44Y27.871
X102.477Y27.861
X102.515Y27.85
X102.552Y27.839
X102.589Y27.826
X102.626Y27.812
X102.662Y27.798
X102.698Y27.782
X102.733Y27.766
X102.768Y27.749
X102.803Y27.731
X102.837Y27.712
X102.871Y27.693
X102.904Y27.672
X102.937Y27.651
X102.969Y27.629
X103Y27.606
X103.031Y27.582
X103.062Y27.558
X103.092Y27.533
X103.121Y27.507
X103.15Y27.48
X103.179Y27.452
X103.206Y27.424
X103.232Y27.396
X103.258Y27.366
X103.283Y27.337
X103.308Y27.306
X103.331Y27.275
X103.354Y27.243
X103.376Y27.211
X103.398Y27.179
X103.418Y27.145
X103.438Y27.112
X103.457Y27.077
X103.475Y27.043
X103.492Y27.008
X103.508Y26.972
X103.523Y26.936
X103.538Y26.9
X103.551Y26.864
X103.564Y26.827
X103.576Y26.789
X103.587Y26.752
X103.597Y26.714
X103.606Y26.676
X103.614Y26.638
X103.621Y26.6
X103.627Y26.561
X103.632Y26.523
X103.637Y26.484
X103.64Y26.445
X103.642Y26.406
X103.644Y26.367
Y26.328
Y18.328
Y18.291
X103.643Y18.255
X103.64Y18.218
X103.638Y18.181
X103.634Y18.145
X103.629Y18.109
X103.611Y17.978
X103.605Y17.94
X103.598Y17.902
X103.591Y17.864
X103.582Y17.826
X103.573Y17.789
X103.562Y17.751
X103.551Y17.714
X103.539Y17.678
X103.493Y17.546
X103.481Y17.512
X103.468Y17.478
X103.454Y17.445
X103.44Y17.411
X103.425Y17.379
X103.409Y17.346
X103.392Y17.314
X103.375Y17.282
X103.312Y17.172
X103.291Y17.135
X103.269Y17.1
X103.246Y17.064
X103.221Y17.03
X103.196Y16.996
X103.171Y16.962
X103.144Y16.93
X103.116Y16.898
X102.997Y16.764
X102.971Y16.735
X102.944Y16.707
X102.917Y16.68
X102.888Y16.653
X102.859Y16.626
X102.829Y16.601
X102.799Y16.576
X102.768Y16.552
X102.737Y16.529
X102.705Y16.507
X102.544Y16.397
X102.513Y16.376
X102.481Y16.356
X102.449Y16.337
X102.417Y16.319
X102.384Y16.301
X102.351Y16.284
X102.317Y16.268
X102.283Y16.253
X102.249Y16.238
X102.214Y16.224
X101.994Y16.14
X101.951Y16.125
X101.908Y16.11
X101.864Y16.097
X101.821Y16.085
X101.776Y16.075
X101.732Y16.065
X101.56Y16.032
X101.514Y16.024
X101.468Y16.017
X101.422Y16.011
X101.375Y16.007
X101.174Y15.991
X101.144Y15.989
X101.114Y15.988
X101.084Y15.987
X101.053
X84.078
X84.044
X84.01Y15.988
X83.976Y15.99
X83.941Y15.993
X83.907Y15.996
X83.873Y16
X83.476Y16.052
X83.437Y16.057
X83.398Y16.064
X83.359Y16.071
X83.321Y16.08
X83.282Y16.089
X83.244Y16.1
X83.206Y16.111
X83.168Y16.123
X83.131Y16.137
X83.094Y16.151
X82.86Y16.244
X82.824Y16.258
X82.789Y16.274
X82.754Y16.29
X82.72Y16.307
X82.686Y16.326
X82.652Y16.344
X82.619Y16.364
X82.586Y16.384
X82.554Y16.406
X82.523Y16.428
X82.366Y16.54
X82.336Y16.561
X82.307Y16.584
X82.278Y16.607
X82.25Y16.631
X82.222Y16.655
X82.195Y16.681
X82.169Y16.706
X82.143Y16.733
X82.118Y16.759
X82.093Y16.787
X81.985Y16.911
X81.958Y16.942
X81.932Y16.974
X81.907Y17.007
X81.882Y17.041
X81.859Y17.075
X81.837Y17.11
X81.815Y17.145
X81.794Y17.181
X81.725Y17.304
X81.709Y17.334
X81.693Y17.365
X81.678Y17.396
X81.663Y17.428
X81.649Y17.459
X81.636Y17.491
X81.623Y17.524
X81.612Y17.556
X81.573Y17.666
X81.56Y17.704
X81.549Y17.741
X81.538Y17.779
X81.528Y17.818
X81.52Y17.856
X81.512Y17.895
X81.493Y17.993
X81.485Y18.039
X81.478Y18.085
X81.473Y18.131
X81.469Y18.177
X81.466Y18.215
X81.463Y18.271
X81.462Y18.328
Y31.737
X74.428
X74.388
X74.347Y31.739
X74.307Y31.742
X74.267Y31.745
X74.227Y31.75
X74.187Y31.755
X74.146Y31.762
X74.108Y31.77
X74.069Y31.778
X74.031Y31.787
X73.993Y31.797
X73.956Y31.809
X73.918Y31.821
X73.881Y31.834
X73.845Y31.848
X73.809Y31.862
X73.768Y31.88
X73.744Y31.891
X73.719Y31.904
X73.687Y31.92
X73.654Y31.938
X73.622Y31.956
X73.591Y31.975
X73.56Y31.995
X73.529Y32.015
X73.499Y32.036
X73.467Y32.06
X73.436Y32.084
X73.406Y32.109
X73.376Y32.134
X73.347Y32.161
X73.319Y32.188
X73.291Y32.215
X73.264Y32.244
X73.237Y32.273
X73.212Y32.303
X73.187Y32.333
X73.163Y32.364
X73.128Y32.411
X73.095Y32.46
X73.069Y32.502
X73.049Y32.535
X73.03Y32.568
X73.012Y32.603
X72.995Y32.637
X72.979Y32.672
Z-0.6F5
X72.963Y32.707F10
X72.949Y32.743
X72.935Y32.779
X72.922Y32.815
X72.91Y32.852
X72.899Y32.889
X72.889Y32.926
X72.88Y32.963
X72.871Y33.001
X72.864Y33.039
X72.857Y33.077
X72.852Y33.115
X72.847Y33.153
X72.843Y33.192
X72.84Y33.23
X72.838Y33.269
X72.837Y33.307
Y33.346
X72.838Y33.385
X72.84Y33.422
X72.843Y33.46
X72.846Y33.498
X72.851Y33.535
X72.856Y33.572
X72.862Y33.609
X72.87Y33.647
X72.878Y33.683
X72.886Y33.72
X72.896Y33.756
X72.907Y33.793
X72.918Y33.829
X80.462Y56.585
Y71.073
X69.667Y103.83
X69.655Y103.868
X69.644Y103.906
X69.634Y103.945
X69.625Y103.984
X69.617Y104.023
X69.61Y104.063
X69.603Y104.102
X69.598Y104.142
X69.594Y104.181
X69.591Y104.221
X69.589Y104.261
X69.588Y104.301
X69.587Y104.342
X69.588Y104.382
X69.59Y104.421
X69.593Y104.461
X69.597Y104.5
X69.601Y104.539
X69.607Y104.579
X69.614Y104.618
X69.622Y104.657
X69.63Y104.695
X69.64Y104.734
X69.65Y104.772
X69.662Y104.81
X69.675Y104.847
X69.688Y104.885
X69.702Y104.922
X69.718Y104.958
X69.734Y104.995
X69.751Y105.03
X69.769Y105.066
X69.787Y105.101
X69.807Y105.135
X69.828Y105.169
X69.849Y105.202
X69.871Y105.235
X69.894Y105.267
X69.917Y105.298
X69.942Y105.329
X69.967Y105.36
X69.993Y105.389
X70.02Y105.418
X70.047Y105.447
X70.075Y105.474
X70.104Y105.501
X70.133Y105.528
X70.163Y105.553
X70.194Y105.578
X70.226Y105.602
X70.258Y105.626
X70.29Y105.648
X70.323Y105.67
X70.357Y105.691
X70.391Y105.711
X70.426Y105.73
X70.463Y105.749
X70.5Y105.767
X70.537Y105.784
X70.606Y105.813
X70.628Y105.821
X70.667Y105.835
X70.707Y105.847
X70.746Y105.859
X70.787Y105.87
X70.827Y105.88
X70.868Y105.888
X70.909Y105.896
X70.947Y105.902
X70.985Y105.907
X71.024Y105.911
X71.062Y105.915
X71.101Y105.917
X71.14Y105.918
X71.178Y105.919
X81.462
Y109.328
X81.463Y109.367
X81.464Y109.405
X81.467Y109.444
X81.47Y109.483
X81.474Y109.521
X81.479Y109.56
X81.485Y109.598
X81.492Y109.636
X81.5Y109.674
X81.509Y109.712
X81.519Y109.749
X81.53Y109.786
X81.578Y109.946
X81.589Y109.982
X81.601Y110.018
X81.614Y110.054
X81.628Y110.089
X81.643Y110.124
X81.659Y110.159
X81.675Y110.193
X81.692Y110.226
X81.774Y110.382
X81.791Y110.413
X81.808Y110.445
X81.827Y110.475
X81.846Y110.506
X81.866Y110.536
X81.886Y110.565
X81.908Y110.594
X81.929Y110.623
X82.027Y110.748
X82.054Y110.781
X82.081Y110.814
X82.109Y110.845
X82.139Y110.876
X82.169Y110.906
X82.199Y110.935
X82.231Y110.964
X82.263Y110.991
X82.434Y111.133
X82.465Y111.159
X82.496Y111.183
X82.529Y111.206
X82.561Y111.229
X82.595Y111.251
X82.629Y111.272
X82.663Y111.292
X82.698Y111.312
X82.733Y111.33
X82.769Y111.348
X82.987Y111.451
X83.023Y111.468
X83.061Y111.484
X83.098Y111.499
X83.136Y111.513
X83.175Y111.526
X83.213Y111.538
X83.252Y111.549
X83.292Y111.559
X83.479Y111.605
X83.52Y111.614
X83.56Y111.623
X83.601Y111.63
X83.642Y111.636
X83.683Y111.641
X83.724Y111.645
X83.946Y111.663
X83.979Y111.666
X84.012Y111.668
X84.045Y111.669
X84.078
X101.053
X101.094Y111.668
X101.134Y111.667
X101.175Y111.664
X101.215Y111.661
X101.576Y111.624
X101.613Y111.619
X101.651Y111.614
X101.688Y111.608
X101.725Y111.601
X101.762Y111.593
X101.799Y111.585
X101.835Y111.575
X101.872Y111.565
X101.908Y111.553
X101.943Y111.541
X102.183Y111.457
X102.22Y111.443
X102.256Y111.429
X102.293Y111.414
X102.328Y111.397
X102.364Y111.38
X102.399Y111.362
X102.433Y111.343
X102.467Y111.323
X102.501Y111.303
X102.534Y111.282
X102.69Y111.178
X102.722Y111.156
X102.753Y111.134
X102.783Y111.111
X102.813Y111.087
X102.842Y111.063
X102.871Y111.038
X102.899Y111.012
X102.927Y110.986
X102.953Y110.959
X102.979Y110.931
X103.089Y110.813
X103.118Y110.78
X103.146Y110.747
X103.173Y110.713
X103.2Y110.678
X103.225Y110.643
X103.249Y110.607
X103.273Y110.57
X103.295Y110.533
X103.365Y110.412
X103.383Y110.38
X103.401Y110.348
X103.417Y110.315
X103.433Y110.282
X103.448Y110.249
X103.462Y110.215
X103.475Y110.181
X103.488Y110.147
X103.528Y110.034
X103.543Y109.992
X103.556Y109.949
X103.568Y109.906
X103.579Y109.863
X103.588Y109.819
X103.597Y109.775
X103.618Y109.652
X103.624Y109.616
X103.629Y109.58
X103.634Y109.543
X103.637Y109.507
X103.64Y109.471
X103.641Y109.434
X103.644Y109.357
Y109.328
Y101.328
Y101.289
X103.642Y101.25
X103.64Y101.211
X103.637Y101.172
X103.632Y101.133
X103.627Y101.095
X103.621Y101.056
X103.614Y101.018
X103.606Y100.98
X103.597Y100.942
X103.587Y100.904
X103.576Y100.866
X103.564Y100.829
X103.551Y100.792
X103.538Y100.756
X103.523Y100.719
X103.508Y100.684
X103.492Y100.648
X103.474Y100.613
X103.457Y100.578
X103.438Y100.544
X103.418Y100.51
X103.398Y100.477
X103.376Y100.445
X103.354Y100.412
X103.331Y100.381
X103.308Y100.35
X103.283Y100.319
X103.258Y100.289
X103.232Y100.26
X103.206Y100.232
X103.178Y100.203
X103.15Y100.175
X103.121Y100.149
X103.092Y100.123
X103.062Y100.098
X103.031Y100.073
X103Y100.05
X102.969Y100.027
X102.937Y100.005
X102.904Y99.984
X102.871Y99.963
X102.837Y99.943
X102.803Y99.925
X102.768Y99.907
X102.733Y99.89
X102.698Y99.873
X102.662Y99.858
X102.626Y99.843
X102.589Y99.83
X102.552Y99.817
X102.515Y99.805
X102.477Y99.794
X102.44Y99.785
X102.402Y99.776
X102.363Y99.767
X102.325Y99.76
X102.287Y99.754
X102.248Y99.749
X102.209Y99.745
X102.17Y99.741
X102.131Y99.739
X102.092Y99.737
X102.053
X96.68
X94.128Y97.356
X91.64Y94.68
X89.964Y92.484
X89.422Y91.583
X89.046Y90.766
X88.323Y88.331
X87.85Y85.705
X87.548Y82.161
X87.539Y78.125
X87.884Y73.409
X88.131Y71.535
X88.135Y71.501
X88.138Y71.466
X88.141Y71.432
X88.143Y71.397
X88.144Y71.363
Y71.328
Y56.328
Y56.284
X88.142Y56.24
X88.139Y56.197
X88.135Y56.153
X87.65Y51.778
X87.493Y47.389
X87.653Y43.652
X88.125Y40.213
X88.523Y38.508
X89.03Y36.932
X89.695Y35.608
X91.139Y33.591
X93.342Y31.109
X95.961Y28.547
X96.662Y27.919
X102.053
X102.092Y27.918
X102.131Y27.917
X102.17Y27.915
X102.209Y27.911
X102.248Y27.907
X102.287Y27.902
X102.325Y27.895
X102.363Y27.888
X102.402Y27.88
X102.44Y27.871
X102.477Y27.861
X102.515Y27.85
X102.552Y27.839
X102.589Y27.826
X102.626Y27.812
X102.662Y27.798
X102.698Y27.782
X102.733Y27.766
X102.768Y27.749
X102.803Y27.731
X102.837Y27.712
X102.871Y27.693
X102.904Y27.672
X102.937Y27.651
X102.969Y27.629
X103Y27.606
X103.031Y27.582
X103.062Y27.558
X103.092Y27.533
X103.121Y27.507
X103.15Y27.48
X103.179Y27.452
X103.206Y27.424
X103.232Y27.396
X103.258Y27.366
X103.283Y27.337
X103.308Y27.306
X103.331Y27.275
X103.354Y27.243
X103.376Y27.211
X103.398Y27.179
X103.418Y27.145
X103.438Y27.112
X103.457Y27.077
X103.475Y27.043
X103.492Y27.008
X103.508Y26.972
X103.523Y26.936
X103.538Y26.9
X103.551Y26.864
X103.564Y26.827
X103.576Y26.789
X103.587Y26.752
X103.597Y26.714
X103.606Y26.676
X103.614Y26.638
X103.621Y26.6
X103.627Y26.561
X103.632Y26.523
X103.637Y26.484
X103.64Y26.445
X103.642Y26.406
X103.644Y26.367
Y26.328
Y18.328
Y18.291
X103.643Y18.255
X103.64Y18.218
X103.638Y18.181
X103.634Y18.145
X103.629Y18.109
X103.611Y17.978
X103.605Y17.94
X103.598Y17.902
X103.591Y17.864
X103.582Y17.826
X103.573Y17.789
X103.562Y17.751
X103.551Y17.714
X103.539Y17.678
X103.493Y17.546
X103.481Y17.512
X103.468Y17.478
X103.454Y17.445
X103.44Y17.411
X103.425Y17.379
X103.409Y17.346
X103.392Y17.314
X103.375Y17.282
X103.312Y17.172
X103.291Y17.135
X103.269Y17.1
X103.246Y17.064
X103.221Y17.03
X103.196Y16.996
X103.171Y16.962
X103.144Y16.93
X103.116Y16.898
X102.997Y16.764
X102.971Y16.735
X102.944Y16.707
X102.917Y16.68
X102.888Y16.653
X102.859Y16.626
X102.829Y16.601
X102.799Y16.576
X102.768Y16.552
X102.737Y16.529
X102.705Y16.507
X102.544Y16.397
X102.513Y16.376
X102.481Y16.356
X102.449Y16.337
X102.417Y16.319
X102.384Y16.301
X102.351Y16.284
X102.317Y16.268
X102.283Y16.253
X102.249Y16.238
X102.214Y16.224
X101.994Y16.14
X101.951Y16.125
X101.908Y16.11
X101.864Y16.097
X101.821Y16.085
X101.776Y16.075
X101.732Y16.065
X101.56Y16.032
X101.514Y16.024
X101.468Y16.017
X101.422Y16.011
X101.375Y16.007
X101.174Y15.991
X101.144Y15.989
X101.114Y15.988
X101.084Y15.987
X101.053
X84.078
X84.044
X84.01Y15.988
X83.976Y15.99
X83.941Y15.993
X83.907Y15.996
X83.873Y16
X83.476Y16.052
X83.437Y16.057
X83.398Y16.064
X83.359Y16.071
X83.321Y16.08
X83.282Y16.089
X83.244Y16.1
X83.206Y16.111
X83.168Y16.123
X83.131Y16.137
X83.094Y16.151
X82.86Y16.244
X82.824Y16.258
X82.789Y16.274
X82.754Y16.29
X82.72Y16.307
X82.686Y16.326
X82.652Y16.344
X82.619Y16.364
X82.586Y16.384
X82.554Y16.406
X82.523Y16.428
X82.366Y16.54
X82.336Y16.561
X82.307Y16.584
X82.278Y16.607
X82.25Y16.631
X82.222Y16.655
X82.195Y16.681
X82.169Y16.706
X82.143Y16.733
X82.118Y16.759
X82.093Y16.787
X81.985Y16.911
X81.958Y16.942
X81.932Y16.974
X81.907Y17.007
X81.882Y17.041
X81.859Y17.075
X81.837Y17.11
X81.815Y17.145
X81.794Y17.181
X81.725Y17.304
X81.709Y17.334
X81.693Y17.365
X81.678Y17.396
X81.663Y17.428
X81.649Y17.459
X81.636Y17.491
X81.623Y17.524
X81.612Y17.556
X81.573Y17.666
X81.56Y17.704
X81.549Y17.741
X81.538Y17.779
X81.528Y17.818
X81.52Y17.856
X81.512Y17.895
X81.493Y17.993
X81.485Y18.039
X81.478Y18.085
X81.473Y18.131
X81.469Y18.177
X81.466Y18.215
X81.463Y18.271
X81.462Y18.328
Y31.737
X74.428
X74.388
X74.347Y31.739
X74.307Y31.742
X74.267Y31.745
X74.227Y31.75
X74.187Y31.755
X74.146Y31.762
X74.108Y31.77
X74.069Y31.778
X74.031Y31.787
X73.993Y31.797
X73.956Y31.809
X73.918Y31.821
X73.881Y31.834
X73.845Y31.848
X73.809Y31.862
X73.768Y31.88
X73.744Y31.891
X73.719Y31.904
X73.687Y31.92
X73.654Y31.938
X73.622Y31.956
X73.591Y31.975
X73.56Y31.995
X73.529Y32.015
X73.499Y32.036
X73.467Y32.06
X73.436Y32.084
X73.406Y32.109
X73.376Y32.134
X73.347Y32.161
X73.319Y32.188
X73.291Y32.215
X73.264Y32.244
X73.237Y32.273
X73.212Y32.303
X73.187Y32.333
X73.163Y32.364
X73.128Y32.411
X73.095Y32.46
X73.069Y32.502
X73.049Y32.535
X73.03Y32.568
X73.012Y32.603
X72.995Y32.637
X72.979Y32.672
Z-0.7F5
X72.963Y32.707F10
X72.949Y32.743
X72.935Y32.779
X72.922Y32.815
X72.91Y32.852
X72.899Y32.889
X72.889Y32.926
X72.88Y32.963
X72.871Y33.001
X72.864Y33.039
X72.857Y33.077
X72.852Y33.115
X72.847Y33.153
X72.843Y33.192
X72.84Y33.23
X72.838Y33.269
X72.837Y33.307
Y33.346
X72.838Y33.385
X72.84Y33.422
X72.843Y33.46
X72.846Y33.498
X72.851Y33.535
X72.856Y33.572
X72.862Y33.609
X72.87Y33.647
X72.878Y33.683
X72.886Y33.72
X72.896Y33.756
X72.907Y33.793
X72.918Y33.829
X80.462Y56.585
Y71.073
X69.667Y103.83
X69.655Y103.868
X69.644Y103.906
X69.634Y103.945
X69.625Y103.984
X69.617Y104.023
X69.61Y104.063
X69.603Y104.102
X69.598Y104.142
X69.594Y104.181
X69.591Y104.221
X69.589Y104.261
X69.588Y104.301
X69.587Y104.342
X69.588Y104.382
X69.59Y104.421
X69.593Y104.461
X69.597Y104.5
X69.601Y104.539
X69.607Y104.579
X69.614Y104.618
X69.622Y104.657
X69.63Y104.695
X69.64Y104.734
X69.65Y104.772
X69.662Y104.81
X69.675Y104.847
X69.688Y104.885
X69.702Y104.922
X69.718Y104.958
X69.734Y104.995
X69.751Y105.03
X69.769Y105.066
X69.787Y105.101
X69.807Y105.135
X69.828Y105.169
X69.849Y105.202
X69.871Y105.235
X69.894Y105.267
X69.917Y105.298
X69.942Y105.329
X69.967Y105.36
X69.993Y105.389
X70.02Y105.418
X70.047Y105.447
X70.075Y105.474
X70.104Y105.501
X70.133Y105.528
X70.163Y105.553
X70.194Y105.578
X70.226Y105.602
X70.258Y105.626
X70.29Y105.648
X70.323Y105.67
X70.357Y105.691
X70.391Y105.711
X70.426Y105.73
X70.463Y105.749
X70.5Y105.767
X70.537Y105.784
X70.606Y105.813
X70.628Y105.821
X70.667Y105.835
X70.707Y105.847
X70.746Y105.859
X70.787Y105.87
X70.827Y105.88
X70.868Y105.888
X70.909Y105.896
X70.947Y105.902
X70.985Y105.907
X71.024Y105.911
X71.062Y105.915
X71.101Y105.917
X71.14Y105.918
X71.178Y105.919
X81.462
Y109.328
X81.463Y109.367
X81.464Y109.405
X81.467Y109.444
X81.47Y109.483
X81.474Y109.521
X81.479Y109.56
X81.485Y109.598
X81.492Y109.636
X81.5Y109.674
X81.509Y109.712
X81.519Y109.749
X81.53Y109.786
X81.578Y109.946
X81.589Y109.982
X81.601Y110.018
X81.614Y110.054
X81.628Y110.089
X81.643Y110.124
X81.659Y110.159
X81.675Y110.193
X81.692Y110.226
X81.774Y110.382
X81.791Y110.413
X81.808Y110.445
X81.827Y110.475
X81.846Y110.506
X81.866Y110.536
X81.886Y110.565
X81.908Y110.594
X81.929Y110.623
X82.027Y110.748
X82.054Y110.781
X82.081Y110.814
X82.109Y110.845
X82.139Y110.876
X82.169Y110.906
X82.199Y110.935
X82.231Y110.964
X82.263Y110.991
X82.434Y111.133
X82.465Y111.159
X82.496Y111.183
X82.529Y111.206
X82.561Y111.229
X82.595Y111.251
X82.629Y111.272
X82.663Y111.292
X82.698Y111.312
X82.733Y111.33
X82.769Y111.348
X82.987Y111.451
X83.023Y111.468
X83.061Y111.484
X83.098Y111.499
X83.136Y111.513
X83.175Y111.526
X83.213Y111.538
X83.252Y111.549
X83.292Y111.559
X83.479Y111.605
X83.52Y111.614
X83.56Y111.623
X83.601Y111.63
X83.642Y111.636
X83.683Y111.641
X83.724Y111.645
X83.946Y111.663
X83.979Y111.666
X84.012Y111.668
X84.045Y111.669
X84.078
X101.053
X101.094Y111.668
X101.134Y111.667
X101.175Y111.664
X101.215Y111.661
X101.576Y111.624
X101.613Y111.619
X101.651Y111.614
X101.688Y111.608
X101.725Y111.601
X101.762Y111.593
X101.799Y111.585
X101.835Y111.575
X101.872Y111.565
X101.908Y111.553
X101.943Y111.541
X102.183Y111.457
X102.22Y111.443
X102.256Y111.429
X102.293Y111.414
X102.328Y111.397
X102.364Y111.38
X102.399Y111.362
X102.433Y111.343
X102.467Y111.323
X102.501Y111.303
X102.534Y111.282
X102.69Y111.178
X102.722Y111.156
X102.753Y111.134
X102.783Y111.111
X102.813Y111.087
X102.842Y111.063
X102.871Y111.038
X102.899Y111.012
X102.927Y110.986
X102.953Y110.959
X102.979Y110.931
X103.089Y110.813
X103.118Y110.78
X103.146Y110.747
X103.173Y110.713
X103.2Y110.678
X103.225Y110.643
X103.249Y110.607
X103.273Y110.57
X103.295Y110.533
X103.365Y110.412
X103.383Y110.38
X103.401Y110.348
X103.417Y110.315
X103.433Y110.282
X103.448Y110.249
X103.462Y110.215
X103.475Y110.181
X103.488Y110.147
X103.528Y110.034
X103.543Y109.992
X103.556Y109.949
X103.568Y109.906
X103.579Y109.863
X103.588Y109.819
X103.597Y109.775
X103.618Y109.652
X103.624Y109.616
X103.629Y109.58
X103.634Y109.543
X103.637Y109.507
X103.64Y109.471
X103.641Y109.434
X103.644Y109.357
Y109.328
Y101.328
Y101.289
X103.642Y101.25
X103.64Y101.211
X103.637Y101.172
X103.632Y101.133
X103.627Y101.095
X103.621Y101.056
X103.614Y101.018
X103.606Y100.98
X103.597Y100.942
X103.587Y100.904
X103.576Y100.866
X103.564Y100.829
X103.551Y100.792
X103.538Y100.756
X103.523Y100.719
X103.508Y100.684
X103.492Y100.648
X103.474Y100.613
X103.457Y100.578
X103.438Y100.544
X103.418Y100.51
X103.398Y100.477
X103.376Y100.445
X103.354Y100.412
X103.331Y100.381
X103.308Y100.35
X103.283Y100.319
X103.258Y100.289
X103.232Y100.26
X103.206Y100.232
X103.178Y100.203
X103.15Y100.175
X103.121Y100.149
X103.092Y100.123
X103.062Y100.098
X103.031Y100.073
X103Y100.05
X102.969Y100.027
X102.937Y100.005
X102.904Y99.984
X102.871Y99.963
X102.837Y99.943
X102.803Y99.925
X102.768Y99.907
X102.733Y99.89
X102.698Y99.873
X102.662Y99.858
X102.626Y99.843
X102.589Y99.83
X102.552Y99.817
X102.515Y99.805
X102.477Y99.794
X102.44Y99.785
X102.402Y99.776
X102.363Y99.767
X102.325Y99.76
X102.287Y99.754
X102.248Y99.749
X102.209Y99.745
X102.17Y99.741
X102.131Y99.739
X102.092Y99.737
X102.053
X96.68
X94.128Y97.356
X91.64Y94.68
X89.964Y92.484
X89.422Y91.583
X89.046Y90.766
X88.323Y88.331
X87.85Y85.705
X87.548Y82.161
X87.539Y78.125
X87.884Y73.409
X88.131Y71.535
X88.135Y71.501
X88.138Y71.466
X88.141Y71.432
X88.143Y71.397
X88.144Y71.363
Y71.328
Y56.328
Y56.284
X88.142Y56.24
X88.139Y56.197
X88.135Y56.153
X87.65Y51.778
X87.493Y47.389
X87.653Y43.652
X88.125Y40.213
X88.523Y38.508
X89.03Y36.932
X89.695Y35.608
X91.139Y33.591
X93.342Y31.109
X95.961Y28.547
X96.662Y27.919
X102.053
X102.092Y27.918
X102.131Y27.917
X102.17Y27.915
X102.209Y27.911
X102.248Y27.907
X102.287Y27.902
X102.325Y27.895
X102.363Y27.888
X102.402Y27.88
X102.44Y27.871
X102.477Y27.861
X102.515Y27.85
X102.552Y27.839
X102.589Y27.826
X102.626Y27.812
X102.662Y27.798
X102.698Y27.782
X102.733Y27.766
X102.768Y27.749
X102.803Y27.731
X102.837Y27.712
X102.871Y27.693
X102.904Y27.672
X102.937Y27.651
X102.969Y27.629
X103Y27.606
X103.031Y27.582
X103.062Y27.558
X103.092Y27.533
X103.121Y27.507
X103.15Y27.48
X103.179Y27.452
X103.206Y27.424
X103.232Y27.396
X103.258Y27.366
X103.283Y27.337
X103.308Y27.306
X103.331Y27.275
X103.354Y27.243
X103.376Y27.211
X103.398Y27.179
X103.418Y27.145
X103.438Y27.112
X103.457Y27.077
X103.475Y27.043
X103.492Y27.008
X103.508Y26.972
X103.523Y26.936
X103.538Y26.9
X103.551Y26.864
X103.564Y26.827
X103.576Y26.789
X103.587Y26.752
X103.597Y26.714
X103.606Y26.676
X103.614Y26.638
X103.621Y26.6
X103.627Y26.561
X103.632Y26.523
X103.637Y26.484
X103.64Y26.445
X103.642Y26.406
X103.644Y26.367
Y26.328
Y18.328
Y18.291
X103.643Y18.255
X103.64Y18.218
X103.638Y18.181
X103.634Y18.145
X103.629Y18.109
X103.611Y17.978
X103.605Y17.94
X103.598Y17.902
X103.591Y17.864
X103.582Y17.826
X103.573Y17.789
X103.562Y17.751
X103.551Y17.714
X103.539Y17.678
X103.493Y17.546
X103.481Y17.512
X103.468Y17.478
X103.454Y17.445
X103.44Y17.411
X103.425Y17.379
X103.409Y17.346
X103.392Y17.314
X103.375Y17.282
X103.312Y17.172
X103.291Y17.135
X103.269Y17.1
X103.246Y17.064
X103.221Y17.03
X103.196Y16.996
X103.171Y16.962
X103.144Y16.93
X103.116Y16.898
X102.997Y16.764
X102.971Y16.735
X102.944Y16.707
X102.917Y16.68
X102.888Y16.653
X102.859Y16.626
X102.829Y16.601
X102.799Y16.576
X102.768Y16.552
X102.737Y16.529
X102.705Y16.507
X102.544Y16.397
X102.513Y16.376
X102.481Y16.356
X102.449Y16.337
X102.417Y16.319
X102.384Y16.301
X102.351Y16.284
X102.317Y16.268
X102.283Y16.253
X102.249Y16.238
X102.214Y16.224
X101.994Y16.14
X101.951Y16.125
X101.908Y16.11
X101.864Y16.097
X101.821Y16.085
X101.776Y16.075
X101.732Y16.065
X101.56Y16.032
X101.514Y16.024
X101.468Y16.017
X101.422Y16.011
X101.375Y16.007
X101.174Y15.991
X101.144Y15.989
X101.114Y15.988
X101.084Y15.987
X101.053
X84.078
X84.044
X84.01Y15.988
X83.976Y15.99
X83.941Y15.993
X83.907Y15.996
X83.873Y16
X83.476Y16.052
X83.437Y16.057
X83.398Y16.064
X83.359Y16.071
X83.321Y16.08
X83.282Y16.089
X83.244Y16.1
X83.206Y16.111
X83.168Y16.123
X83.131Y16.137
X83.094Y16.151
X82.86Y16.244
X82.824Y16.258
X82.789Y16.274
X82.754Y16.29
X82.72Y16.307
X82.686Y16.326
X82.652Y16.344
X82.619Y16.364
X82.586Y16.384
X82.554Y16.406
X82.523Y16.428
X82.366Y16.54
X82.336Y16.561
X82.307Y16.584
X82.278Y16.607
X82.25Y16.631
X82.222Y16.655
X82.195Y16.681
X82.169Y16.706
X82.143Y16.733
X82.118Y16.759
X82.093Y16.787
X81.985Y16.911
X81.958Y16.942
X81.932Y16.974
X81.907Y17.007
X81.882Y17.041
X81.859Y17.075
X81.837Y17.11
X81.815Y17.145
X81.794Y17.181
X81.725Y17.304
X81.709Y17.334
X81.693Y17.365
X81.678Y17.396
X81.663Y17.428
X81.649Y17.459
X81.636Y17.491
X81.623Y17.524
X81.612Y17.556
X81.573Y17.666
X81.56Y17.704
X81.549Y17.741
X81.538Y17.779
X81.528Y17.818
X81.52Y17.856
X81.512Y17.895
X81.493Y17.993
X81.485Y18.039
X81.478Y18.085
X81.473Y18.131
X81.469Y18.177
X81.466Y18.215
X81.463Y18.271
X81.462Y18.328
Y31.737
X74.428
X74.388
X74.347Y31.739
X74.307Y31.742
X74.267Y31.745
X74.227Y31.75
X74.187Y31.755
X74.146Y31.762
X74.108Y31.77
X74.069Y31.778
X74.031Y31.787
X73.993Y31.797
X73.956Y31.809
X73.918Y31.821
X73.881Y31.834
X73.845Y31.848
X73.809Y31.862
X73.768Y31.88
X73.744Y31.891
X73.719Y31.904
X73.687Y31.92
X73.654Y31.938
X73.622Y31.956
X73.591Y31.975
X73.56Y31.995
X73.529Y32.015
X73.499Y32.036
X73.467Y32.06
X73.436Y32.084
X73.406Y32.109
X73.376Y32.134
X73.347Y32.161
X73.319Y32.188
X73.291Y32.215
X73.264Y32.244
X73.237Y32.273
X73.212Y32.303
X73.187Y32.333
X73.163Y32.364
X73.128Y32.411
X73.095Y32.46
X73.069Y32.502
X73.049Y32.535
X73.03Y32.568
X73.012Y32.603
X72.995Y32.637
X72.979Y32.672
Z-0.8F5
X72.963Y32.707F10
X72.949Y32.743
X72.935Y32.779
X72.922Y32.815
X72.91Y32.852
X72.899Y32.889
X72.889Y32.926
X72.88Y32.963
X72.871Y33.001
X72.864Y33.039
X72.857Y33.077
X72.852Y33.115
X72.847Y33.153
X72.843Y33.192
X72.84Y33.23
X72.838Y33.269
X72.837Y33.307
Y33.346
X72.838Y33.385
X72.84Y33.422
X72.843Y33.46
X72.846Y33.498
X72.851Y33.535
X72.856Y33.572
X72.862Y33.609
X72.87Y33.647
X72.878Y33.683
X72.886Y33.72
X72.896Y33.756
X72.907Y33.793
X72.918Y33.829
X80.462Y56.585
Y71.073
X69.667Y103.83
X69.655Y103.868
X69.644Y103.906
X69.634Y103.945
X69.625Y103.984
X69.617Y104.023
X69.61Y104.063
X69.603Y104.102
X69.598Y104.142
X69.594Y104.181
X69.591Y104.221
X69.589Y104.261
X69.588Y104.301
X69.587Y104.342
X69.588Y104.382
X69.59Y104.421
X69.593Y104.461
X69.597Y104.5
X69.601Y104.539
X69.607Y104.579
X69.614Y104.618
X69.622Y104.657
X69.63Y104.695
X69.64Y104.734
X69.65Y104.772
X69.662Y104.81
X69.675Y104.847
X69.688Y104.885
X69.702Y104.922
X69.718Y104.958
X69.734Y104.995
X69.751Y105.03
X69.769Y105.066
X69.787Y105.101
X69.807Y105.135
X69.828Y105.169
X69.849Y105.202
X69.871Y105.235
X69.894Y105.267
X69.917Y105.298
X69.942Y105.329
X69.967Y105.36
X69.993Y105.389
X70.02Y105.418
X70.047Y105.447
X70.075Y105.474
X70.104Y105.501
X70.133Y105.528
X70.163Y105.553
X70.194Y105.578
X70.226Y105.602
X70.258Y105.626
X70.29Y105.648
X70.323Y105.67
X70.357Y105.691
X70.391Y105.711
X70.426Y105.73
X70.463Y105.749
X70.5Y105.767
X70.537Y105.784
X70.606Y105.813
X70.628Y105.821
X70.667Y105.835
X70.707Y105.847
X70.746Y105.859
X70.787Y105.87
X70.827Y105.88
X70.868Y105.888
X70.909Y105.896
X70.947Y105.902
X70.985Y105.907
X71.024Y105.911
X71.062Y105.915
X71.101Y105.917
X71.14Y105.918
X71.178Y105.919
X81.462
Y109.328
X81.463Y109.367
X81.464Y109.405
X81.467Y109.444
X81.47Y109.483
X81.474Y109.521
X81.479Y109.56
X81.485Y109.598
X81.492Y109.636
X81.5Y109.674
X81.509Y109.712
X81.519Y109.749
X81.53Y109.786
X81.578Y109.946
X81.589Y109.982
X81.601Y110.018
X81.614Y110.054
X81.628Y110.089
X81.643Y110.124
X81.659Y110.159
X81.675Y110.193
X81.692Y110.226
X81.774Y110.382
X81.791Y110.413
X81.808Y110.445
X81.827Y110.475
X81.846Y110.506
X81.866Y110.536
X81.886Y110.565
X81.908Y110.594
X81.929Y110.623
X82.027Y110.748
X82.054Y110.781
X82.081Y110.814
X82.109Y110.845
X82.139Y110.876
X82.169Y110.906
X82.199Y110.935
X82.231Y110.964
X82.263Y110.991
X82.434Y111.133
X82.465Y111.159
X82.496Y111.183
X82.529Y111.206
X82.561Y111.229
X82.595Y111.251
X82.629Y111.272
X82.663Y111.292
X82.698Y111.312
X82.733Y111.33
X82.769Y111.348
X82.987Y111.451
X83.023Y111.468
X83.061Y111.484
X83.098Y111.499
X83.136Y111.513
X83.175Y111.526
X83.213Y111.538
X83.252Y111.549
X83.292Y111.559
X83.479Y111.605
X83.52Y111.614
X83.56Y111.623
X83.601Y111.63
X83.642Y111.636
X83.683Y111.641
X83.724Y111.645
X83.946Y111.663
X83.979Y111.666
X84.012Y111.668
X84.045Y111.669
X84.078
X101.053
X101.094Y111.668
X101.134Y111.667
X101.175Y111.664
X101.215Y111.661
X101.576Y111.624
X101.613Y111.619
X101.651Y111.614
X101.688Y111.608
X101.725Y111.601
X101.762Y111.593
X101.799Y111.585
X101.835Y111.575
X101.872Y111.565
X101.908Y111.553
X101.943Y111.541
X102.183Y111.457
X102.22Y111.443
X102.256Y111.429
X102.293Y111.414
X102.328Y111.397
X102.364Y111.38
X102.399Y111.362
X102.433Y111.343
X102.467Y111.323
X102.501Y111.303
X102.534Y111.282
X102.69Y111.178
X102.722Y111.156
X102.753Y111.134
X102.783Y111.111
X102.813Y111.087
X102.842Y111.063
X102.871Y111.038
X102.899Y111.012
X102.927Y110.986
X102.953Y110.959
X102.979Y110.931
X103.089Y110.813
X103.118Y110.78
X103.146Y110.747
X103.173Y110.713
X103.2Y110.678
X103.225Y110.643
X103.249Y110.607
X103.273Y110.57
X103.295Y110.533
X103.365Y110.412
X103.383Y110.38
X103.401Y110.348
X103.417Y110.315
X103.433Y110.282
X103.448Y110.249
X103.462Y110.215
X103.475Y110.181
X103.488Y110.147
X103.528Y110.034
X103.543Y109.992
X103.556Y109.949
X103.568Y109.906
X103.579Y109.863
X103.588Y109.819
X103.597Y109.775
X103.618Y109.652
X103.624Y109.616
X103.629Y109.58
X103.634Y109.543
X103.637Y109.507
X103.64Y109.471
X103.641Y109.434
X103.644Y109.357
Y109.328
Y101.328
Y101.289
X103.642Y101.25
X103.64Y101.211
X103.637Y101.172
X103.632Y101.133
X103.627Y101.095
X103.621Y101.056
X103.614Y101.018
X103.606Y100.98
X103.597Y100.942
X103.587Y100.904
X103.576Y100.866
X103.564Y100.829
X103.551Y100.792
X103.538Y100.756
X103.523Y100.719
X103.508Y100.684
X103.492Y100.648
X103.474Y100.613
X103.457Y100.578
X103.438Y100.544
X103.418Y100.51
X103.398Y100.477
X103.376Y100.445
X103.354Y100.412
X103.331Y100.381
X103.308Y100.35
X103.283Y100.319
X103.258Y100.289
X103.232Y100.26
X103.206Y100.232
X103.178Y100.203
X103.15Y100.175
X103.121Y100.149
X103.092Y100.123
X103.062Y100.098
X103.031Y100.073
X103Y100.05
X102.969Y100.027
X102.937Y100.005
X102.904Y99.984
X102.871Y99.963
X102.837Y99.943
X102.803Y99.925
X102.768Y99.907
X102.733Y99.89
X102.698Y99.873
X102.662Y99.858
X102.626Y99.843
X102.589Y99.83
X102.552Y99.817
X102.515Y99.805
X102.477Y99.794
X102.44Y99.785
X102.402Y99.776
X102.363Y99.767
X102.325Y99.76
X102.287Y99.754
X102.248Y99.749
X102.209Y99.745
X102.17Y99.741
X102.131Y99.739
X102.092Y99.737
X102.053
X96.68
X94.128Y97.356
X91.64Y94.68
X89.964Y92.484
X89.422Y91.583
X89.046Y90.766
X88.323Y88.331
X87.85Y85.705
X87.548Y82.161
X87.539Y78.125
X87.884Y73.409
X88.131Y71.535
X88.135Y71.501
X88.138Y71.466
X88.141Y71.432
X88.143Y71.397
X88.144Y71.363
Y71.328
Y56.328
Y56.284
X88.142Y56.24
X88.139Y56.197
X88.135Y56.153
X87.65Y51.778
X87.493Y47.389
X87.653Y43.652
X88.125Y40.213
X88.523Y38.508
X89.03Y36.932
X89.695Y35.608
X91.139Y33.591
X93.342Y31.109
X95.961Y28.547
X96.662Y27.919
X102.053
X102.092Y27.918
X102.131Y27.917
X102.17Y27.915
X102.209Y27.911
X102.248Y27.907
X102.287Y27.902
X102.325Y27.895
X102.363Y27.888
X102.402Y27.88
X102.44Y27.871
X102.477Y27.861
X102.515Y27.85
X102.552Y27.839
X102.589Y27.826
X102.626Y27.812
X102.662Y27.798
X102.698Y27.782
X102.733Y27.766
X102.768Y27.749
X102.803Y27.731
X102.837Y27.712
X102.871Y27.693
X102.904Y27.672
X102.937Y27.651
X102.969Y27.629
X103Y27.606
X103.031Y27.582
X103.062Y27.558
X103.092Y27.533
X103.121Y27.507
X103.15Y27.48
X103.179Y27.452
X103.206Y27.424
X103.232Y27.396
X103.258Y27.366
X103.283Y27.337
X103.308Y27.306
X103.331Y27.275
X103.354Y27.243
X103.376Y27.211
X103.398Y27.179
X103.418Y27.145
X103.438Y27.112
X103.457Y27.077
X103.475Y27.043
X103.492Y27.008
X103.508Y26.972
X103.523Y26.936
X103.538Y26.9
X103.551Y26.864
X103.564Y26.827
X103.576Y26.789
X103.587Y26.752
X103.597Y26.714
X103.606Y26.676
X103.614Y26.638
X103.621Y26.6
X103.627Y26.561
X103.632Y26.523
X103.637Y26.484
X103.64Y26.445
X103.642Y26.406
X103.644Y26.367
Y26.328
Y18.328
Y18.291
X103.643Y18.255
X103.64Y18.218
X103.638Y18.181
X103.634Y18.145
X103.629Y18.109
X103.611Y17.978
X103.605Y17.94
X103.598Y17.902
X103.591Y17.864
X103.582Y17.826
X103.573Y17.789
X103.562Y17.751
X103.551Y17.714
X103.539Y17.678
X103.493Y17.546
X103.481Y17.512
X103.468Y17.478
X103.454Y17.445
X103.44Y17.411
X103.425Y17.379
X103.409Y17.346
X103.392Y17.314
X103.375Y17.282
X103.312Y17.172
X103.291Y17.135
X103.269Y17.1
X103.246Y17.064
X103.221Y17.03
X103.196Y16.996
X103.171Y16.962
X103.144Y16.93
X103.116Y16.898
X102.997Y16.764
X102.971Y16.735
X102.944Y16.707
X102.917Y16.68
X102.888Y16.653
X102.859Y16.626
X102.829Y16.601
X102.799Y16.576
X102.768Y16.552
X102.737Y16.529
X102.705Y16.507
X102.544Y16.397
X102.513Y16.376
X102.481Y16.356
X102.449Y16.337
X102.417Y16.319
X102.384Y16.301
X102.351Y16.284
X102.317Y16.268
X102.283Y16.253
X102.249Y16.238
X102.214Y16.224
X101.994Y16.14
X101.951Y16.125
X101.908Y16.11
X101.864Y16.097
X101.821Y16.085
X101.776Y16.075
X101.732Y16.065
X101.56Y16.032
X101.514Y16.024
X101.468Y16.017
X101.422Y16.011
X101.375Y16.007
X101.174Y15.991
X101.144Y15.989
X101.114Y15.988
X101.084Y15.987
X101.053
X84.078
X84.044
X84.01Y15.988
X83.976Y15.99
X83.941Y15.993
X83.907Y15.996
X83.873Y16
X83.476Y16.052
X83.437Y16.057
X83.398Y16.064
X83.359Y16.071
X83.321Y16.08
X83.282Y16.089
X83.244Y16.1
X83.206Y16.111
X83.168Y16.123
X83.131Y16.137
X83.094Y16.151
X82.86Y16.244
X82.824Y16.258
X82.789Y16.274
X82.754Y16.29
X82.72Y16.307
X82.686Y16.326
X82.652Y16.344
X82.619Y16.364
X82.586Y16.384
X82.554Y16.406
X82.523Y16.428
X82.366Y16.54
X82.336Y16.561
X82.307Y16.584
X82.278Y16.607
X82.25Y16.631
X82.222Y16.655
X82.195Y16.681
X82.169Y16.706
X82.143Y16.733
X82.118Y16.759
X82.093Y16.787
X81.985Y16.911
X81.958Y16.942
X81.932Y16.974
X81.907Y17.007
X81.882Y17.041
X81.859Y17.075
X81.837Y17.11
X81.815Y17.145
X81.794Y17.181
X81.725Y17.304
X81.709Y17.334
X81.693Y17.365
X81.678Y17.396
X81.663Y17.428
X81.649Y17.459
X81.636Y17.491
X81.623Y17.524
X81.612Y17.556
X81.573Y17.666
X81.56Y17.704
X81.549Y17.741
X81.538Y17.779
X81.528Y17.818
X81.52Y17.856
X81.512Y17.895
X81.493Y17.993
X81.485Y18.039
X81.478Y18.085
X81.473Y18.131
X81.469Y18.177
X81.466Y18.215
X81.463Y18.271
X81.462Y18.328
Y31.737
X74.428
X74.388
X74.347Y31.739
X74.307Y31.742
X74.267Y31.745
X74.227Y31.75
X74.187Y31.755
X74.146Y31.762
X74.108Y31.77
X74.069Y31.778
X74.031Y31.787
X73.993Y31.797
X73.956Y31.809
X73.918Y31.821
X73.881Y31.834
X73.845Y31.848
X73.809Y31.862
X73.768Y31.88
X73.744Y31.891
X73.719Y31.904
X73.687Y31.92
X73.654Y31.938
X73.622Y31.956
X73.591Y31.975
X73.56Y31.995
X73.529Y32.015
X73.499Y32.036
X73.467Y32.06
X73.436Y32.084
X73.406Y32.109
X73.376Y32.134
X73.347Y32.161
X73.319Y32.188
X73.291Y32.215
X73.264Y32.244
X73.237Y32.273
X73.212Y32.303
X73.187Y32.333
X73.163Y32.364
X73.128Y32.411
X73.095Y32.46
X73.069Y32.502
X73.049Y32.535
X73.03Y32.568
X73.012Y32.603
X72.995Y32.637
X72.979Y32.672
Z-0.9F5
X72.963Y32.707F10
X72.949Y32.743
X72.935Y32.779
X72.922Y32.815
X72.91Y32.852
X72.899Y32.889
X72.889Y32.926
X72.88Y32.963
X72.871Y33.001
X72.864Y33.039
X72.857Y33.077
X72.852Y33.115
X72.847Y33.153
X72.843Y33.192
X72.84Y33.23
X72.838Y33.269
X72.837Y33.307
Y33.346
X72.838Y33.385
X72.84Y33.422
X72.843Y33.46
X72.846Y33.498
X72.851Y33.535
X72.856Y33.572
X72.862Y33.609
X72.87Y33.647
X72.878Y33.683
X72.886Y33.72
X72.896Y33.756
X72.907Y33.793
X72.918Y33.829
X80.462Y56.585
Y71.073
X69.667Y103.83
X69.655Y103.868
X69.644Y103.906
X69.634Y103.945
X69.625Y103.984
X69.617Y104.023
X69.61Y104.063
X69.603Y104.102
X69.598Y104.142
X69.594Y104.181
X69.591Y104.221
X69.589Y104.261
X69.588Y104.301
X69.587Y104.342
X69.588Y104.382
X69.59Y104.421
X69.593Y104.461
X69.597Y104.5
X69.601Y104.539
X69.607Y104.579
X69.614Y104.618
X69.622Y104.657
X69.63Y104.695
X69.64Y104.734
X69.65Y104.772
X69.662Y104.81
X69.675Y104.847
X69.688Y104.885
X69.702Y104.922
X69.718Y104.958
X69.734Y104.995
X69.751Y105.03
X69.769Y105.066
X69.787Y105.101
X69.807Y105.135
X69.828Y105.169
X69.849Y105.202
X69.871Y105.235
X69.894Y105.267
X69.917Y105.298
X69.942Y105.329
X69.967Y105.36
X69.993Y105.389
X70.02Y105.418
X70.047Y105.447
X70.075Y105.474
X70.104Y105.501
X70.133Y105.528
X70.163Y105.553
X70.194Y105.578
X70.226Y105.602
X70.258Y105.626
X70.29Y105.648
X70.323Y105.67
X70.357Y105.691
X70.391Y105.711
X70.426Y105.73
X70.463Y105.749
X70.5Y105.767
X70.537Y105.784
X70.606Y105.813
X70.628Y105.821
X70.667Y105.835
X70.707Y105.847
X70.746Y105.859
X70.787Y105.87
X70.827Y105.88
X70.868Y105.888
X70.909Y105.896
X70.947Y105.902
X70.985Y105.907
X71.024Y105.911
X71.062Y105.915
X71.101Y105.917
X71.14Y105.918
X71.178Y105.919
X81.462
Y109.328
X81.463Y109.367
X81.464Y109.405
X81.467Y109.444
X81.47Y109.483
X81.474Y109.521
X81.479Y109.56
X81.485Y109.598
X81.492Y109.636
X81.5Y109.674
X81.509Y109.712
X81.519Y109.749
X81.53Y109.786
X81.578Y109.946
X81.589Y109.982
X81.601Y110.018
X81.614Y110.054
X81.628Y110.089
X81.643Y110.124
X81.659Y110.159
X81.675Y110.193
X81.692Y110.226
X81.774Y110.382
X81.791Y110.413
X81.808Y110.445
X81.827Y110.475
X81.846Y110.506
X81.866Y110.536
X81.886Y110.565
X81.908Y110.594
X81.929Y110.623
X82.027Y110.748
X82.054Y110.781
X82.081Y110.814
X82.109Y110.845
X82.139Y110.876
X82.169Y110.906
X82.199Y110.935
X82.231Y110.964
X82.263Y110.991
X82.434Y111.133
X82.465Y111.159
X82.496Y111.183
X82.529Y111.206
X82.561Y111.229
X82.595Y111.251
X82.629Y111.272
X82.663Y111.292
X82.698Y111.312
X82.733Y111.33
X82.769Y111.348
X82.987Y111.451
X83.023Y111.468
X83.061Y111.484
X83.098Y111.499
X83.136Y111.513
X83.175Y111.526
X83.213Y111.538
X83.252Y111.549
X83.292Y111.559
X83.479Y111.605
X83.52Y111.614
X83.56Y111.623
X83.601Y111.63
X83.642Y111.636
X83.683Y111.641
X83.724Y111.645
X83.946Y111.663
X83.979Y111.666
X84.012Y111.668
X84.045Y111.669
X84.078
X101.053
X101.094Y111.668
X101.134Y111.667
X101.175Y111.664
X101.215Y111.661
X101.576Y111.624
X101.613Y111.619
X101.651Y111.614
X101.688Y111.608
X101.725Y111.601
X101.762Y111.593
X101.799Y111.585
X101.835Y111.575
X101.872Y111.565
X101.908Y111.553
X101.943Y111.541
X102.183Y111.457
X102.22Y111.443
X102.256Y111.429
X102.293Y111.414
X102.328Y111.397
X102.364Y111.38
X102.399Y111.362
X102.433Y111.343
X102.467Y111.323
X102.501Y111.303
X102.534Y111.282
X102.69Y111.178
X102.722Y111.156
X102.753Y111.134
X102.783Y111.111
X102.813Y111.087
X102.842Y111.063
X102.871Y111.038
X102.899Y111.012
X102.927Y110.986
X102.953Y110.959
X102.979Y110.931
X103.089Y110.813
X103.118Y110.78
X103.146Y110.747
X103.173Y110.713
X103.2Y110.678
X103.225Y110.643
X103.249Y110.607
X103.273Y110.57
X103.295Y110.533
X103.365Y110.412
X103.383Y110.38
X103.401Y110.348
X103.417Y110.315
X103.433Y110.282
X103.448Y110.249
X103.462Y110.215
X103.475Y110.181
X103.488Y110.147
X103.528Y110.034
X103.543Y109.992
X103.556Y109.949
X103.568Y109.906
X103.579Y109.863
X103.588Y109.819
X103.597Y109.775
X103.618Y109.652
X103.624Y109.616
X103.629Y109.58
X103.634Y109.543
X103.637Y109.507
X103.64Y109.471
X103.641Y109.434
X103.644Y109.357
Y109.328
Y101.328
Y101.289
X103.642Y101.25
X103.64Y101.211
X103.637Y101.172
X103.632Y101.133
X103.627Y101.095
X103.621Y101.056
X103.614Y101.018
X103.606Y100.98
X103.597Y100.942
X103.587Y100.904
X103.576Y100.866
X103.564Y100.829
X103.551Y100.792
X103.538Y100.756
X103.523Y100.719
X103.508Y100.684
X103.492Y100.648
X103.474Y100.613
X103.457Y100.578
X103.438Y100.544
X103.418Y100.51
X103.398Y100.477
X103.376Y100.445
X103.354Y100.412
X103.331Y100.381
X103.308Y100.35
X103.283Y100.319
X103.258Y100.289
X103.232Y100.26
X103.206Y100.232
X103.178Y100.203
X103.15Y100.175
X103.121Y100.149
X103.092Y100.123
X103.062Y100.098
X103.031Y100.073
X103Y100.05
X102.969Y100.027
X102.937Y100.005
X102.904Y99.984
X102.871Y99.963
X102.837Y99.943
X102.803Y99.925
X102.768Y99.907
X102.733Y99.89
X102.698Y99.873
X102.662Y99.858
X102.626Y99.843
X102.589Y99.83
X102.552Y99.817
X102.515Y99.805
X102.477Y99.794
X102.44Y99.785
X102.402Y99.776
X102.363Y99.767
X102.325Y99.76
X102.287Y99.754
X102.248Y99.749
X102.209Y99.745
X102.17Y99.741
X102.131Y99.739
X102.092Y99.737
X102.053
X96.68
X94.128Y97.356
X91.64Y94.68
X89.964Y92.484
X89.422Y91.583
X89.046Y90.766
X88.323Y88.331
X87.85Y85.705
X87.548Y82.161
X87.539Y78.125
X87.884Y73.409
X88.131Y71.535
X88.135Y71.501
X88.138Y71.466
X88.141Y71.432
X88.143Y71.397
X88.144Y71.363
Y71.328
Y56.328
Y56.284
X88.142Y56.24
X88.139Y56.197
X88.135Y56.153
X87.65Y51.778
X87.493Y47.389
X87.653Y43.652
X88.125Y40.213
X88.523Y38.508
X89.03Y36.932
X89.695Y35.608
X91.139Y33.591
X93.342Y31.109
X95.961Y28.547
X96.662Y27.919
X102.053
X102.092Y27.918
X102.131Y27.917
X102.17Y27.915
X102.209Y27.911
X102.248Y27.907
X102.287Y27.902
X102.325Y27.895
X102.363Y27.888
X102.402Y27.88
X102.44Y27.871
X102.477Y27.861
X102.515Y27.85
X102.552Y27.839
X102.589Y27.826
X102.626Y27.812
X102.662Y27.798
X102.698Y27.782
X102.733Y27.766
X102.768Y27.749
X102.803Y27.731
X102.837Y27.712
X102.871Y27.693
X102.904Y27.672
X102.937Y27.651
X102.969Y27.629
X103Y27.606
X103.031Y27.582
X103.062Y27.558
X103.092Y27.533
X103.121Y27.507
X103.15Y27.48
X103.179Y27.452
X103.206Y27.424
X103.232Y27.396
X103.258Y27.366
X103.283Y27.337
X103.308Y27.306
X103.331Y27.275
X103.354Y27.243
X103.376Y27.211
X103.398Y27.179
X103.418Y27.145
X103.438Y27.112
X103.457Y27.077
X103.475Y27.043
X103.492Y27.008
X103.508Y26.972
X103.523Y26.936
X103.538Y26.9
X103.551Y26.864
X103.564Y26.827
X103.576Y26.789
X103.587Y26.752
X103.597Y26.714
X103.606Y26.676
X103.614Y26.638
X103.621Y26.6
X103.627Y26.561
X103.632Y26.523
X103.637Y26.484
X103.64Y26.445
X103.642Y26.406
X103.644Y26.367
Y26.328
Y18.328
Y18.291
X103.643Y18.255
X103.64Y18.218
X103.638Y18.181
X103.634Y18.145
X103.629Y18.109
X103.611Y17.978
X103.605Y17.94
X103.598Y17.902
X103.591Y17.864
X103.582Y17.826
X103.573Y17.789
X103.562Y17.751
X103.551Y17.714
X103.539Y17.678
X103.493Y17.546
X103.481Y17.512
X103.468Y17.478
X103.454Y17.445
X103.44Y17.411
X103.425Y17.379
X103.409Y17.346
X103.392Y17.314
X103.375Y17.282
X103.312Y17.172
X103.291Y17.135
X103.269Y17.1
X103.246Y17.064
X103.221Y17.03
X103.196Y16.996
X103.171Y16.962
X103.144Y16.93
X103.116Y16.898
X102.997Y16.764
X102.971Y16.735
X102.944Y16.707
X102.917Y16.68
X102.888Y16.653
X102.859Y16.626
X102.829Y16.601
X102.799Y16.576
X102.768Y16.552
X102.737Y16.529
X102.705Y16.507
X102.544Y16.397
X102.513Y16.376
X102.481Y16.356
X102.449Y16.337
X102.417Y16.319
X102.384Y16.301
X102.351Y16.284
X102.317Y16.268
X102.283Y16.253
X102.249Y16.238
X102.214Y16.224
X101.994Y16.14
X101.951Y16.125
X101.908Y16.11
X101.864Y16.097
X101.821Y16.085
X101.776Y16.075
X101.732Y16.065
X101.56Y16.032
X101.514Y16.024
X101.468Y16.017
X101.422Y16.011
X101.375Y16.007
X101.174Y15.991
X101.144Y15.989
X101.114Y15.988
X101.084Y15.987
X101.053
X84.078
X84.044
X84.01Y15.988
X83.976Y15.99
X83.941Y15.993
X83.907Y15.996
X83.873Y16
X83.476Y16.052
X83.437Y16.057
X83.398Y16.064
X83.359Y16.071
X83.321Y16.08
X83.282Y16.089
X83.244Y16.1
X83.206Y16.111
X83.168Y16.123
X83.131Y16.137
X83.094Y16.151
X82.86Y16.244
X82.824Y16.258
X82.789Y16.274
X82.754Y16.29
X82.72Y16.307
X82.686Y16.326
X82.652Y16.344
X82.619Y16.364
X82.586Y16.384
X82.554Y16.406
X82.523Y16.428
X82.366Y16.54
X82.336Y16.561
X82.307Y16.584
X82.278Y16.607
X82.25Y16.631
X82.222Y16.655
X82.195Y16.681
X82.169Y16.706
X82.143Y16.733
X82.118Y16.759
X82.093Y16.787
X81.985Y16.911
X81.958Y16.942
X81.932Y16.974
X81.907Y17.007
X81.882Y17.041
X81.859Y17.075
X81.837Y17.11
X81.815Y17.145
X81.794Y17.181
X81.725Y17.304
X81.709Y17.334
X81.693Y17.365
X81.678Y17.396
X81.663Y17.428
X81.649Y17.459
X81.636Y17.491
X81.623Y17.524
X81.612Y17.556
X81.573Y17.666
X81.56Y17.704
X81.549Y17.741
X81.538Y17.779
X81.528Y17.818
X81.52Y17.856
X81.512Y17.895
X81.493Y17.993
X81.485Y18.039
X81.478Y18.085
X81.473Y18.131
X81.469Y18.177
X81.466Y18.215
X81.463Y18.271
X81.462Y18.328
Y31.737
X74.428
X74.388
X74.347Y31.739
X74.307Y31.742
X74.267Y31.745
X74.227Y31.75
X74.187Y31.755
X74.146Y31.762
X74.108Y31.77
X74.069Y31.778
X74.031Y31.787
X73.993Y31.797
X73.956Y31.809
X73.918Y31.821
X73.881Y31.834
X73.845Y31.848
X73.809Y31.862
X73.768Y31.88
X73.744Y31.891
X73.719Y31.904
X73.687Y31.92
X73.654Y31.938
X73.622Y31.956
X73.591Y31.975
X73.56Y31.995
X73.529Y32.015
X73.499Y32.036
X73.467Y32.06
X73.436Y32.084
X73.406Y32.109
X73.376Y32.134
X73.347Y32.161
X73.319Y32.188
X73.291Y32.215
X73.264Y32.244
X73.237Y32.273
X73.212Y32.303
X73.187Y32.333
X73.163Y32.364
X73.128Y32.411
X73.095Y32.46
X73.069Y32.502
X73.049Y32.535
X73.03Y32.568
X73.012Y32.603
X72.995Y32.637
X72.979Y32.672
Z-1F5
X72.963Y32.707F10
X72.949Y32.743
X72.935Y32.779
X72.922Y32.815
X72.91Y32.852
X72.899Y32.889
X72.889Y32.926
X72.88Y32.963
X72.871Y33.001
X72.864Y33.039
X72.857Y33.077
X72.852Y33.115
X72.847Y33.153
X72.843Y33.192
X72.84Y33.23
X72.838Y33.269
X72.837Y33.307
Y33.346
X72.838Y33.385
X72.84Y33.422
X72.843Y33.46
X72.846Y33.498
X72.851Y33.535
X72.856Y33.572
X72.862Y33.609
X72.87Y33.647
X72.878Y33.683
X72.886Y33.72
X72.896Y33.756
X72.907Y33.793
X72.918Y33.829
X80.462Y56.585
Y71.073
X69.667Y103.83
X69.655Y103.868
X69.644Y103.906
X69.634Y103.945
X69.625Y103.984
X69.617Y104.023
X69.61Y104.063
X69.603Y104.102
X69.598Y104.142
X69.594Y104.181
X69.591Y104.221
X69.589Y104.261
X69.588Y104.301
X69.587Y104.342
X69.588Y104.382
X69.59Y104.421
X69.593Y104.461
X69.597Y104.5
X69.601Y104.539
X69.607Y104.579
X69.614Y104.618
X69.622Y104.657
X69.63Y104.695
X69.64Y104.734
X69.65Y104.772
X69.662Y104.81
X69.675Y104.847
X69.688Y104.885
X69.702Y104.922
X69.718Y104.958
X69.734Y104.995
X69.751Y105.03
X69.769Y105.066
X69.787Y105.101
X69.807Y105.135
X69.828Y105.169
X69.849Y105.202
X69.871Y105.235
X69.894Y105.267
X69.917Y105.298
X69.942Y105.329
X69.967Y105.36
X69.993Y105.389
X70.02Y105.418
X70.047Y105.447
X70.075Y105.474
X70.104Y105.501
X70.133Y105.528
X70.163Y105.553
X70.194Y105.578
X70.226Y105.602
X70.258Y105.626
X70.29Y105.648
X70.323Y105.67
X70.357Y105.691
X70.391Y105.711
X70.426Y105.73
X70.463Y105.749
X70.5Y105.767
X70.537Y105.784
X70.606Y105.813
X70.628Y105.821
X70.667Y105.835
X70.707Y105.847
X70.746Y105.859
X70.787Y105.87
X70.827Y105.88
X70.868Y105.888
X70.909Y105.896
X70.947Y105.902
X70.985Y105.907
X71.024Y105.911
X71.062Y105.915
X71.101Y105.917
X71.14Y105.918
X71.178Y105.919
X81.462
Y109.328
X81.463Y109.367
X81.464Y109.405
X81.467Y109.444
X81.47Y109.483
X81.474Y109.521
X81.479Y109.56
X81.485Y109.598
X81.492Y109.636
X81.5Y109.674
X81.509Y109.712
X81.519Y109.749
X81.53Y109.786
X81.578Y109.946
X81.589Y109.982
X81.601Y110.018
X81.614Y110.054
X81.628Y110.089
X81.643Y110.124
X81.659Y110.159
X81.675Y110.193
X81.692Y110.226
X81.774Y110.382
X81.791Y110.413
X81.808Y110.445
X81.827Y110.475
X81.846Y110.506
X81.866Y110.536
X81.886Y110.565
X81.908Y110.594
X81.929Y110.623
X82.027Y110.748
X82.054Y110.781
X82.081Y110.814
X82.109Y110.845
X82.139Y110.876
X82.169Y110.906
X82.199Y110.935
X82.231Y110.964
X82.263Y110.991
X82.434Y111.133
X82.465Y111.159
X82.496Y111.183
X82.529Y111.206
X82.561Y111.229
X82.595Y111.251
X82.629Y111.272
X82.663Y111.292
X82.698Y111.312
X82.733Y111.33
X82.769Y111.348
X82.987Y111.451
X83.023Y111.468
X83.061Y111.484
X83.098Y111.499
X83.136Y111.513
X83.175Y111.526
X83.213Y111.538
X83.252Y111.549
X83.292Y111.559
X83.479Y111.605
X83.52Y111.614
X83.56Y111.623
X83.601Y111.63
X83.642Y111.636
X83.683Y111.641
X83.724Y111.645
X83.946Y111.663
X83.979Y111.666
X84.012Y111.668
X84.045Y111.669
X84.078
X101.053
X101.094Y111.668
X101.134Y111.667
X101.175Y111.664
X101.215Y111.661
X101.576Y111.624
X101.613Y111.619
X101.651Y111.614
X101.688Y111.608
X101.725Y111.601
X101.762Y111.593
X101.799Y111.585
X101.835Y111.575
X101.872Y111.565
X101.908Y111.553
X101.943Y111.541
X102.183Y111.457
X102.22Y111.443
X102.256Y111.429
X102.293Y111.414
X102.328Y111.397
X102.364Y111.38
X102.399Y111.362
X102.433Y111.343
X102.467Y111.323
X102.501Y111.303
X102.534Y111.282
X102.69Y111.178
X102.722Y111.156
X102.753Y111.134
X102.783Y111.111
X102.813Y111.087
X102.842Y111.063
X102.871Y111.038
X102.899Y111.012
X102.927Y110.986
X102.953Y110.959
X102.979Y110.931
X103.089Y110.813
X103.118Y110.78
X103.146Y110.747
X103.173Y110.713
X103.2Y110.678
X103.225Y110.643
X103.249Y110.607
X103.273Y110.57
X103.295Y110.533
X103.365Y110.412
X103.383Y110.38
X103.401Y110.348
X103.417Y110.315
X103.433Y110.282
X103.448Y110.249
X103.462Y110.215
X103.475Y110.181
X103.488Y110.147
X103.528Y110.034
X103.543Y109.992
X103.556Y109.949
X103.568Y109.906
X103.579Y109.863
X103.588Y109.819
X103.597Y109.775
X103.618Y109.652
X103.624Y109.616
X103.629Y109.58
X103.634Y109.543
X103.637Y109.507
X103.64Y109.471
X103.641Y109.434
X103.644Y109.357
Y109.328
Y101.328
Y101.289
X103.642Y101.25
X103.64Y101.211
X103.637Y101.172
X103.632Y101.133
X103.627Y101.095
X103.621Y101.056
X103.614Y101.018
X103.606Y100.98
X103.597Y100.942
X103.587Y100.904
X103.576Y100.866
X103.564Y100.829
X103.551Y100.792
X103.538Y100.756
X103.523Y100.719
X103.508Y100.684
X103.492Y100.648
X103.474Y100.613
X103.457Y100.578
X103.438Y100.544
X103.418Y100.51
X103.398Y100.477
X103.376Y100.445
X103.354Y100.412
X103.331Y100.381
X103.308Y100.35
X103.283Y100.319
X103.258Y100.289
X103.232Y100.26
X103.206Y100.232
X103.178Y100.203
X103.15Y100.175
X103.121Y100.149
X103.092Y100.123
X103.062Y100.098
X103.031Y100.073
X103Y100.05
X102.969Y100.027
X102.937Y100.005
X102.904Y99.984
X102.871Y99.963
X102.837Y99.943
X102.803Y99.925
X102.768Y99.907
X102.733Y99.89
X102.698Y99.873
X102.662Y99.858
X102.626Y99.843
X102.589Y99.83
X102.552Y99.817
X102.515Y99.805
X102.477Y99.794
X102.44Y99.785
X102.402Y99.776
X102.363Y99.767
X102.325Y99.76
X102.287Y99.754
X102.248Y99.749
X102.209Y99.745
X102.17Y99.741
X102.131Y99.739
X102.092Y99.737
X102.053
X96.68
X94.128Y97.356
X91.64Y94.68
X89.964Y92.484
X89.422Y91.583
X89.046Y90.766
X88.323Y88.331
X87.85Y85.705
X87.548Y82.161
X87.539Y78.125
X87.884Y73.409
X88.131Y71.535
X88.135Y71.501
X88.138Y71.466
X88.141Y71.432
X88.143Y71.397
X88.144Y71.363
Y71.328
Y56.328
Y56.284
X88.142Y56.24
X88.139Y56.197
X88.135Y56.153
X87.65Y51.778
X87.493Y47.389
X87.653Y43.652
X88.125Y40.213
X88.523Y38.508
X89.03Y36.932
X89.695Y35.608
X91.139Y33.591
X93.342Y31.109
X95.961Y28.547
X96.662Y27.919
X102.053
X102.092Y27.918
X102.131Y27.917
X102.17Y27.915
X102.209Y27.911
X102.248Y27.907
X102.287Y27.902
X102.325Y27.895
X102.363Y27.888
X102.402Y27.88
X102.44Y27.871
X102.477Y27.861
X102.515Y27.85
X102.552Y27.839
X102.589Y27.826
X102.626Y27.812
X102.662Y27.798
X102.698Y27.782
X102.733Y27.766
X102.768Y27.749
X102.803Y27.731
X102.837Y27.712
X102.871Y27.693
X102.904Y27.672
X102.937Y27.651
X102.969Y27.629
X103Y27.606
X103.031Y27.582
X103.062Y27.558
X103.092Y27.533
X103.121Y27.507
X103.15Y27.48
X103.179Y27.452
X103.206Y27.424
X103.232Y27.396
X103.258Y27.366
X103.283Y27.337
X103.308Y27.306
X103.331Y27.275
X103.354Y27.243
X103.376Y27.211
X103.398Y27.179
X103.418Y27.145
X103.438Y27.112
X103.457Y27.077
X103.475Y27.043
X103.492Y27.008
X103.508Y26.972
X103.523Y26.936
X103.538Y26.9
X103.551Y26.864
X103.564Y26.827
X103.576Y26.789
X103.587Y26.752
X103.597Y26.714
X103.606Y26.676
X103.614Y26.638
X103.621Y26.6
X103.627Y26.561
X103.632Y26.523
X103.637Y26.484
X103.64Y26.445
X103.642Y26.406
X103.644Y26.367
Y26.328
Y18.328
Y18.291
X103.643Y18.255
X103.64Y18.218
X103.638Y18.181
X103.634Y18.145
X103.629Y18.109
X103.611Y17.978
X103.605Y17.94
X103.598Y17.902
X103.591Y17.864
X103.582Y17.826
X103.573Y17.789
X103.562Y17.751
X103.551Y17.714
X103.539Y17.678
X103.493Y17.546
X103.481Y17.512
X103.468Y17.478
X103.454Y17.445
X103.44Y17.411
X103.425Y17.379
X103.409Y17.346
X103.392Y17.314
X103.375Y17.282
X103.312Y17.172
X103.291Y17.135
X103.269Y17.1
X103.246Y17.064
X103.221Y17.03
X103.196Y16.996
X103.171Y16.962
X103.144Y16.93
X103.116Y16.898
X102.997Y16.764
X102.971Y16.735
X102.944Y16.707
X102.917Y16.68
X102.888Y16.653
X102.859Y16.626
X102.829Y16.601
X102.799Y16.576
X102.768Y16.552
X102.737Y16.529
X102.705Y16.507
X102.544Y16.397
X102.513Y16.376
X102.481Y16.356
X102.449Y16.337
X102.417Y16.319
X102.384Y16.301
X102.351Y16.284
X102.317Y16.268
X102.283Y16.253
X102.249Y16.238
X102.214Y16.224
X101.994Y16.14
X101.951Y16.125
X101.908Y16.11
X101.864Y16.097
X101.821Y16.085
X101.776Y16.075
X101.732Y16.065
X101.56Y16.032
X101.514Y16.024
X101.468Y16.017
X101.422Y16.011
X101.375Y16.007
X101.174Y15.991
X101.144Y15.989
X101.114Y15.988
X101.084Y15.987
X101.053
X84.078
X84.044
X84.01Y15.988
X83.976Y15.99
X83.941Y15.993
X83.907Y15.996
X83.873Y16
X83.476Y16.052
X83.437Y16.057
X83.398Y16.064
X83.359Y16.071
X83.321Y16.08
X83.282Y16.089
X83.244Y16.1
X83.206Y16.111
X83.168Y16.123
X83.131Y16.137
X83.094Y16.151
X82.86Y16.244
X82.824Y16.258
X82.789Y16.274
X82.754Y16.29
X82.72Y16.307
X82.686Y16.326
X82.652Y16.344
X82.619Y16.364
X82.586Y16.384
X82.554Y16.406
X82.523Y16.428
X82.366Y16.54
X82.336Y16.561
X82.307Y16.584
X82.278Y16.607
X82.25Y16.631
X82.222Y16.655
X82.195Y16.681
X82.169Y16.706
X82.143Y16.733
X82.118Y16.759
X82.093Y16.787
X81.985Y16.911
X81.958Y16.942
X81.932Y16.974
X81.907Y17.007
X81.882Y17.041
X81.859Y17.075
X81.837Y17.11
X81.815Y17.145
X81.794Y17.181
X81.725Y17.304
X81.709Y17.334
X81.693Y17.365
X81.678Y17.396
X81.663Y17.428
X81.649Y17.459
X81.636Y17.491
X81.623Y17.524
X81.612Y17.556
X81.573Y17.666
X81.56Y17.704
X81.549Y17.741
X81.538Y17.779
X81.528Y17.818
X81.52Y17.856
X81.512Y17.895
X81.493Y17.993
X81.485Y18.039
X81.478Y18.085
X81.473Y18.131
X81.469Y18.177
X81.466Y18.215
X81.463Y18.271
X81.462Y18.328
Y31.737
X74.428
X74.388
X74.347Y31.739
X74.307Y31.742
X74.267Y31.745
X74.227Y31.75
X74.187Y31.755
X74.146Y31.762
X74.108Y31.77
X74.069Y31.778
X74.031Y31.787
X73.993Y31.797
X73.956Y31.809
X73.918Y31.821
X73.881Y31.834
X73.845Y31.848
X73.809Y31.862
X73.768Y31.88
X73.744Y31.891
X73.719Y31.904
X73.687Y31.92
X73.654Y31.938
X73.622Y31.956
X73.591Y31.975
X73.56Y31.995
X73.529Y32.015
X73.499Y32.036
X73.467Y32.06
X73.436Y32.084
X73.406Y32.109
X73.376Y32.134
X73.347Y32.161
X73.319Y32.188
X73.291Y32.215
X73.264Y32.244
X73.237Y32.273
X73.212Y32.303
X73.187Y32.333
X73.163Y32.364
X73.128Y32.411
X73.095Y32.46
X73.069Y32.502
X73.049Y32.535
X73.03Y32.568
X73.012Y32.603
X72.995Y32.637
X72.979Y32.672
Z-1.1F5
X72.963Y32.707F10
X72.949Y32.743
X72.935Y32.779
X72.922Y32.815
X72.91Y32.852
X72.899Y32.889
X72.889Y32.926
X72.88Y32.963
X72.871Y33.001
X72.864Y33.039
X72.857Y33.077
X72.852Y33.115
X72.847Y33.153
X72.843Y33.192
X72.84Y33.23
X72.838Y33.269
X72.837Y33.307
Y33.346
X72.838Y33.385
X72.84Y33.422
X72.843Y33.46
X72.846Y33.498
X72.851Y33.535
X72.856Y33.572
X72.862Y33.609
X72.87Y33.647
X72.878Y33.683
X72.886Y33.72
X72.896Y33.756
X72.907Y33.793
X72.918Y33.829
X80.462Y56.585
Y71.073
X69.667Y103.83
X69.655Y103.868
X69.644Y103.906
X69.634Y103.945
X69.625Y103.984
X69.617Y104.023
X69.61Y104.063
X69.603Y104.102
X69.598Y104.142
X69.594Y104.181
X69.591Y104.221
X69.589Y104.261
X69.588Y104.301
X69.587Y104.342
X69.588Y104.382
X69.59Y104.421
X69.593Y104.461
X69.597Y104.5
X69.601Y104.539
X69.607Y104.579
X69.614Y104.618
X69.622Y104.657
X69.63Y104.695
X69.64Y104.734
X69.65Y104.772
X69.662Y104.81
X69.675Y104.847
X69.688Y104.885
X69.702Y104.922
X69.718Y104.958
X69.734Y104.995
X69.751Y105.03
X69.769Y105.066
X69.787Y105.101
X69.807Y105.135
X69.828Y105.169
X69.849Y105.202
X69.871Y105.235
X69.894Y105.267
X69.917Y105.298
X69.942Y105.329
X69.967Y105.36
X69.993Y105.389
X70.02Y105.418
X70.047Y105.447
X70.075Y105.474
X70.104Y105.501
X70.133Y105.528
X70.163Y105.553
X70.194Y105.578
X70.226Y105.602
X70.258Y105.626
X70.29Y105.648
X70.323Y105.67
X70.357Y105.691
X70.391Y105.711
X70.426Y105.73
X70.463Y105.749
X70.5Y105.767
X70.537Y105.784
X70.606Y105.813
X70.628Y105.821
X70.667Y105.835
X70.707Y105.847
X70.746Y105.859
X70.787Y105.87
X70.827Y105.88
X70.868Y105.888
X70.909Y105.896
X70.947Y105.902
X70.985Y105.907
X71.024Y105.911
X71.062Y105.915
X71.101Y105.917
X71.14Y105.918
X71.178Y105.919
X81.462
Y109.328
X81.463Y109.367
X81.464Y109.405
X81.467Y109.444
X81.47Y109.483
X81.474Y109.521
X81.479Y109.56
X81.485Y109.598
X81.492Y109.636
X81.5Y109.674
X81.509Y109.712
X81.519Y109.749
X81.53Y109.786
X81.578Y109.946
X81.589Y109.982
X81.601Y110.018
X81.614Y110.054
X81.628Y110.089
X81.643Y110.124
X81.659Y110.159
X81.675Y110.193
X81.692Y110.226
X81.774Y110.382
X81.791Y110.413
X81.808Y110.445
X81.827Y110.475
X81.846Y110.506
X81.866Y110.536
X81.886Y110.565
X81.908Y110.594
X81.929Y110.623
X82.027Y110.748
X82.054Y110.781
X82.081Y110.814
X82.109Y110.845
X82.139Y110.876
X82.169Y110.906
X82.199Y110.935
X82.231Y110.964
X82.263Y110.991
X82.434Y111.133
X82.465Y111.159
X82.496Y111.183
X82.529Y111.206
X82.561Y111.229
X82.595Y111.251
X82.629Y111.272
X82.663Y111.292
X82.698Y111.312
X82.733Y111.33
X82.769Y111.348
X82.987Y111.451
X83.023Y111.468
X83.061Y111.484
X83.098Y111.499
X83.136Y111.513
X83.175Y111.526
X83.213Y111.538
X83.252Y111.549
X83.292Y111.559
X83.479Y111.605
X83.52Y111.614
X83.56Y111.623
X83.601Y111.63
X83.642Y111.636
X83.683Y111.641
X83.724Y111.645
X83.946Y111.663
X83.979Y111.666
X84.012Y111.668
X84.045Y111.669
X84.078
X101.053
X101.094Y111.668
X101.134Y111.667
X101.175Y111.664
X101.215Y111.661
X101.576Y111.624
X101.613Y111.619
X101.651Y111.614
X101.688Y111.608
X101.725Y111.601
X101.762Y111.593
X101.799Y111.585
X101.835Y111.575
X101.872Y111.565
X101.908Y111.553
X101.943Y111.541
X102.183Y111.457
X102.22Y111.443
X102.256Y111.429
X102.293Y111.414
X102.328Y111.397
X102.364Y111.38
X102.399Y111.362
X102.433Y111.343
X102.467Y111.323
X102.501Y111.303
X102.534Y111.282
X102.69Y111.178
X102.722Y111.156
X102.753Y111.134
X102.783Y111.111
X102.813Y111.087
X102.842Y111.063
X102.871Y111.038
X102.899Y111.012
X102.927Y110.986
X102.953Y110.959
X102.979Y110.931
X103.089Y110.813
X103.118Y110.78
X103.146Y110.747
X103.173Y110.713
X103.2Y110.678
X103.225Y110.643
X103.249Y110.607
X103.273Y110.57
X103.295Y110.533
X103.365Y110.412
X103.383Y110.38
X103.401Y110.348
X103.417Y110.315
X103.433Y110.282
X103.448Y110.249
X103.462Y110.215
X103.475Y110.181
X103.488Y110.147
X103.528Y110.034
X103.543Y109.992
X103.556Y109.949
X103.568Y109.906
X103.579Y109.863
X103.588Y109.819
X103.597Y109.775
X103.618Y109.652
X103.624Y109.616
X103.629Y109.58
X103.634Y109.543
X103.637Y109.507
X103.64Y109.471
X103.641Y109.434
X103.644Y109.357
Y109.328
Y101.328
Y101.289
X103.642Y101.25
X103.64Y101.211
X103.637Y101.172
X103.632Y101.133
X103.627Y101.095
X103.621Y101.056
X103.614Y101.018
X103.606Y100.98
X103.597Y100.942
X103.587Y100.904
X103.576Y100.866
X103.564Y100.829
X103.551Y100.792
X103.538Y100.756
X103.523Y100.719
X103.508Y100.684
X103.492Y100.648
X103.474Y100.613
X103.457Y100.578
X103.438Y100.544
X103.418Y100.51
X103.398Y100.477
X103.376Y100.445
X103.354Y100.412
X103.331Y100.381
X103.308Y100.35
X103.283Y100.319
X103.258Y100.289
X103.232Y100.26
X103.206Y100.232
X103.178Y100.203
X103.15Y100.175
X103.121Y100.149
X103.092Y100.123
X103.062Y100.098
X103.031Y100.073
X103Y100.05
X102.969Y100.027
X102.937Y100.005
X102.904Y99.984
X102.871Y99.963
X102.837Y99.943
X102.803Y99.925
X102.768Y99.907
X102.733Y99.89
X102.698Y99.873
X102.662Y99.858
X102.626Y99.843
X102.589Y99.83
X102.552Y99.817
X102.515Y99.805
X102.477Y99.794
X102.44Y99.785
X102.402Y99.776
X102.363Y99.767
X102.325Y99.76
X102.287Y99.754
X102.248Y99.749
X102.209Y99.745
X102.17Y99.741
X102.131Y99.739
X102.092Y99.737
X102.053
X96.68
X94.128Y97.356
X91.64Y94.68
X89.964Y92.484
X89.422Y91.583
X89.046Y90.766
X88.323Y88.331
X87.85Y85.705
X87.548Y82.161
X87.539Y78.125
X87.884Y73.409
X88.131Y71.535
X88.135Y71.501
X88.138Y71.466
X88.141Y71.432
X88.143Y71.397
X88.144Y71.363
Y71.328
Y56.328
Y56.284
X88.142Y56.24
X88.139Y56.197
X88.135Y56.153
X87.65Y51.778
X87.493Y47.389
X87.653Y43.652
X88.125Y40.213
X88.523Y38.508
X89.03Y36.932
X89.695Y35.608
X91.139Y33.591
X93.342Y31.109
X95.961Y28.547
