(Created with grbl post processor 2024/11/24 13:46)
G21
(G-code generated with BlenderCAM and NC library)
G17G90
(Tool: D = 3.18 mm  type END flutes 2)
S1000M03
G00 Z1.0

G0X0Y0Z1
X24.368Y65.504
G1Z-0.1F5
X24.395Y65.494F10
X24.447Y65.477
X24.501Y65.462
X24.525Y65.455
X24.559Y65.447
X24.582Y65.442
X24.61Y65.437
X24.637Y65.432
X24.665Y65.427
X24.692Y65.423
X24.72Y65.419
X24.747Y65.416
X24.775Y65.413
X24.803Y65.411
X24.831Y65.409
X24.859Y65.408
X24.886
X24.914Y65.407
X24.942Y65.408
X24.97
X25.026Y65.411
X25.054Y65.413
X25.081Y65.416
X25.109Y65.419
X25.137Y65.423
X25.164Y65.427
X25.185Y65.43
X25.221Y65.437
X25.246Y65.442
X25.273Y65.448
X25.301Y65.455
X25.328Y65.462
X25.354Y65.469
X25.381Y65.477
X25.408Y65.485
X25.434Y65.494
X25.46Y65.504
X25.486Y65.513
X25.512Y65.524
X25.538Y65.534
X25.564Y65.545
X25.614Y65.569
X25.639Y65.581
X25.664Y65.594
X25.713Y65.621
X25.737Y65.635
X25.761Y65.65
X25.784Y65.665
X25.807Y65.68
X25.83Y65.696
X25.853Y65.712
X25.875Y65.729
X25.897Y65.746
X25.919Y65.763
X25.941Y65.781
X25.975Y65.81
X26.005Y65.838
X26.022Y65.854
X26.063Y65.895
X26.082Y65.915
X26.101Y65.936
X26.119Y65.956
X26.137Y65.978
X26.172Y66.021
X26.189Y66.043
X26.206Y66.065
X26.222Y66.088
X26.238Y66.111
X26.253Y66.134
X26.268Y66.158
X26.283Y66.182
X26.297Y66.205
X26.311Y66.23
X26.324Y66.254
X26.337Y66.279
X26.349Y66.304
X26.361Y66.329
X26.373Y66.355
X26.384Y66.38
X26.395Y66.406
X26.405Y66.432
X26.415Y66.458
X26.424Y66.484
X26.433Y66.51
X26.441Y66.537
X26.449Y66.564
X26.456Y66.588
X26.464Y66.618
X26.47Y66.645
X26.476Y66.672
X26.482Y66.699
X26.487Y66.727
X26.491Y66.754
X26.495Y66.782
X26.499Y66.809
X26.502Y66.837
X26.505Y66.865
X26.507Y66.893
X26.509Y66.92
X26.51Y66.948
X26.511Y66.976
Y67.004
Y67.032
X26.51Y67.06
X26.509Y67.087
X26.507Y67.115
X26.505Y67.143
X26.502Y67.171
X26.499Y67.198
X26.495Y67.226
X26.491Y67.254
X26.487Y67.281
X26.482Y67.308
X26.476Y67.336
X26.47Y67.363
X26.464Y67.39
X26.457Y67.417
X26.449Y67.444
X26.441Y67.471
X26.433Y67.497
X26.424Y67.524
X26.415Y67.55
X26.405Y67.576
X26.395Y67.602
X26.384Y67.628
X26.373Y67.653
X26.361Y67.679
X26.349Y67.704
X26.337Y67.729
X26.324Y67.753
X26.311Y67.778
X26.297Y67.802
X26.283Y67.826
X26.268Y67.85
X26.253Y67.873
X26.238Y67.897
X26.222Y67.92
X26.206Y67.942
X26.189Y67.965
X26.172Y67.987
X26.155Y68.009
X26.137Y68.03
X26.119Y68.051
X26.101Y68.072
X26.082Y68.093
X26.063Y68.113
X26.043Y68.133
X26.023Y68.153
X26.003Y68.172
X25.983Y68.19
X25.962Y68.209
X25.941Y68.227
X25.919Y68.245
X25.897Y68.262
X25.875Y68.279
X25.853Y68.296
X25.83Y68.312
X25.807Y68.328
X25.784Y68.343
X25.76Y68.358
X25.737Y68.372
X25.713Y68.387
X25.688Y68.4
X25.664Y68.414
X25.639Y68.427
X25.614Y68.439
X25.589Y68.451
X25.564Y68.463
X25.538Y68.474
X25.513Y68.484
X25.487Y68.494
X25.46Y68.504
X25.434Y68.514
X25.408Y68.522
X25.381Y68.531
X25.354Y68.539
X25.328Y68.546
X25.301Y68.553
X25.273Y68.56
X25.246Y68.566
X25.219Y68.571
X25.192Y68.576
X25.164Y68.581
X25.136Y68.585
X25.109Y68.589
X25.081Y68.592
X25.053Y68.594
X25.026Y68.597
X24.998Y68.598
X24.97Y68.6
X24.942
X24.914Y68.601
X24.886Y68.6
X24.859
X24.831Y68.598
X24.803Y68.597
X24.775Y68.594
X24.75Y68.592
X24.719Y68.589
X24.665Y68.581
X24.637Y68.576
X24.61Y68.571
X24.582Y68.566
X24.555Y68.56
X24.528Y68.553
X24.501Y68.546
X24.474Y68.539
X24.447Y68.531
X24.421Y68.522
X24.395Y68.514
X24.368Y68.504
X24.342Y68.494
X24.316Y68.484
X24.291Y68.474
X24.265Y68.463
X24.239Y68.451
X24.214Y68.439
X24.189Y68.427
X24.165Y68.414
X24.14Y68.4
X24.116Y68.387
X24.068Y68.358
X24.045Y68.343
X24.022Y68.328
X23.999Y68.312
X23.976Y68.296
X23.953Y68.279
X23.931Y68.262
X23.91Y68.245
X23.888Y68.227
X23.867Y68.209
X23.846Y68.19
X23.826Y68.172
X23.805Y68.152
X23.785Y68.133
X23.766Y68.113
X23.747Y68.093
X23.728Y68.072
X23.691Y68.03
X23.673Y68.009
X23.656Y67.987
X23.639Y67.965
X23.623Y67.942
X23.606Y67.92
X23.591Y67.897
X23.575Y67.873
X23.56Y67.85
X23.546Y67.826
X23.518Y67.778
X23.505Y67.753
X23.492Y67.729
X23.479Y67.704
X23.467Y67.679
X23.456Y67.653
X23.445Y67.628
X23.434Y67.602
X23.424Y67.576
X23.414Y67.55
X23.405Y67.524
X23.396Y67.497
X23.387Y67.471
X23.38Y67.444
X23.372Y67.417
X23.358Y67.361
X23.347Y67.309
X23.342Y67.281
X23.337Y67.254
X23.333Y67.226
X23.33Y67.198
X23.326Y67.171
X23.324Y67.143
X23.322Y67.115
X23.32Y67.087
X23.318Y67.032
Y67.004
Y66.976
X23.319Y66.948
X23.32Y66.92
X23.322Y66.893
X23.324Y66.865
X23.326Y66.837
X23.333Y66.782
X23.337Y66.754
X23.342Y66.727
X23.347Y66.699
X23.353Y66.672
X23.359Y66.645
X23.365Y66.618
X23.372Y66.591
X23.38Y66.564
X23.389Y66.533
X23.396Y66.51
X23.405Y66.484
X23.414Y66.458
X23.424Y66.432
X23.441Y66.388
X23.457Y66.352
X23.467Y66.329
X23.479Y66.304
X23.492Y66.279
X23.505Y66.254
X23.518Y66.23
X23.532Y66.205
X23.56Y66.158
X23.575Y66.134
X23.591Y66.111
X23.606Y66.088
X23.623Y66.065
X23.636Y66.047
X23.673Y65.999
X23.691Y65.978
X23.709Y65.956
X23.728Y65.935
X23.747Y65.915
X23.766Y65.895
X23.785Y65.875
X23.807Y65.853
X23.825Y65.836
X23.846Y65.817
X23.867Y65.799
X23.91Y65.763
X23.931Y65.746
X23.953Y65.729
X23.976Y65.712
X23.999Y65.696
X24.038Y65.669
X24.07Y65.649
X24.092Y65.635
X24.116Y65.621
X24.14Y65.607
X24.165Y65.594
X24.189Y65.581
X24.214Y65.569
X24.24Y65.557
X24.265Y65.545
X24.291Y65.534
X24.316Y65.524
X24.368Y65.504
G0Z1
X38.316Y66.813
G1Z-0.1F5
X38.367Y66.644F10
X38.451Y66.488
X38.563Y66.351
X38.699Y66.239
X38.855Y66.156
X39.024Y66.105
X39.2Y66.087
X39.376Y66.105
X39.545Y66.156
X39.701Y66.239
X39.837Y66.351
X39.949Y66.488
X40.033Y66.644
X40.084Y66.813
X40.101Y66.988
X40.084Y67.164
X40.033Y67.333
X39.949Y67.489
X39.837Y67.626
X39.701Y67.738
X39.545Y67.821
X39.376Y67.872
X39.2Y67.89
X39.024Y67.872
X38.855Y67.821
X38.699Y67.738
X38.563Y67.626
X38.451Y67.489
X38.367Y67.333
X38.316Y67.164
X38.299Y66.988
X38.316Y66.813
G0Z1
X54.203Y66.988
G1Z-0.1F5
X54.22Y66.813F10
X54.271Y66.644
X54.355Y66.488
X54.467Y66.351
X54.603Y66.239
X54.759Y66.156
X54.928Y66.105
X55.104Y66.087
X55.28Y66.105
X55.449Y66.156
X55.605Y66.239
X55.741Y66.351
X55.853Y66.488
X55.937Y66.644
X55.988Y66.813
X56.005Y66.988
X55.988Y67.164
X55.937Y67.333
X55.853Y67.489
X55.741Y67.626
X55.605Y67.738
X55.449Y67.821
X55.28Y67.872
X55.104Y67.89
X54.928Y67.872
X54.759Y67.821
X54.603Y67.738
X54.467Y67.626
X54.355Y67.489
X54.271Y67.333
X54.22Y67.164
X54.203Y66.988
G0Z1
X57.706Y59.063
G1Z-0.1F5
X31.251F10
X30.597Y59.069
X29.943Y59.085
X29.29Y59.112
X28.637Y59.151
X27.985Y59.2
X27.333Y59.26
X26.683Y59.33
X26.034Y59.412
X25.387Y59.504
X24.741Y59.607
X24.097Y59.721
X23.454Y59.845
X23.33Y59.872
X23.207Y59.9
X23.084Y59.931
X22.962Y59.964
X22.84Y59.999
X22.719Y60.036
X22.599Y60.075
X22.479Y60.116
X22.36Y60.159
X22.242Y60.204
X22.125Y60.252
X22.008Y60.301
X21.892Y60.352
X21.778Y60.406
X21.664Y60.461
X21.551Y60.518
X21.439Y60.578
X21.328Y60.639
X21.218Y60.702
X21.11Y60.767
X21.002Y60.834
X20.896Y60.902
X20.791Y60.973
X20.687Y61.045
X20.584Y61.119
X20.483Y61.195
X20.383Y61.273
X20.285Y61.352
X20.187Y61.433
X20.092Y61.516
X19.997Y61.6
X19.904Y61.686
X19.813Y61.774
X19.723Y61.863
X19.635Y61.954
X19.548Y62.046
X19.463Y62.14
X19.38Y62.235
X19.298Y62.332
X19.198Y62.454
X19.1Y62.578
X19.005Y62.703
X18.911Y62.83
X18.819Y62.959
X18.73Y63.09
X18.643Y63.222
X18.558Y63.355
X18.476Y63.49
X18.396Y63.626
X18.318Y63.763
X18.243Y63.902
X18.17Y64.042
X18.099Y64.183
X18.031Y64.326
X17.966Y64.47
X17.902Y64.614
X17.842Y64.76
X17.784Y64.907
X17.728Y65.055
X17.675Y65.204
X17.624Y65.353
X17.576Y65.504
X17.531Y65.655
X17.488Y65.807
X17.448Y65.96
X17.41Y66.113
X17.375Y66.267
X17.343Y66.422
X17.313Y66.577
X17.286Y66.733
X17.262Y66.889
X17.241Y67.045
X17.222Y67.202
X17.205Y67.359
X17.192Y67.517
X17.181Y67.674
X17.173Y67.832
X17.167Y67.99
X17.165Y68.148
Y68.306
X17.167Y68.464
X17.173Y68.621
X17.181Y68.779
X17.192Y68.937
X17.205Y69.094
X17.221Y69.251
X17.24Y69.408
X17.26Y69.551
X17.679Y72.442
X17.693Y72.517
X17.709Y72.594
X17.728Y72.669
X17.75Y72.743
X17.774Y72.816
X17.801Y72.89
X17.83Y72.961
X17.862Y73.031
X17.896Y73.101
X17.933Y73.17
X17.971Y73.236
X18.013Y73.302
X18.056Y73.366
X18.102Y73.429
X18.15Y73.49
X18.2Y73.549
X18.252Y73.606
X18.306Y73.662
X18.361Y73.715
X18.42Y73.767
X18.479Y73.817
X18.54Y73.864
X18.603Y73.91
X18.666Y73.953
X18.733Y73.994
X18.8Y74.033
X18.868Y74.068
X18.939Y74.103
X19.008Y74.134
X19.081Y74.163
X19.153Y74.189
X19.227Y74.213
X19.302Y74.235
X19.376Y74.253
X19.453Y74.269
X19.529Y74.283
X19.606Y74.293
X19.682Y74.301
X19.761Y74.307
X19.837Y74.31
X19.876
X24.927
X25.044Y74.309
X25.161Y74.306
X25.277Y74.301
X25.394Y74.294
X26.649Y74.204
X27.802Y74.139
X28.956Y74.093
X30.11Y74.065
X31.271Y74.056
X34.824
X34.862Y74.059
X34.9Y74.061
X34.938Y74.063
X34.976
X62.976
X63.016
X63.056Y74.061
X63.095Y74.059
X63.135Y74.055
X63.174Y74.051
X63.214Y74.045
X63.253Y74.039
X63.292Y74.032
X63.331Y74.023
X63.37Y74.014
X63.408Y74.004
X63.446Y73.992
X63.484Y73.98
X63.522Y73.967
X63.559Y73.953
X63.596Y73.938
X63.632Y73.922
X63.668Y73.905
X63.704Y73.887
X63.739Y73.869
X63.774Y73.849
X63.809Y73.828
X63.843Y73.807
X63.876Y73.784
X63.91Y73.761
X63.942Y73.737
X63.974Y73.712
X64.005Y73.686
X64.02Y73.673
X64.049Y73.647
X64.072Y73.626
X64.093Y73.605
X64.121Y73.577
X64.149Y73.548
X64.181Y73.512
X64.212Y73.475
X64.234Y73.447
X64.255Y73.419
X64.276Y73.39
X64.296Y73.361
X64.315Y73.332
X64.334Y73.301
X64.351Y73.273
X64.367Y73.245
X64.383Y73.216
X64.402Y73.178
X64.42Y73.141
X64.433Y73.111
X64.446Y73.082
X64.462Y73.041
X64.47Y73.019
X64.484Y72.979
X64.497Y72.938
X64.51Y72.896
X64.521Y72.854
X64.531Y72.811
X64.539Y72.771
X64.546Y72.73
X64.554Y72.679
X64.56Y72.623
X64.563Y72.589
X64.565Y72.556
X64.566Y72.522
X64.567Y72.472
Y72.24
X64.582Y72.154
X64.592Y72.077
X64.599Y71.999
X64.603Y71.923
X64.605Y71.83
Y60.996
Y60.957
X64.603Y60.917
X64.601Y60.878
X64.598Y60.839
X64.593Y60.8
X64.588Y60.76
X64.581Y60.722
X64.574Y60.683
X64.567Y60.649
X64.566Y60.607
X64.564Y60.564
X64.56Y60.521
X64.555Y60.478
X64.55Y60.436
X64.543Y60.393
X64.534Y60.351
X64.525Y60.309
X64.515Y60.267
X64.505Y60.232
X64.495Y60.198
X64.484Y60.164
X64.472Y60.13
X64.459Y60.096
X64.443Y60.055
X64.425Y60.014
X64.406Y59.974
X64.384Y59.93
X64.367Y59.901
X64.351Y59.871
X64.329Y59.835
X64.306Y59.799
X64.285Y59.767
X64.262Y59.736
X64.239Y59.705
X64.216Y59.675
X64.191Y59.645
X64.166Y59.616
X64.14Y59.587
X64.113Y59.559
X64.086Y59.532
X64.058Y59.506
X64.029Y59.48
X64Y59.455
X63.97Y59.43
X63.94Y59.406
X63.909Y59.383
X63.877Y59.361
X63.845Y59.34
X63.813Y59.319
X63.78Y59.299
X63.746Y59.28
X63.711Y59.261
X63.677Y59.244
X63.643Y59.228
X63.608Y59.212
X63.573Y59.197
X63.537Y59.184
X63.501Y59.17
X63.465Y59.158
X63.428Y59.147
X63.392Y59.137
X63.355Y59.127
X63.317Y59.118
X63.28Y59.111
X63.242Y59.104
X63.205Y59.098
X63.167Y59.093
X63.129Y59.089
X63.091Y59.085
X63.053Y59.083
X63.014Y59.082
X62.976Y59.081
X59.04
X58.45Y59.068
X57.706Y59.063
G0Z1
X24.368Y65.504
G1Z-0.2F5
X24.395Y65.494F10
X24.447Y65.477
X24.501Y65.462
X24.525Y65.455
X24.559Y65.447
X24.582Y65.442
X24.61Y65.437
X24.637Y65.432
X24.665Y65.427
X24.692Y65.423
X24.72Y65.419
X24.747Y65.416
X24.775Y65.413
X24.803Y65.411
X24.831Y65.409
X24.859Y65.408
X24.886
X24.914Y65.407
X24.942Y65.408
X24.97
X25.026Y65.411
X25.054Y65.413
X25.081Y65.416
X25.109Y65.419
X25.137Y65.423
X25.164Y65.427
X25.185Y65.43
X25.221Y65.437
X25.246Y65.442
X25.273Y65.448
X25.301Y65.455
X25.328Y65.462
X25.354Y65.469
X25.381Y65.477
X25.408Y65.485
X25.434Y65.494
X25.46Y65.504
X25.486Y65.513
X25.512Y65.524
X25.538Y65.534
X25.564Y65.545
X25.614Y65.569
X25.639Y65.581
X25.664Y65.594
X25.713Y65.621
X25.737Y65.635
X25.761Y65.65
X25.784Y65.665
X25.807Y65.68
X25.83Y65.696
X25.853Y65.712
X25.875Y65.729
X25.897Y65.746
X25.919Y65.763
X25.941Y65.781
X25.975Y65.81
X26.005Y65.838
X26.022Y65.854
X26.063Y65.895
X26.082Y65.915
X26.101Y65.936
X26.119Y65.956
X26.137Y65.978
X26.172Y66.021
X26.189Y66.043
X26.206Y66.065
X26.222Y66.088
X26.238Y66.111
X26.253Y66.134
X26.268Y66.158
X26.283Y66.182
X26.297Y66.205
X26.311Y66.23
X26.324Y66.254
X26.337Y66.279
X26.349Y66.304
X26.361Y66.329
X26.373Y66.355
X26.384Y66.38
X26.395Y66.406
X26.405Y66.432
X26.415Y66.458
X26.424Y66.484
X26.433Y66.51
X26.441Y66.537
X26.449Y66.564
X26.456Y66.588
X26.464Y66.618
X26.47Y66.645
X26.476Y66.672
X26.482Y66.699
X26.487Y66.727
X26.491Y66.754
X26.495Y66.782
X26.499Y66.809
X26.502Y66.837
X26.505Y66.865
X26.507Y66.893
X26.509Y66.92
X26.51Y66.948
X26.511Y66.976
Y67.004
Y67.032
X26.51Y67.06
X26.509Y67.087
X26.507Y67.115
X26.505Y67.143
X26.502Y67.171
X26.499Y67.198
X26.495Y67.226
X26.491Y67.254
X26.487Y67.281
X26.482Y67.308
X26.476Y67.336
X26.47Y67.363
X26.464Y67.39
X26.457Y67.417
X26.449Y67.444
X26.441Y67.471
X26.433Y67.497
X26.424Y67.524
X26.415Y67.55
X26.405Y67.576
X26.395Y67.602
X26.384Y67.628
X26.373Y67.653
X26.361Y67.679
X26.349Y67.704
X26.337Y67.729
X26.324Y67.753
X26.311Y67.778
X26.297Y67.802
X26.283Y67.826
X26.268Y67.85
X26.253Y67.873
X26.238Y67.897
X26.222Y67.92
X26.206Y67.942
X26.189Y67.965
X26.172Y67.987
X26.155Y68.009
X26.137Y68.03
X26.119Y68.051
X26.101Y68.072
X26.082Y68.093
X26.063Y68.113
X26.043Y68.133
X26.023Y68.153
X26.003Y68.172
X25.983Y68.19
X25.962Y68.209
X25.941Y68.227
X25.919Y68.245
X25.897Y68.262
X25.875Y68.279
X25.853Y68.296
X25.83Y68.312
X25.807Y68.328
X25.784Y68.343
X25.76Y68.358
X25.737Y68.372
X25.713Y68.387
X25.688Y68.4
X25.664Y68.414
X25.639Y68.427
X25.614Y68.439
X25.589Y68.451
X25.564Y68.463
X25.538Y68.474
X25.513Y68.484
X25.487Y68.494
X25.46Y68.504
X25.434Y68.514
X25.408Y68.522
X25.381Y68.531
X25.354Y68.539
X25.328Y68.546
X25.301Y68.553
X25.273Y68.56
X25.246Y68.566
X25.219Y68.571
X25.192Y68.576
X25.164Y68.581
X25.136Y68.585
X25.109Y68.589
X25.081Y68.592
X25.053Y68.594
X25.026Y68.597
X24.998Y68.598
X24.97Y68.6
X24.942
X24.914Y68.601
X24.886Y68.6
X24.859
X24.831Y68.598
X24.803Y68.597
X24.775Y68.594
X24.75Y68.592
X24.719Y68.589
X24.665Y68.581
X24.637Y68.576
X24.61Y68.571
X24.582Y68.566
X24.555Y68.56
X24.528Y68.553
X24.501Y68.546
X24.474Y68.539
X24.447Y68.531
X24.421Y68.522
X24.395Y68.514
X24.368Y68.504
X24.342Y68.494
X24.316Y68.484
X24.291Y68.474
X24.265Y68.463
X24.239Y68.451
X24.214Y68.439
X24.189Y68.427
X24.165Y68.414
X24.14Y68.4
X24.116Y68.387
X24.068Y68.358
X24.045Y68.343
X24.022Y68.328
X23.999Y68.312
X23.976Y68.296
X23.953Y68.279
X23.931Y68.262
X23.91Y68.245
X23.888Y68.227
X23.867Y68.209
X23.846Y68.19
X23.826Y68.172
X23.805Y68.152
X23.785Y68.133
X23.766Y68.113
X23.747Y68.093
X23.728Y68.072
X23.691Y68.03
X23.673Y68.009
X23.656Y67.987
X23.639Y67.965
X23.623Y67.942
X23.606Y67.92
X23.591Y67.897
X23.575Y67.873
X23.56Y67.85
X23.546Y67.826
X23.518Y67.778
X23.505Y67.753
X23.492Y67.729
X23.479Y67.704
X23.467Y67.679
X23.456Y67.653
X23.445Y67.628
X23.434Y67.602
X23.424Y67.576
X23.414Y67.55
X23.405Y67.524
X23.396Y67.497
X23.387Y67.471
X23.38Y67.444
X23.372Y67.417
X23.358Y67.361
X23.347Y67.309
X23.342Y67.281
X23.337Y67.254
X23.333Y67.226
X23.33Y67.198
X23.326Y67.171
X23.324Y67.143
X23.322Y67.115
X23.32Y67.087
X23.318Y67.032
Y67.004
Y66.976
X23.319Y66.948
X23.32Y66.92
X23.322Y66.893
X23.324Y66.865
X23.326Y66.837
X23.333Y66.782
X23.337Y66.754
X23.342Y66.727
X23.347Y66.699
X23.353Y66.672
X23.359Y66.645
X23.365Y66.618
X23.372Y66.591
X23.38Y66.564
X23.389Y66.533
X23.396Y66.51
X23.405Y66.484
X23.414Y66.458
X23.424Y66.432
X23.441Y66.388
X23.457Y66.352
X23.467Y66.329
X23.479Y66.304
X23.492Y66.279
X23.505Y66.254
X23.518Y66.23
X23.532Y66.205
X23.56Y66.158
X23.575Y66.134
X23.591Y66.111
X23.606Y66.088
X23.623Y66.065
X23.636Y66.047
X23.673Y65.999
X23.691Y65.978
X23.709Y65.956
X23.728Y65.935
X23.747Y65.915
X23.766Y65.895
X23.785Y65.875
X23.807Y65.853
X23.825Y65.836
X23.846Y65.817
X23.867Y65.799
X23.91Y65.763
X23.931Y65.746
X23.953Y65.729
X23.976Y65.712
X23.999Y65.696
X24.038Y65.669
X24.07Y65.649
X24.092Y65.635
X24.116Y65.621
X24.14Y65.607
X24.165Y65.594
X24.189Y65.581
X24.214Y65.569
X24.24Y65.557
X24.265Y65.545
X24.291Y65.534
X24.316Y65.524
X24.368Y65.504
G0Z1
X38.316Y66.813
G1Z-0.2F5
X38.367Y66.644F10
X38.451Y66.488
X38.563Y66.351
X38.699Y66.239
X38.855Y66.156
X39.024Y66.105
X39.2Y66.087
X39.376Y66.105
X39.545Y66.156
X39.701Y66.239
X39.837Y66.351
X39.949Y66.488
X40.033Y66.644
X40.084Y66.813
X40.101Y66.988
X40.084Y67.164
X40.033Y67.333
X39.949Y67.489
X39.837Y67.626
X39.701Y67.738
X39.545Y67.821
X39.376Y67.872
X39.2Y67.89
X39.024Y67.872
X38.855Y67.821
X38.699Y67.738
X38.563Y67.626
X38.451Y67.489
X38.367Y67.333
X38.316Y67.164
X38.299Y66.988
X38.316Y66.813
G0Z1
X54.203Y66.988
G1Z-0.2F5
X54.22Y66.813F10
X54.271Y66.644
X54.355Y66.488
X54.467Y66.351
X54.603Y66.239
X54.759Y66.156
X54.928Y66.105
X55.104Y66.087
X55.28Y66.105
X55.449Y66.156
X55.605Y66.239
X55.741Y66.351
X55.853Y66.488
X55.937Y66.644
X55.988Y66.813
X56.005Y66.988
X55.988Y67.164
X55.937Y67.333
X55.853Y67.489
X55.741Y67.626
X55.605Y67.738
X55.449Y67.821
X55.28Y67.872
X55.104Y67.89
X54.928Y67.872
X54.759Y67.821
X54.603Y67.738
X54.467Y67.626
X54.355Y67.489
X54.271Y67.333
X54.22Y67.164
X54.203Y66.988
G0Z1
X57.706Y59.063
G1Z-0.2F5
X31.251F10
X30.597Y59.069
X29.943Y59.085
X29.29Y59.112
X28.637Y59.151
X27.985Y59.2
X27.333Y59.26
X26.683Y59.33
X26.034Y59.412
X25.387Y59.504
X24.741Y59.607
X24.097Y59.721
X23.454Y59.845
X23.33Y59.872
X23.207Y59.9
X23.084Y59.931
X22.962Y59.964
X22.84Y59.999
X22.719Y60.036
X22.599Y60.075
X22.479Y60.116
X22.36Y60.159
X22.242Y60.204
X22.125Y60.252
X22.008Y60.301
X21.892Y60.352
X21.778Y60.406
X21.664Y60.461
X21.551Y60.518
X21.439Y60.578
X21.328Y60.639
X21.218Y60.702
X21.11Y60.767
X21.002Y60.834
X20.896Y60.902
X20.791Y60.973
X20.687Y61.045
X20.584Y61.119
X20.483Y61.195
X20.383Y61.273
X20.285Y61.352
X20.187Y61.433
X20.092Y61.516
X19.997Y61.6
X19.904Y61.686
X19.813Y61.774
X19.723Y61.863
X19.635Y61.954
X19.548Y62.046
X19.463Y62.14
X19.38Y62.235
X19.298Y62.332
X19.198Y62.454
X19.1Y62.578
X19.005Y62.703
X18.911Y62.83
X18.819Y62.959
X18.73Y63.09
X18.643Y63.222
X18.558Y63.355
X18.476Y63.49
X18.396Y63.626
X18.318Y63.763
X18.243Y63.902
X18.17Y64.042
X18.099Y64.183
X18.031Y64.326
X17.966Y64.47
X17.902Y64.614
X17.842Y64.76
X17.784Y64.907
X17.728Y65.055
X17.675Y65.204
X17.624Y65.353
X17.576Y65.504
X17.531Y65.655
X17.488Y65.807
X17.448Y65.96
X17.41Y66.113
X17.375Y66.267
X17.343Y66.422
X17.313Y66.577
X17.286Y66.733
X17.262Y66.889
X17.241Y67.045
X17.222Y67.202
X17.205Y67.359
X17.192Y67.517
X17.181Y67.674
X17.173Y67.832
X17.167Y67.99
X17.165Y68.148
Y68.306
X17.167Y68.464
X17.173Y68.621
X17.181Y68.779
X17.192Y68.937
X17.205Y69.094
X17.221Y69.251
X17.24Y69.408
X17.26Y69.551
X17.679Y72.442
X17.693Y72.517
X17.709Y72.594
X17.728Y72.669
X17.75Y72.743
X17.774Y72.816
X17.801Y72.89
X17.83Y72.961
X17.862Y73.031
X17.896Y73.101
X17.933Y73.17
X17.971Y73.236
X18.013Y73.302
X18.056Y73.366
X18.102Y73.429
X18.15Y73.49
X18.2Y73.549
X18.252Y73.606
X18.306Y73.662
X18.361Y73.715
X18.42Y73.767
X18.479Y73.817
X18.54Y73.864
X18.603Y73.91
X18.666Y73.953
X18.733Y73.994
X18.8Y74.033
X18.868Y74.068
X18.939Y74.103
X19.008Y74.134
X19.081Y74.163
X19.153Y74.189
X19.227Y74.213
X19.302Y74.235
X19.376Y74.253
X19.453Y74.269
X19.529Y74.283
X19.606Y74.293
X19.682Y74.301
X19.761Y74.307
X19.837Y74.31
X19.876
X24.927
X25.044Y74.309
X25.161Y74.306
X25.277Y74.301
X25.394Y74.294
X26.649Y74.204
X27.802Y74.139
X28.956Y74.093
X30.11Y74.065
X31.271Y74.056
X34.824
X34.862Y74.059
X34.9Y74.061
X34.938Y74.063
X34.976
X62.976
X63.016
X63.056Y74.061
X63.095Y74.059
X63.135Y74.055
X63.174Y74.051
X63.214Y74.045
X63.253Y74.039
X63.292Y74.032
X63.331Y74.023
X63.37Y74.014
X63.408Y74.004
X63.446Y73.992
X63.484Y73.98
X63.522Y73.967
X63.559Y73.953
X63.596Y73.938
X63.632Y73.922
X63.668Y73.905
X63.704Y73.887
X63.739Y73.869
X63.774Y73.849
X63.809Y73.828
X63.843Y73.807
X63.876Y73.784
X63.91Y73.761
X63.942Y73.737
X63.974Y73.712
X64.005Y73.686
X64.02Y73.673
X64.049Y73.647
X64.072Y73.626
X64.093Y73.605
X64.121Y73.577
X64.149Y73.548
X64.181Y73.512
X64.212Y73.475
X64.234Y73.447
X64.255Y73.419
X64.276Y73.39
X64.296Y73.361
X64.315Y73.332
X64.334Y73.301
X64.351Y73.273
X64.367Y73.245
X64.383Y73.216
X64.402Y73.178
X64.42Y73.141
X64.433Y73.111
X64.446Y73.082
X64.462Y73.041
X64.47Y73.019
X64.484Y72.979
X64.497Y72.938
X64.51Y72.896
X64.521Y72.854
X64.531Y72.811
X64.539Y72.771
X64.546Y72.73
X64.554Y72.679
X64.56Y72.623
X64.563Y72.589
X64.565Y72.556
X64.566Y72.522
X64.567Y72.472
Y72.24
X64.582Y72.154
X64.592Y72.077
X64.599Y71.999
X64.603Y71.923
X64.605Y71.83
Y60.996
Y60.957
X64.603Y60.917
X64.601Y60.878
X64.598Y60.839
X64.593Y60.8
X64.588Y60.76
X64.581Y60.722
X64.574Y60.683
X64.567Y60.649
X64.566Y60.607
X64.564Y60.564
X64.56Y60.521
X64.555Y60.478
X64.55Y60.436
X64.543Y60.393
X64.534Y60.351
X64.525Y60.309
X64.515Y60.267
X64.505Y60.232
X64.495Y60.198
X64.484Y60.164
X64.472Y60.13
X64.459Y60.096
X64.443Y60.055
X64.425Y60.014
X64.406Y59.974
X64.384Y59.93
X64.367Y59.901
X64.351Y59.871
X64.329Y59.835
X64.306Y59.799
X64.285Y59.767
X64.262Y59.736
X64.239Y59.705
X64.216Y59.675
X64.191Y59.645
X64.166Y59.616
X64.14Y59.587
X64.113Y59.559
X64.086Y59.532
X64.058Y59.506
X64.029Y59.48
X64Y59.455
X63.97Y59.43
X63.94Y59.406
X63.909Y59.383
X63.877Y59.361
X63.845Y59.34
X63.813Y59.319
X63.78Y59.299
X63.746Y59.28
X63.711Y59.261
X63.677Y59.244
X63.643Y59.228
X63.608Y59.212
X63.573Y59.197
X63.537Y59.184
X63.501Y59.17
X63.465Y59.158
X63.428Y59.147
X63.392Y59.137
X63.355Y59.127
X63.317Y59.118
X63.28Y59.111
X63.242Y59.104
X63.205Y59.098
X63.167Y59.093
X63.129Y59.089
X63.091Y59.085
X63.053Y59.083
X63.014Y59.082
X62.976Y59.081
X59.04
X58.45Y59.068
X57.706Y59.063
G0Z1
X24.368Y65.504
G1Z-0.3F5
X24.395Y65.494F10
X24.447Y65.477
X24.501Y65.462
X24.525Y65.455
X24.559Y65.447
X24.582Y65.442
X24.61Y65.437
X24.637Y65.432
X24.665Y65.427
X24.692Y65.423
X24.72Y65.419
X24.747Y65.416
X24.775Y65.413
X24.803Y65.411
X24.831Y65.409
X24.859Y65.408
X24.886
X24.914Y65.407
X24.942Y65.408
X24.97
X25.026Y65.411
X25.054Y65.413
X25.081Y65.416
X25.109Y65.419
X25.137Y65.423
X25.164Y65.427
X25.185Y65.43
X25.221Y65.437
X25.246Y65.442
X25.273Y65.448
X25.301Y65.455
X25.328Y65.462
X25.354Y65.469
X25.381Y65.477
X25.408Y65.485
X25.434Y65.494
X25.46Y65.504
X25.486Y65.513
X25.512Y65.524
X25.538Y65.534
X25.564Y65.545
X25.614Y65.569
X25.639Y65.581
X25.664Y65.594
X25.713Y65.621
X25.737Y65.635
X25.761Y65.65
X25.784Y65.665
X25.807Y65.68
X25.83Y65.696
X25.853Y65.712
X25.875Y65.729
X25.897Y65.746
X25.919Y65.763
X25.941Y65.781
X25.975Y65.81
X26.005Y65.838
X26.022Y65.854
X26.063Y65.895
X26.082Y65.915
X26.101Y65.936
X26.119Y65.956
X26.137Y65.978
X26.172Y66.021
X26.189Y66.043
X26.206Y66.065
X26.222Y66.088
X26.238Y66.111
X26.253Y66.134
X26.268Y66.158
X26.283Y66.182
X26.297Y66.205
X26.311Y66.23
X26.324Y66.254
X26.337Y66.279
X26.349Y66.304
X26.361Y66.329
X26.373Y66.355
X26.384Y66.38
X26.395Y66.406
X26.405Y66.432
X26.415Y66.458
X26.424Y66.484
X26.433Y66.51
X26.441Y66.537
X26.449Y66.564
X26.456Y66.588
X26.464Y66.618
X26.47Y66.645
X26.476Y66.672
X26.482Y66.699
X26.487Y66.727
X26.491Y66.754
X26.495Y66.782
X26.499Y66.809
X26.502Y66.837
X26.505Y66.865
X26.507Y66.893
X26.509Y66.92
X26.51Y66.948
X26.511Y66.976
Y67.004
Y67.032
X26.51Y67.06
X26.509Y67.087
X26.507Y67.115
X26.505Y67.143
X26.502Y67.171
X26.499Y67.198
X26.495Y67.226
X26.491Y67.254
X26.487Y67.281
X26.482Y67.308
X26.476Y67.336
X26.47Y67.363
X26.464Y67.39
X26.457Y67.417
X26.449Y67.444
X26.441Y67.471
X26.433Y67.497
X26.424Y67.524
X26.415Y67.55
X26.405Y67.576
X26.395Y67.602
X26.384Y67.628
X26.373Y67.653
X26.361Y67.679
X26.349Y67.704
X26.337Y67.729
X26.324Y67.753
X26.311Y67.778
X26.297Y67.802
X26.283Y67.826
X26.268Y67.85
X26.253Y67.873
X26.238Y67.897
X26.222Y67.92
X26.206Y67.942
X26.189Y67.965
X26.172Y67.987
X26.155Y68.009
X26.137Y68.03
X26.119Y68.051
X26.101Y68.072
X26.082Y68.093
X26.063Y68.113
X26.043Y68.133
X26.023Y68.153
X26.003Y68.172
X25.983Y68.19
X25.962Y68.209
X25.941Y68.227
X25.919Y68.245
X25.897Y68.262
X25.875Y68.279
X25.853Y68.296
X25.83Y68.312
X25.807Y68.328
X25.784Y68.343
X25.76Y68.358
X25.737Y68.372
X25.713Y68.387
X25.688Y68.4
X25.664Y68.414
X25.639Y68.427
X25.614Y68.439
X25.589Y68.451
X25.564Y68.463
X25.538Y68.474
X25.513Y68.484
X25.487Y68.494
X25.46Y68.504
X25.434Y68.514
X25.408Y68.522
X25.381Y68.531
X25.354Y68.539
X25.328Y68.546
X25.301Y68.553
X25.273Y68.56
X25.246Y68.566
X25.219Y68.571
X25.192Y68.576
X25.164Y68.581
X25.136Y68.585
X25.109Y68.589
X25.081Y68.592
X25.053Y68.594
X25.026Y68.597
X24.998Y68.598
X24.97Y68.6
X24.942
X24.914Y68.601
X24.886Y68.6
X24.859
X24.831Y68.598
X24.803Y68.597
X24.775Y68.594
X24.75Y68.592
X24.719Y68.589
X24.665Y68.581
X24.637Y68.576
X24.61Y68.571
X24.582Y68.566
X24.555Y68.56
X24.528Y68.553
X24.501Y68.546
X24.474Y68.539
X24.447Y68.531
X24.421Y68.522
X24.395Y68.514
X24.368Y68.504
X24.342Y68.494
X24.316Y68.484
X24.291Y68.474
X24.265Y68.463
X24.239Y68.451
X24.214Y68.439
X24.189Y68.427
X24.165Y68.414
X24.14Y68.4
X24.116Y68.387
X24.068Y68.358
X24.045Y68.343
X24.022Y68.328
X23.999Y68.312
X23.976Y68.296
X23.953Y68.279
X23.931Y68.262
X23.91Y68.245
X23.888Y68.227
X23.867Y68.209
X23.846Y68.19
X23.826Y68.172
X23.805Y68.152
X23.785Y68.133
X23.766Y68.113
X23.747Y68.093
X23.728Y68.072
X23.691Y68.03
X23.673Y68.009
X23.656Y67.987
X23.639Y67.965
X23.623Y67.942
X23.606Y67.92
X23.591Y67.897
X23.575Y67.873
X23.56Y67.85
X23.546Y67.826
X23.518Y67.778
X23.505Y67.753
X23.492Y67.729
X23.479Y67.704
X23.467Y67.679
X23.456Y67.653
X23.445Y67.628
X23.434Y67.602
X23.424Y67.576
X23.414Y67.55
X23.405Y67.524
X23.396Y67.497
X23.387Y67.471
X23.38Y67.444
X23.372Y67.417
X23.358Y67.361
X23.347Y67.309
X23.342Y67.281
X23.337Y67.254
X23.333Y67.226
X23.33Y67.198
X23.326Y67.171
X23.324Y67.143
X23.322Y67.115
X23.32Y67.087
X23.318Y67.032
Y67.004
Y66.976
X23.319Y66.948
X23.32Y66.92
X23.322Y66.893
X23.324Y66.865
X23.326Y66.837
X23.333Y66.782
X23.337Y66.754
X23.342Y66.727
X23.347Y66.699
X23.353Y66.672
X23.359Y66.645
X23.365Y66.618
X23.372Y66.591
X23.38Y66.564
X23.389Y66.533
X23.396Y66.51
X23.405Y66.484
X23.414Y66.458
X23.424Y66.432
X23.441Y66.388
X23.457Y66.352
X23.467Y66.329
X23.479Y66.304
X23.492Y66.279
X23.505Y66.254
X23.518Y66.23
X23.532Y66.205
X23.56Y66.158
X23.575Y66.134
X23.591Y66.111
X23.606Y66.088
X23.623Y66.065
X23.636Y66.047
X23.673Y65.999
X23.691Y65.978
X23.709Y65.956
X23.728Y65.935
X23.747Y65.915
X23.766Y65.895
X23.785Y65.875
X23.807Y65.853
X23.825Y65.836
X23.846Y65.817
X23.867Y65.799
X23.91Y65.763
X23.931Y65.746
X23.953Y65.729
X23.976Y65.712
X23.999Y65.696
X24.038Y65.669
X24.07Y65.649
X24.092Y65.635
X24.116Y65.621
X24.14Y65.607
X24.165Y65.594
X24.189Y65.581
X24.214Y65.569
X24.24Y65.557
X24.265Y65.545
X24.291Y65.534
X24.316Y65.524
X24.368Y65.504
G0Z1
X38.316Y66.813
G1Z-0.3F5
X38.367Y66.644F10
X38.451Y66.488
X38.563Y66.351
X38.699Y66.239
X38.855Y66.156
X39.024Y66.105
X39.2Y66.087
X39.376Y66.105
X39.545Y66.156
X39.701Y66.239
X39.837Y66.351
X39.949Y66.488
X40.033Y66.644
X40.084Y66.813
X40.101Y66.988
X40.084Y67.164
X40.033Y67.333
X39.949Y67.489
X39.837Y67.626
X39.701Y67.738
X39.545Y67.821
X39.376Y67.872
X39.2Y67.89
X39.024Y67.872
X38.855Y67.821
X38.699Y67.738
X38.563Y67.626
X38.451Y67.489
X38.367Y67.333
X38.316Y67.164
X38.299Y66.988
X38.316Y66.813
G0Z1
X54.203Y66.988
G1Z-0.3F5
X54.22Y66.813F10
X54.271Y66.644
X54.355Y66.488
X54.467Y66.351
X54.603Y66.239
X54.759Y66.156
X54.928Y66.105
X55.104Y66.087
X55.28Y66.105
X55.449Y66.156
X55.605Y66.239
X55.741Y66.351
X55.853Y66.488
X55.937Y66.644
X55.988Y66.813
X56.005Y66.988
X55.988Y67.164
X55.937Y67.333
X55.853Y67.489
X55.741Y67.626
X55.605Y67.738
X55.449Y67.821
X55.28Y67.872
X55.104Y67.89
X54.928Y67.872
X54.759Y67.821
X54.603Y67.738
X54.467Y67.626
X54.355Y67.489
X54.271Y67.333
X54.22Y67.164
X54.203Y66.988
G0Z1
X57.706Y59.063
G1Z-0.3F5
X31.251F10
X30.597Y59.069
X29.943Y59.085
X29.29Y59.112
X28.637Y59.151
X27.985Y59.2
X27.333Y59.26
X26.683Y59.33
X26.034Y59.412
X25.387Y59.504
X24.741Y59.607
X24.097Y59.721
X23.454Y59.845
X23.33Y59.872
X23.207Y59.9
X23.084Y59.931
X22.962Y59.964
X22.84Y59.999
X22.719Y60.036
X22.599Y60.075
X22.479Y60.116
X22.36Y60.159
X22.242Y60.204
X22.125Y60.252
X22.008Y60.301
X21.892Y60.352
X21.778Y60.406
X21.664Y60.461
X21.551Y60.518
X21.439Y60.578
X21.328Y60.639
X21.218Y60.702
X21.11Y60.767
X21.002Y60.834
X20.896Y60.902
X20.791Y60.973
X20.687Y61.045
X20.584Y61.119
X20.483Y61.195
X20.383Y61.273
X20.285Y61.352
X20.187Y61.433
X20.092Y61.516
X19.997Y61.6
X19.904Y61.686
X19.813Y61.774
X19.723Y61.863
X19.635Y61.954
X19.548Y62.046
X19.463Y62.14
X19.38Y62.235
X19.298Y62.332
X19.198Y62.454
X19.1Y62.578
X19.005Y62.703
X18.911Y62.83
X18.819Y62.959
X18.73Y63.09
X18.643Y63.222
X18.558Y63.355
X18.476Y63.49
X18.396Y63.626
X18.318Y63.763
X18.243Y63.902
X18.17Y64.042
X18.099Y64.183
X18.031Y64.326
X17.966Y64.47
X17.902Y64.614
X17.842Y64.76
X17.784Y64.907
X17.728Y65.055
X17.675Y65.204
X17.624Y65.353
X17.576Y65.504
X17.531Y65.655
X17.488Y65.807
X17.448Y65.96
X17.41Y66.113
X17.375Y66.267
X17.343Y66.422
X17.313Y66.577
X17.286Y66.733
X17.262Y66.889
X17.241Y67.045
X17.222Y67.202
X17.205Y67.359
X17.192Y67.517
X17.181Y67.674
X17.173Y67.832
X17.167Y67.99
X17.165Y68.148
Y68.306
X17.167Y68.464
X17.173Y68.621
X17.181Y68.779
X17.192Y68.937
X17.205Y69.094
X17.221Y69.251
X17.24Y69.408
X17.26Y69.551
X17.679Y72.442
X17.693Y72.517
X17.709Y72.594
X17.728Y72.669
X17.75Y72.743
X17.774Y72.816
X17.801Y72.89
X17.83Y72.961
X17.862Y73.031
X17.896Y73.101
X17.933Y73.17
X17.971Y73.236
X18.013Y73.302
X18.056Y73.366
X18.102Y73.429
X18.15Y73.49
X18.2Y73.549
X18.252Y73.606
X18.306Y73.662
X18.361Y73.715
X18.42Y73.767
X18.479Y73.817
X18.54Y73.864
X18.603Y73.91
X18.666Y73.953
X18.733Y73.994
X18.8Y74.033
X18.868Y74.068
X18.939Y74.103
X19.008Y74.134
X19.081Y74.163
X19.153Y74.189
X19.227Y74.213
X19.302Y74.235
X19.376Y74.253
X19.453Y74.269
X19.529Y74.283
X19.606Y74.293
X19.682Y74.301
X19.761Y74.307
X19.837Y74.31
X19.876
X24.927
X25.044Y74.309
X25.161Y74.306
X25.277Y74.301
X25.394Y74.294
X26.649Y74.204
X27.802Y74.139
X28.956Y74.093
X30.11Y74.065
X31.271Y74.056
X34.824
X34.862Y74.059
X34.9Y74.061
X34.938Y74.063
X34.976
X62.976
X63.016
X63.056Y74.061
X63.095Y74.059
X63.135Y74.055
X63.174Y74.051
X63.214Y74.045
X63.253Y74.039
X63.292Y74.032
X63.331Y74.023
X63.37Y74.014
X63.408Y74.004
X63.446Y73.992
X63.484Y73.98
X63.522Y73.967
X63.559Y73.953
X63.596Y73.938
X63.632Y73.922
X63.668Y73.905
X63.704Y73.887
X63.739Y73.869
X63.774Y73.849
X63.809Y73.828
X63.843Y73.807
X63.876Y73.784
X63.91Y73.761
X63.942Y73.737
X63.974Y73.712
X64.005Y73.686
X64.02Y73.673
X64.049Y73.647
X64.072Y73.626
X64.093Y73.605
X64.121Y73.577
X64.149Y73.548
X64.181Y73.512
X64.212Y73.475
X64.234Y73.447
X64.255Y73.419
X64.276Y73.39
X64.296Y73.361
X64.315Y73.332
X64.334Y73.301
X64.351Y73.273
X64.367Y73.245
X64.383Y73.216
X64.402Y73.178
X64.42Y73.141
X64.433Y73.111
X64.446Y73.082
X64.462Y73.041
X64.47Y73.019
X64.484Y72.979
X64.497Y72.938
X64.51Y72.896
X64.521Y72.854
X64.531Y72.811
X64.539Y72.771
X64.546Y72.73
X64.554Y72.679
X64.56Y72.623
X64.563Y72.589
X64.565Y72.556
X64.566Y72.522
X64.567Y72.472
Y72.24
X64.582Y72.154
X64.592Y72.077
X64.599Y71.999
X64.603Y71.923
X64.605Y71.83
Y60.996
Y60.957
X64.603Y60.917
X64.601Y60.878
X64.598Y60.839
X64.593Y60.8
X64.588Y60.76
X64.581Y60.722
X64.574Y60.683
X64.567Y60.649
X64.566Y60.607
X64.564Y60.564
X64.56Y60.521
X64.555Y60.478
X64.55Y60.436
X64.543Y60.393
X64.534Y60.351
X64.525Y60.309
X64.515Y60.267
X64.505Y60.232
X64.495Y60.198
X64.484Y60.164
X64.472Y60.13
X64.459Y60.096
X64.443Y60.055
X64.425Y60.014
X64.406Y59.974
X64.384Y59.93
X64.367Y59.901
X64.351Y59.871
X64.329Y59.835
X64.306Y59.799
X64.285Y59.767
X64.262Y59.736
X64.239Y59.705
X64.216Y59.675
X64.191Y59.645
X64.166Y59.616
X64.14Y59.587
X64.113Y59.559
X64.086Y59.532
X64.058Y59.506
X64.029Y59.48
X64Y59.455
X63.97Y59.43
X63.94Y59.406
X63.909Y59.383
X63.877Y59.361
X63.845Y59.34
X63.813Y59.319
X63.78Y59.299
X63.746Y59.28
X63.711Y59.261
X63.677Y59.244
X63.643Y59.228
X63.608Y59.212
X63.573Y59.197
X63.537Y59.184
X63.501Y59.17
X63.465Y59.158
X63.428Y59.147
X63.392Y59.137
X63.355Y59.127
X63.317Y59.118
X63.28Y59.111
X63.242Y59.104
X63.205Y59.098
X63.167Y59.093
X63.129Y59.089
X63.091Y59.085
X63.053Y59.083
X63.014Y59.082
X62.976Y59.081
X59.04
X58.45Y59.068
X57.706Y59.063
G0Z1
X24.368Y65.504
G1Z-0.4F5
X24.395Y65.494F10
X24.447Y65.477
X24.501Y65.462
X24.525Y65.455
X24.559Y65.447
X24.582Y65.442
X24.61Y65.437
X24.637Y65.432
X24.665Y65.427
X24.692Y65.423
X24.72Y65.419
X24.747Y65.416
X24.775Y65.413
X24.803Y65.411
X24.831Y65.409
X24.859Y65.408
X24.886
X24.914Y65.407
X24.942Y65.408
X24.97
X25.026Y65.411
X25.054Y65.413
X25.081Y65.416
X25.109Y65.419
X25.137Y65.423
X25.164Y65.427
X25.185Y65.43
X25.221Y65.437
X25.246Y65.442
X25.273Y65.448
X25.301Y65.455
X25.328Y65.462
X25.354Y65.469
X25.381Y65.477
X25.408Y65.485
X25.434Y65.494
X25.46Y65.504
X25.486Y65.513
X25.512Y65.524
X25.538Y65.534
X25.564Y65.545
X25.614Y65.569
X25.639Y65.581
X25.664Y65.594
X25.713Y65.621
X25.737Y65.635
X25.761Y65.65
X25.784Y65.665
X25.807Y65.68
X25.83Y65.696
X25.853Y65.712
X25.875Y65.729
X25.897Y65.746
X25.919Y65.763
X25.941Y65.781
X25.975Y65.81
X26.005Y65.838
X26.022Y65.854
X26.063Y65.895
X26.082Y65.915
X26.101Y65.936
X26.119Y65.956
X26.137Y65.978
X26.172Y66.021
X26.189Y66.043
X26.206Y66.065
X26.222Y66.088
X26.238Y66.111
X26.253Y66.134
X26.268Y66.158
X26.283Y66.182
X26.297Y66.205
X26.311Y66.23
X26.324Y66.254
X26.337Y66.279
X26.349Y66.304
X26.361Y66.329
X26.373Y66.355
X26.384Y66.38
X26.395Y66.406
X26.405Y66.432
X26.415Y66.458
X26.424Y66.484
X26.433Y66.51
X26.441Y66.537
X26.449Y66.564
X26.456Y66.588
X26.464Y66.618
X26.47Y66.645
X26.476Y66.672
X26.482Y66.699
X26.487Y66.727
X26.491Y66.754
X26.495Y66.782
X26.499Y66.809
X26.502Y66.837
X26.505Y66.865
X26.507Y66.893
X26.509Y66.92
X26.51Y66.948
X26.511Y66.976
Y67.004
Y67.032
X26.51Y67.06
X26.509Y67.087
X26.507Y67.115
X26.505Y67.143
X26.502Y67.171
X26.499Y67.198
X26.495Y67.226
X26.491Y67.254
X26.487Y67.281
X26.482Y67.308
X26.476Y67.336
X26.47Y67.363
X26.464Y67.39
X26.457Y67.417
X26.449Y67.444
X26.441Y67.471
X26.433Y67.497
X26.424Y67.524
X26.415Y67.55
X26.405Y67.576
X26.395Y67.602
X26.384Y67.628
X26.373Y67.653
X26.361Y67.679
X26.349Y67.704
X26.337Y67.729
X26.324Y67.753
X26.311Y67.778
X26.297Y67.802
X26.283Y67.826
X26.268Y67.85
X26.253Y67.873
X26.238Y67.897
X26.222Y67.92
X26.206Y67.942
X26.189Y67.965
X26.172Y67.987
X26.155Y68.009
X26.137Y68.03
X26.119Y68.051
X26.101Y68.072
X26.082Y68.093
X26.063Y68.113
X26.043Y68.133
X26.023Y68.153
X26.003Y68.172
X25.983Y68.19
X25.962Y68.209
X25.941Y68.227
X25.919Y68.245
X25.897Y68.262
X25.875Y68.279
X25.853Y68.296
X25.83Y68.312
X25.807Y68.328
X25.784Y68.343
X25.76Y68.358
X25.737Y68.372
X25.713Y68.387
X25.688Y68.4
X25.664Y68.414
X25.639Y68.427
X25.614Y68.439
X25.589Y68.451
X25.564Y68.463
X25.538Y68.474
X25.513Y68.484
X25.487Y68.494
X25.46Y68.504
X25.434Y68.514
X25.408Y68.522
X25.381Y68.531
X25.354Y68.539
X25.328Y68.546
X25.301Y68.553
X25.273Y68.56
X25.246Y68.566
X25.219Y68.571
X25.192Y68.576
X25.164Y68.581
X25.136Y68.585
X25.109Y68.589
X25.081Y68.592
X25.053Y68.594
X25.026Y68.597
X24.998Y68.598
X24.97Y68.6
X24.942
X24.914Y68.601
X24.886Y68.6
X24.859
X24.831Y68.598
X24.803Y68.597
X24.775Y68.594
X24.75Y68.592
X24.719Y68.589
X24.665Y68.581
X24.637Y68.576
X24.61Y68.571
X24.582Y68.566
X24.555Y68.56
X24.528Y68.553
X24.501Y68.546
X24.474Y68.539
X24.447Y68.531
X24.421Y68.522
X24.395Y68.514
X24.368Y68.504
X24.342Y68.494
X24.316Y68.484
X24.291Y68.474
X24.265Y68.463
X24.239Y68.451
X24.214Y68.439
X24.189Y68.427
X24.165Y68.414
X24.14Y68.4
X24.116Y68.387
X24.068Y68.358
X24.045Y68.343
X24.022Y68.328
X23.999Y68.312
X23.976Y68.296
X23.953Y68.279
X23.931Y68.262
X23.91Y68.245
X23.888Y68.227
X23.867Y68.209
X23.846Y68.19
X23.826Y68.172
X23.805Y68.152
X23.785Y68.133
X23.766Y68.113
X23.747Y68.093
X23.728Y68.072
X23.691Y68.03
X23.673Y68.009
X23.656Y67.987
X23.639Y67.965
X23.623Y67.942
X23.606Y67.92
X23.591Y67.897
X23.575Y67.873
X23.56Y67.85
X23.546Y67.826
X23.518Y67.778
X23.505Y67.753
X23.492Y67.729
X23.479Y67.704
X23.467Y67.679
X23.456Y67.653
X23.445Y67.628
X23.434Y67.602
X23.424Y67.576
X23.414Y67.55
X23.405Y67.524
X23.396Y67.497
X23.387Y67.471
X23.38Y67.444
X23.372Y67.417
X23.358Y67.361
X23.347Y67.309
X23.342Y67.281
X23.337Y67.254
X23.333Y67.226
X23.33Y67.198
X23.326Y67.171
X23.324Y67.143
X23.322Y67.115
X23.32Y67.087
X23.318Y67.032
Y67.004
Y66.976
X23.319Y66.948
X23.32Y66.92
X23.322Y66.893
X23.324Y66.865
X23.326Y66.837
X23.333Y66.782
X23.337Y66.754
X23.342Y66.727
X23.347Y66.699
X23.353Y66.672
X23.359Y66.645
X23.365Y66.618
X23.372Y66.591
X23.38Y66.564
X23.389Y66.533
X23.396Y66.51
X23.405Y66.484
X23.414Y66.458
X23.424Y66.432
X23.441Y66.388
X23.457Y66.352
X23.467Y66.329
X23.479Y66.304
X23.492Y66.279
X23.505Y66.254
X23.518Y66.23
X23.532Y66.205
X23.56Y66.158
X23.575Y66.134
X23.591Y66.111
X23.606Y66.088
X23.623Y66.065
X23.636Y66.047
X23.673Y65.999
X23.691Y65.978
X23.709Y65.956
X23.728Y65.935
X23.747Y65.915
X23.766Y65.895
X23.785Y65.875
X23.807Y65.853
X23.825Y65.836
X23.846Y65.817
X23.867Y65.799
X23.91Y65.763
X23.931Y65.746
X23.953Y65.729
X23.976Y65.712
X23.999Y65.696
X24.038Y65.669
X24.07Y65.649
X24.092Y65.635
X24.116Y65.621
X24.14Y65.607
X24.165Y65.594
X24.189Y65.581
X24.214Y65.569
X24.24Y65.557
X24.265Y65.545
X24.291Y65.534
X24.316Y65.524
X24.368Y65.504
G0Z1
X38.316Y66.813
G1Z-0.4F5
X38.367Y66.644F10
X38.451Y66.488
X38.563Y66.351
X38.699Y66.239
X38.855Y66.156
X39.024Y66.105
X39.2Y66.087
X39.376Y66.105
X39.545Y66.156
X39.701Y66.239
X39.837Y66.351
X39.949Y66.488
X40.033Y66.644
X40.084Y66.813
X40.101Y66.988
X40.084Y67.164
X40.033Y67.333
X39.949Y67.489
X39.837Y67.626
X39.701Y67.738
X39.545Y67.821
X39.376Y67.872
X39.2Y67.89
X39.024Y67.872
X38.855Y67.821
X38.699Y67.738
X38.563Y67.626
X38.451Y67.489
X38.367Y67.333
X38.316Y67.164
X38.299Y66.988
X38.316Y66.813
G0Z1
X54.203Y66.988
G1Z-0.4F5
X54.22Y66.813F10
X54.271Y66.644
X54.355Y66.488
X54.467Y66.351
X54.603Y66.239
X54.759Y66.156
X54.928Y66.105
X55.104Y66.087
X55.28Y66.105
X55.449Y66.156
X55.605Y66.239
X55.741Y66.351
X55.853Y66.488
X55.937Y66.644
X55.988Y66.813
X56.005Y66.988
X55.988Y67.164
X55.937Y67.333
X55.853Y67.489
X55.741Y67.626
X55.605Y67.738
X55.449Y67.821
X55.28Y67.872
X55.104Y67.89
X54.928Y67.872
X54.759Y67.821
X54.603Y67.738
X54.467Y67.626
X54.355Y67.489
X54.271Y67.333
X54.22Y67.164
X54.203Y66.988
G0Z1
X57.706Y59.063
G1Z-0.4F5
X31.251F10
X30.597Y59.069
X29.943Y59.085
X29.29Y59.112
X28.637Y59.151
X27.985Y59.2
X27.333Y59.26
X26.683Y59.33
X26.034Y59.412
X25.387Y59.504
X24.741Y59.607
X24.097Y59.721
X23.454Y59.845
X23.33Y59.872
X23.207Y59.9
X23.084Y59.931
X22.962Y59.964
X22.84Y59.999
X22.719Y60.036
X22.599Y60.075
X22.479Y60.116
X22.36Y60.159
X22.242Y60.204
X22.125Y60.252
X22.008Y60.301
X21.892Y60.352
X21.778Y60.406
X21.664Y60.461
X21.551Y60.518
X21.439Y60.578
X21.328Y60.639
X21.218Y60.702
X21.11Y60.767
X21.002Y60.834
X20.896Y60.902
X20.791Y60.973
X20.687Y61.045
X20.584Y61.119
X20.483Y61.195
X20.383Y61.273
X20.285Y61.352
X20.187Y61.433
X20.092Y61.516
X19.997Y61.6
X19.904Y61.686
X19.813Y61.774
X19.723Y61.863
X19.635Y61.954
X19.548Y62.046
X19.463Y62.14
X19.38Y62.235
X19.298Y62.332
X19.198Y62.454
X19.1Y62.578
X19.005Y62.703
X18.911Y62.83
X18.819Y62.959
X18.73Y63.09
X18.643Y63.222
X18.558Y63.355
X18.476Y63.49
X18.396Y63.626
X18.318Y63.763
X18.243Y63.902
X18.17Y64.042
X18.099Y64.183
X18.031Y64.326
X17.966Y64.47
X17.902Y64.614
X17.842Y64.76
X17.784Y64.907
X17.728Y65.055
X17.675Y65.204
X17.624Y65.353
X17.576Y65.504
X17.531Y65.655
X17.488Y65.807
X17.448Y65.96
X17.41Y66.113
X17.375Y66.267
X17.343Y66.422
X17.313Y66.577
X17.286Y66.733
X17.262Y66.889
X17.241Y67.045
X17.222Y67.202
X17.205Y67.359
X17.192Y67.517
X17.181Y67.674
X17.173Y67.832
X17.167Y67.99
X17.165Y68.148
Y68.306
X17.167Y68.464
X17.173Y68.621
X17.181Y68.779
X17.192Y68.937
X17.205Y69.094
X17.221Y69.251
X17.24Y69.408
X17.26Y69.551
X17.679Y72.442
X17.693Y72.517
X17.709Y72.594
X17.728Y72.669
X17.75Y72.743
X17.774Y72.816
X17.801Y72.89
X17.83Y72.961
X17.862Y73.031
X17.896Y73.101
X17.933Y73.17
X17.971Y73.236
X18.013Y73.302
X18.056Y73.366
X18.102Y73.429
X18.15Y73.49
X18.2Y73.549
X18.252Y73.606
X18.306Y73.662
X18.361Y73.715
X18.42Y73.767
X18.479Y73.817
X18.54Y73.864
X18.603Y73.91
X18.666Y73.953
X18.733Y73.994
X18.8Y74.033
X18.868Y74.068
X18.939Y74.103
X19.008Y74.134
X19.081Y74.163
X19.153Y74.189
X19.227Y74.213
X19.302Y74.235
X19.376Y74.253
X19.453Y74.269
X19.529Y74.283
X19.606Y74.293
X19.682Y74.301
X19.761Y74.307
X19.837Y74.31
X19.876
X24.927
X25.044Y74.309
X25.161Y74.306
X25.277Y74.301
X25.394Y74.294
X26.649Y74.204
X27.802Y74.139
X28.956Y74.093
X30.11Y74.065
X31.271Y74.056
X34.824
X34.862Y74.059
X34.9Y74.061
X34.938Y74.063
X34.976
X62.976
X63.016
X63.056Y74.061
X63.095Y74.059
X63.135Y74.055
X63.174Y74.051
X63.214Y74.045
X63.253Y74.039
X63.292Y74.032
X63.331Y74.023
X63.37Y74.014
X63.408Y74.004
X63.446Y73.992
X63.484Y73.98
X63.522Y73.967
X63.559Y73.953
X63.596Y73.938
X63.632Y73.922
X63.668Y73.905
X63.704Y73.887
X63.739Y73.869
X63.774Y73.849
X63.809Y73.828
X63.843Y73.807
X63.876Y73.784
X63.91Y73.761
X63.942Y73.737
X63.974Y73.712
X64.005Y73.686
X64.02Y73.673
X64.049Y73.647
X64.072Y73.626
X64.093Y73.605
X64.121Y73.577
X64.149Y73.548
X64.181Y73.512
X64.212Y73.475
X64.234Y73.447
X64.255Y73.419
X64.276Y73.39
X64.296Y73.361
X64.315Y73.332
X64.334Y73.301
X64.351Y73.273
X64.367Y73.245
X64.383Y73.216
X64.402Y73.178
X64.42Y73.141
X64.433Y73.111
X64.446Y73.082
X64.462Y73.041
X64.47Y73.019
X64.484Y72.979
X64.497Y72.938
X64.51Y72.896
X64.521Y72.854
X64.531Y72.811
X64.539Y72.771
X64.546Y72.73
X64.554Y72.679
X64.56Y72.623
X64.563Y72.589
X64.565Y72.556
X64.566Y72.522
X64.567Y72.472
Y72.24
X64.582Y72.154
X64.592Y72.077
X64.599Y71.999
X64.603Y71.923
X64.605Y71.83
Y60.996
Y60.957
X64.603Y60.917
X64.601Y60.878
X64.598Y60.839
X64.593Y60.8
X64.588Y60.76
X64.581Y60.722
X64.574Y60.683
X64.567Y60.649
X64.566Y60.607
X64.564Y60.564
X64.56Y60.521
X64.555Y60.478
X64.55Y60.436
X64.543Y60.393
X64.534Y60.351
X64.525Y60.309
X64.515Y60.267
X64.505Y60.232
X64.495Y60.198
X64.484Y60.164
X64.472Y60.13
X64.459Y60.096
X64.443Y60.055
X64.425Y60.014
X64.406Y59.974
X64.384Y59.93
X64.367Y59.901
X64.351Y59.871
X64.329Y59.835
X64.306Y59.799
X64.285Y59.767
X64.262Y59.736
X64.239Y59.705
X64.216Y59.675
X64.191Y59.645
X64.166Y59.616
X64.14Y59.587
X64.113Y59.559
X64.086Y59.532
X64.058Y59.506
X64.029Y59.48
X64Y59.455
X63.97Y59.43
X63.94Y59.406
X63.909Y59.383
X63.877Y59.361
X63.845Y59.34
X63.813Y59.319
X63.78Y59.299
X63.746Y59.28
X63.711Y59.261
X63.677Y59.244
X63.643Y59.228
X63.608Y59.212
X63.573Y59.197
X63.537Y59.184
X63.501Y59.17
X63.465Y59.158
X63.428Y59.147
X63.392Y59.137
X63.355Y59.127
X63.317Y59.118
X63.28Y59.111
X63.242Y59.104
X63.205Y59.098
X63.167Y59.093
X63.129Y59.089
X63.091Y59.085
X63.053Y59.083
X63.014Y59.082
X62.976Y59.081
X59.04
X58.45Y59.068
X57.706Y59.063
G0Z1
X24.368Y65.504
G1Z-0.5F5
X24.395Y65.494F10
X24.447Y65.477
X24.501Y65.462
X24.525Y65.455
X24.559Y65.447
X24.582Y65.442
X24.61Y65.437
X24.637Y65.432
X24.665Y65.427
X24.692Y65.423
X24.72Y65.419
X24.747Y65.416
X24.775Y65.413
X24.803Y65.411
X24.831Y65.409
X24.859Y65.408
X24.886
X24.914Y65.407
X24.942Y65.408
X24.97
X25.026Y65.411
X25.054Y65.413
X25.081Y65.416
X25.109Y65.419
X25.137Y65.423
X25.164Y65.427
X25.185Y65.43
X25.221Y65.437
X25.246Y65.442
X25.273Y65.448
X25.301Y65.455
X25.328Y65.462
X25.354Y65.469
X25.381Y65.477
X25.408Y65.485
X25.434Y65.494
X25.46Y65.504
X25.486Y65.513
X25.512Y65.524
X25.538Y65.534
X25.564Y65.545
X25.614Y65.569
X25.639Y65.581
X25.664Y65.594
X25.713Y65.621
X25.737Y65.635
X25.761Y65.65
X25.784Y65.665
X25.807Y65.68
X25.83Y65.696
X25.853Y65.712
X25.875Y65.729
X25.897Y65.746
X25.919Y65.763
X25.941Y65.781
X25.975Y65.81
X26.005Y65.838
X26.022Y65.854
X26.063Y65.895
X26.082Y65.915
X26.101Y65.936
X26.119Y65.956
X26.137Y65.978
X26.172Y66.021
X26.189Y66.043
X26.206Y66.065
X26.222Y66.088
X26.238Y66.111
X26.253Y66.134
X26.268Y66.158
X26.283Y66.182
X26.297Y66.205
X26.311Y66.23
X26.324Y66.254
X26.337Y66.279
X26.349Y66.304
X26.361Y66.329
X26.373Y66.355
X26.384Y66.38
X26.395Y66.406
X26.405Y66.432
X26.415Y66.458
X26.424Y66.484
X26.433Y66.51
X26.441Y66.537
X26.449Y66.564
X26.456Y66.588
X26.464Y66.618
X26.47Y66.645
X26.476Y66.672
X26.482Y66.699
X26.487Y66.727
X26.491Y66.754
X26.495Y66.782
X26.499Y66.809
X26.502Y66.837
X26.505Y66.865
X26.507Y66.893
X26.509Y66.92
X26.51Y66.948
X26.511Y66.976
Y67.004
Y67.032
X26.51Y67.06
X26.509Y67.087
X26.507Y67.115
X26.505Y67.143
X26.502Y67.171
X26.499Y67.198
X26.495Y67.226
X26.491Y67.254
X26.487Y67.281
X26.482Y67.308
X26.476Y67.336
X26.47Y67.363
X26.464Y67.39
X26.457Y67.417
X26.449Y67.444
X26.441Y67.471
X26.433Y67.497
X26.424Y67.524
X26.415Y67.55
X26.405Y67.576
X26.395Y67.602
X26.384Y67.628
X26.373Y67.653
X26.361Y67.679
X26.349Y67.704
X26.337Y67.729
X26.324Y67.753
X26.311Y67.778
X26.297Y67.802
X26.283Y67.826
X26.268Y67.85
X26.253Y67.873
X26.238Y67.897
X26.222Y67.92
X26.206Y67.942
X26.189Y67.965
X26.172Y67.987
X26.155Y68.009
X26.137Y68.03
X26.119Y68.051
X26.101Y68.072
X26.082Y68.093
X26.063Y68.113
X26.043Y68.133
X26.023Y68.153
X26.003Y68.172
X25.983Y68.19
X25.962Y68.209
X25.941Y68.227
X25.919Y68.245
X25.897Y68.262
X25.875Y68.279
X25.853Y68.296
X25.83Y68.312
X25.807Y68.328
X25.784Y68.343
X25.76Y68.358
X25.737Y68.372
X25.713Y68.387
X25.688Y68.4
X25.664Y68.414
X25.639Y68.427
X25.614Y68.439
X25.589Y68.451
X25.564Y68.463
X25.538Y68.474
X25.513Y68.484
X25.487Y68.494
X25.46Y68.504
X25.434Y68.514
X25.408Y68.522
X25.381Y68.531
X25.354Y68.539
X25.328Y68.546
X25.301Y68.553
X25.273Y68.56
X25.246Y68.566
X25.219Y68.571
X25.192Y68.576
X25.164Y68.581
X25.136Y68.585
X25.109Y68.589
X25.081Y68.592
X25.053Y68.594
X25.026Y68.597
X24.998Y68.598
X24.97Y68.6
X24.942
X24.914Y68.601
X24.886Y68.6
X24.859
X24.831Y68.598
X24.803Y68.597
X24.775Y68.594
X24.75Y68.592
X24.719Y68.589
X24.665Y68.581
X24.637Y68.576
X24.61Y68.571
X24.582Y68.566
X24.555Y68.56
X24.528Y68.553
X24.501Y68.546
X24.474Y68.539
X24.447Y68.531
X24.421Y68.522
X24.395Y68.514
X24.368Y68.504
X24.342Y68.494
X24.316Y68.484
X24.291Y68.474
X24.265Y68.463
X24.239Y68.451
X24.214Y68.439
X24.189Y68.427
X24.165Y68.414
X24.14Y68.4
X24.116Y68.387
X24.068Y68.358
X24.045Y68.343
X24.022Y68.328
X23.999Y68.312
X23.976Y68.296
X23.953Y68.279
X23.931Y68.262
X23.91Y68.245
X23.888Y68.227
X23.867Y68.209
X23.846Y68.19
X23.826Y68.172
X23.805Y68.152
X23.785Y68.133
X23.766Y68.113
X23.747Y68.093
X23.728Y68.072
X23.691Y68.03
X23.673Y68.009
X23.656Y67.987
X23.639Y67.965
X23.623Y67.942
X23.606Y67.92
X23.591Y67.897
X23.575Y67.873
X23.56Y67.85
X23.546Y67.826
X23.518Y67.778
X23.505Y67.753
X23.492Y67.729
X23.479Y67.704
X23.467Y67.679
X23.456Y67.653
X23.445Y67.628
X23.434Y67.602
X23.424Y67.576
X23.414Y67.55
X23.405Y67.524
X23.396Y67.497
X23.387Y67.471
X23.38Y67.444
X23.372Y67.417
X23.358Y67.361
X23.347Y67.309
X23.342Y67.281
X23.337Y67.254
X23.333Y67.226
X23.33Y67.198
X23.326Y67.171
X23.324Y67.143
X23.322Y67.115
X23.32Y67.087
X23.318Y67.032
Y67.004
Y66.976
X23.319Y66.948
X23.32Y66.92
X23.322Y66.893
X23.324Y66.865
X23.326Y66.837
X23.333Y66.782
X23.337Y66.754
X23.342Y66.727
X23.347Y66.699
X23.353Y66.672
X23.359Y66.645
X23.365Y66.618
X23.372Y66.591
X23.38Y66.564
X23.389Y66.533
X23.396Y66.51
X23.405Y66.484
X23.414Y66.458
X23.424Y66.432
X23.441Y66.388
X23.457Y66.352
X23.467Y66.329
X23.479Y66.304
X23.492Y66.279
X23.505Y66.254
X23.518Y66.23
X23.532Y66.205
X23.56Y66.158
X23.575Y66.134
X23.591Y66.111
X23.606Y66.088
X23.623Y66.065
X23.636Y66.047
X23.673Y65.999
X23.691Y65.978
X23.709Y65.956
X23.728Y65.935
X23.747Y65.915
X23.766Y65.895
X23.785Y65.875
X23.807Y65.853
X23.825Y65.836
X23.846Y65.817
X23.867Y65.799
X23.91Y65.763
X23.931Y65.746
X23.953Y65.729
X23.976Y65.712
X23.999Y65.696
X24.038Y65.669
X24.07Y65.649
X24.092Y65.635
X24.116Y65.621
X24.14Y65.607
X24.165Y65.594
X24.189Y65.581
X24.214Y65.569
X24.24Y65.557
X24.265Y65.545
X24.291Y65.534
X24.316Y65.524
X24.368Y65.504
G0Z1
X38.316Y66.813
G1Z-0.5F5
X38.367Y66.644F10
X38.451Y66.488
X38.563Y66.351
X38.699Y66.239
X38.855Y66.156
X39.024Y66.105
X39.2Y66.087
X39.376Y66.105
X39.545Y66.156
X39.701Y66.239
X39.837Y66.351
X39.949Y66.488
X40.033Y66.644
X40.084Y66.813
X40.101Y66.988
X40.084Y67.164
X40.033Y67.333
X39.949Y67.489
X39.837Y67.626
X39.701Y67.738
X39.545Y67.821
X39.376Y67.872
X39.2Y67.89
X39.024Y67.872
X38.855Y67.821
X38.699Y67.738
X38.563Y67.626
X38.451Y67.489
X38.367Y67.333
X38.316Y67.164
X38.299Y66.988
X38.316Y66.813
G0Z1
X54.203Y66.988
G1Z-0.5F5
X54.22Y66.813F10
X54.271Y66.644
X54.355Y66.488
X54.467Y66.351
X54.603Y66.239
X54.759Y66.156
X54.928Y66.105
X55.104Y66.087
X55.28Y66.105
X55.449Y66.156
X55.605Y66.239
X55.741Y66.351
X55.853Y66.488
X55.937Y66.644
X55.988Y66.813
X56.005Y66.988
X55.988Y67.164
X55.937Y67.333
X55.853Y67.489
X55.741Y67.626
X55.605Y67.738
X55.449Y67.821
X55.28Y67.872
X55.104Y67.89
X54.928Y67.872
X54.759Y67.821
X54.603Y67.738
X54.467Y67.626
X54.355Y67.489
X54.271Y67.333
X54.22Y67.164
X54.203Y66.988
G0Z1
X57.706Y59.063
G1Z-0.5F5
X31.251F10
X30.597Y59.069
X29.943Y59.085
X29.29Y59.112
X28.637Y59.151
X27.985Y59.2
X27.333Y59.26
X26.683Y59.33
X26.034Y59.412
X25.387Y59.504
X24.741Y59.607
X24.097Y59.721
X23.454Y59.845
X23.33Y59.872
X23.207Y59.9
X23.084Y59.931
X22.962Y59.964
X22.84Y59.999
X22.719Y60.036
X22.599Y60.075
X22.479Y60.116
X22.36Y60.159
X22.242Y60.204
X22.125Y60.252
X22.008Y60.301
X21.892Y60.352
X21.778Y60.406
X21.664Y60.461
X21.551Y60.518
X21.439Y60.578
X21.328Y60.639
X21.218Y60.702
X21.11Y60.767
X21.002Y60.834
X20.896Y60.902
X20.791Y60.973
X20.687Y61.045
X20.584Y61.119
X20.483Y61.195
X20.383Y61.273
X20.285Y61.352
X20.187Y61.433
X20.092Y61.516
X19.997Y61.6
X19.904Y61.686
X19.813Y61.774
X19.723Y61.863
X19.635Y61.954
X19.548Y62.046
X19.463Y62.14
X19.38Y62.235
X19.298Y62.332
X19.198Y62.454
X19.1Y62.578
X19.005Y62.703
X18.911Y62.83
X18.819Y62.959
X18.73Y63.09
X18.643Y63.222
X18.558Y63.355
X18.476Y63.49
X18.396Y63.626
X18.318Y63.763
X18.243Y63.902
X18.17Y64.042
X18.099Y64.183
X18.031Y64.326
X17.966Y64.47
X17.902Y64.614
X17.842Y64.76
X17.784Y64.907
X17.728Y65.055
X17.675Y65.204
X17.624Y65.353
X17.576Y65.504
X17.531Y65.655
X17.488Y65.807
X17.448Y65.96
X17.41Y66.113
X17.375Y66.267
X17.343Y66.422
X17.313Y66.577
X17.286Y66.733
X17.262Y66.889
X17.241Y67.045
X17.222Y67.202
X17.205Y67.359
X17.192Y67.517
X17.181Y67.674
X17.173Y67.832
X17.167Y67.99
X17.165Y68.148
Y68.306
X17.167Y68.464
X17.173Y68.621
X17.181Y68.779
X17.192Y68.937
X17.205Y69.094
X17.221Y69.251
X17.24Y69.408
X17.26Y69.551
X17.679Y72.442
X17.693Y72.517
X17.709Y72.594
X17.728Y72.669
X17.75Y72.743
X17.774Y72.816
X17.801Y72.89
X17.83Y72.961
X17.862Y73.031
X17.896Y73.101
X17.933Y73.17
X17.971Y73.236
X18.013Y73.302
X18.056Y73.366
X18.102Y73.429
X18.15Y73.49
X18.2Y73.549
X18.252Y73.606
X18.306Y73.662
X18.361Y73.715
X18.42Y73.767
X18.479Y73.817
X18.54Y73.864
X18.603Y73.91
X18.666Y73.953
X18.733Y73.994
X18.8Y74.033
X18.868Y74.068
X18.939Y74.103
X19.008Y74.134
X19.081Y74.163
X19.153Y74.189
X19.227Y74.213
X19.302Y74.235
X19.376Y74.253
X19.453Y74.269
X19.529Y74.283
X19.606Y74.293
X19.682Y74.301
X19.761Y74.307
X19.837Y74.31
X19.876
X24.927
X25.044Y74.309
X25.161Y74.306
X25.277Y74.301
X25.394Y74.294
X26.649Y74.204
X27.802Y74.139
X28.956Y74.093
X30.11Y74.065
X31.271Y74.056
X34.824
X34.862Y74.059
X34.9Y74.061
X34.938Y74.063
X34.976
X62.976
X63.016
X63.056Y74.061
X63.095Y74.059
X63.135Y74.055
X63.174Y74.051
X63.214Y74.045
X63.253Y74.039
X63.292Y74.032
X63.331Y74.023
X63.37Y74.014
X63.408Y74.004
X63.446Y73.992
X63.484Y73.98
X63.522Y73.967
X63.559Y73.953
X63.596Y73.938
X63.632Y73.922
X63.668Y73.905
X63.704Y73.887
X63.739Y73.869
X63.774Y73.849
X63.809Y73.828
X63.843Y73.807
X63.876Y73.784
X63.91Y73.761
X63.942Y73.737
X63.974Y73.712
X64.005Y73.686
X64.02Y73.673
X64.049Y73.647
X64.072Y73.626
X64.093Y73.605
X64.121Y73.577
X64.149Y73.548
X64.181Y73.512
X64.212Y73.475
X64.234Y73.447
X64.255Y73.419
X64.276Y73.39
X64.296Y73.361
X64.315Y73.332
X64.334Y73.301
X64.351Y73.273
X64.367Y73.245
X64.383Y73.216
X64.402Y73.178
X64.42Y73.141
X64.433Y73.111
X64.446Y73.082
X64.462Y73.041
X64.47Y73.019
X64.484Y72.979
X64.497Y72.938
X64.51Y72.896
X64.521Y72.854
X64.531Y72.811
X64.539Y72.771
X64.546Y72.73
X64.554Y72.679
X64.56Y72.623
X64.563Y72.589
X64.565Y72.556
X64.566Y72.522
X64.567Y72.472
Y72.24
X64.582Y72.154
X64.592Y72.077
X64.599Y71.999
X64.603Y71.923
X64.605Y71.83
Y60.996
Y60.957
X64.603Y60.917
X64.601Y60.878
X64.598Y60.839
X64.593Y60.8
X64.588Y60.76
X64.581Y60.722
X64.574Y60.683
X64.567Y60.649
X64.566Y60.607
X64.564Y60.564
X64.56Y60.521
X64.555Y60.478
X64.55Y60.436
X64.543Y60.393
X64.534Y60.351
X64.525Y60.309
X64.515Y60.267
X64.505Y60.232
X64.495Y60.198
X64.484Y60.164
X64.472Y60.13
X64.459Y60.096
X64.443Y60.055
X64.425Y60.014
X64.406Y59.974
X64.384Y59.93
X64.367Y59.901
X64.351Y59.871
X64.329Y59.835
X64.306Y59.799
X64.285Y59.767
X64.262Y59.736
X64.239Y59.705
X64.216Y59.675
X64.191Y59.645
X64.166Y59.616
X64.14Y59.587
X64.113Y59.559
X64.086Y59.532
X64.058Y59.506
X64.029Y59.48
X64Y59.455
X63.97Y59.43
X63.94Y59.406
X63.909Y59.383
X63.877Y59.361
X63.845Y59.34
X63.813Y59.319
X63.78Y59.299
X63.746Y59.28
X63.711Y59.261
X63.677Y59.244
X63.643Y59.228
X63.608Y59.212
X63.573Y59.197
X63.537Y59.184
X63.501Y59.17
X63.465Y59.158
X63.428Y59.147
X63.392Y59.137
X63.355Y59.127
X63.317Y59.118
X63.28Y59.111
X63.242Y59.104
X63.205Y59.098
X63.167Y59.093
X63.129Y59.089
X63.091Y59.085
X63.053Y59.083
X63.014Y59.082
X62.976Y59.081
X59.04
X58.45Y59.068
X57.706Y59.063
G0Z1
X24.368Y65.504
G1Z-0.6F5
X24.395Y65.494F10
X24.447Y65.477
X24.501Y65.462
X24.525Y65.455
X24.559Y65.447
X24.582Y65.442
X24.61Y65.437
X24.637Y65.432
X24.665Y65.427
X24.692Y65.423
X24.72Y65.419
X24.747Y65.416
X24.775Y65.413
X24.803Y65.411
X24.831Y65.409
X24.859Y65.408
X24.886
X24.914Y65.407
X24.942Y65.408
X24.97
X25.026Y65.411
X25.054Y65.413
X25.081Y65.416
X25.109Y65.419
X25.137Y65.423
X25.164Y65.427
X25.185Y65.43
X25.221Y65.437
X25.246Y65.442
X25.273Y65.448
X25.301Y65.455
X25.328Y65.462
X25.354Y65.469
X25.381Y65.477
X25.408Y65.485
X25.434Y65.494
X25.46Y65.504
X25.486Y65.513
X25.512Y65.524
X25.538Y65.534
X25.564Y65.545
X25.614Y65.569
X25.639Y65.581
X25.664Y65.594
X25.713Y65.621
X25.737Y65.635
X25.761Y65.65
X25.784Y65.665
X25.807Y65.68
X25.83Y65.696
X25.853Y65.712
X25.875Y65.729
X25.897Y65.746
X25.919Y65.763
X25.941Y65.781
X25.975Y65.81
X26.005Y65.838
X26.022Y65.854
X26.063Y65.895
X26.082Y65.915
X26.101Y65.936
X26.119Y65.956
X26.137Y65.978
X26.172Y66.021
X26.189Y66.043
X26.206Y66.065
X26.222Y66.088
X26.238Y66.111
X26.253Y66.134
X26.268Y66.158
X26.283Y66.182
X26.297Y66.205
X26.311Y66.23
X26.324Y66.254
X26.337Y66.279
X26.349Y66.304
X26.361Y66.329
X26.373Y66.355
X26.384Y66.38
X26.395Y66.406
X26.405Y66.432
X26.415Y66.458
X26.424Y66.484
X26.433Y66.51
X26.441Y66.537
X26.449Y66.564
X26.456Y66.588
X26.464Y66.618
X26.47Y66.645
X26.476Y66.672
X26.482Y66.699
X26.487Y66.727
X26.491Y66.754
X26.495Y66.782
X26.499Y66.809
X26.502Y66.837
X26.505Y66.865
X26.507Y66.893
X26.509Y66.92
X26.51Y66.948
X26.511Y66.976
Y67.004
Y67.032
X26.51Y67.06
X26.509Y67.087
X26.507Y67.115
X26.505Y67.143
X26.502Y67.171
X26.499Y67.198
X26.495Y67.226
X26.491Y67.254
X26.487Y67.281
X26.482Y67.308
X26.476Y67.336
X26.47Y67.363
X26.464Y67.39
X26.457Y67.417
X26.449Y67.444
X26.441Y67.471
X26.433Y67.497
X26.424Y67.524
X26.415Y67.55
X26.405Y67.576
X26.395Y67.602
X26.384Y67.628
X26.373Y67.653
X26.361Y67.679
X26.349Y67.704
X26.337Y67.729
X26.324Y67.753
X26.311Y67.778
X26.297Y67.802
X26.283Y67.826
X26.268Y67.85
X26.253Y67.873
X26.238Y67.897
X26.222Y67.92
X26.206Y67.942
X26.189Y67.965
X26.172Y67.987
X26.155Y68.009
X26.137Y68.03
X26.119Y68.051
X26.101Y68.072
X26.082Y68.093
X26.063Y68.113
X26.043Y68.133
X26.023Y68.153
X26.003Y68.172
X25.983Y68.19
X25.962Y68.209
X25.941Y68.227
X25.919Y68.245
X25.897Y68.262
X25.875Y68.279
X25.853Y68.296
X25.83Y68.312
X25.807Y68.328
X25.784Y68.343
X25.76Y68.358
X25.737Y68.372
X25.713Y68.387
X25.688Y68.4
X25.664Y68.414
X25.639Y68.427
X25.614Y68.439
X25.589Y68.451
X25.564Y68.463
X25.538Y68.474
X25.513Y68.484
X25.487Y68.494
X25.46Y68.504
X25.434Y68.514
X25.408Y68.522
X25.381Y68.531
X25.354Y68.539
X25.328Y68.546
X25.301Y68.553
X25.273Y68.56
X25.246Y68.566
X25.219Y68.571
X25.192Y68.576
X25.164Y68.581
X25.136Y68.585
X25.109Y68.589
X25.081Y68.592
X25.053Y68.594
X25.026Y68.597
X24.998Y68.598
X24.97Y68.6
X24.942
X24.914Y68.601
X24.886Y68.6
X24.859
X24.831Y68.598
X24.803Y68.597
X24.775Y68.594
X24.75Y68.592
X24.719Y68.589
X24.665Y68.581
X24.637Y68.576
X24.61Y68.571
X24.582Y68.566
X24.555Y68.56
X24.528Y68.553
X24.501Y68.546
X24.474Y68.539
X24.447Y68.531
X24.421Y68.522
X24.395Y68.514
X24.368Y68.504
X24.342Y68.494
X24.316Y68.484
X24.291Y68.474
X24.265Y68.463
X24.239Y68.451
X24.214Y68.439
X24.189Y68.427
X24.165Y68.414
X24.14Y68.4
X24.116Y68.387
X24.068Y68.358
X24.045Y68.343
X24.022Y68.328
X23.999Y68.312
X23.976Y68.296
X23.953Y68.279
X23.931Y68.262
X23.91Y68.245
X23.888Y68.227
X23.867Y68.209
X23.846Y68.19
X23.826Y68.172
X23.805Y68.152
X23.785Y68.133
X23.766Y68.113
X23.747Y68.093
X23.728Y68.072
X23.691Y68.03
X23.673Y68.009
X23.656Y67.987
X23.639Y67.965
X23.623Y67.942
X23.606Y67.92
X23.591Y67.897
X23.575Y67.873
X23.56Y67.85
X23.546Y67.826
X23.518Y67.778
X23.505Y67.753
X23.492Y67.729
X23.479Y67.704
X23.467Y67.679
X23.456Y67.653
X23.445Y67.628
X23.434Y67.602
X23.424Y67.576
X23.414Y67.55
X23.405Y67.524
X23.396Y67.497
X23.387Y67.471
X23.38Y67.444
X23.372Y67.417
X23.358Y67.361
X23.347Y67.309
X23.342Y67.281
X23.337Y67.254
X23.333Y67.226
X23.33Y67.198
X23.326Y67.171
X23.324Y67.143
X23.322Y67.115
X23.32Y67.087
X23.318Y67.032
Y67.004
Y66.976
X23.319Y66.948
X23.32Y66.92
X23.322Y66.893
X23.324Y66.865
X23.326Y66.837
X23.333Y66.782
X23.337Y66.754
X23.342Y66.727
X23.347Y66.699
X23.353Y66.672
X23.359Y66.645
X23.365Y66.618
X23.372Y66.591
X23.38Y66.564
X23.389Y66.533
X23.396Y66.51
X23.405Y66.484
X23.414Y66.458
X23.424Y66.432
X23.441Y66.388
X23.457Y66.352
X23.467Y66.329
X23.479Y66.304
X23.492Y66.279
X23.505Y66.254
X23.518Y66.23
X23.532Y66.205
X23.56Y66.158
X23.575Y66.134
X23.591Y66.111
X23.606Y66.088
X23.623Y66.065
X23.636Y66.047
X23.673Y65.999
X23.691Y65.978
X23.709Y65.956
X23.728Y65.935
X23.747Y65.915
X23.766Y65.895
X23.785Y65.875
X23.807Y65.853
X23.825Y65.836
X23.846Y65.817
X23.867Y65.799
X23.91Y65.763
X23.931Y65.746
X23.953Y65.729
X23.976Y65.712
X23.999Y65.696
X24.038Y65.669
X24.07Y65.649
X24.092Y65.635
X24.116Y65.621
X24.14Y65.607
X24.165Y65.594
X24.189Y65.581
X24.214Y65.569
X24.24Y65.557
X24.265Y65.545
X24.291Y65.534
X24.316Y65.524
X24.368Y65.504
G0Z1
X38.316Y66.813
G1Z-0.6F5
X38.367Y66.644F10
X38.451Y66.488
X38.563Y66.351
X38.699Y66.239
X38.855Y66.156
X39.024Y66.105
X39.2Y66.087
X39.376Y66.105
X39.545Y66.156
X39.701Y66.239
X39.837Y66.351
X39.949Y66.488
X40.033Y66.644
X40.084Y66.813
X40.101Y66.988
X40.084Y67.164
X40.033Y67.333
X39.949Y67.489
X39.837Y67.626
X39.701Y67.738
X39.545Y67.821
X39.376Y67.872
X39.2Y67.89
X39.024Y67.872
X38.855Y67.821
X38.699Y67.738
X38.563Y67.626
X38.451Y67.489
X38.367Y67.333
X38.316Y67.164
X38.299Y66.988
X38.316Y66.813
G0Z1
X54.203Y66.988
G1Z-0.6F5
X54.22Y66.813F10
X54.271Y66.644
X54.355Y66.488
X54.467Y66.351
X54.603Y66.239
X54.759Y66.156
X54.928Y66.105
X55.104Y66.087
X55.28Y66.105
X55.449Y66.156
X55.605Y66.239
X55.741Y66.351
X55.853Y66.488
X55.937Y66.644
X55.988Y66.813
X56.005Y66.988
X55.988Y67.164
X55.937Y67.333
X55.853Y67.489
X55.741Y67.626
X55.605Y67.738
X55.449Y67.821
X55.28Y67.872
X55.104Y67.89
X54.928Y67.872
X54.759Y67.821
X54.603Y67.738
X54.467Y67.626
X54.355Y67.489
X54.271Y67.333
X54.22Y67.164
X54.203Y66.988
G0Z1
X57.706Y59.063
G1Z-0.6F5
X31.251F10
X30.597Y59.069
X29.943Y59.085
X29.29Y59.112
X28.637Y59.151
X27.985Y59.2
X27.333Y59.26
X26.683Y59.33
X26.034Y59.412
X25.387Y59.504
X24.741Y59.607
X24.097Y59.721
X23.454Y59.845
X23.33Y59.872
X23.207Y59.9
X23.084Y59.931
X22.962Y59.964
X22.84Y59.999
X22.719Y60.036
X22.599Y60.075
X22.479Y60.116
X22.36Y60.159
X22.242Y60.204
X22.125Y60.252
X22.008Y60.301
X21.892Y60.352
X21.778Y60.406
X21.664Y60.461
X21.551Y60.518
X21.439Y60.578
X21.328Y60.639
X21.218Y60.702
X21.11Y60.767
X21.002Y60.834
X20.896Y60.902
X20.791Y60.973
X20.687Y61.045
X20.584Y61.119
X20.483Y61.195
X20.383Y61.273
X20.285Y61.352
X20.187Y61.433
X20.092Y61.516
X19.997Y61.6
X19.904Y61.686
X19.813Y61.774
X19.723Y61.863
X19.635Y61.954
X19.548Y62.046
X19.463Y62.14
X19.38Y62.235
X19.298Y62.332
X19.198Y62.454
X19.1Y62.578
X19.005Y62.703
X18.911Y62.83
X18.819Y62.959
X18.73Y63.09
X18.643Y63.222
X18.558Y63.355
X18.476Y63.49
X18.396Y63.626
X18.318Y63.763
X18.243Y63.902
X18.17Y64.042
X18.099Y64.183
X18.031Y64.326
X17.966Y64.47
X17.902Y64.614
X17.842Y64.76
X17.784Y64.907
X17.728Y65.055
X17.675Y65.204
X17.624Y65.353
X17.576Y65.504
X17.531Y65.655
X17.488Y65.807
X17.448Y65.96
X17.41Y66.113
X17.375Y66.267
X17.343Y66.422
X17.313Y66.577
X17.286Y66.733
X17.262Y66.889
X17.241Y67.045
X17.222Y67.202
X17.205Y67.359
X17.192Y67.517
X17.181Y67.674
X17.173Y67.832
X17.167Y67.99
X17.165Y68.148
Y68.306
X17.167Y68.464
X17.173Y68.621
X17.181Y68.779
X17.192Y68.937
X17.205Y69.094
X17.221Y69.251
X17.24Y69.408
X17.26Y69.551
X17.679Y72.442
X17.693Y72.517
X17.709Y72.594
X17.728Y72.669
X17.75Y72.743
X17.774Y72.816
X17.801Y72.89
X17.83Y72.961
X17.862Y73.031
X17.896Y73.101
X17.933Y73.17
X17.971Y73.236
X18.013Y73.302
X18.056Y73.366
X18.102Y73.429
X18.15Y73.49
X18.2Y73.549
X18.252Y73.606
X18.306Y73.662
X18.361Y73.715
X18.42Y73.767
X18.479Y73.817
X18.54Y73.864
X18.603Y73.91
X18.666Y73.953
X18.733Y73.994
X18.8Y74.033
X18.868Y74.068
X18.939Y74.103
X19.008Y74.134
X19.081Y74.163
X19.153Y74.189
X19.227Y74.213
X19.302Y74.235
X19.376Y74.253
X19.453Y74.269
X19.529Y74.283
X19.606Y74.293
X19.682Y74.301
X19.761Y74.307
X19.837Y74.31
X19.876
X24.927
X25.044Y74.309
X25.161Y74.306
X25.277Y74.301
X25.394Y74.294
X26.649Y74.204
X27.802Y74.139
X28.956Y74.093
X30.11Y74.065
X31.271Y74.056
X34.824
X34.862Y74.059
X34.9Y74.061
X34.938Y74.063
X34.976
X62.976
X63.016
X63.056Y74.061
X63.095Y74.059
X63.135Y74.055
X63.174Y74.051
X63.214Y74.045
X63.253Y74.039
X63.292Y74.032
X63.331Y74.023
X63.37Y74.014
X63.408Y74.004
X63.446Y73.992
X63.484Y73.98
X63.522Y73.967
X63.559Y73.953
X63.596Y73.938
X63.632Y73.922
X63.668Y73.905
X63.704Y73.887
X63.739Y73.869
X63.774Y73.849
X63.809Y73.828
X63.843Y73.807
X63.876Y73.784
X63.91Y73.761
X63.942Y73.737
X63.974Y73.712
X64.005Y73.686
X64.02Y73.673
X64.049Y73.647
X64.072Y73.626
X64.093Y73.605
X64.121Y73.577
X64.149Y73.548
X64.181Y73.512
X64.212Y73.475
X64.234Y73.447
X64.255Y73.419
X64.276Y73.39
X64.296Y73.361
X64.315Y73.332
X64.334Y73.301
X64.351Y73.273
X64.367Y73.245
X64.383Y73.216
X64.402Y73.178
X64.42Y73.141
X64.433Y73.111
X64.446Y73.082
X64.462Y73.041
X64.47Y73.019
X64.484Y72.979
X64.497Y72.938
X64.51Y72.896
X64.521Y72.854
X64.531Y72.811
X64.539Y72.771
X64.546Y72.73
X64.554Y72.679
X64.56Y72.623
X64.563Y72.589
X64.565Y72.556
X64.566Y72.522
X64.567Y72.472
Y72.24
X64.582Y72.154
X64.592Y72.077
X64.599Y71.999
X64.603Y71.923
X64.605Y71.83
Y60.996
Y60.957
X64.603Y60.917
X64.601Y60.878
X64.598Y60.839
X64.593Y60.8
X64.588Y60.76
X64.581Y60.722
X64.574Y60.683
X64.567Y60.649
X64.566Y60.607
X64.564Y60.564
X64.56Y60.521
X64.555Y60.478
X64.55Y60.436
X64.543Y60.393
X64.534Y60.351
X64.525Y60.309
X64.515Y60.267
X64.505Y60.232
X64.495Y60.198
X64.484Y60.164
X64.472Y60.13
X64.459Y60.096
X64.443Y60.055
X64.425Y60.014
X64.406Y59.974
X64.384Y59.93
X64.367Y59.901
X64.351Y59.871
X64.329Y59.835
X64.306Y59.799
X64.285Y59.767
X64.262Y59.736
X64.239Y59.705
X64.216Y59.675
X64.191Y59.645
X64.166Y59.616
X64.14Y59.587
X64.113Y59.559
X64.086Y59.532
X64.058Y59.506
X64.029Y59.48
X64Y59.455
X63.97Y59.43
X63.94Y59.406
X63.909Y59.383
X63.877Y59.361
X63.845Y59.34
X63.813Y59.319
X63.78Y59.299
X63.746Y59.28
X63.711Y59.261
X63.677Y59.244
X63.643Y59.228
X63.608Y59.212
X63.573Y59.197
X63.537Y59.184
X63.501Y59.17
X63.465Y59.158
X63.428Y59.147
X63.392Y59.137
X63.355Y59.127
X63.317Y59.118
X63.28Y59.111
X63.242Y59.104
X63.205Y59.098
X63.167Y59.093
X63.129Y59.089
X63.091Y59.085
X63.053Y59.083
X63.014Y59.082
X62.976Y59.081
X59.04
X58.45Y59.068
X57.706Y59.063
G0Z1
X24.368Y65.504
G1Z-0.7F5
X24.395Y65.494F10
X24.447Y65.477
X24.501Y65.462
X24.525Y65.455
X24.559Y65.447
X24.582Y65.442
X24.61Y65.437
X24.637Y65.432
X24.665Y65.427
X24.692Y65.423
X24.72Y65.419
X24.747Y65.416
X24.775Y65.413
X24.803Y65.411
X24.831Y65.409
X24.859Y65.408
X24.886
X24.914Y65.407
X24.942Y65.408
X24.97
X25.026Y65.411
X25.054Y65.413
X25.081Y65.416
X25.109Y65.419
X25.137Y65.423
X25.164Y65.427
X25.185Y65.43
X25.221Y65.437
X25.246Y65.442
X25.273Y65.448
X25.301Y65.455
X25.328Y65.462
X25.354Y65.469
X25.381Y65.477
X25.408Y65.485
X25.434Y65.494
X25.46Y65.504
X25.486Y65.513
X25.512Y65.524
X25.538Y65.534
X25.564Y65.545
X25.614Y65.569
X25.639Y65.581
X25.664Y65.594
X25.713Y65.621
X25.737Y65.635
X25.761Y65.65
X25.784Y65.665
X25.807Y65.68
X25.83Y65.696
X25.853Y65.712
X25.875Y65.729
X25.897Y65.746
X25.919Y65.763
X25.941Y65.781
X25.975Y65.81
X26.005Y65.838
X26.022Y65.854
X26.063Y65.895
X26.082Y65.915
X26.101Y65.936
X26.119Y65.956
X26.137Y65.978
X26.172Y66.021
X26.189Y66.043
X26.206Y66.065
X26.222Y66.088
X26.238Y66.111
X26.253Y66.134
X26.268Y66.158
X26.283Y66.182
X26.297Y66.205
X26.311Y66.23
X26.324Y66.254
X26.337Y66.279
X26.349Y66.304
X26.361Y66.329
X26.373Y66.355
X26.384Y66.38
X26.395Y66.406
X26.405Y66.432
X26.415Y66.458
X26.424Y66.484
X26.433Y66.51
X26.441Y66.537
X26.449Y66.564
X26.456Y66.588
X26.464Y66.618
X26.47Y66.645
X26.476Y66.672
X26.482Y66.699
X26.487Y66.727
X26.491Y66.754
X26.495Y66.782
X26.499Y66.809
X26.502Y66.837
X26.505Y66.865
X26.507Y66.893
X26.509Y66.92
X26.51Y66.948
X26.511Y66.976
Y67.004
Y67.032
X26.51Y67.06
X26.509Y67.087
X26.507Y67.115
X26.505Y67.143
X26.502Y67.171
X26.499Y67.198
X26.495Y67.226
X26.491Y67.254
X26.487Y67.281
X26.482Y67.308
X26.476Y67.336
X26.47Y67.363
X26.464Y67.39
X26.457Y67.417
X26.449Y67.444
X26.441Y67.471
X26.433Y67.497
X26.424Y67.524
X26.415Y67.55
X26.405Y67.576
X26.395Y67.602
X26.384Y67.628
X26.373Y67.653
X26.361Y67.679
X26.349Y67.704
X26.337Y67.729
X26.324Y67.753
X26.311Y67.778
X26.297Y67.802
X26.283Y67.826
X26.268Y67.85
X26.253Y67.873
X26.238Y67.897
X26.222Y67.92
X26.206Y67.942
X26.189Y67.965
X26.172Y67.987
X26.155Y68.009
X26.137Y68.03
X26.119Y68.051
X26.101Y68.072
X26.082Y68.093
X26.063Y68.113
X26.043Y68.133
X26.023Y68.153
X26.003Y68.172
X25.983Y68.19
X25.962Y68.209
X25.941Y68.227
X25.919Y68.245
X25.897Y68.262
X25.875Y68.279
X25.853Y68.296
X25.83Y68.312
X25.807Y68.328
X25.784Y68.343
X25.76Y68.358
X25.737Y68.372
X25.713Y68.387
X25.688Y68.4
X25.664Y68.414
X25.639Y68.427
X25.614Y68.439
X25.589Y68.451
X25.564Y68.463
X25.538Y68.474
X25.513Y68.484
X25.487Y68.494
X25.46Y68.504
X25.434Y68.514
X25.408Y68.522
X25.381Y68.531
X25.354Y68.539
X25.328Y68.546
X25.301Y68.553
X25.273Y68.56
X25.246Y68.566
X25.219Y68.571
X25.192Y68.576
X25.164Y68.581
X25.136Y68.585
X25.109Y68.589
X25.081Y68.592
X25.053Y68.594
X25.026Y68.597
X24.998Y68.598
X24.97Y68.6
X24.942
X24.914Y68.601
X24.886Y68.6
X24.859
X24.831Y68.598
X24.803Y68.597
X24.775Y68.594
X24.75Y68.592
X24.719Y68.589
X24.665Y68.581
X24.637Y68.576
X24.61Y68.571
X24.582Y68.566
X24.555Y68.56
X24.528Y68.553
X24.501Y68.546
X24.474Y68.539
X24.447Y68.531
X24.421Y68.522
X24.395Y68.514
X24.368Y68.504
X24.342Y68.494
X24.316Y68.484
X24.291Y68.474
X24.265Y68.463
X24.239Y68.451
X24.214Y68.439
X24.189Y68.427
X24.165Y68.414
X24.14Y68.4
X24.116Y68.387
X24.068Y68.358
X24.045Y68.343
X24.022Y68.328
X23.999Y68.312
X23.976Y68.296
X23.953Y68.279
X23.931Y68.262
X23.91Y68.245
X23.888Y68.227
X23.867Y68.209
X23.846Y68.19
X23.826Y68.172
X23.805Y68.152
X23.785Y68.133
X23.766Y68.113
X23.747Y68.093
X23.728Y68.072
X23.691Y68.03
X23.673Y68.009
X23.656Y67.987
X23.639Y67.965
X23.623Y67.942
X23.606Y67.92
X23.591Y67.897
X23.575Y67.873
X23.56Y67.85
X23.546Y67.826
X23.518Y67.778
X23.505Y67.753
X23.492Y67.729
X23.479Y67.704
X23.467Y67.679
X23.456Y67.653
X23.445Y67.628
X23.434Y67.602
X23.424Y67.576
X23.414Y67.55
X23.405Y67.524
X23.396Y67.497
X23.387Y67.471
X23.38Y67.444
X23.372Y67.417
X23.358Y67.361
X23.347Y67.309
X23.342Y67.281
X23.337Y67.254
X23.333Y67.226
X23.33Y67.198
X23.326Y67.171
X23.324Y67.143
X23.322Y67.115
X23.32Y67.087
X23.318Y67.032
Y67.004
Y66.976
X23.319Y66.948
X23.32Y66.92
X23.322Y66.893
X23.324Y66.865
X23.326Y66.837
X23.333Y66.782
X23.337Y66.754
X23.342Y66.727
X23.347Y66.699
X23.353Y66.672
X23.359Y66.645
X23.365Y66.618
X23.372Y66.591
X23.38Y66.564
X23.389Y66.533
X23.396Y66.51
X23.405Y66.484
X23.414Y66.458
X23.424Y66.432
X23.441Y66.388
X23.457Y66.352
X23.467Y66.329
X23.479Y66.304
X23.492Y66.279
X23.505Y66.254
X23.518Y66.23
X23.532Y66.205
X23.56Y66.158
X23.575Y66.134
X23.591Y66.111
X23.606Y66.088
X23.623Y66.065
X23.636Y66.047
X23.673Y65.999
X23.691Y65.978
X23.709Y65.956
X23.728Y65.935
X23.747Y65.915
X23.766Y65.895
X23.785Y65.875
X23.807Y65.853
X23.825Y65.836
X23.846Y65.817
X23.867Y65.799
X23.91Y65.763
X23.931Y65.746
X23.953Y65.729
X23.976Y65.712
X23.999Y65.696
X24.038Y65.669
X24.07Y65.649
X24.092Y65.635
X24.116Y65.621
X24.14Y65.607
X24.165Y65.594
X24.189Y65.581
X24.214Y65.569
X24.24Y65.557
X24.265Y65.545
X24.291Y65.534
X24.316Y65.524
X24.368Y65.504
G0Z1
X38.316Y66.813
G1Z-0.7F5
X38.367Y66.644F10
X38.451Y66.488
X38.563Y66.351
X38.699Y66.239
X38.855Y66.156
X39.024Y66.105
X39.2Y66.087
X39.376Y66.105
X39.545Y66.156
X39.701Y66.239
X39.837Y66.351
X39.949Y66.488
X40.033Y66.644
X40.084Y66.813
X40.101Y66.988
X40.084Y67.164
X40.033Y67.333
X39.949Y67.489
X39.837Y67.626
X39.701Y67.738
X39.545Y67.821
X39.376Y67.872
X39.2Y67.89
X39.024Y67.872
X38.855Y67.821
X38.699Y67.738
X38.563Y67.626
X38.451Y67.489
X38.367Y67.333
X38.316Y67.164
X38.299Y66.988
X38.316Y66.813
G0Z1
X54.203Y66.988
G1Z-0.7F5
X54.22Y66.813F10
X54.271Y66.644
X54.355Y66.488
X54.467Y66.351
X54.603Y66.239
X54.759Y66.156
X54.928Y66.105
X55.104Y66.087
X55.28Y66.105
X55.449Y66.156
X55.605Y66.239
X55.741Y66.351
X55.853Y66.488
X55.937Y66.644
X55.988Y66.813
X56.005Y66.988
X55.988Y67.164
X55.937Y67.333
X55.853Y67.489
X55.741Y67.626
X55.605Y67.738
X55.449Y67.821
X55.28Y67.872
X55.104Y67.89
X54.928Y67.872
X54.759Y67.821
X54.603Y67.738
X54.467Y67.626
X54.355Y67.489
X54.271Y67.333
X54.22Y67.164
X54.203Y66.988
G0Z1
X57.706Y59.063
G1Z-0.7F5
X31.251F10
X30.597Y59.069
X29.943Y59.085
X29.29Y59.112
X28.637Y59.151
X27.985Y59.2
X27.333Y59.26
X26.683Y59.33
X26.034Y59.412
X25.387Y59.504
X24.741Y59.607
X24.097Y59.721
X23.454Y59.845
X23.33Y59.872
X23.207Y59.9
X23.084Y59.931
X22.962Y59.964
X22.84Y59.999
X22.719Y60.036
X22.599Y60.075
X22.479Y60.116
X22.36Y60.159
X22.242Y60.204
X22.125Y60.252
X22.008Y60.301
X21.892Y60.352
X21.778Y60.406
X21.664Y60.461
X21.551Y60.518
X21.439Y60.578
X21.328Y60.639
X21.218Y60.702
X21.11Y60.767
X21.002Y60.834
X20.896Y60.902
X20.791Y60.973
X20.687Y61.045
X20.584Y61.119
X20.483Y61.195
X20.383Y61.273
X20.285Y61.352
X20.187Y61.433
X20.092Y61.516
X19.997Y61.6
X19.904Y61.686
X19.813Y61.774
X19.723Y61.863
X19.635Y61.954
X19.548Y62.046
X19.463Y62.14
X19.38Y62.235
X19.298Y62.332
X19.198Y62.454
X19.1Y62.578
X19.005Y62.703
X18.911Y62.83
X18.819Y62.959
X18.73Y63.09
X18.643Y63.222
X18.558Y63.355
X18.476Y63.49
X18.396Y63.626
X18.318Y63.763
X18.243Y63.902
X18.17Y64.042
X18.099Y64.183
X18.031Y64.326
X17.966Y64.47
X17.902Y64.614
X17.842Y64.76
X17.784Y64.907
X17.728Y65.055
X17.675Y65.204
X17.624Y65.353
X17.576Y65.504
X17.531Y65.655
X17.488Y65.807
X17.448Y65.96
X17.41Y66.113
X17.375Y66.267
X17.343Y66.422
X17.313Y66.577
X17.286Y66.733
X17.262Y66.889
X17.241Y67.045
X17.222Y67.202
X17.205Y67.359
X17.192Y67.517
X17.181Y67.674
X17.173Y67.832
X17.167Y67.99
X17.165Y68.148
Y68.306
X17.167Y68.464
X17.173Y68.621
X17.181Y68.779
X17.192Y68.937
X17.205Y69.094
X17.221Y69.251
X17.24Y69.408
X17.26Y69.551
X17.679Y72.442
X17.693Y72.517
X17.709Y72.594
X17.728Y72.669
X17.75Y72.743
X17.774Y72.816
X17.801Y72.89
X17.83Y72.961
X17.862Y73.031
X17.896Y73.101
X17.933Y73.17
X17.971Y73.236
X18.013Y73.302
X18.056Y73.366
X18.102Y73.429
X18.15Y73.49
X18.2Y73.549
X18.252Y73.606
X18.306Y73.662
X18.361Y73.715
X18.42Y73.767
X18.479Y73.817
X18.54Y73.864
X18.603Y73.91
X18.666Y73.953
X18.733Y73.994
X18.8Y74.033
X18.868Y74.068
X18.939Y74.103
X19.008Y74.134
X19.081Y74.163
X19.153Y74.189
X19.227Y74.213
X19.302Y74.235
X19.376Y74.253
X19.453Y74.269
X19.529Y74.283
X19.606Y74.293
X19.682Y74.301
X19.761Y74.307
X19.837Y74.31
X19.876
X24.927
X25.044Y74.309
X25.161Y74.306
X25.277Y74.301
X25.394Y74.294
X26.649Y74.204
X27.802Y74.139
X28.956Y74.093
X30.11Y74.065
X31.271Y74.056
X34.824
X34.862Y74.059
X34.9Y74.061
X34.938Y74.063
X34.976
X62.976
X63.016
X63.056Y74.061
X63.095Y74.059
X63.135Y74.055
X63.174Y74.051
X63.214Y74.045
X63.253Y74.039
X63.292Y74.032
X63.331Y74.023
X63.37Y74.014
X63.408Y74.004
X63.446Y73.992
X63.484Y73.98
X63.522Y73.967
X63.559Y73.953
X63.596Y73.938
X63.632Y73.922
X63.668Y73.905
X63.704Y73.887
X63.739Y73.869
X63.774Y73.849
X63.809Y73.828
X63.843Y73.807
X63.876Y73.784
X63.91Y73.761
X63.942Y73.737
X63.974Y73.712
X64.005Y73.686
X64.02Y73.673
X64.049Y73.647
X64.072Y73.626
X64.093Y73.605
X64.121Y73.577
X64.149Y73.548
X64.181Y73.512
X64.212Y73.475
X64.234Y73.447
X64.255Y73.419
X64.276Y73.39
X64.296Y73.361
X64.315Y73.332
X64.334Y73.301
X64.351Y73.273
X64.367Y73.245
X64.383Y73.216
X64.402Y73.178
X64.42Y73.141
X64.433Y73.111
X64.446Y73.082
X64.462Y73.041
X64.47Y73.019
X64.484Y72.979
X64.497Y72.938
X64.51Y72.896
X64.521Y72.854
X64.531Y72.811
X64.539Y72.771
X64.546Y72.73
X64.554Y72.679
X64.56Y72.623
X64.563Y72.589
X64.565Y72.556
X64.566Y72.522
X64.567Y72.472
Y72.24
X64.582Y72.154
X64.592Y72.077
X64.599Y71.999
X64.603Y71.923
X64.605Y71.83
Y60.996
Y60.957
X64.603Y60.917
X64.601Y60.878
X64.598Y60.839
X64.593Y60.8
X64.588Y60.76
X64.581Y60.722
X64.574Y60.683
X64.567Y60.649
X64.566Y60.607
X64.564Y60.564
X64.56Y60.521
X64.555Y60.478
X64.55Y60.436
X64.543Y60.393
X64.534Y60.351
X64.525Y60.309
X64.515Y60.267
X64.505Y60.232
X64.495Y60.198
X64.484Y60.164
X64.472Y60.13
X64.459Y60.096
X64.443Y60.055
X64.425Y60.014
X64.406Y59.974
X64.384Y59.93
X64.367Y59.901
X64.351Y59.871
X64.329Y59.835
X64.306Y59.799
X64.285Y59.767
X64.262Y59.736
X64.239Y59.705
X64.216Y59.675
X64.191Y59.645
X64.166Y59.616
X64.14Y59.587
X64.113Y59.559
X64.086Y59.532
X64.058Y59.506
X64.029Y59.48
X64Y59.455
X63.97Y59.43
X63.94Y59.406
X63.909Y59.383
X63.877Y59.361
X63.845Y59.34
X63.813Y59.319
X63.78Y59.299
X63.746Y59.28
X63.711Y59.261
X63.677Y59.244
X63.643Y59.228
X63.608Y59.212
X63.573Y59.197
X63.537Y59.184
X63.501Y59.17
X63.465Y59.158
X63.428Y59.147
X63.392Y59.137
X63.355Y59.127
X63.317Y59.118
X63.28Y59.111
X63.242Y59.104
X63.205Y59.098
X63.167Y59.093
X63.129Y59.089
X63.091Y59.085
X63.053Y59.083
X63.014Y59.082
X62.976Y59.081
X59.04
X58.45Y59.068
X57.706Y59.063
G0Z1
X24.368Y65.504
G1Z-0.8F5
X24.395Y65.494F10
X24.447Y65.477
X24.501Y65.462
X24.525Y65.455
X24.559Y65.447
X24.582Y65.442
X24.61Y65.437
X24.637Y65.432
X24.665Y65.427
X24.692Y65.423
X24.72Y65.419
X24.747Y65.416
X24.775Y65.413
X24.803Y65.411
X24.831Y65.409
X24.859Y65.408
X24.886
X24.914Y65.407
X24.942Y65.408
X24.97
X25.026Y65.411
X25.054Y65.413
X25.081Y65.416
X25.109Y65.419
X25.137Y65.423
X25.164Y65.427
X25.185Y65.43
X25.221Y65.437
X25.246Y65.442
X25.273Y65.448
X25.301Y65.455
X25.328Y65.462
X25.354Y65.469
X25.381Y65.477
X25.408Y65.485
X25.434Y65.494
X25.46Y65.504
X25.486Y65.513
X25.512Y65.524
X25.538Y65.534
X25.564Y65.545
X25.614Y65.569
X25.639Y65.581
X25.664Y65.594
X25.713Y65.621
X25.737Y65.635
X25.761Y65.65
X25.784Y65.665
X25.807Y65.68
X25.83Y65.696
X25.853Y65.712
X25.875Y65.729
X25.897Y65.746
X25.919Y65.763
X25.941Y65.781
X25.975Y65.81
X26.005Y65.838
X26.022Y65.854
X26.063Y65.895
X26.082Y65.915
X26.101Y65.936
X26.119Y65.956
X26.137Y65.978
X26.172Y66.021
X26.189Y66.043
X26.206Y66.065
X26.222Y66.088
X26.238Y66.111
X26.253Y66.134
X26.268Y66.158
X26.283Y66.182
X26.297Y66.205
X26.311Y66.23
X26.324Y66.254
X26.337Y66.279
X26.349Y66.304
X26.361Y66.329
X26.373Y66.355
X26.384Y66.38
X26.395Y66.406
X26.405Y66.432
X26.415Y66.458
X26.424Y66.484
X26.433Y66.51
X26.441Y66.537
X26.449Y66.564
X26.456Y66.588
X26.464Y66.618
X26.47Y66.645
X26.476Y66.672
X26.482Y66.699
X26.487Y66.727
X26.491Y66.754
X26.495Y66.782
X26.499Y66.809
X26.502Y66.837
X26.505Y66.865
X26.507Y66.893
X26.509Y66.92
X26.51Y66.948
X26.511Y66.976
Y67.004
Y67.032
X26.51Y67.06
X26.509Y67.087
X26.507Y67.115
X26.505Y67.143
X26.502Y67.171
X26.499Y67.198
X26.495Y67.226
X26.491Y67.254
X26.487Y67.281
X26.482Y67.308
X26.476Y67.336
X26.47Y67.363
X26.464Y67.39
X26.457Y67.417
X26.449Y67.444
X26.441Y67.471
X26.433Y67.497
X26.424Y67.524
X26.415Y67.55
X26.405Y67.576
X26.395Y67.602
X26.384Y67.628
X26.373Y67.653
X26.361Y67.679
X26.349Y67.704
X26.337Y67.729
X26.324Y67.753
X26.311Y67.778
X26.297Y67.802
X26.283Y67.826
X26.268Y67.85
X26.253Y67.873
X26.238Y67.897
X26.222Y67.92
X26.206Y67.942
X26.189Y67.965
X26.172Y67.987
X26.155Y68.009
X26.137Y68.03
X26.119Y68.051
X26.101Y68.072
X26.082Y68.093
X26.063Y68.113
X26.043Y68.133
X26.023Y68.153
X26.003Y68.172
X25.983Y68.19
X25.962Y68.209
X25.941Y68.227
X25.919Y68.245
X25.897Y68.262
X25.875Y68.279
X25.853Y68.296
X25.83Y68.312
X25.807Y68.328
X25.784Y68.343
X25.76Y68.358
X25.737Y68.372
X25.713Y68.387
X25.688Y68.4
X25.664Y68.414
X25.639Y68.427
X25.614Y68.439
X25.589Y68.451
X25.564Y68.463
X25.538Y68.474
X25.513Y68.484
X25.487Y68.494
X25.46Y68.504
X25.434Y68.514
X25.408Y68.522
X25.381Y68.531
X25.354Y68.539
X25.328Y68.546
X25.301Y68.553
X25.273Y68.56
X25.246Y68.566
X25.219Y68.571
X25.192Y68.576
X25.164Y68.581
X25.136Y68.585
X25.109Y68.589
X25.081Y68.592
X25.053Y68.594
X25.026Y68.597
X24.998Y68.598
X24.97Y68.6
X24.942
X24.914Y68.601
X24.886Y68.6
X24.859
X24.831Y68.598
X24.803Y68.597
X24.775Y68.594
X24.75Y68.592
X24.719Y68.589
X24.665Y68.581
X24.637Y68.576
X24.61Y68.571
X24.582Y68.566
X24.555Y68.56
X24.528Y68.553
X24.501Y68.546
X24.474Y68.539
X24.447Y68.531
X24.421Y68.522
X24.395Y68.514
X24.368Y68.504
X24.342Y68.494
X24.316Y68.484
X24.291Y68.474
X24.265Y68.463
X24.239Y68.451
X24.214Y68.439
X24.189Y68.427
X24.165Y68.414
X24.14Y68.4
X24.116Y68.387
X24.068Y68.358
X24.045Y68.343
X24.022Y68.328
X23.999Y68.312
X23.976Y68.296
X23.953Y68.279
X23.931Y68.262
X23.91Y68.245
X23.888Y68.227
X23.867Y68.209
X23.846Y68.19
X23.826Y68.172
X23.805Y68.152
X23.785Y68.133
X23.766Y68.113
X23.747Y68.093
X23.728Y68.072
X23.691Y68.03
X23.673Y68.009
X23.656Y67.987
X23.639Y67.965
X23.623Y67.942
X23.606Y67.92
X23.591Y67.897
X23.575Y67.873
X23.56Y67.85
X23.546Y67.826
X23.518Y67.778
X23.505Y67.753
X23.492Y67.729
X23.479Y67.704
X23.467Y67.679
X23.456Y67.653
X23.445Y67.628
X23.434Y67.602
X23.424Y67.576
X23.414Y67.55
X23.405Y67.524
X23.396Y67.497
X23.387Y67.471
X23.38Y67.444
X23.372Y67.417
X23.358Y67.361
X23.347Y67.309
X23.342Y67.281
X23.337Y67.254
X23.333Y67.226
X23.33Y67.198
X23.326Y67.171
X23.324Y67.143
X23.322Y67.115
X23.32Y67.087
X23.318Y67.032
Y67.004
Y66.976
X23.319Y66.948
X23.32Y66.92
X23.322Y66.893
X23.324Y66.865
X23.326Y66.837
X23.333Y66.782
X23.337Y66.754
X23.342Y66.727
X23.347Y66.699
X23.353Y66.672
X23.359Y66.645
X23.365Y66.618
X23.372Y66.591
X23.38Y66.564
X23.389Y66.533
X23.396Y66.51
X23.405Y66.484
X23.414Y66.458
X23.424Y66.432
X23.441Y66.388
X23.457Y66.352
X23.467Y66.329
X23.479Y66.304
X23.492Y66.279
X23.505Y66.254
X23.518Y66.23
X23.532Y66.205
X23.56Y66.158
X23.575Y66.134
X23.591Y66.111
X23.606Y66.088
X23.623Y66.065
X23.636Y66.047
X23.673Y65.999
X23.691Y65.978
X23.709Y65.956
X23.728Y65.935
X23.747Y65.915
X23.766Y65.895
X23.785Y65.875
X23.807Y65.853
X23.825Y65.836
X23.846Y65.817
X23.867Y65.799
X23.91Y65.763
X23.931Y65.746
X23.953Y65.729
X23.976Y65.712
X23.999Y65.696
X24.038Y65.669
X24.07Y65.649
X24.092Y65.635
X24.116Y65.621
X24.14Y65.607
X24.165Y65.594
X24.189Y65.581
X24.214Y65.569
X24.24Y65.557
X24.265Y65.545
X24.291Y65.534
X24.316Y65.524
X24.368Y65.504
G0Z1
X38.316Y66.813
G1Z-0.8F5
X38.367Y66.644F10
X38.451Y66.488
X38.563Y66.351
X38.699Y66.239
X38.855Y66.156
X39.024Y66.105
X39.2Y66.087
X39.376Y66.105
X39.545Y66.156
X39.701Y66.239
X39.837Y66.351
X39.949Y66.488
X40.033Y66.644
X40.084Y66.813
X40.101Y66.988
X40.084Y67.164
X40.033Y67.333
X39.949Y67.489
X39.837Y67.626
X39.701Y67.738
X39.545Y67.821
X39.376Y67.872
X39.2Y67.89
X39.024Y67.872
X38.855Y67.821
X38.699Y67.738
X38.563Y67.626
X38.451Y67.489
X38.367Y67.333
X38.316Y67.164
X38.299Y66.988
X38.316Y66.813
G0Z1
X54.203Y66.988
G1Z-0.8F5
X54.22Y66.813F10
X54.271Y66.644
X54.355Y66.488
X54.467Y66.351
X54.603Y66.239
X54.759Y66.156
X54.928Y66.105
X55.104Y66.087
X55.28Y66.105
X55.449Y66.156
X55.605Y66.239
X55.741Y66.351
X55.853Y66.488
X55.937Y66.644
X55.988Y66.813
X56.005Y66.988
X55.988Y67.164
X55.937Y67.333
X55.853Y67.489
X55.741Y67.626
X55.605Y67.738
X55.449Y67.821
X55.28Y67.872
X55.104Y67.89
X54.928Y67.872
X54.759Y67.821
X54.603Y67.738
X54.467Y67.626
X54.355Y67.489
X54.271Y67.333
X54.22Y67.164
X54.203Y66.988
G0Z1
X57.706Y59.063
G1Z-0.8F5
X31.251F10
X30.597Y59.069
X29.943Y59.085
X29.29Y59.112
X28.637Y59.151
X27.985Y59.2
X27.333Y59.26
X26.683Y59.33
X26.034Y59.412
X25.387Y59.504
X24.741Y59.607
X24.097Y59.721
X23.454Y59.845
X23.33Y59.872
X23.207Y59.9
X23.084Y59.931
X22.962Y59.964
X22.84Y59.999
X22.719Y60.036
X22.599Y60.075
X22.479Y60.116
X22.36Y60.159
X22.242Y60.204
X22.125Y60.252
X22.008Y60.301
X21.892Y60.352
X21.778Y60.406
X21.664Y60.461
X21.551Y60.518
X21.439Y60.578
X21.328Y60.639
X21.218Y60.702
X21.11Y60.767
X21.002Y60.834
X20.896Y60.902
X20.791Y60.973
X20.687Y61.045
X20.584Y61.119
X20.483Y61.195
X20.383Y61.273
X20.285Y61.352
X20.187Y61.433
X20.092Y61.516
X19.997Y61.6
X19.904Y61.686
X19.813Y61.774
X19.723Y61.863
X19.635Y61.954
X19.548Y62.046
X19.463Y62.14
X19.38Y62.235
X19.298Y62.332
X19.198Y62.454
X19.1Y62.578
X19.005Y62.703
X18.911Y62.83
X18.819Y62.959
X18.73Y63.09
X18.643Y63.222
X18.558Y63.355
X18.476Y63.49
X18.396Y63.626
X18.318Y63.763
X18.243Y63.902
X18.17Y64.042
X18.099Y64.183
X18.031Y64.326
X17.966Y64.47
X17.902Y64.614
X17.842Y64.76
X17.784Y64.907
X17.728Y65.055
X17.675Y65.204
X17.624Y65.353
X17.576Y65.504
X17.531Y65.655
X17.488Y65.807
X17.448Y65.96
X17.41Y66.113
X17.375Y66.267
X17.343Y66.422
X17.313Y66.577
X17.286Y66.733
X17.262Y66.889
X17.241Y67.045
X17.222Y67.202
X17.205Y67.359
X17.192Y67.517
X17.181Y67.674
X17.173Y67.832
X17.167Y67.99
X17.165Y68.148
Y68.306
X17.167Y68.464
X17.173Y68.621
X17.181Y68.779
X17.192Y68.937
X17.205Y69.094
X17.221Y69.251
X17.24Y69.408
X17.26Y69.551
X17.679Y72.442
X17.693Y72.517
X17.709Y72.594
X17.728Y72.669
X17.75Y72.743
X17.774Y72.816
X17.801Y72.89
X17.83Y72.961
X17.862Y73.031
X17.896Y73.101
X17.933Y73.17
X17.971Y73.236
X18.013Y73.302
X18.056Y73.366
X18.102Y73.429
X18.15Y73.49
X18.2Y73.549
X18.252Y73.606
X18.306Y73.662
X18.361Y73.715
X18.42Y73.767
X18.479Y73.817
X18.54Y73.864
X18.603Y73.91
X18.666Y73.953
X18.733Y73.994
X18.8Y74.033
X18.868Y74.068
X18.939Y74.103
X19.008Y74.134
X19.081Y74.163
X19.153Y74.189
X19.227Y74.213
X19.302Y74.235
X19.376Y74.253
X19.453Y74.269
X19.529Y74.283
X19.606Y74.293
X19.682Y74.301
X19.761Y74.307
X19.837Y74.31
X19.876
X24.927
X25.044Y74.309
X25.161Y74.306
X25.277Y74.301
X25.394Y74.294
X26.649Y74.204
X27.802Y74.139
X28.956Y74.093
X30.11Y74.065
X31.271Y74.056
X34.824
X34.862Y74.059
X34.9Y74.061
X34.938Y74.063
X34.976
X62.976
X63.016
X63.056Y74.061
X63.095Y74.059
X63.135Y74.055
X63.174Y74.051
X63.214Y74.045
X63.253Y74.039
X63.292Y74.032
X63.331Y74.023
X63.37Y74.014
X63.408Y74.004
X63.446Y73.992
X63.484Y73.98
X63.522Y73.967
X63.559Y73.953
X63.596Y73.938
X63.632Y73.922
X63.668Y73.905
X63.704Y73.887
X63.739Y73.869
X63.774Y73.849
X63.809Y73.828
X63.843Y73.807
X63.876Y73.784
X63.91Y73.761
X63.942Y73.737
X63.974Y73.712
X64.005Y73.686
X64.02Y73.673
X64.049Y73.647
X64.072Y73.626
X64.093Y73.605
X64.121Y73.577
X64.149Y73.548
X64.181Y73.512
X64.212Y73.475
X64.234Y73.447
X64.255Y73.419
X64.276Y73.39
X64.296Y73.361
X64.315Y73.332
X64.334Y73.301
X64.351Y73.273
X64.367Y73.245
X64.383Y73.216
X64.402Y73.178
X64.42Y73.141
X64.433Y73.111
X64.446Y73.082
X64.462Y73.041
X64.47Y73.019
X64.484Y72.979
X64.497Y72.938
X64.51Y72.896
X64.521Y72.854
X64.531Y72.811
X64.539Y72.771
X64.546Y72.73
X64.554Y72.679
X64.56Y72.623
X64.563Y72.589
X64.565Y72.556
X64.566Y72.522
X64.567Y72.472
Y72.24
X64.582Y72.154
X64.592Y72.077
X64.599Y71.999
X64.603Y71.923
X64.605Y71.83
Y60.996
Y60.957
X64.603Y60.917
X64.601Y60.878
X64.598Y60.839
X64.593Y60.8
X64.588Y60.76
X64.581Y60.722
X64.574Y60.683
X64.567Y60.649
X64.566Y60.607
X64.564Y60.564
X64.56Y60.521
X64.555Y60.478
X64.55Y60.436
X64.543Y60.393
X64.534Y60.351
X64.525Y60.309
X64.515Y60.267
X64.505Y60.232
X64.495Y60.198
X64.484Y60.164
X64.472Y60.13
X64.459Y60.096
X64.443Y60.055
X64.425Y60.014
X64.406Y59.974
X64.384Y59.93
X64.367Y59.901
X64.351Y59.871
X64.329Y59.835
X64.306Y59.799
X64.285Y59.767
X64.262Y59.736
X64.239Y59.705
X64.216Y59.675
X64.191Y59.645
X64.166Y59.616
X64.14Y59.587
X64.113Y59.559
X64.086Y59.532
X64.058Y59.506
X64.029Y59.48
X64Y59.455
X63.97Y59.43
X63.94Y59.406
X63.909Y59.383
X63.877Y59.361
X63.845Y59.34
X63.813Y59.319
X63.78Y59.299
X63.746Y59.28
X63.711Y59.261
X63.677Y59.244
X63.643Y59.228
X63.608Y59.212
X63.573Y59.197
X63.537Y59.184
X63.501Y59.17
X63.465Y59.158
X63.428Y59.147
X63.392Y59.137
X63.355Y59.127
X63.317Y59.118
X63.28Y59.111
X63.242Y59.104
X63.205Y59.098
X63.167Y59.093
X63.129Y59.089
X63.091Y59.085
X63.053Y59.083
X63.014Y59.082
X62.976Y59.081
X59.04
X58.45Y59.068
X57.706Y59.063
G0Z1
X24.368Y65.504
G1Z-0.9F5
X24.395Y65.494F10
X24.447Y65.477
X24.501Y65.462
X24.525Y65.455
X24.559Y65.447
X24.582Y65.442
X24.61Y65.437
X24.637Y65.432
X24.665Y65.427
X24.692Y65.423
X24.72Y65.419
X24.747Y65.416
X24.775Y65.413
X24.803Y65.411
X24.831Y65.409
X24.859Y65.408
X24.886
X24.914Y65.407
X24.942Y65.408
X24.97
X25.026Y65.411
X25.054Y65.413
X25.081Y65.416
X25.109Y65.419
X25.137Y65.423
X25.164Y65.427
X25.185Y65.43
X25.221Y65.437
X25.246Y65.442
X25.273Y65.448
X25.301Y65.455
X25.328Y65.462
X25.354Y65.469
X25.381Y65.477
X25.408Y65.485
X25.434Y65.494
X25.46Y65.504
X25.486Y65.513
X25.512Y65.524
X25.538Y65.534
X25.564Y65.545
X25.614Y65.569
X25.639Y65.581
X25.664Y65.594
X25.713Y65.621
X25.737Y65.635
X25.761Y65.65
X25.784Y65.665
X25.807Y65.68
X25.83Y65.696
X25.853Y65.712
X25.875Y65.729
X25.897Y65.746
X25.919Y65.763
X25.941Y65.781
X25.975Y65.81
X26.005Y65.838
X26.022Y65.854
X26.063Y65.895
X26.082Y65.915
X26.101Y65.936
X26.119Y65.956
X26.137Y65.978
X26.172Y66.021
X26.189Y66.043
X26.206Y66.065
X26.222Y66.088
X26.238Y66.111
X26.253Y66.134
X26.268Y66.158
X26.283Y66.182
X26.297Y66.205
X26.311Y66.23
X26.324Y66.254
X26.337Y66.279
X26.349Y66.304
X26.361Y66.329
X26.373Y66.355
X26.384Y66.38
X26.395Y66.406
X26.405Y66.432
X26.415Y66.458
X26.424Y66.484
X26.433Y66.51
X26.441Y66.537
X26.449Y66.564
X26.456Y66.588
X26.464Y66.618
X26.47Y66.645
X26.476Y66.672
X26.482Y66.699
X26.487Y66.727
X26.491Y66.754
X26.495Y66.782
X26.499Y66.809
X26.502Y66.837
X26.505Y66.865
X26.507Y66.893
X26.509Y66.92
X26.51Y66.948
X26.511Y66.976
Y67.004
Y67.032
X26.51Y67.06
X26.509Y67.087
X26.507Y67.115
X26.505Y67.143
X26.502Y67.171
X26.499Y67.198
X26.495Y67.226
X26.491Y67.254
X26.487Y67.281
X26.482Y67.308
X26.476Y67.336
X26.47Y67.363
X26.464Y67.39
X26.457Y67.417
X26.449Y67.444
X26.441Y67.471
X26.433Y67.497
X26.424Y67.524
X26.415Y67.55
X26.405Y67.576
X26.395Y67.602
X26.384Y67.628
X26.373Y67.653
X26.361Y67.679
X26.349Y67.704
X26.337Y67.729
X26.324Y67.753
X26.311Y67.778
X26.297Y67.802
X26.283Y67.826
X26.268Y67.85
X26.253Y67.873
X26.238Y67.897
X26.222Y67.92
X26.206Y67.942
X26.189Y67.965
X26.172Y67.987
X26.155Y68.009
X26.137Y68.03
X26.119Y68.051
X26.101Y68.072
X26.082Y68.093
X26.063Y68.113
X26.043Y68.133
X26.023Y68.153
X26.003Y68.172
X25.983Y68.19
X25.962Y68.209
X25.941Y68.227
X25.919Y68.245
X25.897Y68.262
X25.875Y68.279
X25.853Y68.296
X25.83Y68.312
X25.807Y68.328
X25.784Y68.343
X25.76Y68.358
X25.737Y68.372
X25.713Y68.387
X25.688Y68.4
X25.664Y68.414
X25.639Y68.427
X25.614Y68.439
X25.589Y68.451
X25.564Y68.463
X25.538Y68.474
X25.513Y68.484
X25.487Y68.494
X25.46Y68.504
X25.434Y68.514
X25.408Y68.522
X25.381Y68.531
X25.354Y68.539
X25.328Y68.546
X25.301Y68.553
X25.273Y68.56
X25.246Y68.566
X25.219Y68.571
X25.192Y68.576
X25.164Y68.581
X25.136Y68.585
X25.109Y68.589
X25.081Y68.592
X25.053Y68.594
X25.026Y68.597
X24.998Y68.598
X24.97Y68.6
X24.942
X24.914Y68.601
X24.886Y68.6
X24.859
X24.831Y68.598
X24.803Y68.597
X24.775Y68.594
X24.75Y68.592
X24.719Y68.589
X24.665Y68.581
X24.637Y68.576
X24.61Y68.571
X24.582Y68.566
X24.555Y68.56
X24.528Y68.553
X24.501Y68.546
X24.474Y68.539
X24.447Y68.531
X24.421Y68.522
X24.395Y68.514
X24.368Y68.504
X24.342Y68.494
X24.316Y68.484
X24.291Y68.474
X24.265Y68.463
X24.239Y68.451
X24.214Y68.439
X24.189Y68.427
X24.165Y68.414
X24.14Y68.4
X24.116Y68.387
X24.068Y68.358
X24.045Y68.343
X24.022Y68.328
X23.999Y68.312
X23.976Y68.296
X23.953Y68.279
X23.931Y68.262
X23.91Y68.245
X23.888Y68.227
X23.867Y68.209
X23.846Y68.19
X23.826Y68.172
X23.805Y68.152
X23.785Y68.133
X23.766Y68.113
X23.747Y68.093
X23.728Y68.072
X23.691Y68.03
X23.673Y68.009
X23.656Y67.987
X23.639Y67.965
X23.623Y67.942
X23.606Y67.92
X23.591Y67.897
X23.575Y67.873
X23.56Y67.85
X23.546Y67.826
X23.518Y67.778
X23.505Y67.753
X23.492Y67.729
X23.479Y67.704
X23.467Y67.679
X23.456Y67.653
X23.445Y67.628
X23.434Y67.602
X23.424Y67.576
X23.414Y67.55
X23.405Y67.524
X23.396Y67.497
X23.387Y67.471
X23.38Y67.444
X23.372Y67.417
X23.358Y67.361
X23.347Y67.309
X23.342Y67.281
X23.337Y67.254
X23.333Y67.226
X23.33Y67.198
X23.326Y67.171
X23.324Y67.143
X23.322Y67.115
X23.32Y67.087
X23.318Y67.032
Y67.004
Y66.976
X23.319Y66.948
X23.32Y66.92
X23.322Y66.893
X23.324Y66.865
X23.326Y66.837
X23.333Y66.782
X23.337Y66.754
X23.342Y66.727
X23.347Y66.699
X23.353Y66.672
X23.359Y66.645
X23.365Y66.618
X23.372Y66.591
X23.38Y66.564
X23.389Y66.533
X23.396Y66.51
X23.405Y66.484
X23.414Y66.458
X23.424Y66.432
X23.441Y66.388
X23.457Y66.352
X23.467Y66.329
X23.479Y66.304
X23.492Y66.279
X23.505Y66.254
X23.518Y66.23
X23.532Y66.205
X23.56Y66.158
X23.575Y66.134
X23.591Y66.111
X23.606Y66.088
X23.623Y66.065
X23.636Y66.047
X23.673Y65.999
X23.691Y65.978
X23.709Y65.956
X23.728Y65.935
X23.747Y65.915
X23.766Y65.895
X23.785Y65.875
X23.807Y65.853
X23.825Y65.836
X23.846Y65.817
X23.867Y65.799
X23.91Y65.763
X23.931Y65.746
X23.953Y65.729
X23.976Y65.712
X23.999Y65.696
X24.038Y65.669
X24.07Y65.649
X24.092Y65.635
X24.116Y65.621
X24.14Y65.607
X24.165Y65.594
X24.189Y65.581
X24.214Y65.569
X24.24Y65.557
X24.265Y65.545
X24.291Y65.534
X24.316Y65.524
X24.368Y65.504
G0Z1
X38.316Y66.813
G1Z-0.9F5
X38.367Y66.644F10
X38.451Y66.488
X38.563Y66.351
X38.699Y66.239
X38.855Y66.156
X39.024Y66.105
X39.2Y66.087
X39.376Y66.105
X39.545Y66.156
X39.701Y66.239
X39.837Y66.351
X39.949Y66.488
X40.033Y66.644
X40.084Y66.813
X40.101Y66.988
X40.084Y67.164
X40.033Y67.333
X39.949Y67.489
X39.837Y67.626
X39.701Y67.738
X39.545Y67.821
X39.376Y67.872
X39.2Y67.89
X39.024Y67.872
X38.855Y67.821
X38.699Y67.738
X38.563Y67.626
X38.451Y67.489
X38.367Y67.333
X38.316Y67.164
X38.299Y66.988
X38.316Y66.813
G0Z1
X54.203Y66.988
G1Z-0.9F5
X54.22Y66.813F10
X54.271Y66.644
X54.355Y66.488
X54.467Y66.351
X54.603Y66.239
X54.759Y66.156
X54.928Y66.105
X55.104Y66.087
X55.28Y66.105
X55.449Y66.156
X55.605Y66.239
X55.741Y66.351
X55.853Y66.488
X55.937Y66.644
X55.988Y66.813
X56.005Y66.988
X55.988Y67.164
X55.937Y67.333
X55.853Y67.489
X55.741Y67.626
X55.605Y67.738
X55.449Y67.821
X55.28Y67.872
X55.104Y67.89
X54.928Y67.872
X54.759Y67.821
X54.603Y67.738
X54.467Y67.626
X54.355Y67.489
X54.271Y67.333
X54.22Y67.164
X54.203Y66.988
G0Z1
X57.706Y59.063
G1Z-0.9F5
X31.251F10
X30.597Y59.069
X29.943Y59.085
X29.29Y59.112
X28.637Y59.151
X27.985Y59.2
X27.333Y59.26
X26.683Y59.33
X26.034Y59.412
X25.387Y59.504
X24.741Y59.607
X24.097Y59.721
X23.454Y59.845
X23.33Y59.872
X23.207Y59.9
X23.084Y59.931
X22.962Y59.964
X22.84Y59.999
X22.719Y60.036
X22.599Y60.075
X22.479Y60.116
X22.36Y60.159
X22.242Y60.204
X22.125Y60.252
X22.008Y60.301
X21.892Y60.352
X21.778Y60.406
X21.664Y60.461
X21.551Y60.518
X21.439Y60.578
X21.328Y60.639
X21.218Y60.702
X21.11Y60.767
X21.002Y60.834
X20.896Y60.902
X20.791Y60.973
X20.687Y61.045
X20.584Y61.119
X20.483Y61.195
X20.383Y61.273
X20.285Y61.352
X20.187Y61.433
X20.092Y61.516
X19.997Y61.6
X19.904Y61.686
X19.813Y61.774
X19.723Y61.863
X19.635Y61.954
X19.548Y62.046
X19.463Y62.14
X19.38Y62.235
X19.298Y62.332
X19.198Y62.454
X19.1Y62.578
X19.005Y62.703
X18.911Y62.83
X18.819Y62.959
X18.73Y63.09
X18.643Y63.222
X18.558Y63.355
X18.476Y63.49
X18.396Y63.626
X18.318Y63.763
X18.243Y63.902
X18.17Y64.042
X18.099Y64.183
X18.031Y64.326
X17.966Y64.47
X17.902Y64.614
X17.842Y64.76
X17.784Y64.907
X17.728Y65.055
X17.675Y65.204
X17.624Y65.353
X17.576Y65.504
X17.531Y65.655
X17.488Y65.807
X17.448Y65.96
X17.41Y66.113
X17.375Y66.267
X17.343Y66.422
X17.313Y66.577
X17.286Y66.733
X17.262Y66.889
X17.241Y67.045
X17.222Y67.202
X17.205Y67.359
X17.192Y67.517
X17.181Y67.674
X17.173Y67.832
X17.167Y67.99
X17.165Y68.148
Y68.306
X17.167Y68.464
X17.173Y68.621
X17.181Y68.779
X17.192Y68.937
X17.205Y69.094
X17.221Y69.251
X17.24Y69.408
X17.26Y69.551
X17.679Y72.442
X17.693Y72.517
X17.709Y72.594
X17.728Y72.669
X17.75Y72.743
X17.774Y72.816
X17.801Y72.89
X17.83Y72.961
X17.862Y73.031
X17.896Y73.101
X17.933Y73.17
X17.971Y73.236
X18.013Y73.302
X18.056Y73.366
X18.102Y73.429
X18.15Y73.49
X18.2Y73.549
X18.252Y73.606
X18.306Y73.662
X18.361Y73.715
X18.42Y73.767
X18.479Y73.817
X18.54Y73.864
X18.603Y73.91
X18.666Y73.953
X18.733Y73.994
X18.8Y74.033
X18.868Y74.068
X18.939Y74.103
X19.008Y74.134
X19.081Y74.163
X19.153Y74.189
X19.227Y74.213
X19.302Y74.235
X19.376Y74.253
X19.453Y74.269
X19.529Y74.283
X19.606Y74.293
X19.682Y74.301
X19.761Y74.307
X19.837Y74.31
X19.876
X24.927
X25.044Y74.309
X25.161Y74.306
X25.277Y74.301
X25.394Y74.294
X26.649Y74.204
X27.802Y74.139
X28.956Y74.093
X30.11Y74.065
X31.271Y74.056
X34.824
X34.862Y74.059
X34.9Y74.061
X34.938Y74.063
X34.976
X62.976
X63.016
X63.056Y74.061
X63.095Y74.059
X63.135Y74.055
X63.174Y74.051
X63.214Y74.045
X63.253Y74.039
X63.292Y74.032
X63.331Y74.023
X63.37Y74.014
X63.408Y74.004
X63.446Y73.992
X63.484Y73.98
X63.522Y73.967
X63.559Y73.953
X63.596Y73.938
X63.632Y73.922
X63.668Y73.905
X63.704Y73.887
X63.739Y73.869
X63.774Y73.849
X63.809Y73.828
X63.843Y73.807
X63.876Y73.784
X63.91Y73.761
X63.942Y73.737
X63.974Y73.712
X64.005Y73.686
X64.02Y73.673
X64.049Y73.647
X64.072Y73.626
X64.093Y73.605
X64.121Y73.577
X64.149Y73.548
X64.181Y73.512
X64.212Y73.475
X64.234Y73.447
X64.255Y73.419
X64.276Y73.39
X64.296Y73.361
X64.315Y73.332
X64.334Y73.301
X64.351Y73.273
X64.367Y73.245
X64.383Y73.216
X64.402Y73.178
X64.42Y73.141
X64.433Y73.111
X64.446Y73.082
X64.462Y73.041
X64.47Y73.019
X64.484Y72.979
X64.497Y72.938
X64.51Y72.896
X64.521Y72.854
X64.531Y72.811
X64.539Y72.771
X64.546Y72.73
X64.554Y72.679
X64.56Y72.623
X64.563Y72.589
X64.565Y72.556
X64.566Y72.522
X64.567Y72.472
Y72.24
X64.582Y72.154
X64.592Y72.077
X64.599Y71.999
X64.603Y71.923
X64.605Y71.83
Y60.996
Y60.957
X64.603Y60.917
X64.601Y60.878
X64.598Y60.839
X64.593Y60.8
X64.588Y60.76
X64.581Y60.722
X64.574Y60.683
X64.567Y60.649
X64.566Y60.607
X64.564Y60.564
X64.56Y60.521
X64.555Y60.478
X64.55Y60.436
X64.543Y60.393
X64.534Y60.351
X64.525Y60.309
X64.515Y60.267
X64.505Y60.232
X64.495Y60.198
X64.484Y60.164
X64.472Y60.13
X64.459Y60.096
X64.443Y60.055
X64.425Y60.014
X64.406Y59.974
X64.384Y59.93
X64.367Y59.901
X64.351Y59.871
X64.329Y59.835
X64.306Y59.799
X64.285Y59.767
X64.262Y59.736
X64.239Y59.705
X64.216Y59.675
X64.191Y59.645
X64.166Y59.616
X64.14Y59.587
X64.113Y59.559
X64.086Y59.532
X64.058Y59.506
X64.029Y59.48
X64Y59.455
X63.97Y59.43
X63.94Y59.406
X63.909Y59.383
X63.877Y59.361
X63.845Y59.34
X63.813Y59.319
X63.78Y59.299
X63.746Y59.28
X63.711Y59.261
X63.677Y59.244
X63.643Y59.228
X63.608Y59.212
X63.573Y59.197
X63.537Y59.184
X63.501Y59.17
X63.465Y59.158
X63.428Y59.147
X63.392Y59.137
X63.355Y59.127
X63.317Y59.118
X63.28Y59.111
X63.242Y59.104
X63.205Y59.098
X63.167Y59.093
X63.129Y59.089
X63.091Y59.085
X63.053Y59.083
X63.014Y59.082
X62.976Y59.081
X59.04
X58.45Y59.068
X57.706Y59.063
G0Z1
X24.368Y65.504
G1Z-1F5
X24.395Y65.494F10
X24.447Y65.477
X24.501Y65.462
X24.525Y65.455
X24.559Y65.447
X24.582Y65.442
X24.61Y65.437
X24.637Y65.432
X24.665Y65.427
X24.692Y65.423
X24.72Y65.419
X24.747Y65.416
X24.775Y65.413
X24.803Y65.411
X24.831Y65.409
X24.859Y65.408
X24.886
X24.914Y65.407
X24.942Y65.408
X24.97
X25.026Y65.411
X25.054Y65.413
X25.081Y65.416
X25.109Y65.419
X25.137Y65.423
X25.164Y65.427
X25.185Y65.43
X25.221Y65.437
X25.246Y65.442
X25.273Y65.448
X25.301Y65.455
X25.328Y65.462
X25.354Y65.469
X25.381Y65.477
X25.408Y65.485
X25.434Y65.494
X25.46Y65.504
X25.486Y65.513
X25.512Y65.524
X25.538Y65.534
X25.564Y65.545
X25.614Y65.569
X25.639Y65.581
X25.664Y65.594
X25.713Y65.621
X25.737Y65.635
X25.761Y65.65
X25.784Y65.665
X25.807Y65.68
X25.83Y65.696
X25.853Y65.712
X25.875Y65.729
X25.897Y65.746
X25.919Y65.763
X25.941Y65.781
X25.975Y65.81
X26.005Y65.838
X26.022Y65.854
X26.063Y65.895
X26.082Y65.915
X26.101Y65.936
X26.119Y65.956
X26.137Y65.978
X26.172Y66.021
X26.189Y66.043
X26.206Y66.065
X26.222Y66.088
X26.238Y66.111
X26.253Y66.134
X26.268Y66.158
X26.283Y66.182
X26.297Y66.205
X26.311Y66.23
X26.324Y66.254
X26.337Y66.279
X26.349Y66.304
X26.361Y66.329
X26.373Y66.355
X26.384Y66.38
X26.395Y66.406
X26.405Y66.432
X26.415Y66.458
X26.424Y66.484
X26.433Y66.51
X26.441Y66.537
X26.449Y66.564
X26.456Y66.588
X26.464Y66.618
X26.47Y66.645
X26.476Y66.672
X26.482Y66.699
X26.487Y66.727
X26.491Y66.754
X26.495Y66.782
X26.499Y66.809
X26.502Y66.837
X26.505Y66.865
X26.507Y66.893
X26.509Y66.92
X26.51Y66.948
X26.511Y66.976
Y67.004
Y67.032
X26.51Y67.06
X26.509Y67.087
X26.507Y67.115
X26.505Y67.143
X26.502Y67.171
X26.499Y67.198
X26.495Y67.226
X26.491Y67.254
X26.487Y67.281
X26.482Y67.308
X26.476Y67.336
X26.47Y67.363
X26.464Y67.39
X26.457Y67.417
X26.449Y67.444
X26.441Y67.471
X26.433Y67.497
X26.424Y67.524
X26.415Y67.55
X26.405Y67.576
X26.395Y67.602
X26.384Y67.628
X26.373Y67.653
X26.361Y67.679
X26.349Y67.704
X26.337Y67.729
X26.324Y67.753
X26.311Y67.778
X26.297Y67.802
X26.283Y67.826
X26.268Y67.85
X26.253Y67.873
X26.238Y67.897
X26.222Y67.92
X26.206Y67.942
X26.189Y67.965
X26.172Y67.987
X26.155Y68.009
X26.137Y68.03
X26.119Y68.051
X26.101Y68.072
X26.082Y68.093
X26.063Y68.113
X26.043Y68.133
X26.023Y68.153
X26.003Y68.172
X25.983Y68.19
X25.962Y68.209
X25.941Y68.227
X25.919Y68.245
X25.897Y68.262
X25.875Y68.279
X25.853Y68.296
X25.83Y68.312
X25.807Y68.328
X25.784Y68.343
X25.76Y68.358
X25.737Y68.372
X25.713Y68.387
X25.688Y68.4
X25.664Y68.414
X25.639Y68.427
X25.614Y68.439
X25.589Y68.451
X25.564Y68.463
X25.538Y68.474
X25.513Y68.484
X25.487Y68.494
X25.46Y68.504
X25.434Y68.514
X25.408Y68.522
X25.381Y68.531
X25.354Y68.539
X25.328Y68.546
X25.301Y68.553
X25.273Y68.56
X25.246Y68.566
X25.219Y68.571
X25.192Y68.576
X25.164Y68.581
X25.136Y68.585
X25.109Y68.589
X25.081Y68.592
X25.053Y68.594
X25.026Y68.597
X24.998Y68.598
X24.97Y68.6
X24.942
X24.914Y68.601
X24.886Y68.6
X24.859
X24.831Y68.598
X24.803Y68.597
X24.775Y68.594
X24.75Y68.592
X24.719Y68.589
X24.665Y68.581
X24.637Y68.576
X24.61Y68.571
X24.582Y68.566
X24.555Y68.56
X24.528Y68.553
X24.501Y68.546
X24.474Y68.539
X24.447Y68.531
X24.421Y68.522
X24.395Y68.514
X24.368Y68.504
X24.342Y68.494
X24.316Y68.484
X24.291Y68.474
X24.265Y68.463
X24.239Y68.451
X24.214Y68.439
X24.189Y68.427
X24.165Y68.414
X24.14Y68.4
X24.116Y68.387
X24.068Y68.358
X24.045Y68.343
X24.022Y68.328
X23.999Y68.312
X23.976Y68.296
X23.953Y68.279
X23.931Y68.262
X23.91Y68.245
X23.888Y68.227
X23.867Y68.209
X23.846Y68.19
X23.826Y68.172
X23.805Y68.152
X23.785Y68.133
X23.766Y68.113
X23.747Y68.093
X23.728Y68.072
X23.691Y68.03
X23.673Y68.009
X23.656Y67.987
X23.639Y67.965
X23.623Y67.942
X23.606Y67.92
X23.591Y67.897
X23.575Y67.873
X23.56Y67.85
X23.546Y67.826
X23.518Y67.778
X23.505Y67.753
X23.492Y67.729
X23.479Y67.704
X23.467Y67.679
X23.456Y67.653
X23.445Y67.628
X23.434Y67.602
X23.424Y67.576
X23.414Y67.55
X23.405Y67.524
X23.396Y67.497
X23.387Y67.471
X23.38Y67.444
X23.372Y67.417
X23.358Y67.361
X23.347Y67.309
X23.342Y67.281
X23.337Y67.254
X23.333Y67.226
X23.33Y67.198
X23.326Y67.171
X23.324Y67.143
X23.322Y67.115
X23.32Y67.087
X23.318Y67.032
Y67.004
Y66.976
X23.319Y66.948
X23.32Y66.92
X23.322Y66.893
X23.324Y66.865
X23.326Y66.837
X23.333Y66.782
X23.337Y66.754
X23.342Y66.727
X23.347Y66.699
X23.353Y66.672
X23.359Y66.645
X23.365Y66.618
X23.372Y66.591
X23.38Y66.564
X23.389Y66.533
X23.396Y66.51
X23.405Y66.484
X23.414Y66.458
X23.424Y66.432
X23.441Y66.388
X23.457Y66.352
X23.467Y66.329
X23.479Y66.304
X23.492Y66.279
X23.505Y66.254
X23.518Y66.23
X23.532Y66.205
X23.56Y66.158
X23.575Y66.134
X23.591Y66.111
X23.606Y66.088
X23.623Y66.065
X23.636Y66.047
X23.673Y65.999
X23.691Y65.978
X23.709Y65.956
X23.728Y65.935
X23.747Y65.915
X23.766Y65.895
X23.785Y65.875
X23.807Y65.853
X23.825Y65.836
X23.846Y65.817
X23.867Y65.799
X23.91Y65.763
X23.931Y65.746
X23.953Y65.729
X23.976Y65.712
X23.999Y65.696
X24.038Y65.669
X24.07Y65.649
X24.092Y65.635
X24.116Y65.621
X24.14Y65.607
X24.165Y65.594
X24.189Y65.581
X24.214Y65.569
X24.24Y65.557
X24.265Y65.545
X24.291Y65.534
X24.316Y65.524
X24.368Y65.504
G0Z1
X38.316Y66.813
G1Z-1F5
X38.367Y66.644F10
X38.451Y66.488
X38.563Y66.351
X38.699Y66.239
X38.855Y66.156
X39.024Y66.105
X39.2Y66.087
X39.376Y66.105
X39.545Y66.156
X39.701Y66.239
X39.837Y66.351
X39.949Y66.488
X40.033Y66.644
X40.084Y66.813
X40.101Y66.988
X40.084Y67.164
X40.033Y67.333
X39.949Y67.489
X39.837Y67.626
X39.701Y67.738
X39.545Y67.821
X39.376Y67.872
X39.2Y67.89
X39.024Y67.872
X38.855Y67.821
X38.699Y67.738
X38.563Y67.626
X38.451Y67.489
X38.367Y67.333
X38.316Y67.164
X38.299Y66.988
X38.316Y66.813
G0Z1
X54.203Y66.988
G1Z-1F5
X54.22Y66.813F10
X54.271Y66.644
X54.355Y66.488
X54.467Y66.351
X54.603Y66.239
X54.759Y66.156
X54.928Y66.105
X55.104Y66.087
X55.28Y66.105
X55.449Y66.156
X55.605Y66.239
X55.741Y66.351
X55.853Y66.488
X55.937Y66.644
X55.988Y66.813
X56.005Y66.988
X55.988Y67.164
X55.937Y67.333
X55.853Y67.489
X55.741Y67.626
