(Created with grbl post processor 2024/11/24 13:46)
G21
(G-code generated with BlenderCAM and NC library)
G17G90
(Tool: D = 3.18 mm  type END flutes 2)
S1000M03
G00 Z1.0

G0X0Y0Z1
X46.967Y82.16
G1Z-0.1F5
X47.123Y82.077F10
X47.292Y82.026
X47.468Y82.009
X47.644Y82.026
X47.813Y82.077
X47.969Y82.16
X48.105Y82.273
X48.217Y82.409
X48.301Y82.565
X48.352Y82.734
X48.369Y82.91
X48.352Y83.086
X48.301Y83.255
X48.217Y83.411
X48.105Y83.547
X47.969Y83.659
X47.813Y83.743
X47.644Y83.794
X47.468Y83.811
X47.292Y83.794
X47.123Y83.743
X46.967Y83.659
X46.831Y83.547
X46.719Y83.411
X46.635Y83.255
X46.584Y83.086
X46.567Y82.91
X46.584Y82.734
X46.635Y82.565
X46.719Y82.409
X46.831Y82.273
X46.967Y82.16
G0Z1
X47.468Y97.912
G1Z-0.1F5
X47.644Y97.93F10
X47.813Y97.981
X47.969Y98.064
X48.105Y98.176
X48.217Y98.313
X48.301Y98.469
X48.352Y98.638
X48.369Y98.814
X48.352Y98.99
X48.301Y99.159
X48.217Y99.315
X48.105Y99.451
X47.969Y99.563
X47.813Y99.646
X47.644Y99.698
X47.468Y99.715
X47.292Y99.698
X47.123Y99.646
X46.967Y99.563
X46.831Y99.451
X46.719Y99.315
X46.635Y99.159
X46.584Y98.99
X46.567Y98.814
X46.584Y98.638
X46.635Y98.469
X46.719Y98.313
X46.831Y98.176
X46.967Y98.064
X47.123Y97.981
X47.292Y97.93
X47.468Y97.912
G0Z1
X47.483Y111.503
G1Z-0.1F5
X47.511F10
X47.539Y111.504
X47.567Y111.505
X47.595Y111.507
X47.623Y111.509
X47.65Y111.512
X47.678Y111.515
X47.706Y111.518
X47.733Y111.523
X47.761Y111.527
X47.788Y111.532
X47.815Y111.538
X47.843Y111.544
X47.87Y111.55
X47.897Y111.557
X47.923Y111.565
X47.95Y111.573
X47.977Y111.581
X48.003Y111.59
X48.03Y111.599
X48.082Y111.619
X48.107Y111.63
X48.133Y111.641
X48.158Y111.653
X48.183Y111.664
X48.208Y111.677
X48.233Y111.69
X48.258Y111.703
X48.282Y111.717
X48.306Y111.731
X48.33Y111.746
X48.353Y111.76
X48.376Y111.776
X48.399Y111.792
X48.422Y111.808
X48.467Y111.841
X48.488Y111.859
X48.51Y111.876
X48.531Y111.895
X48.552Y111.913
X48.572Y111.932
X48.593Y111.951
X48.612Y111.971
X48.632Y111.99
X48.651Y112.011
X48.67Y112.031
X48.688Y112.052
X48.707Y112.073
X48.724Y112.095
X48.742Y112.117
X48.758Y112.138
X48.775Y112.161
X48.791Y112.184
X48.807Y112.207
X48.823Y112.23
X48.837Y112.253
X48.852Y112.277
X48.866Y112.301
X48.88Y112.326
X48.893Y112.35
X48.906Y112.375
X48.918Y112.4
X48.93Y112.425
X48.942Y112.45
X48.953Y112.476
X48.964Y112.501
X48.974Y112.527
X48.984Y112.553
X48.993Y112.58
X49.002Y112.606
X49.01Y112.633
X49.018Y112.659
X49.026Y112.686
X49.033Y112.713
X49.039Y112.74
X49.045Y112.767
X49.051Y112.795
X49.056Y112.822
X49.06Y112.85
X49.065Y112.877
X49.068Y112.905
X49.071Y112.933
X49.074Y112.96
X49.076Y112.988
X49.078Y113.016
X49.079Y113.044
X49.08Y113.072
Y113.1
Y113.127
X49.079Y113.155
X49.078Y113.183
X49.076Y113.211
X49.074Y113.239
X49.071Y113.267
X49.068Y113.294
X49.065Y113.322
X49.06Y113.349
X49.056Y113.377
X49.047Y113.423
X49.039Y113.461
X49.028Y113.505
X49.018Y113.542
X49.01Y113.566
X48.993Y113.619
X48.984Y113.646
X48.974Y113.672
X48.956Y113.715
X48.941Y113.751
X48.93Y113.774
X48.918Y113.799
X48.906Y113.824
X48.893Y113.849
X48.88Y113.874
X48.866Y113.898
X48.852Y113.922
X48.837Y113.946
X48.823Y113.969
X48.807Y113.992
X48.791Y114.015
X48.775Y114.038
X48.761Y114.057
X48.741Y114.084
X48.724Y114.104
X48.707Y114.126
X48.688Y114.147
X48.67Y114.168
X48.651Y114.188
X48.632Y114.209
X48.612Y114.229
X48.593Y114.248
X48.572Y114.267
X48.552Y114.286
X48.531Y114.304
X48.51Y114.323
X48.466Y114.358
X48.444Y114.375
X48.399Y114.407
X48.376Y114.423
X48.353Y114.439
X48.33Y114.454
X48.306Y114.468
X48.282Y114.482
X48.257Y114.496
X48.233Y114.509
X48.208Y114.522
X48.183Y114.535
X48.158Y114.547
X48.133Y114.558
X48.107Y114.569
X48.082Y114.58
X48.056Y114.59
X48.029Y114.6
X48.003Y114.609
X47.977Y114.618
X47.95Y114.626
X47.924Y114.634
X47.897Y114.642
X47.869Y114.649
X47.843Y114.655
X47.815Y114.661
X47.788Y114.667
X47.761Y114.672
X47.733Y114.677
X47.706Y114.681
X47.678Y114.684
X47.65Y114.687
X47.623Y114.69
X47.595Y114.692
X47.567Y114.694
X47.539Y114.695
X47.511Y114.696
X47.483
X47.456
X47.4Y114.694
X47.372Y114.692
X47.344Y114.69
X47.316Y114.687
X47.289Y114.684
X47.261Y114.681
X47.234Y114.677
X47.206Y114.672
X47.179Y114.667
X47.151Y114.661
X47.124Y114.655
X47.097Y114.649
X47.043Y114.634
X47.017Y114.626
X46.99Y114.618
X46.964Y114.609
X46.937Y114.6
X46.911Y114.59
X46.885Y114.58
X46.86Y114.569
X46.832Y114.557
X46.809Y114.547
X46.788Y114.537
X46.757Y114.521
X46.734Y114.509
X46.709Y114.496
X46.685Y114.482
X46.661Y114.468
X46.637Y114.454
X46.614Y114.439
X46.591Y114.423
X46.568Y114.407
X46.545Y114.391
X46.523Y114.375
X46.5Y114.358
X46.479Y114.34
X46.457Y114.323
X46.436Y114.305
X46.415Y114.286
X46.373Y114.246
X46.354Y114.229
X46.335Y114.209
X46.316Y114.188
X46.297Y114.168
X46.279Y114.147
X46.26Y114.126
X46.243Y114.104
X46.225Y114.083
X46.208Y114.06
X46.192Y114.038
X46.176Y114.015
X46.16Y113.992
X46.144Y113.969
X46.129Y113.946
X46.115Y113.922
X46.101Y113.898
X46.087Y113.874
X46.061Y113.824
X46.048Y113.799
X46.036Y113.774
X46.026Y113.752
X46.013Y113.722
X46.003Y113.698
X45.993Y113.672
X45.983Y113.646
X45.965Y113.593
X45.957Y113.566
X45.941Y113.513
X45.934Y113.486
X45.928Y113.459
X45.922Y113.432
X45.911Y113.377
X45.906Y113.349
X45.902Y113.322
X45.899Y113.294
X45.896Y113.266
X45.893Y113.239
X45.891Y113.211
X45.889Y113.183
X45.888Y113.155
X45.887Y113.128
Y113.1
Y113.077
X45.888Y113.042
X45.889Y113.016
X45.891Y112.988
X45.893Y112.96
X45.896Y112.933
X45.899Y112.905
X45.902Y112.877
X45.906Y112.85
X45.911Y112.822
X45.916Y112.795
X45.922Y112.768
X45.928Y112.74
X45.934Y112.713
X45.941Y112.686
X45.947Y112.665
X45.957Y112.631
X45.965Y112.606
X45.974Y112.58
X45.985Y112.549
X45.993Y112.527
X46.003Y112.501
X46.014Y112.476
X46.025Y112.45
X46.048Y112.4
X46.061Y112.375
X46.074Y112.35
X46.087Y112.326
X46.101Y112.3
X46.115Y112.277
X46.13Y112.253
X46.153Y112.217
X46.177Y112.181
X46.192Y112.161
X46.208Y112.139
X46.225Y112.117
X46.243Y112.095
X46.26Y112.073
X46.278Y112.052
X46.297Y112.031
X46.316Y112.011
X46.354Y111.971
X46.374Y111.951
X46.395Y111.932
X46.415Y111.913
X46.436Y111.895
X46.457Y111.876
X46.479Y111.859
X46.523Y111.824
X46.545Y111.808
X46.568Y111.792
X46.591Y111.776
X46.614Y111.76
X46.637Y111.745
X46.661Y111.731
X46.685Y111.717
X46.709Y111.703
X46.734Y111.69
X46.759Y111.677
X46.784Y111.664
X46.809Y111.652
X46.834Y111.641
X46.885Y111.619
X46.911Y111.609
X46.937Y111.599
X46.964Y111.59
X46.99Y111.581
X47.017Y111.573
X47.043Y111.565
X47.07Y111.557
X47.124Y111.544
X47.151Y111.538
X47.179Y111.532
X47.206Y111.527
X47.234Y111.523
X47.261Y111.518
X47.289Y111.515
X47.316Y111.512
X47.344Y111.509
X47.372Y111.507
X47.4Y111.505
X47.428Y111.504
X47.456Y111.503
X47.483
G0Z1
X54.683Y111.364
G1Z-0.1F5
X54.619Y110.212F10
X54.572Y109.058
X54.545Y107.904
X54.535Y106.743
Y103.19
X54.539Y103.152
X54.541Y103.114
X54.542Y103.076
X54.543Y103.038
Y75.038
X54.542Y74.998
X54.541Y74.958
X54.538Y74.919
X54.535Y74.879
X54.53Y74.839
X54.525Y74.8
X54.519Y74.761
X54.511Y74.722
X54.503Y74.683
X54.493Y74.644
X54.483Y74.606
X54.472Y74.567
X54.46Y74.53
X54.446Y74.492
X54.432Y74.455
X54.417Y74.418
X54.401Y74.382
X54.385Y74.346
X54.367Y74.31
X54.348Y74.275
X54.329Y74.24
X54.308Y74.205
X54.286Y74.171
X54.264Y74.137
X54.24Y74.104
X54.216Y74.072
X54.191Y74.04
X54.165Y74.009
X54.153Y73.994
X54.126Y73.964
X54.106Y73.942
X54.085Y73.921
X54.056Y73.892
X54.027Y73.865
X53.991Y73.833
X53.954Y73.802
X53.927Y73.78
X53.899Y73.759
X53.87Y73.738
X53.841Y73.718
X53.811Y73.699
X53.781Y73.68
X53.753Y73.663
X53.724Y73.647
X53.695Y73.631
X53.658Y73.612
X53.62Y73.594
X53.591Y73.581
X53.561Y73.568
X53.521Y73.552
X53.499Y73.544
X53.458Y73.529
X53.418Y73.516
X53.376Y73.504
X53.333Y73.493
X53.291Y73.483
X53.25Y73.475
X53.21Y73.468
X53.159Y73.46
X53.102Y73.454
X53.069Y73.451
X53.035Y73.449
X53.001Y73.447
X52.952
X52.719
X52.658Y73.436
X52.582Y73.425
X52.503Y73.417
X52.426Y73.412
X52.348Y73.409
X52.309Y73.408
X41.476
X41.436Y73.409
X41.397Y73.41
X41.358Y73.413
X41.318Y73.416
X41.279Y73.421
X41.24Y73.426
X41.201Y73.432
X41.162Y73.44
X41.129Y73.447
X41.086Y73.448
X41.043Y73.45
X41.001Y73.454
X40.958Y73.459
X40.915Y73.464
X40.873Y73.471
X40.83Y73.479
X40.788Y73.489
X40.747Y73.499
X40.712Y73.509
X40.678Y73.519
X40.643Y73.53
X40.61Y73.542
X40.576Y73.555
X40.535Y73.571
X40.494Y73.589
X40.453Y73.608
X40.41Y73.63
X40.38Y73.646
X40.351Y73.663
X40.314Y73.685
X40.279Y73.708
X40.247Y73.729
X40.215Y73.751
X40.185Y73.774
X40.154Y73.798
X40.124Y73.823
X40.095Y73.848
X40.067Y73.874
X40.039Y73.901
X40.012Y73.928
X39.985Y73.956
X39.959Y73.985
X39.934Y74.014
X39.91Y74.044
X39.886Y74.074
X39.863Y74.105
X39.841Y74.137
X39.819Y74.169
X39.799Y74.201
X39.779Y74.234
X39.76Y74.268
X39.741Y74.303
X39.724Y74.337
X39.707Y74.371
X39.692Y74.406
X39.677Y74.441
X39.663Y74.477
X39.65Y74.513
X39.638Y74.549
X39.627Y74.585
X39.616Y74.622
X39.607Y74.659
X39.598Y74.696
X39.59Y74.734
X39.583Y74.771
X39.577Y74.809
X39.572Y74.847
X39.568Y74.885
X39.565Y74.923
X39.563Y74.961
X39.561Y74.999
Y75.038
Y78.974
X39.548Y79.564
X39.542Y80.308
X39.543Y106.763
X39.548Y107.417
X39.565Y108.071
X39.592Y108.724
X39.63Y109.377
X39.679Y110.029
X39.739Y110.68
X39.81Y111.331
X39.891Y111.98
X39.984Y112.627
X40.087Y113.273
X40.2Y113.917
X40.325Y114.56
X40.351Y114.683
X40.38Y114.807
X40.41Y114.93
X40.443Y115.052
X40.478Y115.173
X40.515Y115.295
X40.554Y115.415
X40.595Y115.535
X40.639Y115.654
X40.684Y115.772
X40.731Y115.889
X40.781Y116.006
X40.832Y116.121
X40.885Y116.236
X40.94Y116.35
X40.998Y116.463
X41.057Y116.575
X41.118Y116.686
X41.181Y116.796
X41.246Y116.904
X41.313Y117.012
X41.382Y117.118
X41.452Y117.223
X41.525Y117.327
X41.599Y117.43
X41.675Y117.531
X41.752Y117.631
X41.832Y117.729
X41.913Y117.827
X41.995Y117.922
X42.08Y118.017
X42.166Y118.11
X42.254Y118.201
X42.343Y118.291
X42.433Y118.379
X42.526Y118.466
X42.619Y118.551
X42.714Y118.634
X42.811Y118.716
X42.933Y118.816
X43.057Y118.914
X43.182Y119.009
X43.31Y119.103
X43.439Y119.195
X43.569Y119.284
X43.701Y119.371
X43.834Y119.456
X43.969Y119.538
X44.105Y119.618
X44.243Y119.696
X44.382Y119.771
X44.522Y119.844
X44.663Y119.914
X44.806Y119.983
X44.949Y120.048
X45.094Y120.111
X45.24Y120.172
X45.387Y120.23
X45.534Y120.286
X45.683Y120.339
X45.833Y120.39
X45.983Y120.438
X46.135Y120.483
X46.287Y120.526
X46.439Y120.566
X46.593Y120.604
X46.747Y120.639
X46.901Y120.671
X47.057Y120.7
X47.212Y120.727
X47.368Y120.752
X47.525Y120.773
X47.682Y120.792
X47.839Y120.808
X47.996Y120.822
X48.154Y120.833
X48.311Y120.841
X48.469Y120.846
X48.627Y120.849
X48.785
X48.943Y120.847
X49.101Y120.841
X49.259Y120.833
X49.416Y120.822
X49.574Y120.809
X49.731Y120.793
X49.888Y120.774
X50.031Y120.754
X52.921Y120.335
X52.997Y120.321
X53.074Y120.304
X53.148Y120.286
X53.222Y120.264
X53.296Y120.24
X53.369Y120.213
X53.441Y120.184
X53.511Y120.152
X53.58Y120.118
X53.649Y120.081
X53.716Y120.042
X53.781Y120.001
X53.846Y119.957
X53.908Y119.912
X53.969Y119.864
X54.028Y119.814
X54.085Y119.762
X54.142Y119.707
X54.195Y119.653
X54.247Y119.594
X54.296Y119.535
X54.343Y119.475
X54.39Y119.411
X54.432Y119.347
X54.474Y119.281
X54.512Y119.214
X54.548Y119.146
X54.582Y119.075
X54.613Y119.005
X54.643Y118.933
X54.669Y118.861
X54.693Y118.786
X54.714Y118.712
X54.733Y118.637
X54.749Y118.562
X54.762Y118.485
X54.773Y118.408
X54.781Y118.332
X54.786Y118.253
X54.789Y118.177
Y118.138
Y113.087
X54.788Y112.97
X54.785Y112.853
X54.78Y112.736
X54.774Y112.62
X54.683Y111.364
G0Z1
X46.967Y82.16
G1Z-0.2F5
X47.123Y82.077F10
X47.292Y82.026
X47.468Y82.009
X47.644Y82.026
X47.813Y82.077
X47.969Y82.16
X48.105Y82.273
X48.217Y82.409
X48.301Y82.565
X48.352Y82.734
X48.369Y82.91
X48.352Y83.086
X48.301Y83.255
X48.217Y83.411
X48.105Y83.547
X47.969Y83.659
X47.813Y83.743
X47.644Y83.794
X47.468Y83.811
X47.292Y83.794
X47.123Y83.743
X46.967Y83.659
X46.831Y83.547
X46.719Y83.411
X46.635Y83.255
X46.584Y83.086
X46.567Y82.91
X46.584Y82.734
X46.635Y82.565
X46.719Y82.409
X46.831Y82.273
X46.967Y82.16
G0Z1
X47.468Y97.912
G1Z-0.2F5
X47.644Y97.93F10
X47.813Y97.981
X47.969Y98.064
X48.105Y98.176
X48.217Y98.313
X48.301Y98.469
X48.352Y98.638
X48.369Y98.814
X48.352Y98.99
X48.301Y99.159
X48.217Y99.315
X48.105Y99.451
X47.969Y99.563
X47.813Y99.646
X47.644Y99.698
X47.468Y99.715
X47.292Y99.698
X47.123Y99.646
X46.967Y99.563
X46.831Y99.451
X46.719Y99.315
X46.635Y99.159
X46.584Y98.99
X46.567Y98.814
X46.584Y98.638
X46.635Y98.469
X46.719Y98.313
X46.831Y98.176
X46.967Y98.064
X47.123Y97.981
X47.292Y97.93
X47.468Y97.912
G0Z1
X47.483Y111.503
G1Z-0.2F5
X47.511F10
X47.539Y111.504
X47.567Y111.505
X47.595Y111.507
X47.623Y111.509
X47.65Y111.512
X47.678Y111.515
X47.706Y111.518
X47.733Y111.523
X47.761Y111.527
X47.788Y111.532
X47.815Y111.538
X47.843Y111.544
X47.87Y111.55
X47.897Y111.557
X47.923Y111.565
X47.95Y111.573
X47.977Y111.581
X48.003Y111.59
X48.03Y111.599
X48.082Y111.619
X48.107Y111.63
X48.133Y111.641
X48.158Y111.653
X48.183Y111.664
X48.208Y111.677
X48.233Y111.69
X48.258Y111.703
X48.282Y111.717
X48.306Y111.731
X48.33Y111.746
X48.353Y111.76
X48.376Y111.776
X48.399Y111.792
X48.422Y111.808
X48.467Y111.841
X48.488Y111.859
X48.51Y111.876
X48.531Y111.895
X48.552Y111.913
X48.572Y111.932
X48.593Y111.951
X48.612Y111.971
X48.632Y111.99
X48.651Y112.011
X48.67Y112.031
X48.688Y112.052
X48.707Y112.073
X48.724Y112.095
X48.742Y112.117
X48.758Y112.138
X48.775Y112.161
X48.791Y112.184
X48.807Y112.207
X48.823Y112.23
X48.837Y112.253
X48.852Y112.277
X48.866Y112.301
X48.88Y112.326
X48.893Y112.35
X48.906Y112.375
X48.918Y112.4
X48.93Y112.425
X48.942Y112.45
X48.953Y112.476
X48.964Y112.501
X48.974Y112.527
X48.984Y112.553
X48.993Y112.58
X49.002Y112.606
X49.01Y112.633
X49.018Y112.659
X49.026Y112.686
X49.033Y112.713
X49.039Y112.74
X49.045Y112.767
X49.051Y112.795
X49.056Y112.822
X49.06Y112.85
X49.065Y112.877
X49.068Y112.905
X49.071Y112.933
X49.074Y112.96
X49.076Y112.988
X49.078Y113.016
X49.079Y113.044
X49.08Y113.072
Y113.1
Y113.127
X49.079Y113.155
X49.078Y113.183
X49.076Y113.211
X49.074Y113.239
X49.071Y113.267
X49.068Y113.294
X49.065Y113.322
X49.06Y113.349
X49.056Y113.377
X49.047Y113.423
X49.039Y113.461
X49.028Y113.505
X49.018Y113.542
X49.01Y113.566
X48.993Y113.619
X48.984Y113.646
X48.974Y113.672
X48.956Y113.715
X48.941Y113.751
X48.93Y113.774
X48.918Y113.799
X48.906Y113.824
X48.893Y113.849
X48.88Y113.874
X48.866Y113.898
X48.852Y113.922
X48.837Y113.946
X48.823Y113.969
X48.807Y113.992
X48.791Y114.015
X48.775Y114.038
X48.761Y114.057
X48.741Y114.084
X48.724Y114.104
X48.707Y114.126
X48.688Y114.147
X48.67Y114.168
X48.651Y114.188
X48.632Y114.209
X48.612Y114.229
X48.593Y114.248
X48.572Y114.267
X48.552Y114.286
X48.531Y114.304
X48.51Y114.323
X48.466Y114.358
X48.444Y114.375
X48.399Y114.407
X48.376Y114.423
X48.353Y114.439
X48.33Y114.454
X48.306Y114.468
X48.282Y114.482
X48.257Y114.496
X48.233Y114.509
X48.208Y114.522
X48.183Y114.535
X48.158Y114.547
X48.133Y114.558
X48.107Y114.569
X48.082Y114.58
X48.056Y114.59
X48.029Y114.6
X48.003Y114.609
X47.977Y114.618
X47.95Y114.626
X47.924Y114.634
X47.897Y114.642
X47.869Y114.649
X47.843Y114.655
X47.815Y114.661
X47.788Y114.667
X47.761Y114.672
X47.733Y114.677
X47.706Y114.681
X47.678Y114.684
X47.65Y114.687
X47.623Y114.69
X47.595Y114.692
X47.567Y114.694
X47.539Y114.695
X47.511Y114.696
X47.483
X47.456
X47.4Y114.694
X47.372Y114.692
X47.344Y114.69
X47.316Y114.687
X47.289Y114.684
X47.261Y114.681
X47.234Y114.677
X47.206Y114.672
X47.179Y114.667
X47.151Y114.661
X47.124Y114.655
X47.097Y114.649
X47.043Y114.634
X47.017Y114.626
X46.99Y114.618
X46.964Y114.609
X46.937Y114.6
X46.911Y114.59
X46.885Y114.58
X46.86Y114.569
X46.832Y114.557
X46.809Y114.547
X46.788Y114.537
X46.757Y114.521
X46.734Y114.509
X46.709Y114.496
X46.685Y114.482
X46.661Y114.468
X46.637Y114.454
X46.614Y114.439
X46.591Y114.423
X46.568Y114.407
X46.545Y114.391
X46.523Y114.375
X46.5Y114.358
X46.479Y114.34
X46.457Y114.323
X46.436Y114.305
X46.415Y114.286
X46.373Y114.246
X46.354Y114.229
X46.335Y114.209
X46.316Y114.188
X46.297Y114.168
X46.279Y114.147
X46.26Y114.126
X46.243Y114.104
X46.225Y114.083
X46.208Y114.06
X46.192Y114.038
X46.176Y114.015
X46.16Y113.992
X46.144Y113.969
X46.129Y113.946
X46.115Y113.922
X46.101Y113.898
X46.087Y113.874
X46.061Y113.824
X46.048Y113.799
X46.036Y113.774
X46.026Y113.752
X46.013Y113.722
X46.003Y113.698
X45.993Y113.672
X45.983Y113.646
X45.965Y113.593
X45.957Y113.566
X45.941Y113.513
X45.934Y113.486
X45.928Y113.459
X45.922Y113.432
X45.911Y113.377
X45.906Y113.349
X45.902Y113.322
X45.899Y113.294
X45.896Y113.266
X45.893Y113.239
X45.891Y113.211
X45.889Y113.183
X45.888Y113.155
X45.887Y113.128
Y113.1
Y113.077
X45.888Y113.042
X45.889Y113.016
X45.891Y112.988
X45.893Y112.96
X45.896Y112.933
X45.899Y112.905
X45.902Y112.877
X45.906Y112.85
X45.911Y112.822
X45.916Y112.795
X45.922Y112.768
X45.928Y112.74
X45.934Y112.713
X45.941Y112.686
X45.947Y112.665
X45.957Y112.631
X45.965Y112.606
X45.974Y112.58
X45.985Y112.549
X45.993Y112.527
X46.003Y112.501
X46.014Y112.476
X46.025Y112.45
X46.048Y112.4
X46.061Y112.375
X46.074Y112.35
X46.087Y112.326
X46.101Y112.3
X46.115Y112.277
X46.13Y112.253
X46.153Y112.217
X46.177Y112.181
X46.192Y112.161
X46.208Y112.139
X46.225Y112.117
X46.243Y112.095
X46.26Y112.073
X46.278Y112.052
X46.297Y112.031
X46.316Y112.011
X46.354Y111.971
X46.374Y111.951
X46.395Y111.932
X46.415Y111.913
X46.436Y111.895
X46.457Y111.876
X46.479Y111.859
X46.523Y111.824
X46.545Y111.808
X46.568Y111.792
X46.591Y111.776
X46.614Y111.76
X46.637Y111.745
X46.661Y111.731
X46.685Y111.717
X46.709Y111.703
X46.734Y111.69
X46.759Y111.677
X46.784Y111.664
X46.809Y111.652
X46.834Y111.641
X46.885Y111.619
X46.911Y111.609
X46.937Y111.599
X46.964Y111.59
X46.99Y111.581
X47.017Y111.573
X47.043Y111.565
X47.07Y111.557
X47.124Y111.544
X47.151Y111.538
X47.179Y111.532
X47.206Y111.527
X47.234Y111.523
X47.261Y111.518
X47.289Y111.515
X47.316Y111.512
X47.344Y111.509
X47.372Y111.507
X47.4Y111.505
X47.428Y111.504
X47.456Y111.503
X47.483
G0Z1
X54.683Y111.364
G1Z-0.2F5
X54.619Y110.212F10
X54.572Y109.058
X54.545Y107.904
X54.535Y106.743
Y103.19
X54.539Y103.152
X54.541Y103.114
X54.542Y103.076
X54.543Y103.038
Y75.038
X54.542Y74.998
X54.541Y74.958
X54.538Y74.919
X54.535Y74.879
X54.53Y74.839
X54.525Y74.8
X54.519Y74.761
X54.511Y74.722
X54.503Y74.683
X54.493Y74.644
X54.483Y74.606
X54.472Y74.567
X54.46Y74.53
X54.446Y74.492
X54.432Y74.455
X54.417Y74.418
X54.401Y74.382
X54.385Y74.346
X54.367Y74.31
X54.348Y74.275
X54.329Y74.24
X54.308Y74.205
X54.286Y74.171
X54.264Y74.137
X54.24Y74.104
X54.216Y74.072
X54.191Y74.04
X54.165Y74.009
X54.153Y73.994
X54.126Y73.964
X54.106Y73.942
X54.085Y73.921
X54.056Y73.892
X54.027Y73.865
X53.991Y73.833
X53.954Y73.802
X53.927Y73.78
X53.899Y73.759
X53.87Y73.738
X53.841Y73.718
X53.811Y73.699
X53.781Y73.68
X53.753Y73.663
X53.724Y73.647
X53.695Y73.631
X53.658Y73.612
X53.62Y73.594
X53.591Y73.581
X53.561Y73.568
X53.521Y73.552
X53.499Y73.544
X53.458Y73.529
X53.418Y73.516
X53.376Y73.504
X53.333Y73.493
X53.291Y73.483
X53.25Y73.475
X53.21Y73.468
X53.159Y73.46
X53.102Y73.454
X53.069Y73.451
X53.035Y73.449
X53.001Y73.447
X52.952
X52.719
X52.658Y73.436
X52.582Y73.425
X52.503Y73.417
X52.426Y73.412
X52.348Y73.409
X52.309Y73.408
X41.476
X41.436Y73.409
X41.397Y73.41
X41.358Y73.413
X41.318Y73.416
X41.279Y73.421
X41.24Y73.426
X41.201Y73.432
X41.162Y73.44
X41.129Y73.447
X41.086Y73.448
X41.043Y73.45
X41.001Y73.454
X40.958Y73.459
X40.915Y73.464
X40.873Y73.471
X40.83Y73.479
X40.788Y73.489
X40.747Y73.499
X40.712Y73.509
X40.678Y73.519
X40.643Y73.53
X40.61Y73.542
X40.576Y73.555
X40.535Y73.571
X40.494Y73.589
X40.453Y73.608
X40.41Y73.63
X40.38Y73.646
X40.351Y73.663
X40.314Y73.685
X40.279Y73.708
X40.247Y73.729
X40.215Y73.751
X40.185Y73.774
X40.154Y73.798
X40.124Y73.823
X40.095Y73.848
X40.067Y73.874
X40.039Y73.901
X40.012Y73.928
X39.985Y73.956
X39.959Y73.985
X39.934Y74.014
X39.91Y74.044
X39.886Y74.074
X39.863Y74.105
X39.841Y74.137
X39.819Y74.169
X39.799Y74.201
X39.779Y74.234
X39.76Y74.268
X39.741Y74.303
X39.724Y74.337
X39.707Y74.371
X39.692Y74.406
X39.677Y74.441
X39.663Y74.477
X39.65Y74.513
X39.638Y74.549
X39.627Y74.585
X39.616Y74.622
X39.607Y74.659
X39.598Y74.696
X39.59Y74.734
X39.583Y74.771
X39.577Y74.809
X39.572Y74.847
X39.568Y74.885
X39.565Y74.923
X39.563Y74.961
X39.561Y74.999
Y75.038
Y78.974
X39.548Y79.564
X39.542Y80.308
X39.543Y106.763
X39.548Y107.417
X39.565Y108.071
X39.592Y108.724
X39.63Y109.377
X39.679Y110.029
X39.739Y110.68
X39.81Y111.331
X39.891Y111.98
X39.984Y112.627
X40.087Y113.273
X40.2Y113.917
X40.325Y114.56
X40.351Y114.683
X40.38Y114.807
X40.41Y114.93
X40.443Y115.052
X40.478Y115.173
X40.515Y115.295
X40.554Y115.415
X40.595Y115.535
X40.639Y115.654
X40.684Y115.772
X40.731Y115.889
X40.781Y116.006
X40.832Y116.121
X40.885Y116.236
X40.94Y116.35
X40.998Y116.463
X41.057Y116.575
X41.118Y116.686
X41.181Y116.796
X41.246Y116.904
X41.313Y117.012
X41.382Y117.118
X41.452Y117.223
X41.525Y117.327
X41.599Y117.43
X41.675Y117.531
X41.752Y117.631
X41.832Y117.729
X41.913Y117.827
X41.995Y117.922
X42.08Y118.017
X42.166Y118.11
X42.254Y118.201
X42.343Y118.291
X42.433Y118.379
X42.526Y118.466
X42.619Y118.551
X42.714Y118.634
X42.811Y118.716
X42.933Y118.816
X43.057Y118.914
X43.182Y119.009
X43.31Y119.103
X43.439Y119.195
X43.569Y119.284
X43.701Y119.371
X43.834Y119.456
X43.969Y119.538
X44.105Y119.618
X44.243Y119.696
X44.382Y119.771
X44.522Y119.844
X44.663Y119.914
X44.806Y119.983
X44.949Y120.048
X45.094Y120.111
X45.24Y120.172
X45.387Y120.23
X45.534Y120.286
X45.683Y120.339
X45.833Y120.39
X45.983Y120.438
X46.135Y120.483
X46.287Y120.526
X46.439Y120.566
X46.593Y120.604
X46.747Y120.639
X46.901Y120.671
X47.057Y120.7
X47.212Y120.727
X47.368Y120.752
X47.525Y120.773
X47.682Y120.792
X47.839Y120.808
X47.996Y120.822
X48.154Y120.833
X48.311Y120.841
X48.469Y120.846
X48.627Y120.849
X48.785
X48.943Y120.847
X49.101Y120.841
X49.259Y120.833
X49.416Y120.822
X49.574Y120.809
X49.731Y120.793
X49.888Y120.774
X50.031Y120.754
X52.921Y120.335
X52.997Y120.321
X53.074Y120.304
X53.148Y120.286
X53.222Y120.264
X53.296Y120.24
X53.369Y120.213
X53.441Y120.184
X53.511Y120.152
X53.58Y120.118
X53.649Y120.081
X53.716Y120.042
X53.781Y120.001
X53.846Y119.957
X53.908Y119.912
X53.969Y119.864
X54.028Y119.814
X54.085Y119.762
X54.142Y119.707
X54.195Y119.653
X54.247Y119.594
X54.296Y119.535
X54.343Y119.475
X54.39Y119.411
X54.432Y119.347
X54.474Y119.281
X54.512Y119.214
X54.548Y119.146
X54.582Y119.075
X54.613Y119.005
X54.643Y118.933
X54.669Y118.861
X54.693Y118.786
X54.714Y118.712
X54.733Y118.637
X54.749Y118.562
X54.762Y118.485
X54.773Y118.408
X54.781Y118.332
X54.786Y118.253
X54.789Y118.177
Y118.138
Y113.087
X54.788Y112.97
X54.785Y112.853
X54.78Y112.736
X54.774Y112.62
X54.683Y111.364
G0Z1
X46.967Y82.16
G1Z-0.3F5
X47.123Y82.077F10
X47.292Y82.026
X47.468Y82.009
X47.644Y82.026
X47.813Y82.077
X47.969Y82.16
X48.105Y82.273
X48.217Y82.409
X48.301Y82.565
X48.352Y82.734
X48.369Y82.91
X48.352Y83.086
X48.301Y83.255
X48.217Y83.411
X48.105Y83.547
X47.969Y83.659
X47.813Y83.743
X47.644Y83.794
X47.468Y83.811
X47.292Y83.794
X47.123Y83.743
X46.967Y83.659
X46.831Y83.547
X46.719Y83.411
X46.635Y83.255
X46.584Y83.086
X46.567Y82.91
X46.584Y82.734
X46.635Y82.565
X46.719Y82.409
X46.831Y82.273
X46.967Y82.16
G0Z1
X47.468Y97.912
G1Z-0.3F5
X47.644Y97.93F10
X47.813Y97.981
X47.969Y98.064
X48.105Y98.176
X48.217Y98.313
X48.301Y98.469
X48.352Y98.638
X48.369Y98.814
X48.352Y98.99
X48.301Y99.159
X48.217Y99.315
X48.105Y99.451
X47.969Y99.563
X47.813Y99.646
X47.644Y99.698
X47.468Y99.715
X47.292Y99.698
X47.123Y99.646
X46.967Y99.563
X46.831Y99.451
X46.719Y99.315
X46.635Y99.159
X46.584Y98.99
X46.567Y98.814
X46.584Y98.638
X46.635Y98.469
X46.719Y98.313
X46.831Y98.176
X46.967Y98.064
X47.123Y97.981
X47.292Y97.93
X47.468Y97.912
G0Z1
X47.483Y111.503
G1Z-0.3F5
X47.511F10
X47.539Y111.504
X47.567Y111.505
X47.595Y111.507
X47.623Y111.509
X47.65Y111.512
X47.678Y111.515
X47.706Y111.518
X47.733Y111.523
X47.761Y111.527
X47.788Y111.532
X47.815Y111.538
X47.843Y111.544
X47.87Y111.55
X47.897Y111.557
X47.923Y111.565
X47.95Y111.573
X47.977Y111.581
X48.003Y111.59
X48.03Y111.599
X48.082Y111.619
X48.107Y111.63
X48.133Y111.641
X48.158Y111.653
X48.183Y111.664
X48.208Y111.677
X48.233Y111.69
X48.258Y111.703
X48.282Y111.717
X48.306Y111.731
X48.33Y111.746
X48.353Y111.76
X48.376Y111.776
X48.399Y111.792
X48.422Y111.808
X48.467Y111.841
X48.488Y111.859
X48.51Y111.876
X48.531Y111.895
X48.552Y111.913
X48.572Y111.932
X48.593Y111.951
X48.612Y111.971
X48.632Y111.99
X48.651Y112.011
X48.67Y112.031
X48.688Y112.052
X48.707Y112.073
X48.724Y112.095
X48.742Y112.117
X48.758Y112.138
X48.775Y112.161
X48.791Y112.184
X48.807Y112.207
X48.823Y112.23
X48.837Y112.253
X48.852Y112.277
X48.866Y112.301
X48.88Y112.326
X48.893Y112.35
X48.906Y112.375
X48.918Y112.4
X48.93Y112.425
X48.942Y112.45
X48.953Y112.476
X48.964Y112.501
X48.974Y112.527
X48.984Y112.553
X48.993Y112.58
X49.002Y112.606
X49.01Y112.633
X49.018Y112.659
X49.026Y112.686
X49.033Y112.713
X49.039Y112.74
X49.045Y112.767
X49.051Y112.795
X49.056Y112.822
X49.06Y112.85
X49.065Y112.877
X49.068Y112.905
X49.071Y112.933
X49.074Y112.96
X49.076Y112.988
X49.078Y113.016
X49.079Y113.044
X49.08Y113.072
Y113.1
Y113.127
X49.079Y113.155
X49.078Y113.183
X49.076Y113.211
X49.074Y113.239
X49.071Y113.267
X49.068Y113.294
X49.065Y113.322
X49.06Y113.349
X49.056Y113.377
X49.047Y113.423
X49.039Y113.461
X49.028Y113.505
X49.018Y113.542
X49.01Y113.566
X48.993Y113.619
X48.984Y113.646
X48.974Y113.672
X48.956Y113.715
X48.941Y113.751
X48.93Y113.774
X48.918Y113.799
X48.906Y113.824
X48.893Y113.849
X48.88Y113.874
X48.866Y113.898
X48.852Y113.922
X48.837Y113.946
X48.823Y113.969
X48.807Y113.992
X48.791Y114.015
X48.775Y114.038
X48.761Y114.057
X48.741Y114.084
X48.724Y114.104
X48.707Y114.126
X48.688Y114.147
X48.67Y114.168
X48.651Y114.188
X48.632Y114.209
X48.612Y114.229
X48.593Y114.248
X48.572Y114.267
X48.552Y114.286
X48.531Y114.304
X48.51Y114.323
X48.466Y114.358
X48.444Y114.375
X48.399Y114.407
X48.376Y114.423
X48.353Y114.439
X48.33Y114.454
X48.306Y114.468
X48.282Y114.482
X48.257Y114.496
X48.233Y114.509
X48.208Y114.522
X48.183Y114.535
X48.158Y114.547
X48.133Y114.558
X48.107Y114.569
X48.082Y114.58
X48.056Y114.59
X48.029Y114.6
X48.003Y114.609
X47.977Y114.618
X47.95Y114.626
X47.924Y114.634
X47.897Y114.642
X47.869Y114.649
X47.843Y114.655
X47.815Y114.661
X47.788Y114.667
X47.761Y114.672
X47.733Y114.677
X47.706Y114.681
X47.678Y114.684
X47.65Y114.687
X47.623Y114.69
X47.595Y114.692
X47.567Y114.694
X47.539Y114.695
X47.511Y114.696
X47.483
X47.456
X47.4Y114.694
X47.372Y114.692
X47.344Y114.69
X47.316Y114.687
X47.289Y114.684
X47.261Y114.681
X47.234Y114.677
X47.206Y114.672
X47.179Y114.667
X47.151Y114.661
X47.124Y114.655
X47.097Y114.649
X47.043Y114.634
X47.017Y114.626
X46.99Y114.618
X46.964Y114.609
X46.937Y114.6
X46.911Y114.59
X46.885Y114.58
X46.86Y114.569
X46.832Y114.557
X46.809Y114.547
X46.788Y114.537
X46.757Y114.521
X46.734Y114.509
X46.709Y114.496
X46.685Y114.482
X46.661Y114.468
X46.637Y114.454
X46.614Y114.439
X46.591Y114.423
X46.568Y114.407
X46.545Y114.391
X46.523Y114.375
X46.5Y114.358
X46.479Y114.34
X46.457Y114.323
X46.436Y114.305
X46.415Y114.286
X46.373Y114.246
X46.354Y114.229
X46.335Y114.209
X46.316Y114.188
X46.297Y114.168
X46.279Y114.147
X46.26Y114.126
X46.243Y114.104
X46.225Y114.083
X46.208Y114.06
X46.192Y114.038
X46.176Y114.015
X46.16Y113.992
X46.144Y113.969
X46.129Y113.946
X46.115Y113.922
X46.101Y113.898
X46.087Y113.874
X46.061Y113.824
X46.048Y113.799
X46.036Y113.774
X46.026Y113.752
X46.013Y113.722
X46.003Y113.698
X45.993Y113.672
X45.983Y113.646
X45.965Y113.593
X45.957Y113.566
X45.941Y113.513
X45.934Y113.486
X45.928Y113.459
X45.922Y113.432
X45.911Y113.377
X45.906Y113.349
X45.902Y113.322
X45.899Y113.294
X45.896Y113.266
X45.893Y113.239
X45.891Y113.211
X45.889Y113.183
X45.888Y113.155
X45.887Y113.128
Y113.1
Y113.077
X45.888Y113.042
X45.889Y113.016
X45.891Y112.988
X45.893Y112.96
X45.896Y112.933
X45.899Y112.905
X45.902Y112.877
X45.906Y112.85
X45.911Y112.822
X45.916Y112.795
X45.922Y112.768
X45.928Y112.74
X45.934Y112.713
X45.941Y112.686
X45.947Y112.665
X45.957Y112.631
X45.965Y112.606
X45.974Y112.58
X45.985Y112.549
X45.993Y112.527
X46.003Y112.501
X46.014Y112.476
X46.025Y112.45
X46.048Y112.4
X46.061Y112.375
X46.074Y112.35
X46.087Y112.326
X46.101Y112.3
X46.115Y112.277
X46.13Y112.253
X46.153Y112.217
X46.177Y112.181
X46.192Y112.161
X46.208Y112.139
X46.225Y112.117
X46.243Y112.095
X46.26Y112.073
X46.278Y112.052
X46.297Y112.031
X46.316Y112.011
X46.354Y111.971
X46.374Y111.951
X46.395Y111.932
X46.415Y111.913
X46.436Y111.895
X46.457Y111.876
X46.479Y111.859
X46.523Y111.824
X46.545Y111.808
X46.568Y111.792
X46.591Y111.776
X46.614Y111.76
X46.637Y111.745
X46.661Y111.731
X46.685Y111.717
X46.709Y111.703
X46.734Y111.69
X46.759Y111.677
X46.784Y111.664
X46.809Y111.652
X46.834Y111.641
X46.885Y111.619
X46.911Y111.609
X46.937Y111.599
X46.964Y111.59
X46.99Y111.581
X47.017Y111.573
X47.043Y111.565
X47.07Y111.557
X47.124Y111.544
X47.151Y111.538
X47.179Y111.532
X47.206Y111.527
X47.234Y111.523
X47.261Y111.518
X47.289Y111.515
X47.316Y111.512
X47.344Y111.509
X47.372Y111.507
X47.4Y111.505
X47.428Y111.504
X47.456Y111.503
X47.483
G0Z1
X54.683Y111.364
G1Z-0.3F5
X54.619Y110.212F10
X54.572Y109.058
X54.545Y107.904
X54.535Y106.743
Y103.19
X54.539Y103.152
X54.541Y103.114
X54.542Y103.076
X54.543Y103.038
Y75.038
X54.542Y74.998
X54.541Y74.958
X54.538Y74.919
X54.535Y74.879
X54.53Y74.839
X54.525Y74.8
X54.519Y74.761
X54.511Y74.722
X54.503Y74.683
X54.493Y74.644
X54.483Y74.606
X54.472Y74.567
X54.46Y74.53
X54.446Y74.492
X54.432Y74.455
X54.417Y74.418
X54.401Y74.382
X54.385Y74.346
X54.367Y74.31
X54.348Y74.275
X54.329Y74.24
X54.308Y74.205
X54.286Y74.171
X54.264Y74.137
X54.24Y74.104
X54.216Y74.072
X54.191Y74.04
X54.165Y74.009
X54.153Y73.994
X54.126Y73.964
X54.106Y73.942
X54.085Y73.921
X54.056Y73.892
X54.027Y73.865
X53.991Y73.833
X53.954Y73.802
X53.927Y73.78
X53.899Y73.759
X53.87Y73.738
X53.841Y73.718
X53.811Y73.699
X53.781Y73.68
X53.753Y73.663
X53.724Y73.647
X53.695Y73.631
X53.658Y73.612
X53.62Y73.594
X53.591Y73.581
X53.561Y73.568
X53.521Y73.552
X53.499Y73.544
X53.458Y73.529
X53.418Y73.516
X53.376Y73.504
X53.333Y73.493
X53.291Y73.483
X53.25Y73.475
X53.21Y73.468
X53.159Y73.46
X53.102Y73.454
X53.069Y73.451
X53.035Y73.449
X53.001Y73.447
X52.952
X52.719
X52.658Y73.436
X52.582Y73.425
X52.503Y73.417
X52.426Y73.412
X52.348Y73.409
X52.309Y73.408
X41.476
X41.436Y73.409
X41.397Y73.41
X41.358Y73.413
X41.318Y73.416
X41.279Y73.421
X41.24Y73.426
X41.201Y73.432
X41.162Y73.44
X41.129Y73.447
X41.086Y73.448
X41.043Y73.45
X41.001Y73.454
X40.958Y73.459
X40.915Y73.464
X40.873Y73.471
X40.83Y73.479
X40.788Y73.489
X40.747Y73.499
X40.712Y73.509
X40.678Y73.519
X40.643Y73.53
X40.61Y73.542
X40.576Y73.555
X40.535Y73.571
X40.494Y73.589
X40.453Y73.608
X40.41Y73.63
X40.38Y73.646
X40.351Y73.663
X40.314Y73.685
X40.279Y73.708
X40.247Y73.729
X40.215Y73.751
X40.185Y73.774
X40.154Y73.798
X40.124Y73.823
X40.095Y73.848
X40.067Y73.874
X40.039Y73.901
X40.012Y73.928
X39.985Y73.956
X39.959Y73.985
X39.934Y74.014
X39.91Y74.044
X39.886Y74.074
X39.863Y74.105
X39.841Y74.137
X39.819Y74.169
X39.799Y74.201
X39.779Y74.234
X39.76Y74.268
X39.741Y74.303
X39.724Y74.337
X39.707Y74.371
X39.692Y74.406
X39.677Y74.441
X39.663Y74.477
X39.65Y74.513
X39.638Y74.549
X39.627Y74.585
X39.616Y74.622
X39.607Y74.659
X39.598Y74.696
X39.59Y74.734
X39.583Y74.771
X39.577Y74.809
X39.572Y74.847
X39.568Y74.885
X39.565Y74.923
X39.563Y74.961
X39.561Y74.999
Y75.038
Y78.974
X39.548Y79.564
X39.542Y80.308
X39.543Y106.763
X39.548Y107.417
X39.565Y108.071
X39.592Y108.724
X39.63Y109.377
X39.679Y110.029
X39.739Y110.68
X39.81Y111.331
X39.891Y111.98
X39.984Y112.627
X40.087Y113.273
X40.2Y113.917
X40.325Y114.56
X40.351Y114.683
X40.38Y114.807
X40.41Y114.93
X40.443Y115.052
X40.478Y115.173
X40.515Y115.295
X40.554Y115.415
X40.595Y115.535
X40.639Y115.654
X40.684Y115.772
X40.731Y115.889
X40.781Y116.006
X40.832Y116.121
X40.885Y116.236
X40.94Y116.35
X40.998Y116.463
X41.057Y116.575
X41.118Y116.686
X41.181Y116.796
X41.246Y116.904
X41.313Y117.012
X41.382Y117.118
X41.452Y117.223
X41.525Y117.327
X41.599Y117.43
X41.675Y117.531
X41.752Y117.631
X41.832Y117.729
X41.913Y117.827
X41.995Y117.922
X42.08Y118.017
X42.166Y118.11
X42.254Y118.201
X42.343Y118.291
X42.433Y118.379
X42.526Y118.466
X42.619Y118.551
X42.714Y118.634
X42.811Y118.716
X42.933Y118.816
X43.057Y118.914
X43.182Y119.009
X43.31Y119.103
X43.439Y119.195
X43.569Y119.284
X43.701Y119.371
X43.834Y119.456
X43.969Y119.538
X44.105Y119.618
X44.243Y119.696
X44.382Y119.771
X44.522Y119.844
X44.663Y119.914
X44.806Y119.983
X44.949Y120.048
X45.094Y120.111
X45.24Y120.172
X45.387Y120.23
X45.534Y120.286
X45.683Y120.339
X45.833Y120.39
X45.983Y120.438
X46.135Y120.483
X46.287Y120.526
X46.439Y120.566
X46.593Y120.604
X46.747Y120.639
X46.901Y120.671
X47.057Y120.7
X47.212Y120.727
X47.368Y120.752
X47.525Y120.773
X47.682Y120.792
X47.839Y120.808
X47.996Y120.822
X48.154Y120.833
X48.311Y120.841
X48.469Y120.846
X48.627Y120.849
X48.785
X48.943Y120.847
X49.101Y120.841
X49.259Y120.833
X49.416Y120.822
X49.574Y120.809
X49.731Y120.793
X49.888Y120.774
X50.031Y120.754
X52.921Y120.335
X52.997Y120.321
X53.074Y120.304
X53.148Y120.286
X53.222Y120.264
X53.296Y120.24
X53.369Y120.213
X53.441Y120.184
X53.511Y120.152
X53.58Y120.118
X53.649Y120.081
X53.716Y120.042
X53.781Y120.001
X53.846Y119.957
X53.908Y119.912
X53.969Y119.864
X54.028Y119.814
X54.085Y119.762
X54.142Y119.707
X54.195Y119.653
X54.247Y119.594
X54.296Y119.535
X54.343Y119.475
X54.39Y119.411
X54.432Y119.347
X54.474Y119.281
X54.512Y119.214
X54.548Y119.146
X54.582Y119.075
X54.613Y119.005
X54.643Y118.933
X54.669Y118.861
X54.693Y118.786
X54.714Y118.712
X54.733Y118.637
X54.749Y118.562
X54.762Y118.485
X54.773Y118.408
X54.781Y118.332
X54.786Y118.253
X54.789Y118.177
Y118.138
Y113.087
X54.788Y112.97
X54.785Y112.853
X54.78Y112.736
X54.774Y112.62
X54.683Y111.364
G0Z1
X46.967Y82.16
G1Z-0.4F5
X47.123Y82.077F10
X47.292Y82.026
X47.468Y82.009
X47.644Y82.026
X47.813Y82.077
X47.969Y82.16
X48.105Y82.273
X48.217Y82.409
X48.301Y82.565
X48.352Y82.734
X48.369Y82.91
X48.352Y83.086
X48.301Y83.255
X48.217Y83.411
X48.105Y83.547
X47.969Y83.659
X47.813Y83.743
X47.644Y83.794
X47.468Y83.811
X47.292Y83.794
X47.123Y83.743
X46.967Y83.659
X46.831Y83.547
X46.719Y83.411
X46.635Y83.255
X46.584Y83.086
X46.567Y82.91
X46.584Y82.734
X46.635Y82.565
X46.719Y82.409
X46.831Y82.273
X46.967Y82.16
G0Z1
X47.468Y97.912
G1Z-0.4F5
X47.644Y97.93F10
X47.813Y97.981
X47.969Y98.064
X48.105Y98.176
X48.217Y98.313
X48.301Y98.469
X48.352Y98.638
X48.369Y98.814
X48.352Y98.99
X48.301Y99.159
X48.217Y99.315
X48.105Y99.451
X47.969Y99.563
X47.813Y99.646
X47.644Y99.698
X47.468Y99.715
X47.292Y99.698
X47.123Y99.646
X46.967Y99.563
X46.831Y99.451
X46.719Y99.315
X46.635Y99.159
X46.584Y98.99
X46.567Y98.814
X46.584Y98.638
X46.635Y98.469
X46.719Y98.313
X46.831Y98.176
X46.967Y98.064
X47.123Y97.981
X47.292Y97.93
X47.468Y97.912
G0Z1
X47.483Y111.503
G1Z-0.4F5
X47.511F10
X47.539Y111.504
X47.567Y111.505
X47.595Y111.507
X47.623Y111.509
X47.65Y111.512
X47.678Y111.515
X47.706Y111.518
X47.733Y111.523
X47.761Y111.527
X47.788Y111.532
X47.815Y111.538
X47.843Y111.544
X47.87Y111.55
X47.897Y111.557
X47.923Y111.565
X47.95Y111.573
X47.977Y111.581
X48.003Y111.59
X48.03Y111.599
X48.082Y111.619
X48.107Y111.63
X48.133Y111.641
X48.158Y111.653
X48.183Y111.664
X48.208Y111.677
X48.233Y111.69
X48.258Y111.703
X48.282Y111.717
X48.306Y111.731
X48.33Y111.746
X48.353Y111.76
X48.376Y111.776
X48.399Y111.792
X48.422Y111.808
X48.467Y111.841
X48.488Y111.859
X48.51Y111.876
X48.531Y111.895
X48.552Y111.913
X48.572Y111.932
X48.593Y111.951
X48.612Y111.971
X48.632Y111.99
X48.651Y112.011
X48.67Y112.031
X48.688Y112.052
X48.707Y112.073
X48.724Y112.095
X48.742Y112.117
X48.758Y112.138
X48.775Y112.161
X48.791Y112.184
X48.807Y112.207
X48.823Y112.23
X48.837Y112.253
X48.852Y112.277
X48.866Y112.301
X48.88Y112.326
X48.893Y112.35
X48.906Y112.375
X48.918Y112.4
X48.93Y112.425
X48.942Y112.45
X48.953Y112.476
X48.964Y112.501
X48.974Y112.527
X48.984Y112.553
X48.993Y112.58
X49.002Y112.606
X49.01Y112.633
X49.018Y112.659
X49.026Y112.686
X49.033Y112.713
X49.039Y112.74
X49.045Y112.767
X49.051Y112.795
X49.056Y112.822
X49.06Y112.85
X49.065Y112.877
X49.068Y112.905
X49.071Y112.933
X49.074Y112.96
X49.076Y112.988
X49.078Y113.016
X49.079Y113.044
X49.08Y113.072
Y113.1
Y113.127
X49.079Y113.155
X49.078Y113.183
X49.076Y113.211
X49.074Y113.239
X49.071Y113.267
X49.068Y113.294
X49.065Y113.322
X49.06Y113.349
X49.056Y113.377
X49.047Y113.423
X49.039Y113.461
X49.028Y113.505
X49.018Y113.542
X49.01Y113.566
X48.993Y113.619
X48.984Y113.646
X48.974Y113.672
X48.956Y113.715
X48.941Y113.751
X48.93Y113.774
X48.918Y113.799
X48.906Y113.824
X48.893Y113.849
X48.88Y113.874
X48.866Y113.898
X48.852Y113.922
X48.837Y113.946
X48.823Y113.969
X48.807Y113.992
X48.791Y114.015
X48.775Y114.038
X48.761Y114.057
X48.741Y114.084
X48.724Y114.104
X48.707Y114.126
X48.688Y114.147
X48.67Y114.168
X48.651Y114.188
X48.632Y114.209
X48.612Y114.229
X48.593Y114.248
X48.572Y114.267
X48.552Y114.286
X48.531Y114.304
X48.51Y114.323
X48.466Y114.358
X48.444Y114.375
X48.399Y114.407
X48.376Y114.423
X48.353Y114.439
X48.33Y114.454
X48.306Y114.468
X48.282Y114.482
X48.257Y114.496
X48.233Y114.509
X48.208Y114.522
X48.183Y114.535
X48.158Y114.547
X48.133Y114.558
X48.107Y114.569
X48.082Y114.58
X48.056Y114.59
X48.029Y114.6
X48.003Y114.609
X47.977Y114.618
X47.95Y114.626
X47.924Y114.634
X47.897Y114.642
X47.869Y114.649
X47.843Y114.655
X47.815Y114.661
X47.788Y114.667
X47.761Y114.672
X47.733Y114.677
X47.706Y114.681
X47.678Y114.684
X47.65Y114.687
X47.623Y114.69
X47.595Y114.692
X47.567Y114.694
X47.539Y114.695
X47.511Y114.696
X47.483
X47.456
X47.4Y114.694
X47.372Y114.692
X47.344Y114.69
X47.316Y114.687
X47.289Y114.684
X47.261Y114.681
X47.234Y114.677
X47.206Y114.672
X47.179Y114.667
X47.151Y114.661
X47.124Y114.655
X47.097Y114.649
X47.043Y114.634
X47.017Y114.626
X46.99Y114.618
X46.964Y114.609
X46.937Y114.6
X46.911Y114.59
X46.885Y114.58
X46.86Y114.569
X46.832Y114.557
X46.809Y114.547
X46.788Y114.537
X46.757Y114.521
X46.734Y114.509
X46.709Y114.496
X46.685Y114.482
X46.661Y114.468
X46.637Y114.454
X46.614Y114.439
X46.591Y114.423
X46.568Y114.407
X46.545Y114.391
X46.523Y114.375
X46.5Y114.358
X46.479Y114.34
X46.457Y114.323
X46.436Y114.305
X46.415Y114.286
X46.373Y114.246
X46.354Y114.229
X46.335Y114.209
X46.316Y114.188
X46.297Y114.168
X46.279Y114.147
X46.26Y114.126
X46.243Y114.104
X46.225Y114.083
X46.208Y114.06
X46.192Y114.038
X46.176Y114.015
X46.16Y113.992
X46.144Y113.969
X46.129Y113.946
X46.115Y113.922
X46.101Y113.898
X46.087Y113.874
X46.061Y113.824
X46.048Y113.799
X46.036Y113.774
X46.026Y113.752
X46.013Y113.722
X46.003Y113.698
X45.993Y113.672
X45.983Y113.646
X45.965Y113.593
X45.957Y113.566
X45.941Y113.513
X45.934Y113.486
X45.928Y113.459
X45.922Y113.432
X45.911Y113.377
X45.906Y113.349
X45.902Y113.322
X45.899Y113.294
X45.896Y113.266
X45.893Y113.239
X45.891Y113.211
X45.889Y113.183
X45.888Y113.155
X45.887Y113.128
Y113.1
Y113.077
X45.888Y113.042
X45.889Y113.016
X45.891Y112.988
X45.893Y112.96
X45.896Y112.933
X45.899Y112.905
X45.902Y112.877
X45.906Y112.85
X45.911Y112.822
X45.916Y112.795
X45.922Y112.768
X45.928Y112.74
X45.934Y112.713
X45.941Y112.686
X45.947Y112.665
X45.957Y112.631
X45.965Y112.606
X45.974Y112.58
X45.985Y112.549
X45.993Y112.527
X46.003Y112.501
X46.014Y112.476
X46.025Y112.45
X46.048Y112.4
X46.061Y112.375
X46.074Y112.35
X46.087Y112.326
X46.101Y112.3
X46.115Y112.277
X46.13Y112.253
X46.153Y112.217
X46.177Y112.181
X46.192Y112.161
X46.208Y112.139
X46.225Y112.117
X46.243Y112.095
X46.26Y112.073
X46.278Y112.052
X46.297Y112.031
X46.316Y112.011
X46.354Y111.971
X46.374Y111.951
X46.395Y111.932
X46.415Y111.913
X46.436Y111.895
X46.457Y111.876
X46.479Y111.859
X46.523Y111.824
X46.545Y111.808
X46.568Y111.792
X46.591Y111.776
X46.614Y111.76
X46.637Y111.745
X46.661Y111.731
X46.685Y111.717
X46.709Y111.703
X46.734Y111.69
X46.759Y111.677
X46.784Y111.664
X46.809Y111.652
X46.834Y111.641
X46.885Y111.619
X46.911Y111.609
X46.937Y111.599
X46.964Y111.59
X46.99Y111.581
X47.017Y111.573
X47.043Y111.565
X47.07Y111.557
X47.124Y111.544
X47.151Y111.538
X47.179Y111.532
X47.206Y111.527
X47.234Y111.523
X47.261Y111.518
X47.289Y111.515
X47.316Y111.512
X47.344Y111.509
X47.372Y111.507
X47.4Y111.505
X47.428Y111.504
X47.456Y111.503
X47.483
G0Z1
X54.683Y111.364
G1Z-0.4F5
X54.619Y110.212F10
X54.572Y109.058
X54.545Y107.904
X54.535Y106.743
Y103.19
X54.539Y103.152
X54.541Y103.114
X54.542Y103.076
X54.543Y103.038
Y75.038
X54.542Y74.998
X54.541Y74.958
X54.538Y74.919
X54.535Y74.879
X54.53Y74.839
X54.525Y74.8
X54.519Y74.761
X54.511Y74.722
X54.503Y74.683
X54.493Y74.644
X54.483Y74.606
X54.472Y74.567
X54.46Y74.53
X54.446Y74.492
X54.432Y74.455
X54.417Y74.418
X54.401Y74.382
X54.385Y74.346
X54.367Y74.31
X54.348Y74.275
X54.329Y74.24
X54.308Y74.205
X54.286Y74.171
X54.264Y74.137
X54.24Y74.104
X54.216Y74.072
X54.191Y74.04
X54.165Y74.009
X54.153Y73.994
X54.126Y73.964
X54.106Y73.942
X54.085Y73.921
X54.056Y73.892
X54.027Y73.865
X53.991Y73.833
X53.954Y73.802
X53.927Y73.78
X53.899Y73.759
X53.87Y73.738
X53.841Y73.718
X53.811Y73.699
X53.781Y73.68
X53.753Y73.663
X53.724Y73.647
X53.695Y73.631
X53.658Y73.612
X53.62Y73.594
X53.591Y73.581
X53.561Y73.568
X53.521Y73.552
X53.499Y73.544
X53.458Y73.529
X53.418Y73.516
X53.376Y73.504
X53.333Y73.493
X53.291Y73.483
X53.25Y73.475
X53.21Y73.468
X53.159Y73.46
X53.102Y73.454
X53.069Y73.451
X53.035Y73.449
X53.001Y73.447
X52.952
X52.719
X52.658Y73.436
X52.582Y73.425
X52.503Y73.417
X52.426Y73.412
X52.348Y73.409
X52.309Y73.408
X41.476
X41.436Y73.409
X41.397Y73.41
X41.358Y73.413
X41.318Y73.416
X41.279Y73.421
X41.24Y73.426
X41.201Y73.432
X41.162Y73.44
X41.129Y73.447
X41.086Y73.448
X41.043Y73.45
X41.001Y73.454
X40.958Y73.459
X40.915Y73.464
X40.873Y73.471
X40.83Y73.479
X40.788Y73.489
X40.747Y73.499
X40.712Y73.509
X40.678Y73.519
X40.643Y73.53
X40.61Y73.542
X40.576Y73.555
X40.535Y73.571
X40.494Y73.589
X40.453Y73.608
X40.41Y73.63
X40.38Y73.646
X40.351Y73.663
X40.314Y73.685
X40.279Y73.708
X40.247Y73.729
X40.215Y73.751
X40.185Y73.774
X40.154Y73.798
X40.124Y73.823
X40.095Y73.848
X40.067Y73.874
X40.039Y73.901
X40.012Y73.928
X39.985Y73.956
X39.959Y73.985
X39.934Y74.014
X39.91Y74.044
X39.886Y74.074
X39.863Y74.105
X39.841Y74.137
X39.819Y74.169
X39.799Y74.201
X39.779Y74.234
X39.76Y74.268
X39.741Y74.303
X39.724Y74.337
X39.707Y74.371
X39.692Y74.406
X39.677Y74.441
X39.663Y74.477
X39.65Y74.513
X39.638Y74.549
X39.627Y74.585
X39.616Y74.622
X39.607Y74.659
X39.598Y74.696
X39.59Y74.734
X39.583Y74.771
X39.577Y74.809
X39.572Y74.847
X39.568Y74.885
X39.565Y74.923
X39.563Y74.961
X39.561Y74.999
Y75.038
Y78.974
X39.548Y79.564
X39.542Y80.308
X39.543Y106.763
X39.548Y107.417
X39.565Y108.071
X39.592Y108.724
X39.63Y109.377
X39.679Y110.029
X39.739Y110.68
X39.81Y111.331
X39.891Y111.98
X39.984Y112.627
X40.087Y113.273
X40.2Y113.917
X40.325Y114.56
X40.351Y114.683
X40.38Y114.807
X40.41Y114.93
X40.443Y115.052
X40.478Y115.173
X40.515Y115.295
X40.554Y115.415
X40.595Y115.535
X40.639Y115.654
X40.684Y115.772
X40.731Y115.889
X40.781Y116.006
X40.832Y116.121
X40.885Y116.236
X40.94Y116.35
X40.998Y116.463
X41.057Y116.575
X41.118Y116.686
X41.181Y116.796
X41.246Y116.904
X41.313Y117.012
X41.382Y117.118
X41.452Y117.223
X41.525Y117.327
X41.599Y117.43
X41.675Y117.531
X41.752Y117.631
X41.832Y117.729
X41.913Y117.827
X41.995Y117.922
X42.08Y118.017
X42.166Y118.11
X42.254Y118.201
X42.343Y118.291
X42.433Y118.379
X42.526Y118.466
X42.619Y118.551
X42.714Y118.634
X42.811Y118.716
X42.933Y118.816
X43.057Y118.914
X43.182Y119.009
X43.31Y119.103
X43.439Y119.195
X43.569Y119.284
X43.701Y119.371
X43.834Y119.456
X43.969Y119.538
X44.105Y119.618
X44.243Y119.696
X44.382Y119.771
X44.522Y119.844
X44.663Y119.914
X44.806Y119.983
X44.949Y120.048
X45.094Y120.111
X45.24Y120.172
X45.387Y120.23
X45.534Y120.286
X45.683Y120.339
X45.833Y120.39
X45.983Y120.438
X46.135Y120.483
X46.287Y120.526
X46.439Y120.566
X46.593Y120.604
X46.747Y120.639
X46.901Y120.671
X47.057Y120.7
X47.212Y120.727
X47.368Y120.752
X47.525Y120.773
X47.682Y120.792
X47.839Y120.808
X47.996Y120.822
X48.154Y120.833
X48.311Y120.841
X48.469Y120.846
X48.627Y120.849
X48.785
X48.943Y120.847
X49.101Y120.841
X49.259Y120.833
X49.416Y120.822
X49.574Y120.809
X49.731Y120.793
X49.888Y120.774
X50.031Y120.754
X52.921Y120.335
X52.997Y120.321
X53.074Y120.304
X53.148Y120.286
X53.222Y120.264
X53.296Y120.24
X53.369Y120.213
X53.441Y120.184
X53.511Y120.152
X53.58Y120.118
X53.649Y120.081
X53.716Y120.042
X53.781Y120.001
X53.846Y119.957
X53.908Y119.912
X53.969Y119.864
X54.028Y119.814
X54.085Y119.762
X54.142Y119.707
X54.195Y119.653
X54.247Y119.594
X54.296Y119.535
X54.343Y119.475
X54.39Y119.411
X54.432Y119.347
X54.474Y119.281
X54.512Y119.214
X54.548Y119.146
X54.582Y119.075
X54.613Y119.005
X54.643Y118.933
X54.669Y118.861
X54.693Y118.786
X54.714Y118.712
X54.733Y118.637
X54.749Y118.562
X54.762Y118.485
X54.773Y118.408
X54.781Y118.332
X54.786Y118.253
X54.789Y118.177
Y118.138
Y113.087
X54.788Y112.97
X54.785Y112.853
X54.78Y112.736
X54.774Y112.62
X54.683Y111.364
G0Z1
X46.967Y82.16
G1Z-0.5F5
X47.123Y82.077F10
X47.292Y82.026
X47.468Y82.009
X47.644Y82.026
X47.813Y82.077
X47.969Y82.16
X48.105Y82.273
X48.217Y82.409
X48.301Y82.565
X48.352Y82.734
X48.369Y82.91
X48.352Y83.086
X48.301Y83.255
X48.217Y83.411
X48.105Y83.547
X47.969Y83.659
X47.813Y83.743
X47.644Y83.794
X47.468Y83.811
X47.292Y83.794
X47.123Y83.743
X46.967Y83.659
X46.831Y83.547
X46.719Y83.411
X46.635Y83.255
X46.584Y83.086
X46.567Y82.91
X46.584Y82.734
X46.635Y82.565
X46.719Y82.409
X46.831Y82.273
X46.967Y82.16
G0Z1
X47.468Y97.912
G1Z-0.5F5
X47.644Y97.93F10
X47.813Y97.981
X47.969Y98.064
X48.105Y98.176
X48.217Y98.313
X48.301Y98.469
X48.352Y98.638
X48.369Y98.814
X48.352Y98.99
X48.301Y99.159
X48.217Y99.315
X48.105Y99.451
X47.969Y99.563
X47.813Y99.646
X47.644Y99.698
X47.468Y99.715
X47.292Y99.698
X47.123Y99.646
X46.967Y99.563
X46.831Y99.451
X46.719Y99.315
X46.635Y99.159
X46.584Y98.99
X46.567Y98.814
X46.584Y98.638
X46.635Y98.469
X46.719Y98.313
X46.831Y98.176
X46.967Y98.064
X47.123Y97.981
X47.292Y97.93
X47.468Y97.912
G0Z1
X47.483Y111.503
G1Z-0.5F5
X47.511F10
X47.539Y111.504
X47.567Y111.505
X47.595Y111.507
X47.623Y111.509
X47.65Y111.512
X47.678Y111.515
X47.706Y111.518
X47.733Y111.523
X47.761Y111.527
X47.788Y111.532
X47.815Y111.538
X47.843Y111.544
X47.87Y111.55
X47.897Y111.557
X47.923Y111.565
X47.95Y111.573
X47.977Y111.581
X48.003Y111.59
X48.03Y111.599
X48.082Y111.619
X48.107Y111.63
X48.133Y111.641
X48.158Y111.653
X48.183Y111.664
X48.208Y111.677
X48.233Y111.69
X48.258Y111.703
X48.282Y111.717
X48.306Y111.731
X48.33Y111.746
X48.353Y111.76
X48.376Y111.776
X48.399Y111.792
X48.422Y111.808
X48.467Y111.841
X48.488Y111.859
X48.51Y111.876
X48.531Y111.895
X48.552Y111.913
X48.572Y111.932
X48.593Y111.951
X48.612Y111.971
X48.632Y111.99
X48.651Y112.011
X48.67Y112.031
X48.688Y112.052
X48.707Y112.073
X48.724Y112.095
X48.742Y112.117
X48.758Y112.138
X48.775Y112.161
X48.791Y112.184
X48.807Y112.207
X48.823Y112.23
X48.837Y112.253
X48.852Y112.277
X48.866Y112.301
X48.88Y112.326
X48.893Y112.35
X48.906Y112.375
X48.918Y112.4
X48.93Y112.425
X48.942Y112.45
X48.953Y112.476
X48.964Y112.501
X48.974Y112.527
X48.984Y112.553
X48.993Y112.58
X49.002Y112.606
X49.01Y112.633
X49.018Y112.659
X49.026Y112.686
X49.033Y112.713
X49.039Y112.74
X49.045Y112.767
X49.051Y112.795
X49.056Y112.822
X49.06Y112.85
X49.065Y112.877
X49.068Y112.905
X49.071Y112.933
X49.074Y112.96
X49.076Y112.988
X49.078Y113.016
X49.079Y113.044
X49.08Y113.072
Y113.1
Y113.127
X49.079Y113.155
X49.078Y113.183
X49.076Y113.211
X49.074Y113.239
X49.071Y113.267
X49.068Y113.294
X49.065Y113.322
X49.06Y113.349
X49.056Y113.377
X49.047Y113.423
X49.039Y113.461
X49.028Y113.505
X49.018Y113.542
X49.01Y113.566
X48.993Y113.619
X48.984Y113.646
X48.974Y113.672
X48.956Y113.715
X48.941Y113.751
X48.93Y113.774
X48.918Y113.799
X48.906Y113.824
X48.893Y113.849
X48.88Y113.874
X48.866Y113.898
X48.852Y113.922
X48.837Y113.946
X48.823Y113.969
X48.807Y113.992
X48.791Y114.015
X48.775Y114.038
X48.761Y114.057
X48.741Y114.084
X48.724Y114.104
X48.707Y114.126
X48.688Y114.147
X48.67Y114.168
X48.651Y114.188
X48.632Y114.209
X48.612Y114.229
X48.593Y114.248
X48.572Y114.267
X48.552Y114.286
X48.531Y114.304
X48.51Y114.323
X48.466Y114.358
X48.444Y114.375
X48.399Y114.407
X48.376Y114.423
X48.353Y114.439
X48.33Y114.454
X48.306Y114.468
X48.282Y114.482
X48.257Y114.496
X48.233Y114.509
X48.208Y114.522
X48.183Y114.535
X48.158Y114.547
X48.133Y114.558
X48.107Y114.569
X48.082Y114.58
X48.056Y114.59
X48.029Y114.6
X48.003Y114.609
X47.977Y114.618
X47.95Y114.626
X47.924Y114.634
X47.897Y114.642
X47.869Y114.649
X47.843Y114.655
X47.815Y114.661
X47.788Y114.667
X47.761Y114.672
X47.733Y114.677
X47.706Y114.681
X47.678Y114.684
X47.65Y114.687
X47.623Y114.69
X47.595Y114.692
X47.567Y114.694
X47.539Y114.695
X47.511Y114.696
X47.483
X47.456
X47.4Y114.694
X47.372Y114.692
X47.344Y114.69
X47.316Y114.687
X47.289Y114.684
X47.261Y114.681
X47.234Y114.677
X47.206Y114.672
X47.179Y114.667
X47.151Y114.661
X47.124Y114.655
X47.097Y114.649
X47.043Y114.634
X47.017Y114.626
X46.99Y114.618
X46.964Y114.609
X46.937Y114.6
X46.911Y114.59
X46.885Y114.58
X46.86Y114.569
X46.832Y114.557
X46.809Y114.547
X46.788Y114.537
X46.757Y114.521
X46.734Y114.509
X46.709Y114.496
X46.685Y114.482
X46.661Y114.468
X46.637Y114.454
X46.614Y114.439
X46.591Y114.423
X46.568Y114.407
X46.545Y114.391
X46.523Y114.375
X46.5Y114.358
X46.479Y114.34
X46.457Y114.323
X46.436Y114.305
X46.415Y114.286
X46.373Y114.246
X46.354Y114.229
X46.335Y114.209
X46.316Y114.188
X46.297Y114.168
X46.279Y114.147
X46.26Y114.126
X46.243Y114.104
X46.225Y114.083
X46.208Y114.06
X46.192Y114.038
X46.176Y114.015
X46.16Y113.992
X46.144Y113.969
X46.129Y113.946
X46.115Y113.922
X46.101Y113.898
X46.087Y113.874
X46.061Y113.824
X46.048Y113.799
X46.036Y113.774
X46.026Y113.752
X46.013Y113.722
X46.003Y113.698
X45.993Y113.672
X45.983Y113.646
X45.965Y113.593
X45.957Y113.566
X45.941Y113.513
X45.934Y113.486
X45.928Y113.459
X45.922Y113.432
X45.911Y113.377
X45.906Y113.349
X45.902Y113.322
X45.899Y113.294
X45.896Y113.266
X45.893Y113.239
X45.891Y113.211
X45.889Y113.183
X45.888Y113.155
X45.887Y113.128
Y113.1
Y113.077
X45.888Y113.042
X45.889Y113.016
X45.891Y112.988
X45.893Y112.96
X45.896Y112.933
X45.899Y112.905
X45.902Y112.877
X45.906Y112.85
X45.911Y112.822
X45.916Y112.795
X45.922Y112.768
X45.928Y112.74
X45.934Y112.713
X45.941Y112.686
X45.947Y112.665
X45.957Y112.631
X45.965Y112.606
X45.974Y112.58
X45.985Y112.549
X45.993Y112.527
X46.003Y112.501
X46.014Y112.476
X46.025Y112.45
X46.048Y112.4
X46.061Y112.375
X46.074Y112.35
X46.087Y112.326
X46.101Y112.3
X46.115Y112.277
X46.13Y112.253
X46.153Y112.217
X46.177Y112.181
X46.192Y112.161
X46.208Y112.139
X46.225Y112.117
X46.243Y112.095
X46.26Y112.073
X46.278Y112.052
X46.297Y112.031
X46.316Y112.011
X46.354Y111.971
X46.374Y111.951
X46.395Y111.932
X46.415Y111.913
X46.436Y111.895
X46.457Y111.876
X46.479Y111.859
X46.523Y111.824
X46.545Y111.808
X46.568Y111.792
X46.591Y111.776
X46.614Y111.76
X46.637Y111.745
X46.661Y111.731
X46.685Y111.717
X46.709Y111.703
X46.734Y111.69
X46.759Y111.677
X46.784Y111.664
X46.809Y111.652
X46.834Y111.641
X46.885Y111.619
X46.911Y111.609
X46.937Y111.599
X46.964Y111.59
X46.99Y111.581
X47.017Y111.573
X47.043Y111.565
X47.07Y111.557
X47.124Y111.544
X47.151Y111.538
X47.179Y111.532
X47.206Y111.527
X47.234Y111.523
X47.261Y111.518
X47.289Y111.515
X47.316Y111.512
X47.344Y111.509
X47.372Y111.507
X47.4Y111.505
X47.428Y111.504
X47.456Y111.503
X47.483
G0Z1
X54.683Y111.364
G1Z-0.5F5
X54.619Y110.212F10
X54.572Y109.058
X54.545Y107.904
X54.535Y106.743
Y103.19
X54.539Y103.152
X54.541Y103.114
X54.542Y103.076
X54.543Y103.038
Y75.038
X54.542Y74.998
X54.541Y74.958
X54.538Y74.919
X54.535Y74.879
X54.53Y74.839
X54.525Y74.8
X54.519Y74.761
X54.511Y74.722
X54.503Y74.683
X54.493Y74.644
X54.483Y74.606
X54.472Y74.567
X54.46Y74.53
X54.446Y74.492
X54.432Y74.455
X54.417Y74.418
X54.401Y74.382
X54.385Y74.346
X54.367Y74.31
X54.348Y74.275
X54.329Y74.24
X54.308Y74.205
X54.286Y74.171
X54.264Y74.137
X54.24Y74.104
X54.216Y74.072
X54.191Y74.04
X54.165Y74.009
X54.153Y73.994
X54.126Y73.964
X54.106Y73.942
X54.085Y73.921
X54.056Y73.892
X54.027Y73.865
X53.991Y73.833
X53.954Y73.802
X53.927Y73.78
X53.899Y73.759
X53.87Y73.738
X53.841Y73.718
X53.811Y73.699
X53.781Y73.68
X53.753Y73.663
X53.724Y73.647
X53.695Y73.631
X53.658Y73.612
X53.62Y73.594
X53.591Y73.581
X53.561Y73.568
X53.521Y73.552
X53.499Y73.544
X53.458Y73.529
X53.418Y73.516
X53.376Y73.504
X53.333Y73.493
X53.291Y73.483
X53.25Y73.475
X53.21Y73.468
X53.159Y73.46
X53.102Y73.454
X53.069Y73.451
X53.035Y73.449
X53.001Y73.447
X52.952
X52.719
X52.658Y73.436
X52.582Y73.425
X52.503Y73.417
X52.426Y73.412
X52.348Y73.409
X52.309Y73.408
X41.476
X41.436Y73.409
X41.397Y73.41
X41.358Y73.413
X41.318Y73.416
X41.279Y73.421
X41.24Y73.426
X41.201Y73.432
X41.162Y73.44
X41.129Y73.447
X41.086Y73.448
X41.043Y73.45
X41.001Y73.454
X40.958Y73.459
X40.915Y73.464
X40.873Y73.471
X40.83Y73.479
X40.788Y73.489
X40.747Y73.499
X40.712Y73.509
X40.678Y73.519
X40.643Y73.53
X40.61Y73.542
X40.576Y73.555
X40.535Y73.571
X40.494Y73.589
X40.453Y73.608
X40.41Y73.63
X40.38Y73.646
X40.351Y73.663
X40.314Y73.685
X40.279Y73.708
X40.247Y73.729
X40.215Y73.751
X40.185Y73.774
X40.154Y73.798
X40.124Y73.823
X40.095Y73.848
X40.067Y73.874
X40.039Y73.901
X40.012Y73.928
X39.985Y73.956
X39.959Y73.985
X39.934Y74.014
X39.91Y74.044
X39.886Y74.074
X39.863Y74.105
X39.841Y74.137
X39.819Y74.169
X39.799Y74.201
X39.779Y74.234
X39.76Y74.268
X39.741Y74.303
X39.724Y74.337
X39.707Y74.371
X39.692Y74.406
X39.677Y74.441
X39.663Y74.477
X39.65Y74.513
X39.638Y74.549
X39.627Y74.585
X39.616Y74.622
X39.607Y74.659
X39.598Y74.696
X39.59Y74.734
X39.583Y74.771
X39.577Y74.809
X39.572Y74.847
X39.568Y74.885
X39.565Y74.923
X39.563Y74.961
X39.561Y74.999
Y75.038
Y78.974
X39.548Y79.564
X39.542Y80.308
X39.543Y106.763
X39.548Y107.417
X39.565Y108.071
X39.592Y108.724
X39.63Y109.377
X39.679Y110.029
X39.739Y110.68
X39.81Y111.331
X39.891Y111.98
X39.984Y112.627
X40.087Y113.273
X40.2Y113.917
X40.325Y114.56
X40.351Y114.683
X40.38Y114.807
X40.41Y114.93
X40.443Y115.052
X40.478Y115.173
X40.515Y115.295
X40.554Y115.415
X40.595Y115.535
X40.639Y115.654
X40.684Y115.772
X40.731Y115.889
X40.781Y116.006
X40.832Y116.121
X40.885Y116.236
X40.94Y116.35
X40.998Y116.463
X41.057Y116.575
X41.118Y116.686
X41.181Y116.796
X41.246Y116.904
X41.313Y117.012
X41.382Y117.118
X41.452Y117.223
X41.525Y117.327
X41.599Y117.43
X41.675Y117.531
X41.752Y117.631
X41.832Y117.729
X41.913Y117.827
X41.995Y117.922
X42.08Y118.017
X42.166Y118.11
X42.254Y118.201
X42.343Y118.291
X42.433Y118.379
X42.526Y118.466
X42.619Y118.551
X42.714Y118.634
X42.811Y118.716
X42.933Y118.816
X43.057Y118.914
X43.182Y119.009
X43.31Y119.103
X43.439Y119.195
X43.569Y119.284
X43.701Y119.371
X43.834Y119.456
X43.969Y119.538
X44.105Y119.618
X44.243Y119.696
X44.382Y119.771
X44.522Y119.844
X44.663Y119.914
X44.806Y119.983
X44.949Y120.048
X45.094Y120.111
X45.24Y120.172
X45.387Y120.23
X45.534Y120.286
X45.683Y120.339
X45.833Y120.39
X45.983Y120.438
X46.135Y120.483
X46.287Y120.526
X46.439Y120.566
X46.593Y120.604
X46.747Y120.639
X46.901Y120.671
X47.057Y120.7
X47.212Y120.727
X47.368Y120.752
X47.525Y120.773
X47.682Y120.792
X47.839Y120.808
X47.996Y120.822
X48.154Y120.833
X48.311Y120.841
X48.469Y120.846
X48.627Y120.849
X48.785
X48.943Y120.847
X49.101Y120.841
X49.259Y120.833
X49.416Y120.822
X49.574Y120.809
X49.731Y120.793
X49.888Y120.774
X50.031Y120.754
X52.921Y120.335
X52.997Y120.321
X53.074Y120.304
X53.148Y120.286
X53.222Y120.264
X53.296Y120.24
X53.369Y120.213
X53.441Y120.184
X53.511Y120.152
X53.58Y120.118
X53.649Y120.081
X53.716Y120.042
X53.781Y120.001
X53.846Y119.957
X53.908Y119.912
X53.969Y119.864
X54.028Y119.814
X54.085Y119.762
X54.142Y119.707
X54.195Y119.653
X54.247Y119.594
X54.296Y119.535
X54.343Y119.475
X54.39Y119.411
X54.432Y119.347
X54.474Y119.281
X54.512Y119.214
X54.548Y119.146
X54.582Y119.075
X54.613Y119.005
X54.643Y118.933
X54.669Y118.861
X54.693Y118.786
X54.714Y118.712
X54.733Y118.637
X54.749Y118.562
X54.762Y118.485
X54.773Y118.408
X54.781Y118.332
X54.786Y118.253
X54.789Y118.177
Y118.138
Y113.087
X54.788Y112.97
X54.785Y112.853
X54.78Y112.736
X54.774Y112.62
X54.683Y111.364
G0Z1
X46.967Y82.16
G1Z-0.6F5
X47.123Y82.077F10
X47.292Y82.026
X47.468Y82.009
X47.644Y82.026
X47.813Y82.077
X47.969Y82.16
X48.105Y82.273
X48.217Y82.409
X48.301Y82.565
X48.352Y82.734
X48.369Y82.91
X48.352Y83.086
X48.301Y83.255
X48.217Y83.411
X48.105Y83.547
X47.969Y83.659
X47.813Y83.743
X47.644Y83.794
X47.468Y83.811
X47.292Y83.794
X47.123Y83.743
X46.967Y83.659
X46.831Y83.547
X46.719Y83.411
X46.635Y83.255
X46.584Y83.086
X46.567Y82.91
X46.584Y82.734
X46.635Y82.565
X46.719Y82.409
X46.831Y82.273
X46.967Y82.16
G0Z1
X47.468Y97.912
G1Z-0.6F5
X47.644Y97.93F10
X47.813Y97.981
X47.969Y98.064
X48.105Y98.176
X48.217Y98.313
X48.301Y98.469
X48.352Y98.638
X48.369Y98.814
X48.352Y98.99
X48.301Y99.159
X48.217Y99.315
X48.105Y99.451
X47.969Y99.563
X47.813Y99.646
X47.644Y99.698
X47.468Y99.715
X47.292Y99.698
X47.123Y99.646
X46.967Y99.563
X46.831Y99.451
X46.719Y99.315
X46.635Y99.159
X46.584Y98.99
X46.567Y98.814
X46.584Y98.638
X46.635Y98.469
X46.719Y98.313
X46.831Y98.176
X46.967Y98.064
X47.123Y97.981
X47.292Y97.93
X47.468Y97.912
G0Z1
X47.483Y111.503
G1Z-0.6F5
X47.511F10
X47.539Y111.504
X47.567Y111.505
X47.595Y111.507
X47.623Y111.509
X47.65Y111.512
X47.678Y111.515
X47.706Y111.518
X47.733Y111.523
X47.761Y111.527
X47.788Y111.532
X47.815Y111.538
X47.843Y111.544
X47.87Y111.55
X47.897Y111.557
X47.923Y111.565
X47.95Y111.573
X47.977Y111.581
X48.003Y111.59
X48.03Y111.599
X48.082Y111.619
X48.107Y111.63
X48.133Y111.641
X48.158Y111.653
X48.183Y111.664
X48.208Y111.677
X48.233Y111.69
X48.258Y111.703
X48.282Y111.717
X48.306Y111.731
X48.33Y111.746
X48.353Y111.76
X48.376Y111.776
X48.399Y111.792
X48.422Y111.808
X48.467Y111.841
X48.488Y111.859
X48.51Y111.876
X48.531Y111.895
X48.552Y111.913
X48.572Y111.932
X48.593Y111.951
X48.612Y111.971
X48.632Y111.99
X48.651Y112.011
X48.67Y112.031
X48.688Y112.052
X48.707Y112.073
X48.724Y112.095
X48.742Y112.117
X48.758Y112.138
X48.775Y112.161
X48.791Y112.184
X48.807Y112.207
X48.823Y112.23
X48.837Y112.253
X48.852Y112.277
X48.866Y112.301
X48.88Y112.326
X48.893Y112.35
X48.906Y112.375
X48.918Y112.4
X48.93Y112.425
X48.942Y112.45
X48.953Y112.476
X48.964Y112.501
X48.974Y112.527
X48.984Y112.553
X48.993Y112.58
X49.002Y112.606
X49.01Y112.633
X49.018Y112.659
X49.026Y112.686
X49.033Y112.713
X49.039Y112.74
X49.045Y112.767
X49.051Y112.795
X49.056Y112.822
X49.06Y112.85
X49.065Y112.877
X49.068Y112.905
X49.071Y112.933
X49.074Y112.96
X49.076Y112.988
X49.078Y113.016
X49.079Y113.044
X49.08Y113.072
Y113.1
Y113.127
X49.079Y113.155
X49.078Y113.183
X49.076Y113.211
X49.074Y113.239
X49.071Y113.267
X49.068Y113.294
X49.065Y113.322
X49.06Y113.349
X49.056Y113.377
X49.047Y113.423
X49.039Y113.461
X49.028Y113.505
X49.018Y113.542
X49.01Y113.566
X48.993Y113.619
X48.984Y113.646
X48.974Y113.672
X48.956Y113.715
X48.941Y113.751
X48.93Y113.774
X48.918Y113.799
X48.906Y113.824
X48.893Y113.849
X48.88Y113.874
X48.866Y113.898
X48.852Y113.922
X48.837Y113.946
X48.823Y113.969
X48.807Y113.992
X48.791Y114.015
X48.775Y114.038
X48.761Y114.057
X48.741Y114.084
X48.724Y114.104
X48.707Y114.126
X48.688Y114.147
X48.67Y114.168
X48.651Y114.188
X48.632Y114.209
X48.612Y114.229
X48.593Y114.248
X48.572Y114.267
X48.552Y114.286
X48.531Y114.304
X48.51Y114.323
X48.466Y114.358
X48.444Y114.375
X48.399Y114.407
X48.376Y114.423
X48.353Y114.439
X48.33Y114.454
X48.306Y114.468
X48.282Y114.482
X48.257Y114.496
X48.233Y114.509
X48.208Y114.522
X48.183Y114.535
X48.158Y114.547
X48.133Y114.558
X48.107Y114.569
X48.082Y114.58
X48.056Y114.59
X48.029Y114.6
X48.003Y114.609
X47.977Y114.618
X47.95Y114.626
X47.924Y114.634
X47.897Y114.642
X47.869Y114.649
X47.843Y114.655
X47.815Y114.661
X47.788Y114.667
X47.761Y114.672
X47.733Y114.677
X47.706Y114.681
X47.678Y114.684
X47.65Y114.687
X47.623Y114.69
X47.595Y114.692
X47.567Y114.694
X47.539Y114.695
X47.511Y114.696
X47.483
X47.456
X47.4Y114.694
X47.372Y114.692
X47.344Y114.69
X47.316Y114.687
X47.289Y114.684
X47.261Y114.681
X47.234Y114.677
X47.206Y114.672
X47.179Y114.667
X47.151Y114.661
X47.124Y114.655
X47.097Y114.649
X47.043Y114.634
X47.017Y114.626
X46.99Y114.618
X46.964Y114.609
X46.937Y114.6
X46.911Y114.59
X46.885Y114.58
X46.86Y114.569
X46.832Y114.557
X46.809Y114.547
X46.788Y114.537
X46.757Y114.521
X46.734Y114.509
X46.709Y114.496
X46.685Y114.482
X46.661Y114.468
X46.637Y114.454
X46.614Y114.439
X46.591Y114.423
X46.568Y114.407
X46.545Y114.391
X46.523Y114.375
X46.5Y114.358
X46.479Y114.34
X46.457Y114.323
X46.436Y114.305
X46.415Y114.286
X46.373Y114.246
X46.354Y114.229
X46.335Y114.209
X46.316Y114.188
X46.297Y114.168
X46.279Y114.147
X46.26Y114.126
X46.243Y114.104
X46.225Y114.083
X46.208Y114.06
X46.192Y114.038
X46.176Y114.015
X46.16Y113.992
X46.144Y113.969
X46.129Y113.946
X46.115Y113.922
X46.101Y113.898
X46.087Y113.874
X46.061Y113.824
X46.048Y113.799
X46.036Y113.774
X46.026Y113.752
X46.013Y113.722
X46.003Y113.698
X45.993Y113.672
X45.983Y113.646
X45.965Y113.593
X45.957Y113.566
X45.941Y113.513
X45.934Y113.486
X45.928Y113.459
X45.922Y113.432
X45.911Y113.377
X45.906Y113.349
X45.902Y113.322
X45.899Y113.294
X45.896Y113.266
X45.893Y113.239
X45.891Y113.211
X45.889Y113.183
X45.888Y113.155
X45.887Y113.128
Y113.1
Y113.077
X45.888Y113.042
X45.889Y113.016
X45.891Y112.988
X45.893Y112.96
X45.896Y112.933
X45.899Y112.905
X45.902Y112.877
X45.906Y112.85
X45.911Y112.822
X45.916Y112.795
X45.922Y112.768
X45.928Y112.74
X45.934Y112.713
X45.941Y112.686
X45.947Y112.665
X45.957Y112.631
X45.965Y112.606
X45.974Y112.58
X45.985Y112.549
X45.993Y112.527
X46.003Y112.501
X46.014Y112.476
X46.025Y112.45
X46.048Y112.4
X46.061Y112.375
X46.074Y112.35
X46.087Y112.326
X46.101Y112.3
X46.115Y112.277
X46.13Y112.253
X46.153Y112.217
X46.177Y112.181
X46.192Y112.161
X46.208Y112.139
X46.225Y112.117
X46.243Y112.095
X46.26Y112.073
X46.278Y112.052
X46.297Y112.031
X46.316Y112.011
X46.354Y111.971
X46.374Y111.951
X46.395Y111.932
X46.415Y111.913
X46.436Y111.895
X46.457Y111.876
X46.479Y111.859
X46.523Y111.824
X46.545Y111.808
X46.568Y111.792
X46.591Y111.776
X46.614Y111.76
X46.637Y111.745
X46.661Y111.731
X46.685Y111.717
X46.709Y111.703
X46.734Y111.69
X46.759Y111.677
X46.784Y111.664
X46.809Y111.652
X46.834Y111.641
X46.885Y111.619
X46.911Y111.609
X46.937Y111.599
X46.964Y111.59
X46.99Y111.581
X47.017Y111.573
X47.043Y111.565
X47.07Y111.557
X47.124Y111.544
X47.151Y111.538
X47.179Y111.532
X47.206Y111.527
X47.234Y111.523
X47.261Y111.518
X47.289Y111.515
X47.316Y111.512
X47.344Y111.509
X47.372Y111.507
X47.4Y111.505
X47.428Y111.504
X47.456Y111.503
X47.483
G0Z1
X54.683Y111.364
G1Z-0.6F5
X54.619Y110.212F10
X54.572Y109.058
X54.545Y107.904
X54.535Y106.743
Y103.19
X54.539Y103.152
X54.541Y103.114
X54.542Y103.076
X54.543Y103.038
Y75.038
X54.542Y74.998
X54.541Y74.958
X54.538Y74.919
X54.535Y74.879
X54.53Y74.839
X54.525Y74.8
X54.519Y74.761
X54.511Y74.722
X54.503Y74.683
X54.493Y74.644
X54.483Y74.606
X54.472Y74.567
X54.46Y74.53
X54.446Y74.492
X54.432Y74.455
X54.417Y74.418
X54.401Y74.382
X54.385Y74.346
X54.367Y74.31
X54.348Y74.275
X54.329Y74.24
X54.308Y74.205
X54.286Y74.171
X54.264Y74.137
X54.24Y74.104
X54.216Y74.072
X54.191Y74.04
X54.165Y74.009
X54.153Y73.994
X54.126Y73.964
X54.106Y73.942
X54.085Y73.921
X54.056Y73.892
X54.027Y73.865
X53.991Y73.833
X53.954Y73.802
X53.927Y73.78
X53.899Y73.759
X53.87Y73.738
X53.841Y73.718
X53.811Y73.699
X53.781Y73.68
X53.753Y73.663
X53.724Y73.647
X53.695Y73.631
X53.658Y73.612
X53.62Y73.594
X53.591Y73.581
X53.561Y73.568
X53.521Y73.552
X53.499Y73.544
X53.458Y73.529
X53.418Y73.516
X53.376Y73.504
X53.333Y73.493
X53.291Y73.483
X53.25Y73.475
X53.21Y73.468
X53.159Y73.46
X53.102Y73.454
X53.069Y73.451
X53.035Y73.449
X53.001Y73.447
X52.952
X52.719
X52.658Y73.436
X52.582Y73.425
X52.503Y73.417
X52.426Y73.412
X52.348Y73.409
X52.309Y73.408
X41.476
X41.436Y73.409
X41.397Y73.41
X41.358Y73.413
X41.318Y73.416
X41.279Y73.421
X41.24Y73.426
X41.201Y73.432
X41.162Y73.44
X41.129Y73.447
X41.086Y73.448
X41.043Y73.45
X41.001Y73.454
X40.958Y73.459
X40.915Y73.464
X40.873Y73.471
X40.83Y73.479
X40.788Y73.489
X40.747Y73.499
X40.712Y73.509
X40.678Y73.519
X40.643Y73.53
X40.61Y73.542
X40.576Y73.555
X40.535Y73.571
X40.494Y73.589
X40.453Y73.608
X40.41Y73.63
X40.38Y73.646
X40.351Y73.663
X40.314Y73.685
X40.279Y73.708
X40.247Y73.729
X40.215Y73.751
X40.185Y73.774
X40.154Y73.798
X40.124Y73.823
X40.095Y73.848
X40.067Y73.874
X40.039Y73.901
X40.012Y73.928
X39.985Y73.956
X39.959Y73.985
X39.934Y74.014
X39.91Y74.044
X39.886Y74.074
X39.863Y74.105
X39.841Y74.137
X39.819Y74.169
X39.799Y74.201
X39.779Y74.234
X39.76Y74.268
X39.741Y74.303
X39.724Y74.337
X39.707Y74.371
X39.692Y74.406
X39.677Y74.441
X39.663Y74.477
X39.65Y74.513
X39.638Y74.549
X39.627Y74.585
X39.616Y74.622
X39.607Y74.659
X39.598Y74.696
X39.59Y74.734
X39.583Y74.771
X39.577Y74.809
X39.572Y74.847
X39.568Y74.885
X39.565Y74.923
X39.563Y74.961
X39.561Y74.999
Y75.038
Y78.974
X39.548Y79.564
X39.542Y80.308
X39.543Y106.763
X39.548Y107.417
X39.565Y108.071
X39.592Y108.724
X39.63Y109.377
X39.679Y110.029
X39.739Y110.68
X39.81Y111.331
X39.891Y111.98
X39.984Y112.627
X40.087Y113.273
X40.2Y113.917
X40.325Y114.56
X40.351Y114.683
X40.38Y114.807
X40.41Y114.93
X40.443Y115.052
X40.478Y115.173
X40.515Y115.295
X40.554Y115.415
X40.595Y115.535
X40.639Y115.654
X40.684Y115.772
X40.731Y115.889
X40.781Y116.006
X40.832Y116.121
X40.885Y116.236
X40.94Y116.35
X40.998Y116.463
X41.057Y116.575
X41.118Y116.686
X41.181Y116.796
X41.246Y116.904
X41.313Y117.012
X41.382Y117.118
X41.452Y117.223
X41.525Y117.327
X41.599Y117.43
X41.675Y117.531
X41.752Y117.631
X41.832Y117.729
X41.913Y117.827
X41.995Y117.922
X42.08Y118.017
X42.166Y118.11
X42.254Y118.201
X42.343Y118.291
X42.433Y118.379
X42.526Y118.466
X42.619Y118.551
X42.714Y118.634
X42.811Y118.716
X42.933Y118.816
X43.057Y118.914
X43.182Y119.009
X43.31Y119.103
X43.439Y119.195
X43.569Y119.284
X43.701Y119.371
X43.834Y119.456
X43.969Y119.538
X44.105Y119.618
X44.243Y119.696
X44.382Y119.771
X44.522Y119.844
X44.663Y119.914
X44.806Y119.983
X44.949Y120.048
X45.094Y120.111
X45.24Y120.172
X45.387Y120.23
X45.534Y120.286
X45.683Y120.339
X45.833Y120.39
X45.983Y120.438
X46.135Y120.483
X46.287Y120.526
X46.439Y120.566
X46.593Y120.604
X46.747Y120.639
X46.901Y120.671
X47.057Y120.7
X47.212Y120.727
X47.368Y120.752
X47.525Y120.773
X47.682Y120.792
X47.839Y120.808
X47.996Y120.822
X48.154Y120.833
X48.311Y120.841
X48.469Y120.846
X48.627Y120.849
X48.785
X48.943Y120.847
X49.101Y120.841
X49.259Y120.833
X49.416Y120.822
X49.574Y120.809
X49.731Y120.793
X49.888Y120.774
X50.031Y120.754
X52.921Y120.335
X52.997Y120.321
X53.074Y120.304
X53.148Y120.286
X53.222Y120.264
X53.296Y120.24
X53.369Y120.213
X53.441Y120.184
X53.511Y120.152
X53.58Y120.118
X53.649Y120.081
X53.716Y120.042
X53.781Y120.001
X53.846Y119.957
X53.908Y119.912
X53.969Y119.864
X54.028Y119.814
X54.085Y119.762
X54.142Y119.707
X54.195Y119.653
X54.247Y119.594
X54.296Y119.535
X54.343Y119.475
X54.39Y119.411
X54.432Y119.347
X54.474Y119.281
X54.512Y119.214
X54.548Y119.146
X54.582Y119.075
X54.613Y119.005
X54.643Y118.933
X54.669Y118.861
X54.693Y118.786
X54.714Y118.712
X54.733Y118.637
X54.749Y118.562
X54.762Y118.485
X54.773Y118.408
X54.781Y118.332
X54.786Y118.253
X54.789Y118.177
Y118.138
Y113.087
X54.788Y112.97
X54.785Y112.853
X54.78Y112.736
X54.774Y112.62
X54.683Y111.364
G0Z1
X46.967Y82.16
G1Z-0.7F5
X47.123Y82.077F10
X47.292Y82.026
X47.468Y82.009
X47.644Y82.026
X47.813Y82.077
X47.969Y82.16
X48.105Y82.273
X48.217Y82.409
X48.301Y82.565
X48.352Y82.734
X48.369Y82.91
X48.352Y83.086
X48.301Y83.255
X48.217Y83.411
X48.105Y83.547
X47.969Y83.659
X47.813Y83.743
X47.644Y83.794
X47.468Y83.811
X47.292Y83.794
X47.123Y83.743
X46.967Y83.659
X46.831Y83.547
X46.719Y83.411
X46.635Y83.255
X46.584Y83.086
X46.567Y82.91
X46.584Y82.734
X46.635Y82.565
X46.719Y82.409
X46.831Y82.273
X46.967Y82.16
G0Z1
X47.468Y97.912
G1Z-0.7F5
X47.644Y97.93F10
X47.813Y97.981
X47.969Y98.064
X48.105Y98.176
X48.217Y98.313
X48.301Y98.469
X48.352Y98.638
X48.369Y98.814
X48.352Y98.99
X48.301Y99.159
X48.217Y99.315
X48.105Y99.451
X47.969Y99.563
X47.813Y99.646
X47.644Y99.698
X47.468Y99.715
X47.292Y99.698
X47.123Y99.646
X46.967Y99.563
X46.831Y99.451
X46.719Y99.315
X46.635Y99.159
X46.584Y98.99
X46.567Y98.814
X46.584Y98.638
X46.635Y98.469
X46.719Y98.313
X46.831Y98.176
X46.967Y98.064
X47.123Y97.981
X47.292Y97.93
X47.468Y97.912
G0Z1
X47.483Y111.503
G1Z-0.7F5
X47.511F10
X47.539Y111.504
X47.567Y111.505
X47.595Y111.507
X47.623Y111.509
X47.65Y111.512
X47.678Y111.515
X47.706Y111.518
X47.733Y111.523
X47.761Y111.527
X47.788Y111.532
X47.815Y111.538
X47.843Y111.544
X47.87Y111.55
X47.897Y111.557
X47.923Y111.565
X47.95Y111.573
X47.977Y111.581
X48.003Y111.59
X48.03Y111.599
X48.082Y111.619
X48.107Y111.63
X48.133Y111.641
X48.158Y111.653
X48.183Y111.664
X48.208Y111.677
X48.233Y111.69
X48.258Y111.703
X48.282Y111.717
X48.306Y111.731
X48.33Y111.746
X48.353Y111.76
X48.376Y111.776
X48.399Y111.792
X48.422Y111.808
X48.467Y111.841
X48.488Y111.859
X48.51Y111.876
X48.531Y111.895
X48.552Y111.913
X48.572Y111.932
X48.593Y111.951
X48.612Y111.971
X48.632Y111.99
X48.651Y112.011
X48.67Y112.031
X48.688Y112.052
X48.707Y112.073
X48.724Y112.095
X48.742Y112.117
X48.758Y112.138
X48.775Y112.161
X48.791Y112.184
X48.807Y112.207
X48.823Y112.23
X48.837Y112.253
X48.852Y112.277
X48.866Y112.301
X48.88Y112.326
X48.893Y112.35
X48.906Y112.375
X48.918Y112.4
X48.93Y112.425
X48.942Y112.45
X48.953Y112.476
X48.964Y112.501
X48.974Y112.527
X48.984Y112.553
X48.993Y112.58
X49.002Y112.606
X49.01Y112.633
X49.018Y112.659
X49.026Y112.686
X49.033Y112.713
X49.039Y112.74
X49.045Y112.767
X49.051Y112.795
X49.056Y112.822
X49.06Y112.85
X49.065Y112.877
X49.068Y112.905
X49.071Y112.933
X49.074Y112.96
X49.076Y112.988
X49.078Y113.016
X49.079Y113.044
X49.08Y113.072
Y113.1
Y113.127
X49.079Y113.155
X49.078Y113.183
X49.076Y113.211
X49.074Y113.239
X49.071Y113.267
X49.068Y113.294
X49.065Y113.322
X49.06Y113.349
X49.056Y113.377
X49.047Y113.423
X49.039Y113.461
X49.028Y113.505
X49.018Y113.542
X49.01Y113.566
X48.993Y113.619
X48.984Y113.646
X48.974Y113.672
X48.956Y113.715
X48.941Y113.751
X48.93Y113.774
X48.918Y113.799
X48.906Y113.824
X48.893Y113.849
X48.88Y113.874
X48.866Y113.898
X48.852Y113.922
X48.837Y113.946
X48.823Y113.969
X48.807Y113.992
X48.791Y114.015
X48.775Y114.038
X48.761Y114.057
X48.741Y114.084
X48.724Y114.104
X48.707Y114.126
X48.688Y114.147
X48.67Y114.168
X48.651Y114.188
X48.632Y114.209
X48.612Y114.229
X48.593Y114.248
X48.572Y114.267
X48.552Y114.286
X48.531Y114.304
X48.51Y114.323
X48.466Y114.358
X48.444Y114.375
X48.399Y114.407
X48.376Y114.423
X48.353Y114.439
X48.33Y114.454
X48.306Y114.468
X48.282Y114.482
X48.257Y114.496
X48.233Y114.509
X48.208Y114.522
X48.183Y114.535
X48.158Y114.547
X48.133Y114.558
X48.107Y114.569
X48.082Y114.58
X48.056Y114.59
X48.029Y114.6
X48.003Y114.609
X47.977Y114.618
X47.95Y114.626
X47.924Y114.634
X47.897Y114.642
X47.869Y114.649
X47.843Y114.655
X47.815Y114.661
X47.788Y114.667
X47.761Y114.672
X47.733Y114.677
X47.706Y114.681
X47.678Y114.684
X47.65Y114.687
X47.623Y114.69
X47.595Y114.692
X47.567Y114.694
X47.539Y114.695
X47.511Y114.696
X47.483
X47.456
X47.4Y114.694
X47.372Y114.692
X47.344Y114.69
X47.316Y114.687
X47.289Y114.684
X47.261Y114.681
X47.234Y114.677
X47.206Y114.672
X47.179Y114.667
X47.151Y114.661
X47.124Y114.655
X47.097Y114.649
X47.043Y114.634
X47.017Y114.626
X46.99Y114.618
X46.964Y114.609
X46.937Y114.6
X46.911Y114.59
X46.885Y114.58
X46.86Y114.569
X46.832Y114.557
X46.809Y114.547
X46.788Y114.537
X46.757Y114.521
X46.734Y114.509
X46.709Y114.496
X46.685Y114.482
X46.661Y114.468
X46.637Y114.454
X46.614Y114.439
X46.591Y114.423
X46.568Y114.407
X46.545Y114.391
X46.523Y114.375
X46.5Y114.358
X46.479Y114.34
X46.457Y114.323
X46.436Y114.305
X46.415Y114.286
X46.373Y114.246
X46.354Y114.229
X46.335Y114.209
X46.316Y114.188
X46.297Y114.168
X46.279Y114.147
X46.26Y114.126
X46.243Y114.104
X46.225Y114.083
X46.208Y114.06
X46.192Y114.038
X46.176Y114.015
X46.16Y113.992
X46.144Y113.969
X46.129Y113.946
X46.115Y113.922
X46.101Y113.898
X46.087Y113.874
X46.061Y113.824
X46.048Y113.799
X46.036Y113.774
X46.026Y113.752
X46.013Y113.722
X46.003Y113.698
X45.993Y113.672
X45.983Y113.646
X45.965Y113.593
X45.957Y113.566
X45.941Y113.513
X45.934Y113.486
X45.928Y113.459
X45.922Y113.432
X45.911Y113.377
X45.906Y113.349
X45.902Y113.322
X45.899Y113.294
X45.896Y113.266
X45.893Y113.239
X45.891Y113.211
X45.889Y113.183
X45.888Y113.155
X45.887Y113.128
Y113.1
Y113.077
X45.888Y113.042
X45.889Y113.016
X45.891Y112.988
X45.893Y112.96
X45.896Y112.933
X45.899Y112.905
X45.902Y112.877
X45.906Y112.85
X45.911Y112.822
X45.916Y112.795
X45.922Y112.768
X45.928Y112.74
X45.934Y112.713
X45.941Y112.686
X45.947Y112.665
X45.957Y112.631
X45.965Y112.606
X45.974Y112.58
X45.985Y112.549
X45.993Y112.527
X46.003Y112.501
X46.014Y112.476
X46.025Y112.45
X46.048Y112.4
X46.061Y112.375
X46.074Y112.35
X46.087Y112.326
X46.101Y112.3
X46.115Y112.277
X46.13Y112.253
X46.153Y112.217
X46.177Y112.181
X46.192Y112.161
X46.208Y112.139
X46.225Y112.117
X46.243Y112.095
X46.26Y112.073
X46.278Y112.052
X46.297Y112.031
X46.316Y112.011
X46.354Y111.971
X46.374Y111.951
X46.395Y111.932
X46.415Y111.913
X46.436Y111.895
X46.457Y111.876
X46.479Y111.859
X46.523Y111.824
X46.545Y111.808
X46.568Y111.792
X46.591Y111.776
X46.614Y111.76
X46.637Y111.745
X46.661Y111.731
X46.685Y111.717
X46.709Y111.703
X46.734Y111.69
X46.759Y111.677
X46.784Y111.664
X46.809Y111.652
X46.834Y111.641
X46.885Y111.619
X46.911Y111.609
X46.937Y111.599
X46.964Y111.59
X46.99Y111.581
X47.017Y111.573
X47.043Y111.565
X47.07Y111.557
X47.124Y111.544
X47.151Y111.538
X47.179Y111.532
X47.206Y111.527
X47.234Y111.523
X47.261Y111.518
X47.289Y111.515
X47.316Y111.512
X47.344Y111.509
X47.372Y111.507
X47.4Y111.505
X47.428Y111.504
X47.456Y111.503
X47.483
G0Z1
X54.683Y111.364
G1Z-0.7F5
X54.619Y110.212F10
X54.572Y109.058
X54.545Y107.904
X54.535Y106.743
Y103.19
X54.539Y103.152
X54.541Y103.114
X54.542Y103.076
X54.543Y103.038
Y75.038
X54.542Y74.998
X54.541Y74.958
X54.538Y74.919
X54.535Y74.879
X54.53Y74.839
X54.525Y74.8
X54.519Y74.761
X54.511Y74.722
X54.503Y74.683
X54.493Y74.644
X54.483Y74.606
X54.472Y74.567
X54.46Y74.53
X54.446Y74.492
X54.432Y74.455
X54.417Y74.418
X54.401Y74.382
X54.385Y74.346
X54.367Y74.31
X54.348Y74.275
X54.329Y74.24
X54.308Y74.205
X54.286Y74.171
X54.264Y74.137
X54.24Y74.104
X54.216Y74.072
X54.191Y74.04
X54.165Y74.009
X54.153Y73.994
X54.126Y73.964
X54.106Y73.942
X54.085Y73.921
X54.056Y73.892
X54.027Y73.865
X53.991Y73.833
X53.954Y73.802
X53.927Y73.78
X53.899Y73.759
X53.87Y73.738
X53.841Y73.718
X53.811Y73.699
X53.781Y73.68
X53.753Y73.663
X53.724Y73.647
X53.695Y73.631
X53.658Y73.612
X53.62Y73.594
X53.591Y73.581
X53.561Y73.568
X53.521Y73.552
X53.499Y73.544
X53.458Y73.529
X53.418Y73.516
X53.376Y73.504
X53.333Y73.493
X53.291Y73.483
X53.25Y73.475
X53.21Y73.468
X53.159Y73.46
X53.102Y73.454
X53.069Y73.451
X53.035Y73.449
X53.001Y73.447
X52.952
X52.719
X52.658Y73.436
X52.582Y73.425
X52.503Y73.417
X52.426Y73.412
X52.348Y73.409
X52.309Y73.408
X41.476
X41.436Y73.409
X41.397Y73.41
X41.358Y73.413
X41.318Y73.416
X41.279Y73.421
X41.24Y73.426
X41.201Y73.432
X41.162Y73.44
X41.129Y73.447
X41.086Y73.448
X41.043Y73.45
X41.001Y73.454
X40.958Y73.459
X40.915Y73.464
X40.873Y73.471
X40.83Y73.479
X40.788Y73.489
X40.747Y73.499
X40.712Y73.509
X40.678Y73.519
X40.643Y73.53
X40.61Y73.542
X40.576Y73.555
X40.535Y73.571
X40.494Y73.589
X40.453Y73.608
X40.41Y73.63
X40.38Y73.646
X40.351Y73.663
X40.314Y73.685
X40.279Y73.708
X40.247Y73.729
X40.215Y73.751
X40.185Y73.774
X40.154Y73.798
X40.124Y73.823
X40.095Y73.848
X40.067Y73.874
X40.039Y73.901
X40.012Y73.928
X39.985Y73.956
X39.959Y73.985
X39.934Y74.014
X39.91Y74.044
X39.886Y74.074
X39.863Y74.105
X39.841Y74.137
X39.819Y74.169
X39.799Y74.201
X39.779Y74.234
X39.76Y74.268
X39.741Y74.303
X39.724Y74.337
X39.707Y74.371
X39.692Y74.406
X39.677Y74.441
X39.663Y74.477
X39.65Y74.513
X39.638Y74.549
X39.627Y74.585
X39.616Y74.622
X39.607Y74.659
X39.598Y74.696
X39.59Y74.734
X39.583Y74.771
X39.577Y74.809
X39.572Y74.847
X39.568Y74.885
X39.565Y74.923
X39.563Y74.961
X39.561Y74.999
Y75.038
Y78.974
X39.548Y79.564
X39.542Y80.308
X39.543Y106.763
X39.548Y107.417
X39.565Y108.071
X39.592Y108.724
X39.63Y109.377
X39.679Y110.029
X39.739Y110.68
X39.81Y111.331
X39.891Y111.98
X39.984Y112.627
X40.087Y113.273
X40.2Y113.917
X40.325Y114.56
X40.351Y114.683
X40.38Y114.807
X40.41Y114.93
X40.443Y115.052
X40.478Y115.173
X40.515Y115.295
X40.554Y115.415
X40.595Y115.535
X40.639Y115.654
X40.684Y115.772
X40.731Y115.889
X40.781Y116.006
X40.832Y116.121
X40.885Y116.236
X40.94Y116.35
X40.998Y116.463
X41.057Y116.575
X41.118Y116.686
X41.181Y116.796
X41.246Y116.904
X41.313Y117.012
X41.382Y117.118
X41.452Y117.223
X41.525Y117.327
X41.599Y117.43
X41.675Y117.531
X41.752Y117.631
X41.832Y117.729
X41.913Y117.827
X41.995Y117.922
X42.08Y118.017
X42.166Y118.11
X42.254Y118.201
X42.343Y118.291
X42.433Y118.379
X42.526Y118.466
X42.619Y118.551
X42.714Y118.634
X42.811Y118.716
X42.933Y118.816
X43.057Y118.914
X43.182Y119.009
X43.31Y119.103
X43.439Y119.195
X43.569Y119.284
X43.701Y119.371
X43.834Y119.456
X43.969Y119.538
X44.105Y119.618
X44.243Y119.696
X44.382Y119.771
X44.522Y119.844
X44.663Y119.914
X44.806Y119.983
X44.949Y120.048
X45.094Y120.111
X45.24Y120.172
X45.387Y120.23
X45.534Y120.286
X45.683Y120.339
X45.833Y120.39
X45.983Y120.438
X46.135Y120.483
X46.287Y120.526
X46.439Y120.566
X46.593Y120.604
X46.747Y120.639
X46.901Y120.671
X47.057Y120.7
X47.212Y120.727
X47.368Y120.752
X47.525Y120.773
X47.682Y120.792
X47.839Y120.808
X47.996Y120.822
X48.154Y120.833
X48.311Y120.841
X48.469Y120.846
X48.627Y120.849
X48.785
X48.943Y120.847
X49.101Y120.841
X49.259Y120.833
X49.416Y120.822
X49.574Y120.809
X49.731Y120.793
X49.888Y120.774
X50.031Y120.754
X52.921Y120.335
X52.997Y120.321
X53.074Y120.304
X53.148Y120.286
X53.222Y120.264
X53.296Y120.24
X53.369Y120.213
X53.441Y120.184
X53.511Y120.152
X53.58Y120.118
X53.649Y120.081
X53.716Y120.042
X53.781Y120.001
X53.846Y119.957
X53.908Y119.912
X53.969Y119.864
X54.028Y119.814
X54.085Y119.762
X54.142Y119.707
X54.195Y119.653
X54.247Y119.594
X54.296Y119.535
X54.343Y119.475
X54.39Y119.411
X54.432Y119.347
X54.474Y119.281
X54.512Y119.214
X54.548Y119.146
X54.582Y119.075
X54.613Y119.005
X54.643Y118.933
X54.669Y118.861
X54.693Y118.786
X54.714Y118.712
X54.733Y118.637
X54.749Y118.562
X54.762Y118.485
X54.773Y118.408
X54.781Y118.332
X54.786Y118.253
X54.789Y118.177
Y118.138
Y113.087
X54.788Y112.97
X54.785Y112.853
X54.78Y112.736
X54.774Y112.62
X54.683Y111.364
G0Z1
X46.967Y82.16
G1Z-0.8F5
X47.123Y82.077F10
X47.292Y82.026
X47.468Y82.009
X47.644Y82.026
X47.813Y82.077
X47.969Y82.16
X48.105Y82.273
X48.217Y82.409
X48.301Y82.565
X48.352Y82.734
X48.369Y82.91
X48.352Y83.086
X48.301Y83.255
X48.217Y83.411
X48.105Y83.547
X47.969Y83.659
X47.813Y83.743
X47.644Y83.794
X47.468Y83.811
X47.292Y83.794
X47.123Y83.743
X46.967Y83.659
X46.831Y83.547
X46.719Y83.411
X46.635Y83.255
X46.584Y83.086
X46.567Y82.91
X46.584Y82.734
X46.635Y82.565
X46.719Y82.409
X46.831Y82.273
X46.967Y82.16
G0Z1
X47.468Y97.912
G1Z-0.8F5
X47.644Y97.93F10
X47.813Y97.981
X47.969Y98.064
X48.105Y98.176
X48.217Y98.313
X48.301Y98.469
X48.352Y98.638
X48.369Y98.814
X48.352Y98.99
X48.301Y99.159
X48.217Y99.315
X48.105Y99.451
X47.969Y99.563
X47.813Y99.646
X47.644Y99.698
X47.468Y99.715
X47.292Y99.698
X47.123Y99.646
X46.967Y99.563
X46.831Y99.451
X46.719Y99.315
X46.635Y99.159
X46.584Y98.99
X46.567Y98.814
X46.584Y98.638
X46.635Y98.469
X46.719Y98.313
X46.831Y98.176
X46.967Y98.064
X47.123Y97.981
X47.292Y97.93
X47.468Y97.912
G0Z1
X47.483Y111.503
G1Z-0.8F5
X47.511F10
X47.539Y111.504
X47.567Y111.505
X47.595Y111.507
X47.623Y111.509
X47.65Y111.512
X47.678Y111.515
X47.706Y111.518
X47.733Y111.523
X47.761Y111.527
X47.788Y111.532
X47.815Y111.538
X47.843Y111.544
X47.87Y111.55
X47.897Y111.557
X47.923Y111.565
X47.95Y111.573
X47.977Y111.581
X48.003Y111.59
X48.03Y111.599
X48.082Y111.619
X48.107Y111.63
X48.133Y111.641
X48.158Y111.653
X48.183Y111.664
X48.208Y111.677
X48.233Y111.69
X48.258Y111.703
X48.282Y111.717
X48.306Y111.731
X48.33Y111.746
X48.353Y111.76
X48.376Y111.776
X48.399Y111.792
X48.422Y111.808
X48.467Y111.841
X48.488Y111.859
X48.51Y111.876
X48.531Y111.895
X48.552Y111.913
X48.572Y111.932
X48.593Y111.951
X48.612Y111.971
X48.632Y111.99
X48.651Y112.011
X48.67Y112.031
X48.688Y112.052
X48.707Y112.073
X48.724Y112.095
X48.742Y112.117
X48.758Y112.138
X48.775Y112.161
X48.791Y112.184
X48.807Y112.207
X48.823Y112.23
X48.837Y112.253
X48.852Y112.277
X48.866Y112.301
X48.88Y112.326
X48.893Y112.35
X48.906Y112.375
X48.918Y112.4
X48.93Y112.425
X48.942Y112.45
X48.953Y112.476
X48.964Y112.501
X48.974Y112.527
X48.984Y112.553
X48.993Y112.58
X49.002Y112.606
X49.01Y112.633
X49.018Y112.659
X49.026Y112.686
X49.033Y112.713
X49.039Y112.74
X49.045Y112.767
X49.051Y112.795
X49.056Y112.822
X49.06Y112.85
X49.065Y112.877
X49.068Y112.905
X49.071Y112.933
X49.074Y112.96
X49.076Y112.988
X49.078Y113.016
X49.079Y113.044
X49.08Y113.072
Y113.1
Y113.127
X49.079Y113.155
X49.078Y113.183
X49.076Y113.211
X49.074Y113.239
X49.071Y113.267
X49.068Y113.294
X49.065Y113.322
X49.06Y113.349
X49.056Y113.377
X49.047Y113.423
X49.039Y113.461
X49.028Y113.505
X49.018Y113.542
X49.01Y113.566
X48.993Y113.619
X48.984Y113.646
X48.974Y113.672
X48.956Y113.715
X48.941Y113.751
X48.93Y113.774
X48.918Y113.799
X48.906Y113.824
X48.893Y113.849
X48.88Y113.874
X48.866Y113.898
X48.852Y113.922
X48.837Y113.946
X48.823Y113.969
X48.807Y113.992
X48.791Y114.015
X48.775Y114.038
X48.761Y114.057
X48.741Y114.084
X48.724Y114.104
X48.707Y114.126
X48.688Y114.147
X48.67Y114.168
X48.651Y114.188
X48.632Y114.209
X48.612Y114.229
X48.593Y114.248
X48.572Y114.267
X48.552Y114.286
X48.531Y114.304
X48.51Y114.323
X48.466Y114.358
X48.444Y114.375
X48.399Y114.407
X48.376Y114.423
X48.353Y114.439
X48.33Y114.454
X48.306Y114.468
X48.282Y114.482
X48.257Y114.496
X48.233Y114.509
X48.208Y114.522
X48.183Y114.535
X48.158Y114.547
X48.133Y114.558
X48.107Y114.569
X48.082Y114.58
X48.056Y114.59
X48.029Y114.6
X48.003Y114.609
X47.977Y114.618
X47.95Y114.626
X47.924Y114.634
X47.897Y114.642
X47.869Y114.649
X47.843Y114.655
X47.815Y114.661
X47.788Y114.667
X47.761Y114.672
X47.733Y114.677
X47.706Y114.681
X47.678Y114.684
X47.65Y114.687
X47.623Y114.69
X47.595Y114.692
X47.567Y114.694
X47.539Y114.695
X47.511Y114.696
X47.483
X47.456
X47.4Y114.694
X47.372Y114.692
X47.344Y114.69
X47.316Y114.687
X47.289Y114.684
X47.261Y114.681
X47.234Y114.677
X47.206Y114.672
X47.179Y114.667
X47.151Y114.661
X47.124Y114.655
X47.097Y114.649
X47.043Y114.634
X47.017Y114.626
X46.99Y114.618
X46.964Y114.609
X46.937Y114.6
X46.911Y114.59
X46.885Y114.58
X46.86Y114.569
X46.832Y114.557
X46.809Y114.547
X46.788Y114.537
X46.757Y114.521
X46.734Y114.509
X46.709Y114.496
X46.685Y114.482
X46.661Y114.468
X46.637Y114.454
X46.614Y114.439
X46.591Y114.423
X46.568Y114.407
X46.545Y114.391
X46.523Y114.375
X46.5Y114.358
X46.479Y114.34
X46.457Y114.323
X46.436Y114.305
X46.415Y114.286
X46.373Y114.246
X46.354Y114.229
X46.335Y114.209
X46.316Y114.188
X46.297Y114.168
X46.279Y114.147
X46.26Y114.126
X46.243Y114.104
X46.225Y114.083
X46.208Y114.06
X46.192Y114.038
X46.176Y114.015
X46.16Y113.992
X46.144Y113.969
X46.129Y113.946
X46.115Y113.922
X46.101Y113.898
X46.087Y113.874
X46.061Y113.824
X46.048Y113.799
X46.036Y113.774
X46.026Y113.752
X46.013Y113.722
X46.003Y113.698
X45.993Y113.672
X45.983Y113.646
X45.965Y113.593
X45.957Y113.566
X45.941Y113.513
X45.934Y113.486
X45.928Y113.459
X45.922Y113.432
X45.911Y113.377
X45.906Y113.349
X45.902Y113.322
X45.899Y113.294
X45.896Y113.266
X45.893Y113.239
X45.891Y113.211
X45.889Y113.183
X45.888Y113.155
X45.887Y113.128
Y113.1
Y113.077
X45.888Y113.042
X45.889Y113.016
X45.891Y112.988
X45.893Y112.96
X45.896Y112.933
X45.899Y112.905
X45.902Y112.877
X45.906Y112.85
X45.911Y112.822
X45.916Y112.795
X45.922Y112.768
X45.928Y112.74
X45.934Y112.713
X45.941Y112.686
X45.947Y112.665
X45.957Y112.631
X45.965Y112.606
X45.974Y112.58
X45.985Y112.549
X45.993Y112.527
X46.003Y112.501
X46.014Y112.476
X46.025Y112.45
X46.048Y112.4
X46.061Y112.375
X46.074Y112.35
X46.087Y112.326
X46.101Y112.3
X46.115Y112.277
X46.13Y112.253
X46.153Y112.217
X46.177Y112.181
X46.192Y112.161
X46.208Y112.139
X46.225Y112.117
X46.243Y112.095
X46.26Y112.073
X46.278Y112.052
X46.297Y112.031
X46.316Y112.011
X46.354Y111.971
X46.374Y111.951
X46.395Y111.932
X46.415Y111.913
X46.436Y111.895
X46.457Y111.876
X46.479Y111.859
X46.523Y111.824
X46.545Y111.808
X46.568Y111.792
X46.591Y111.776
X46.614Y111.76
X46.637Y111.745
X46.661Y111.731
X46.685Y111.717
X46.709Y111.703
X46.734Y111.69
X46.759Y111.677
X46.784Y111.664
X46.809Y111.652
X46.834Y111.641
X46.885Y111.619
X46.911Y111.609
X46.937Y111.599
X46.964Y111.59
X46.99Y111.581
X47.017Y111.573
X47.043Y111.565
X47.07Y111.557
X47.124Y111.544
X47.151Y111.538
X47.179Y111.532
X47.206Y111.527
X47.234Y111.523
X47.261Y111.518
X47.289Y111.515
X47.316Y111.512
X47.344Y111.509
X47.372Y111.507
X47.4Y111.505
X47.428Y111.504
X47.456Y111.503
X47.483
G0Z1
X54.683Y111.364
G1Z-0.8F5
X54.619Y110.212F10
X54.572Y109.058
X54.545Y107.904
X54.535Y106.743
Y103.19
X54.539Y103.152
X54.541Y103.114
X54.542Y103.076
X54.543Y103.038
Y75.038
X54.542Y74.998
X54.541Y74.958
X54.538Y74.919
X54.535Y74.879
X54.53Y74.839
X54.525Y74.8
X54.519Y74.761
X54.511Y74.722
X54.503Y74.683
X54.493Y74.644
X54.483Y74.606
X54.472Y74.567
X54.46Y74.53
X54.446Y74.492
X54.432Y74.455
X54.417Y74.418
X54.401Y74.382
X54.385Y74.346
X54.367Y74.31
X54.348Y74.275
X54.329Y74.24
X54.308Y74.205
X54.286Y74.171
X54.264Y74.137
X54.24Y74.104
X54.216Y74.072
X54.191Y74.04
X54.165Y74.009
X54.153Y73.994
X54.126Y73.964
X54.106Y73.942
X54.085Y73.921
X54.056Y73.892
X54.027Y73.865
X53.991Y73.833
X53.954Y73.802
X53.927Y73.78
X53.899Y73.759
X53.87Y73.738
X53.841Y73.718
X53.811Y73.699
X53.781Y73.68
X53.753Y73.663
X53.724Y73.647
X53.695Y73.631
X53.658Y73.612
X53.62Y73.594
X53.591Y73.581
X53.561Y73.568
X53.521Y73.552
X53.499Y73.544
X53.458Y73.529
X53.418Y73.516
X53.376Y73.504
X53.333Y73.493
X53.291Y73.483
X53.25Y73.475
X53.21Y73.468
X53.159Y73.46
X53.102Y73.454
X53.069Y73.451
X53.035Y73.449
X53.001Y73.447
X52.952
X52.719
X52.658Y73.436
X52.582Y73.425
X52.503Y73.417
X52.426Y73.412
X52.348Y73.409
X52.309Y73.408
X41.476
X41.436Y73.409
X41.397Y73.41
X41.358Y73.413
X41.318Y73.416
X41.279Y73.421
X41.24Y73.426
X41.201Y73.432
X41.162Y73.44
X41.129Y73.447
X41.086Y73.448
X41.043Y73.45
X41.001Y73.454
X40.958Y73.459
X40.915Y73.464
X40.873Y73.471
X40.83Y73.479
X40.788Y73.489
X40.747Y73.499
X40.712Y73.509
X40.678Y73.519
X40.643Y73.53
X40.61Y73.542
X40.576Y73.555
X40.535Y73.571
X40.494Y73.589
X40.453Y73.608
X40.41Y73.63
X40.38Y73.646
X40.351Y73.663
X40.314Y73.685
X40.279Y73.708
X40.247Y73.729
X40.215Y73.751
X40.185Y73.774
X40.154Y73.798
X40.124Y73.823
X40.095Y73.848
X40.067Y73.874
X40.039Y73.901
X40.012Y73.928
X39.985Y73.956
X39.959Y73.985
X39.934Y74.014
X39.91Y74.044
X39.886Y74.074
X39.863Y74.105
X39.841Y74.137
X39.819Y74.169
X39.799Y74.201
X39.779Y74.234
X39.76Y74.268
X39.741Y74.303
X39.724Y74.337
X39.707Y74.371
X39.692Y74.406
X39.677Y74.441
X39.663Y74.477
X39.65Y74.513
X39.638Y74.549
X39.627Y74.585
X39.616Y74.622
X39.607Y74.659
X39.598Y74.696
X39.59Y74.734
X39.583Y74.771
X39.577Y74.809
X39.572Y74.847
X39.568Y74.885
X39.565Y74.923
X39.563Y74.961
X39.561Y74.999
Y75.038
Y78.974
X39.548Y79.564
X39.542Y80.308
X39.543Y106.763
X39.548Y107.417
X39.565Y108.071
X39.592Y108.724
X39.63Y109.377
X39.679Y110.029
X39.739Y110.68
X39.81Y111.331
X39.891Y111.98
X39.984Y112.627
X40.087Y113.273
X40.2Y113.917
X40.325Y114.56
X40.351Y114.683
X40.38Y114.807
X40.41Y114.93
X40.443Y115.052
X40.478Y115.173
X40.515Y115.295
X40.554Y115.415
X40.595Y115.535
X40.639Y115.654
X40.684Y115.772
X40.731Y115.889
X40.781Y116.006
X40.832Y116.121
X40.885Y116.236
X40.94Y116.35
X40.998Y116.463
X41.057Y116.575
X41.118Y116.686
X41.181Y116.796
X41.246Y116.904
X41.313Y117.012
X41.382Y117.118
X41.452Y117.223
X41.525Y117.327
X41.599Y117.43
X41.675Y117.531
X41.752Y117.631
X41.832Y117.729
X41.913Y117.827
X41.995Y117.922
X42.08Y118.017
X42.166Y118.11
X42.254Y118.201
X42.343Y118.291
X42.433Y118.379
X42.526Y118.466
X42.619Y118.551
X42.714Y118.634
X42.811Y118.716
X42.933Y118.816
X43.057Y118.914
X43.182Y119.009
X43.31Y119.103
X43.439Y119.195
X43.569Y119.284
X43.701Y119.371
X43.834Y119.456
X43.969Y119.538
X44.105Y119.618
X44.243Y119.696
X44.382Y119.771
X44.522Y119.844
X44.663Y119.914
X44.806Y119.983
X44.949Y120.048
X45.094Y120.111
X45.24Y120.172
X45.387Y120.23
X45.534Y120.286
X45.683Y120.339
X45.833Y120.39
X45.983Y120.438
X46.135Y120.483
X46.287Y120.526
X46.439Y120.566
X46.593Y120.604
X46.747Y120.639
X46.901Y120.671
X47.057Y120.7
X47.212Y120.727
X47.368Y120.752
X47.525Y120.773
X47.682Y120.792
X47.839Y120.808
X47.996Y120.822
X48.154Y120.833
X48.311Y120.841
X48.469Y120.846
X48.627Y120.849
X48.785
X48.943Y120.847
X49.101Y120.841
X49.259Y120.833
X49.416Y120.822
X49.574Y120.809
X49.731Y120.793
X49.888Y120.774
X50.031Y120.754
X52.921Y120.335
X52.997Y120.321
X53.074Y120.304
X53.148Y120.286
X53.222Y120.264
X53.296Y120.24
X53.369Y120.213
X53.441Y120.184
X53.511Y120.152
X53.58Y120.118
X53.649Y120.081
X53.716Y120.042
X53.781Y120.001
X53.846Y119.957
X53.908Y119.912
X53.969Y119.864
X54.028Y119.814
X54.085Y119.762
X54.142Y119.707
X54.195Y119.653
X54.247Y119.594
X54.296Y119.535
X54.343Y119.475
X54.39Y119.411
X54.432Y119.347
X54.474Y119.281
X54.512Y119.214
X54.548Y119.146
X54.582Y119.075
X54.613Y119.005
X54.643Y118.933
X54.669Y118.861
X54.693Y118.786
X54.714Y118.712
X54.733Y118.637
X54.749Y118.562
X54.762Y118.485
X54.773Y118.408
X54.781Y118.332
X54.786Y118.253
X54.789Y118.177
Y118.138
Y113.087
X54.788Y112.97
X54.785Y112.853
X54.78Y112.736
X54.774Y112.62
X54.683Y111.364
G0Z1
X46.967Y82.16
G1Z-0.9F5
X47.123Y82.077F10
X47.292Y82.026
X47.468Y82.009
X47.644Y82.026
X47.813Y82.077
X47.969Y82.16
X48.105Y82.273
X48.217Y82.409
X48.301Y82.565
X48.352Y82.734
X48.369Y82.91
X48.352Y83.086
X48.301Y83.255
X48.217Y83.411
X48.105Y83.547
X47.969Y83.659
X47.813Y83.743
X47.644Y83.794
X47.468Y83.811
X47.292Y83.794
X47.123Y83.743
X46.967Y83.659
X46.831Y83.547
X46.719Y83.411
X46.635Y83.255
X46.584Y83.086
X46.567Y82.91
X46.584Y82.734
X46.635Y82.565
X46.719Y82.409
X46.831Y82.273
X46.967Y82.16
G0Z1
X47.468Y97.912
G1Z-0.9F5
X47.644Y97.93F10
X47.813Y97.981
X47.969Y98.064
X48.105Y98.176
X48.217Y98.313
X48.301Y98.469
X48.352Y98.638
X48.369Y98.814
X48.352Y98.99
X48.301Y99.159
X48.217Y99.315
X48.105Y99.451
X47.969Y99.563
X47.813Y99.646
X47.644Y99.698
X47.468Y99.715
X47.292Y99.698
X47.123Y99.646
X46.967Y99.563
X46.831Y99.451
X46.719Y99.315
X46.635Y99.159
X46.584Y98.99
X46.567Y98.814
X46.584Y98.638
X46.635Y98.469
X46.719Y98.313
X46.831Y98.176
X46.967Y98.064
X47.123Y97.981
X47.292Y97.93
X47.468Y97.912
G0Z1
X47.483Y111.503
G1Z-0.9F5
X47.511F10
X47.539Y111.504
X47.567Y111.505
X47.595Y111.507
X47.623Y111.509
X47.65Y111.512
X47.678Y111.515
X47.706Y111.518
X47.733Y111.523
X47.761Y111.527
X47.788Y111.532
X47.815Y111.538
X47.843Y111.544
X47.87Y111.55
X47.897Y111.557
X47.923Y111.565
X47.95Y111.573
X47.977Y111.581
X48.003Y111.59
X48.03Y111.599
X48.082Y111.619
X48.107Y111.63
X48.133Y111.641
X48.158Y111.653
X48.183Y111.664
X48.208Y111.677
X48.233Y111.69
X48.258Y111.703
X48.282Y111.717
X48.306Y111.731
X48.33Y111.746
X48.353Y111.76
X48.376Y111.776
X48.399Y111.792
X48.422Y111.808
X48.467Y111.841
X48.488Y111.859
X48.51Y111.876
X48.531Y111.895
X48.552Y111.913
X48.572Y111.932
X48.593Y111.951
X48.612Y111.971
X48.632Y111.99
X48.651Y112.011
X48.67Y112.031
X48.688Y112.052
X48.707Y112.073
X48.724Y112.095
X48.742Y112.117
X48.758Y112.138
X48.775Y112.161
X48.791Y112.184
X48.807Y112.207
X48.823Y112.23
X48.837Y112.253
X48.852Y112.277
X48.866Y112.301
X48.88Y112.326
X48.893Y112.35
X48.906Y112.375
X48.918Y112.4
X48.93Y112.425
X48.942Y112.45
X48.953Y112.476
X48.964Y112.501
X48.974Y112.527
X48.984Y112.553
X48.993Y112.58
X49.002Y112.606
X49.01Y112.633
X49.018Y112.659
X49.026Y112.686
X49.033Y112.713
X49.039Y112.74
X49.045Y112.767
X49.051Y112.795
X49.056Y112.822
X49.06Y112.85
X49.065Y112.877
X49.068Y112.905
X49.071Y112.933
X49.074Y112.96
X49.076Y112.988
X49.078Y113.016
X49.079Y113.044
X49.08Y113.072
Y113.1
Y113.127
X49.079Y113.155
X49.078Y113.183
X49.076Y113.211
X49.074Y113.239
X49.071Y113.267
X49.068Y113.294
X49.065Y113.322
X49.06Y113.349
X49.056Y113.377
X49.047Y113.423
X49.039Y113.461
X49.028Y113.505
X49.018Y113.542
X49.01Y113.566
X48.993Y113.619
X48.984Y113.646
X48.974Y113.672
X48.956Y113.715
X48.941Y113.751
X48.93Y113.774
X48.918Y113.799
X48.906Y113.824
X48.893Y113.849
X48.88Y113.874
X48.866Y113.898
X48.852Y113.922
X48.837Y113.946
X48.823Y113.969
X48.807Y113.992
X48.791Y114.015
X48.775Y114.038
X48.761Y114.057
X48.741Y114.084
X48.724Y114.104
X48.707Y114.126
X48.688Y114.147
X48.67Y114.168
X48.651Y114.188
X48.632Y114.209
X48.612Y114.229
X48.593Y114.248
X48.572Y114.267
X48.552Y114.286
X48.531Y114.304
X48.51Y114.323
X48.466Y114.358
X48.444Y114.375
X48.399Y114.407
X48.376Y114.423
X48.353Y114.439
X48.33Y114.454
X48.306Y114.468
X48.282Y114.482
X48.257Y114.496
X48.233Y114.509
X48.208Y114.522
X48.183Y114.535
X48.158Y114.547
X48.133Y114.558
X48.107Y114.569
X48.082Y114.58
X48.056Y114.59
X48.029Y114.6
X48.003Y114.609
X47.977Y114.618
X47.95Y114.626
X47.924Y114.634
X47.897Y114.642
X47.869Y114.649
X47.843Y114.655
X47.815Y114.661
X47.788Y114.667
X47.761Y114.672
X47.733Y114.677
X47.706Y114.681
X47.678Y114.684
X47.65Y114.687
X47.623Y114.69
X47.595Y114.692
X47.567Y114.694
X47.539Y114.695
X47.511Y114.696
X47.483
X47.456
X47.4Y114.694
X47.372Y114.692
X47.344Y114.69
X47.316Y114.687
X47.289Y114.684
X47.261Y114.681
X47.234Y114.677
X47.206Y114.672
X47.179Y114.667
X47.151Y114.661
X47.124Y114.655
X47.097Y114.649
X47.043Y114.634
X47.017Y114.626
X46.99Y114.618
X46.964Y114.609
X46.937Y114.6
X46.911Y114.59
X46.885Y114.58
X46.86Y114.569
X46.832Y114.557
X46.809Y114.547
X46.788Y114.537
X46.757Y114.521
X46.734Y114.509
X46.709Y114.496
X46.685Y114.482
X46.661Y114.468
X46.637Y114.454
X46.614Y114.439
X46.591Y114.423
X46.568Y114.407
X46.545Y114.391
X46.523Y114.375
X46.5Y114.358
X46.479Y114.34
X46.457Y114.323
X46.436Y114.305
X46.415Y114.286
X46.373Y114.246
X46.354Y114.229
X46.335Y114.209
X46.316Y114.188
X46.297Y114.168
X46.279Y114.147
X46.26Y114.126
X46.243Y114.104
X46.225Y114.083
X46.208Y114.06
X46.192Y114.038
X46.176Y114.015
X46.16Y113.992
X46.144Y113.969
X46.129Y113.946
X46.115Y113.922
X46.101Y113.898
X46.087Y113.874
X46.061Y113.824
X46.048Y113.799
X46.036Y113.774
X46.026Y113.752
X46.013Y113.722
X46.003Y113.698
X45.993Y113.672
X45.983Y113.646
X45.965Y113.593
X45.957Y113.566
X45.941Y113.513
X45.934Y113.486
X45.928Y113.459
X45.922Y113.432
X45.911Y113.377
X45.906Y113.349
X45.902Y113.322
X45.899Y113.294
X45.896Y113.266
X45.893Y113.239
X45.891Y113.211
X45.889Y113.183
X45.888Y113.155
X45.887Y113.128
Y113.1
Y113.077
X45.888Y113.042
X45.889Y113.016
X45.891Y112.988
X45.893Y112.96
X45.896Y112.933
X45.899Y112.905
X45.902Y112.877
X45.906Y112.85
X45.911Y112.822
X45.916Y112.795
X45.922Y112.768
X45.928Y112.74
X45.934Y112.713
X45.941Y112.686
X45.947Y112.665
X45.957Y112.631
X45.965Y112.606
X45.974Y112.58
X45.985Y112.549
X45.993Y112.527
X46.003Y112.501
X46.014Y112.476
X46.025Y112.45
X46.048Y112.4
X46.061Y112.375
X46.074Y112.35
X46.087Y112.326
X46.101Y112.3
X46.115Y112.277
X46.13Y112.253
X46.153Y112.217
X46.177Y112.181
X46.192Y112.161
X46.208Y112.139
X46.225Y112.117
X46.243Y112.095
X46.26Y112.073
X46.278Y112.052
X46.297Y112.031
X46.316Y112.011
X46.354Y111.971
X46.374Y111.951
X46.395Y111.932
X46.415Y111.913
X46.436Y111.895
X46.457Y111.876
X46.479Y111.859
X46.523Y111.824
X46.545Y111.808
X46.568Y111.792
X46.591Y111.776
X46.614Y111.76
X46.637Y111.745
X46.661Y111.731
X46.685Y111.717
X46.709Y111.703
X46.734Y111.69
X46.759Y111.677
X46.784Y111.664
X46.809Y111.652
X46.834Y111.641
X46.885Y111.619
X46.911Y111.609
X46.937Y111.599
X46.964Y111.59
X46.99Y111.581
X47.017Y111.573
X47.043Y111.565
X47.07Y111.557
X47.124Y111.544
X47.151Y111.538
X47.179Y111.532
X47.206Y111.527
X47.234Y111.523
X47.261Y111.518
X47.289Y111.515
X47.316Y111.512
X47.344Y111.509
X47.372Y111.507
X47.4Y111.505
X47.428Y111.504
X47.456Y111.503
X47.483
G0Z1
X54.683Y111.364
G1Z-0.9F5
X54.619Y110.212F10
X54.572Y109.058
X54.545Y107.904
X54.535Y106.743
Y103.19
X54.539Y103.152
X54.541Y103.114
X54.542Y103.076
X54.543Y103.038
Y75.038
X54.542Y74.998
X54.541Y74.958
X54.538Y74.919
X54.535Y74.879
X54.53Y74.839
X54.525Y74.8
X54.519Y74.761
X54.511Y74.722
X54.503Y74.683
X54.493Y74.644
X54.483Y74.606
X54.472Y74.567
X54.46Y74.53
X54.446Y74.492
X54.432Y74.455
X54.417Y74.418
X54.401Y74.382
X54.385Y74.346
X54.367Y74.31
X54.348Y74.275
X54.329Y74.24
X54.308Y74.205
X54.286Y74.171
X54.264Y74.137
X54.24Y74.104
X54.216Y74.072
X54.191Y74.04
X54.165Y74.009
X54.153Y73.994
X54.126Y73.964
X54.106Y73.942
X54.085Y73.921
X54.056Y73.892
X54.027Y73.865
X53.991Y73.833
X53.954Y73.802
X53.927Y73.78
X53.899Y73.759
X53.87Y73.738
X53.841Y73.718
X53.811Y73.699
X53.781Y73.68
X53.753Y73.663
X53.724Y73.647
X53.695Y73.631
X53.658Y73.612
X53.62Y73.594
X53.591Y73.581
X53.561Y73.568
X53.521Y73.552
X53.499Y73.544
X53.458Y73.529
X53.418Y73.516
X53.376Y73.504
X53.333Y73.493
X53.291Y73.483
X53.25Y73.475
X53.21Y73.468
X53.159Y73.46
X53.102Y73.454
X53.069Y73.451
X53.035Y73.449
X53.001Y73.447
X52.952
X52.719
X52.658Y73.436
X52.582Y73.425
X52.503Y73.417
X52.426Y73.412
X52.348Y73.409
X52.309Y73.408
X41.476
X41.436Y73.409
X41.397Y73.41
X41.358Y73.413
X41.318Y73.416
X41.279Y73.421
X41.24Y73.426
X41.201Y73.432
X41.162Y73.44
X41.129Y73.447
X41.086Y73.448
X41.043Y73.45
X41.001Y73.454
X40.958Y73.459
X40.915Y73.464
X40.873Y73.471
X40.83Y73.479
X40.788Y73.489
X40.747Y73.499
X40.712Y73.509
X40.678Y73.519
X40.643Y73.53
X40.61Y73.542
X40.576Y73.555
X40.535Y73.571
X40.494Y73.589
X40.453Y73.608
X40.41Y73.63
X40.38Y73.646
X40.351Y73.663
X40.314Y73.685
X40.279Y73.708
X40.247Y73.729
X40.215Y73.751
X40.185Y73.774
X40.154Y73.798
X40.124Y73.823
X40.095Y73.848
X40.067Y73.874
X40.039Y73.901
X40.012Y73.928
X39.985Y73.956
X39.959Y73.985
X39.934Y74.014
X39.91Y74.044
X39.886Y74.074
X39.863Y74.105
X39.841Y74.137
X39.819Y74.169
X39.799Y74.201
X39.779Y74.234
X39.76Y74.268
X39.741Y74.303
X39.724Y74.337
X39.707Y74.371
X39.692Y74.406
X39.677Y74.441
X39.663Y74.477
X39.65Y74.513
X39.638Y74.549
X39.627Y74.585
X39.616Y74.622
X39.607Y74.659
X39.598Y74.696
X39.59Y74.734
X39.583Y74.771
X39.577Y74.809
X39.572Y74.847
X39.568Y74.885
X39.565Y74.923
X39.563Y74.961
X39.561Y74.999
Y75.038
Y78.974
X39.548Y79.564
X39.542Y80.308
X39.543Y106.763
X39.548Y107.417
X39.565Y108.071
X39.592Y108.724
X39.63Y109.377
X39.679Y110.029
X39.739Y110.68
X39.81Y111.331
X39.891Y111.98
X39.984Y112.627
X40.087Y113.273
X40.2Y113.917
X40.325Y114.56
X40.351Y114.683
X40.38Y114.807
X40.41Y114.93
X40.443Y115.052
X40.478Y115.173
X40.515Y115.295
X40.554Y115.415
X40.595Y115.535
X40.639Y115.654
X40.684Y115.772
X40.731Y115.889
X40.781Y116.006
X40.832Y116.121
X40.885Y116.236
X40.94Y116.35
X40.998Y116.463
X41.057Y116.575
X41.118Y116.686
X41.181Y116.796
X41.246Y116.904
X41.313Y117.012
X41.382Y117.118
X41.452Y117.223
X41.525Y117.327
X41.599Y117.43
X41.675Y117.531
X41.752Y117.631
X41.832Y117.729
X41.913Y117.827
X41.995Y117.922
X42.08Y118.017
X42.166Y118.11
X42.254Y118.201
X42.343Y118.291
X42.433Y118.379
X42.526Y118.466
X42.619Y118.551
X42.714Y118.634
X42.811Y118.716
X42.933Y118.816
X43.057Y118.914
X43.182Y119.009
X43.31Y119.103
X43.439Y119.195
X43.569Y119.284
X43.701Y119.371
X43.834Y119.456
X43.969Y119.538
X44.105Y119.618
X44.243Y119.696
X44.382Y119.771
X44.522Y119.844
X44.663Y119.914
X44.806Y119.983
X44.949Y120.048
X45.094Y120.111
X45.24Y120.172
X45.387Y120.23
X45.534Y120.286
X45.683Y120.339
X45.833Y120.39
X45.983Y120.438
X46.135Y120.483
X46.287Y120.526
X46.439Y120.566
X46.593Y120.604
X46.747Y120.639
X46.901Y120.671
X47.057Y120.7
X47.212Y120.727
X47.368Y120.752
X47.525Y120.773
X47.682Y120.792
X47.839Y120.808
X47.996Y120.822
X48.154Y120.833
X48.311Y120.841
X48.469Y120.846
X48.627Y120.849
X48.785
X48.943Y120.847
X49.101Y120.841
X49.259Y120.833
X49.416Y120.822
X49.574Y120.809
X49.731Y120.793
X49.888Y120.774
X50.031Y120.754
X52.921Y120.335
X52.997Y120.321
X53.074Y120.304
X53.148Y120.286
X53.222Y120.264
X53.296Y120.24
X53.369Y120.213
X53.441Y120.184
X53.511Y120.152
X53.58Y120.118
X53.649Y120.081
X53.716Y120.042
X53.781Y120.001
X53.846Y119.957
X53.908Y119.912
X53.969Y119.864
X54.028Y119.814
X54.085Y119.762
X54.142Y119.707
X54.195Y119.653
X54.247Y119.594
X54.296Y119.535
X54.343Y119.475
X54.39Y119.411
X54.432Y119.347
X54.474Y119.281
X54.512Y119.214
X54.548Y119.146
X54.582Y119.075
X54.613Y119.005
X54.643Y118.933
X54.669Y118.861
X54.693Y118.786
X54.714Y118.712
X54.733Y118.637
X54.749Y118.562
X54.762Y118.485
X54.773Y118.408
X54.781Y118.332
X54.786Y118.253
X54.789Y118.177
Y118.138
Y113.087
X54.788Y112.97
X54.785Y112.853
X54.78Y112.736
X54.774Y112.62
X54.683Y111.364
G0Z1
X46.967Y82.16
G1Z-1F5
X47.123Y82.077F10
X47.292Y82.026
X47.468Y82.009
X47.644Y82.026
X47.813Y82.077
X47.969Y82.16
X48.105Y82.273
X48.217Y82.409
X48.301Y82.565
X48.352Y82.734
X48.369Y82.91
X48.352Y83.086
X48.301Y83.255
X48.217Y83.411
X48.105Y83.547
X47.969Y83.659
X47.813Y83.743
X47.644Y83.794
X47.468Y83.811
X47.292Y83.794
X47.123Y83.743
X46.967Y83.659
X46.831Y83.547
X46.719Y83.411
X46.635Y83.255
X46.584Y83.086
X46.567Y82.91
X46.584Y82.734
X46.635Y82.565
X46.719Y82.409
X46.831Y82.273
X46.967Y82.16
G0Z1
X47.468Y97.912
G1Z-1F5
X47.644Y97.93F10
X47.813Y97.981
X47.969Y98.064
X48.105Y98.176
X48.217Y98.313
X48.301Y98.469
X48.352Y98.638
X48.369Y98.814
X48.352Y98.99
X48.301Y99.159
X48.217Y99.315
X48.105Y99.451
X47.969Y99.563
X47.813Y99.646
X47.644Y99.698
X47.468Y99.715
X47.292Y99.698
X47.123Y99.646
X46.967Y99.563
X46.831Y99.451
X46.719Y99.315
X46.635Y99.159
X46.584Y98.99
X46.567Y98.814
X46.584Y98.638
X46.635Y98.469
