(Created with grbl post processor 2024/11/24 13:46)
G21
(G-code generated with BlenderCAM and NC library)
G17G90
(Tool: D = 3.18 mm  type END flutes 2)
S1000M03
G00 Z1.0

G0X0Y0Z1
X24.177Y47.421
G1Z-0.1F5
X24.202Y47.408F10
X24.227Y47.396
X24.252Y47.385
X24.278Y47.374
X24.303Y47.363
X24.329Y47.353
X24.356Y47.343
X24.382Y47.334
X24.408Y47.325
X24.435Y47.316
X24.488Y47.301
X24.516Y47.294
X24.543Y47.288
X24.57Y47.282
X24.597Y47.276
X24.624Y47.271
X24.652Y47.266
X24.679Y47.262
X24.707Y47.259
X24.735Y47.255
X24.762Y47.253
X24.79Y47.251
X24.818Y47.249
X24.846Y47.248
X24.874Y47.247
X24.902
X24.957Y47.248
X24.985Y47.249
X25.041Y47.253
X25.069Y47.255
X25.096Y47.259
X25.124Y47.262
X25.151Y47.266
X25.195Y47.274
X25.236Y47.282
X25.261Y47.288
X25.288Y47.294
X25.315Y47.301
X25.342Y47.309
X25.368Y47.316
X25.395Y47.325
X25.421Y47.334
X25.448Y47.343
X25.474Y47.353
X25.5Y47.363
X25.525Y47.374
X25.566Y47.392
X25.601Y47.408
X25.626Y47.421
X25.651Y47.434
X25.676Y47.447
X25.7Y47.461
X25.724Y47.475
X25.748Y47.489
X25.771Y47.504
X25.794Y47.52
X25.817Y47.535
X25.84Y47.552
X25.862Y47.568
X25.885Y47.585
X25.906Y47.602
X25.928Y47.62
X25.949Y47.638
X25.97Y47.657
X25.99Y47.676
X26.011Y47.695
X26.031Y47.714
X26.05Y47.734
X26.069Y47.754
X26.088Y47.775
X26.107Y47.796
X26.125Y47.817
X26.142Y47.839
X26.16Y47.86
X26.177Y47.882
X26.193Y47.905
X26.209Y47.928
X26.225Y47.951
X26.241Y47.974
X26.27Y48.021
X26.284Y48.045
X26.298Y48.069
X26.311Y48.094
X26.324Y48.118
X26.337Y48.143
X26.349Y48.169
X26.36Y48.194
X26.371Y48.22
X26.382Y48.245
X26.402Y48.297
X26.411Y48.323
X26.42Y48.35
X26.428Y48.377
X26.436Y48.403
X26.444Y48.43
X26.451Y48.457
X26.457Y48.484
X26.463Y48.511
X26.469Y48.539
X26.474Y48.566
X26.479Y48.594
X26.483Y48.621
X26.486Y48.649
X26.489Y48.677
X26.492Y48.704
X26.494Y48.732
X26.496Y48.76
X26.497Y48.788
X26.498Y48.815
Y48.843
Y48.871
X26.497Y48.899
X26.496Y48.927
X26.494Y48.955
X26.492Y48.982
X26.489Y49.01
X26.486Y49.038
X26.483Y49.066
X26.479Y49.093
X26.474Y49.121
X26.469Y49.148
X26.463Y49.175
X26.451Y49.23
X26.444Y49.256
X26.436Y49.283
X26.43Y49.303
X26.419Y49.339
X26.411Y49.363
X26.392Y49.416
X26.382Y49.441
X26.371Y49.467
X26.36Y49.493
X26.349Y49.518
X26.337Y49.543
X26.324Y49.568
X26.311Y49.593
X26.298Y49.617
X26.284Y49.642
X26.27Y49.665
X26.256Y49.689
X26.225Y49.736
X26.209Y49.759
X26.193Y49.782
X26.177Y49.804
X26.16Y49.826
X26.143Y49.848
X26.125Y49.87
X26.107Y49.891
X26.088Y49.912
X26.069Y49.932
X26.05Y49.952
X26.031Y49.972
X26.011Y49.992
X25.99Y50.011
X25.97Y50.03
X25.949Y50.048
X25.928Y50.066
X25.906Y50.084
X25.885Y50.101
X25.86Y50.12
X25.84Y50.135
X25.817Y50.151
X25.771Y50.182
X25.748Y50.197
X25.724Y50.212
X25.697Y50.227
X25.676Y50.24
X25.651Y50.253
X25.626Y50.266
X25.602Y50.278
X25.577Y50.29
X25.551Y50.302
X25.525Y50.313
X25.5Y50.324
X25.474Y50.334
X25.452Y50.342
X25.42Y50.353
X25.395Y50.362
X25.368Y50.37
X25.339Y50.379
X25.315Y50.386
X25.288Y50.393
X25.261Y50.399
X25.234Y50.405
X25.206Y50.411
X25.179Y50.416
X25.152Y50.42
X25.124Y50.424
X25.096Y50.428
X25.069Y50.431
X25.013Y50.436
X24.985Y50.438
X24.957Y50.439
X24.93Y50.44
X24.902
X24.874
X24.846Y50.439
X24.79Y50.436
X24.762Y50.434
X24.735Y50.431
X24.707Y50.428
X24.652Y50.42
X24.624Y50.416
X24.597Y50.411
X24.57Y50.405
X24.542Y50.399
X24.515Y50.393
X24.488Y50.386
X24.461Y50.378
X24.435Y50.37
X24.408Y50.362
X24.353Y50.343
X24.314Y50.328
X24.275Y50.312
X24.227Y50.29
X24.201Y50.278
X24.177Y50.266
X24.152Y50.253
X24.127Y50.24
X24.103Y50.226
X24.079Y50.212
X24.056Y50.197
X24.032Y50.182
X23.986Y50.151
X23.941Y50.118
X23.915Y50.098
X23.897Y50.084
X23.854Y50.048
X23.833Y50.03
X23.813Y50.011
X23.793Y49.992
X23.773Y49.972
X23.753Y49.952
X23.734Y49.932
X23.715Y49.912
X23.697Y49.891
X23.679Y49.87
X23.661Y49.848
X23.643Y49.826
X23.626Y49.804
X23.61Y49.782
X23.594Y49.759
X23.578Y49.736
X23.547Y49.688
X23.533Y49.666
X23.519Y49.642
X23.492Y49.593
X23.479Y49.568
X23.467Y49.543
X23.455Y49.518
X23.443Y49.493
X23.432Y49.467
X23.421Y49.442
X23.411Y49.416
X23.401Y49.389
X23.392Y49.363
X23.375Y49.31
X23.367Y49.283
X23.359Y49.256
X23.352Y49.23
X23.346Y49.203
X23.34Y49.175
X23.334Y49.148
X23.329Y49.12
X23.325Y49.093
X23.321Y49.069
X23.317Y49.037
X23.314Y49.01
X23.311Y48.983
X23.309Y48.955
X23.307Y48.927
X23.306Y48.899
X23.305Y48.868
Y48.843
Y48.815
X23.307Y48.76
X23.309Y48.732
X23.311Y48.709
X23.314Y48.675
X23.317Y48.649
X23.32Y48.621
X23.325Y48.594
X23.329Y48.566
X23.334Y48.539
X23.34Y48.511
X23.346Y48.484
X23.359Y48.43
X23.367Y48.403
X23.375Y48.377
X23.383Y48.35
X23.392Y48.324
X23.401Y48.297
X23.411Y48.271
X23.421Y48.245
X23.432Y48.22
X23.443Y48.194
X23.455Y48.168
X23.467Y48.143
X23.479Y48.118
X23.491Y48.096
X23.506Y48.069
X23.519Y48.045
X23.533Y48.021
X23.548Y47.997
X23.563Y47.974
X23.576Y47.953
X23.594Y47.927
X23.61Y47.905
X23.626Y47.882
X23.643Y47.86
X23.678Y47.817
X23.697Y47.796
X23.715Y47.775
X23.734Y47.754
X23.753Y47.734
X23.773Y47.714
X23.792Y47.695
X23.813Y47.676
X23.833Y47.657
X23.854Y47.638
X23.875Y47.62
X23.919Y47.585
X23.941Y47.568
X23.963Y47.552
X24.009Y47.52
X24.032Y47.504
X24.055Y47.489
X24.079Y47.475
X24.103Y47.461
X24.13Y47.446
X24.152Y47.434
X24.177Y47.421
G0Z1
X38.258Y48.83
G1Z-0.1F5
X38.275Y48.654F10
X38.326Y48.485
X38.409Y48.329
X38.522Y48.192
X38.658Y48.08
X38.814Y47.997
X38.983Y47.946
X39.159Y47.928
X39.335Y47.946
X39.504Y47.997
X39.66Y48.08
X39.796Y48.192
X39.908Y48.329
X39.992Y48.485
X40.043Y48.654
X40.06Y48.83
X40.043Y49.006
X39.992Y49.175
X39.908Y49.331
X39.796Y49.467
X39.66Y49.579
X39.504Y49.662
X39.335Y49.714
X39.159Y49.731
X38.983Y49.714
X38.814Y49.662
X38.658Y49.579
X38.522Y49.467
X38.409Y49.331
X38.326Y49.175
X38.275Y49.006
X38.258Y48.83
G0Z1
X54.162
G1Z-0.1F5
X54.179Y48.654F10
X54.23Y48.485
X54.314Y48.329
X54.426Y48.192
X54.562Y48.08
X54.718Y47.997
X54.887Y47.946
X55.063Y47.928
X55.239Y47.946
X55.408Y47.997
X55.564Y48.08
X55.7Y48.192
X55.812Y48.329
X55.896Y48.485
X55.947Y48.654
X55.964Y48.83
X55.947Y49.006
X55.896Y49.175
X55.812Y49.331
X55.7Y49.467
X55.564Y49.579
X55.408Y49.662
X55.239Y49.714
X55.063Y49.731
X54.887Y49.714
X54.718Y49.662
X54.562Y49.579
X54.426Y49.467
X54.314Y49.331
X54.23Y49.175
X54.179Y49.006
X54.162Y48.83
G0Z1
X57.693Y56.784
G1Z-0.1F5
X58.461Y56.779F10
X59.203Y56.762
X59.887Y56.736
X60.001Y56.729
X62.935
X62.973
X63.011Y56.728
X63.05Y56.725
X63.088Y56.722
X63.126Y56.718
X63.164Y56.713
X63.201Y56.707
X63.239Y56.7
X63.276Y56.692
X63.314Y56.684
X63.351Y56.674
X63.388Y56.664
X63.424Y56.652
X63.46Y56.64
X63.496Y56.627
X63.532Y56.613
X63.567Y56.598
X63.602Y56.583
X63.637Y56.566
X63.671Y56.549
X63.705Y56.53
X63.739Y56.511
X63.772Y56.491
X63.805Y56.471
X63.837Y56.449
X63.868Y56.427
X63.899Y56.404
X63.93Y56.38
X63.96Y56.356
X63.989Y56.33
X64.017Y56.304
X64.045Y56.278
X64.073Y56.251
X64.099Y56.223
X64.125Y56.194
X64.151Y56.165
X64.175Y56.135
X64.199Y56.105
X64.222Y56.074
X64.244Y56.042
X64.266Y56.01
X64.288Y55.975
X64.31Y55.939
X64.327Y55.909
X64.343Y55.879
X64.365Y55.836
X64.378Y55.809
X64.393Y55.776
X64.407Y55.743
X64.42Y55.71
X64.434Y55.672
X64.447Y55.634
X64.459Y55.595
X64.47Y55.556
X64.479Y55.524
X64.486Y55.491
X64.493Y55.459
X64.502Y55.415
X64.51Y55.365
X64.512Y55.352
X64.523Y55.317
X64.534Y55.28
X64.544Y55.241
X64.553Y55.203
X64.561Y55.164
X64.569Y55.126
X64.575Y55.087
X64.58Y55.048
X64.585Y55.008
X64.588Y54.969
X64.591Y54.93
X64.592Y54.89
X64.593Y54.851
X64.592Y43.979
X64.59Y43.901
X64.584Y43.823
X64.581Y43.788
X64.515Y43.148
X64.51Y43.114
X64.505Y43.08
X64.499Y43.046
X64.492Y43.012
X64.484Y42.976
X64.476Y42.941
X64.466Y42.907
X64.456Y42.872
X64.445Y42.837
X64.433Y42.803
X64.42Y42.768
X64.404Y42.728
X64.392Y42.698
X64.378Y42.669
X64.36Y42.631
X64.341Y42.594
X64.325Y42.565
X64.309Y42.536
X64.292Y42.508
X64.273Y42.478
X64.254Y42.448
X64.234Y42.419
X64.213Y42.391
X64.192Y42.363
X64.17Y42.335
X64.139Y42.298
X64.107Y42.262
X64.079Y42.233
X64.051Y42.205
X64.03Y42.184
X64.007Y42.163
X63.978Y42.137
X63.963Y42.124
X63.932Y42.098
X63.9Y42.074
X63.868Y42.049
X63.835Y42.026
X63.801Y42.004
X63.767Y41.982
X63.732Y41.961
X63.697Y41.942
X63.662Y41.923
X63.626Y41.905
X63.59Y41.889
X63.554Y41.873
X63.517Y41.858
X63.48Y41.844
X63.443Y41.831
X63.405Y41.818
X63.367Y41.807
X63.328Y41.797
X63.29Y41.787
X63.251Y41.779
X63.212Y41.772
X63.172Y41.765
X63.133Y41.76
X63.094Y41.755
X63.054Y41.752
X63.014Y41.749
X62.975Y41.748
X62.935Y41.747
X34.935
X34.897Y41.748
X34.859Y41.749
X34.82Y41.752
X34.776Y41.755
X34.731Y41.761
X34.686Y41.767
X34.646Y41.774
X34.607Y41.782
X34.564Y41.791
X31.258
X30.097Y41.782
X28.943Y41.754
X27.789Y41.708
X26.637Y41.644
X25.356Y41.552
X25.239Y41.545
X25.122Y41.541
X25.006Y41.538
X24.902Y41.537
X19.825Y41.538
X19.747Y41.54
X19.67Y41.546
X19.593Y41.554
X19.517Y41.565
X19.44Y41.578
X19.364Y41.594
X19.288Y41.613
X19.215Y41.634
X19.141Y41.658
X19.068Y41.684
X18.996Y41.713
X18.926Y41.744
X18.855Y41.779
X18.787Y41.815
X18.72Y41.853
X18.654Y41.894
X18.59Y41.937
X18.527Y41.983
X18.466Y42.03
X18.407Y42.08
X18.349Y42.132
X18.294Y42.185
X18.239Y42.242
X18.187Y42.298
X18.137Y42.358
X18.089Y42.419
X18.044Y42.481
X18Y42.545
X17.959Y42.611
X17.92Y42.678
X17.883Y42.746
X17.849Y42.816
X17.817Y42.886
X17.788Y42.958
X17.761Y43.031
X17.737Y43.105
X17.716Y43.178
X17.697Y43.253
X17.68Y43.329
X17.666Y43.406
X17.66Y43.444
X17.245Y46.31
X17.224Y46.466
X17.205Y46.623
X17.19Y46.78
X17.177Y46.938
X17.166Y47.095
X17.159Y47.253
X17.154Y47.411
X17.152Y47.569
Y47.727
X17.155Y47.885
X17.161Y48.043
X17.17Y48.2
X17.181Y48.358
X17.195Y48.515
X17.212Y48.672
X17.231Y48.829
X17.253Y48.985
X17.278Y49.141
X17.306Y49.297
X17.336Y49.452
X17.368Y49.606
X17.404Y49.761
X17.442Y49.914
X17.483Y50.066
X17.526Y50.218
X17.572Y50.369
X17.62Y50.52
X17.671Y50.669
X17.725Y50.818
X17.781Y50.965
X17.839Y51.112
X17.9Y51.258
X17.964Y51.403
X18.03Y51.546
X18.099Y51.688
X18.17Y51.829
X18.243Y51.969
X18.319Y52.108
X18.397Y52.245
X18.477Y52.381
X18.56Y52.516
X18.645Y52.649
X18.732Y52.78
X18.822Y52.91
X18.914Y53.039
X19.008Y53.166
X19.104Y53.291
X19.202Y53.415
X19.302Y53.536
X19.384Y53.633
X19.468Y53.727
X19.553Y53.821
X19.64Y53.913
X19.729Y54.003
X19.819Y54.092
X19.911Y54.179
X20.005Y54.265
X20.099Y54.349
X20.196Y54.432
X20.293Y54.512
X20.392Y54.591
X20.492Y54.669
X20.594Y54.744
X20.697Y54.818
X20.801Y54.89
X20.906Y54.96
X21.013Y55.028
X21.12Y55.095
X21.23Y55.159
X21.339Y55.222
X21.45Y55.283
X21.563Y55.342
X21.676Y55.398
X21.79Y55.453
X21.905Y55.506
X22.021Y55.557
X22.137Y55.606
X22.255Y55.653
X22.373Y55.698
X22.492Y55.741
X22.612Y55.781
X22.733Y55.82
X22.854Y55.856
X22.976Y55.891
X23.098Y55.923
X23.221Y55.953
X23.344Y55.981
X23.468Y56.007
X24.11Y56.131
X24.754Y56.244
X25.4Y56.347
X26.048Y56.439
X26.697Y56.52
X27.347Y56.59
X27.998Y56.65
X28.65Y56.698
X29.303Y56.736
X29.957Y56.763
X30.611Y56.779
X31.252Y56.784
X57.693
G0Z1
X24.177Y47.421
G1Z-0.2F5
X24.202Y47.408F10
X24.227Y47.396
X24.252Y47.385
X24.278Y47.374
X24.303Y47.363
X24.329Y47.353
X24.356Y47.343
X24.382Y47.334
X24.408Y47.325
X24.435Y47.316
X24.488Y47.301
X24.516Y47.294
X24.543Y47.288
X24.57Y47.282
X24.597Y47.276
X24.624Y47.271
X24.652Y47.266
X24.679Y47.262
X24.707Y47.259
X24.735Y47.255
X24.762Y47.253
X24.79Y47.251
X24.818Y47.249
X24.846Y47.248
X24.874Y47.247
X24.902
X24.957Y47.248
X24.985Y47.249
X25.041Y47.253
X25.069Y47.255
X25.096Y47.259
X25.124Y47.262
X25.151Y47.266
X25.195Y47.274
X25.236Y47.282
X25.261Y47.288
X25.288Y47.294
X25.315Y47.301
X25.342Y47.309
X25.368Y47.316
X25.395Y47.325
X25.421Y47.334
X25.448Y47.343
X25.474Y47.353
X25.5Y47.363
X25.525Y47.374
X25.566Y47.392
X25.601Y47.408
X25.626Y47.421
X25.651Y47.434
X25.676Y47.447
X25.7Y47.461
X25.724Y47.475
X25.748Y47.489
X25.771Y47.504
X25.794Y47.52
X25.817Y47.535
X25.84Y47.552
X25.862Y47.568
X25.885Y47.585
X25.906Y47.602
X25.928Y47.62
X25.949Y47.638
X25.97Y47.657
X25.99Y47.676
X26.011Y47.695
X26.031Y47.714
X26.05Y47.734
X26.069Y47.754
X26.088Y47.775
X26.107Y47.796
X26.125Y47.817
X26.142Y47.839
X26.16Y47.86
X26.177Y47.882
X26.193Y47.905
X26.209Y47.928
X26.225Y47.951
X26.241Y47.974
X26.27Y48.021
X26.284Y48.045
X26.298Y48.069
X26.311Y48.094
X26.324Y48.118
X26.337Y48.143
X26.349Y48.169
X26.36Y48.194
X26.371Y48.22
X26.382Y48.245
X26.402Y48.297
X26.411Y48.323
X26.42Y48.35
X26.428Y48.377
X26.436Y48.403
X26.444Y48.43
X26.451Y48.457
X26.457Y48.484
X26.463Y48.511
X26.469Y48.539
X26.474Y48.566
X26.479Y48.594
X26.483Y48.621
X26.486Y48.649
X26.489Y48.677
X26.492Y48.704
X26.494Y48.732
X26.496Y48.76
X26.497Y48.788
X26.498Y48.815
Y48.843
Y48.871
X26.497Y48.899
X26.496Y48.927
X26.494Y48.955
X26.492Y48.982
X26.489Y49.01
X26.486Y49.038
X26.483Y49.066
X26.479Y49.093
X26.474Y49.121
X26.469Y49.148
X26.463Y49.175
X26.451Y49.23
X26.444Y49.256
X26.436Y49.283
X26.43Y49.303
X26.419Y49.339
X26.411Y49.363
X26.392Y49.416
X26.382Y49.441
X26.371Y49.467
X26.36Y49.493
X26.349Y49.518
X26.337Y49.543
X26.324Y49.568
X26.311Y49.593
X26.298Y49.617
X26.284Y49.642
X26.27Y49.665
X26.256Y49.689
X26.225Y49.736
X26.209Y49.759
X26.193Y49.782
X26.177Y49.804
X26.16Y49.826
X26.143Y49.848
X26.125Y49.87
X26.107Y49.891
X26.088Y49.912
X26.069Y49.932
X26.05Y49.952
X26.031Y49.972
X26.011Y49.992
X25.99Y50.011
X25.97Y50.03
X25.949Y50.048
X25.928Y50.066
X25.906Y50.084
X25.885Y50.101
X25.86Y50.12
X25.84Y50.135
X25.817Y50.151
X25.771Y50.182
X25.748Y50.197
X25.724Y50.212
X25.697Y50.227
X25.676Y50.24
X25.651Y50.253
X25.626Y50.266
X25.602Y50.278
X25.577Y50.29
X25.551Y50.302
X25.525Y50.313
X25.5Y50.324
X25.474Y50.334
X25.452Y50.342
X25.42Y50.353
X25.395Y50.362
X25.368Y50.37
X25.339Y50.379
X25.315Y50.386
X25.288Y50.393
X25.261Y50.399
X25.234Y50.405
X25.206Y50.411
X25.179Y50.416
X25.152Y50.42
X25.124Y50.424
X25.096Y50.428
X25.069Y50.431
X25.013Y50.436
X24.985Y50.438
X24.957Y50.439
X24.93Y50.44
X24.902
X24.874
X24.846Y50.439
X24.79Y50.436
X24.762Y50.434
X24.735Y50.431
X24.707Y50.428
X24.652Y50.42
X24.624Y50.416
X24.597Y50.411
X24.57Y50.405
X24.542Y50.399
X24.515Y50.393
X24.488Y50.386
X24.461Y50.378
X24.435Y50.37
X24.408Y50.362
X24.353Y50.343
X24.314Y50.328
X24.275Y50.312
X24.227Y50.29
X24.201Y50.278
X24.177Y50.266
X24.152Y50.253
X24.127Y50.24
X24.103Y50.226
X24.079Y50.212
X24.056Y50.197
X24.032Y50.182
X23.986Y50.151
X23.941Y50.118
X23.915Y50.098
X23.897Y50.084
X23.854Y50.048
X23.833Y50.03
X23.813Y50.011
X23.793Y49.992
X23.773Y49.972
X23.753Y49.952
X23.734Y49.932
X23.715Y49.912
X23.697Y49.891
X23.679Y49.87
X23.661Y49.848
X23.643Y49.826
X23.626Y49.804
X23.61Y49.782
X23.594Y49.759
X23.578Y49.736
X23.547Y49.688
X23.533Y49.666
X23.519Y49.642
X23.492Y49.593
X23.479Y49.568
X23.467Y49.543
X23.455Y49.518
X23.443Y49.493
X23.432Y49.467
X23.421Y49.442
X23.411Y49.416
X23.401Y49.389
X23.392Y49.363
X23.375Y49.31
X23.367Y49.283
X23.359Y49.256
X23.352Y49.23
X23.346Y49.203
X23.34Y49.175
X23.334Y49.148
X23.329Y49.12
X23.325Y49.093
X23.321Y49.069
X23.317Y49.037
X23.314Y49.01
X23.311Y48.983
X23.309Y48.955
X23.307Y48.927
X23.306Y48.899
X23.305Y48.868
Y48.843
Y48.815
X23.307Y48.76
X23.309Y48.732
X23.311Y48.709
X23.314Y48.675
X23.317Y48.649
X23.32Y48.621
X23.325Y48.594
X23.329Y48.566
X23.334Y48.539
X23.34Y48.511
X23.346Y48.484
X23.359Y48.43
X23.367Y48.403
X23.375Y48.377
X23.383Y48.35
X23.392Y48.324
X23.401Y48.297
X23.411Y48.271
X23.421Y48.245
X23.432Y48.22
X23.443Y48.194
X23.455Y48.168
X23.467Y48.143
X23.479Y48.118
X23.491Y48.096
X23.506Y48.069
X23.519Y48.045
X23.533Y48.021
X23.548Y47.997
X23.563Y47.974
X23.576Y47.953
X23.594Y47.927
X23.61Y47.905
X23.626Y47.882
X23.643Y47.86
X23.678Y47.817
X23.697Y47.796
X23.715Y47.775
X23.734Y47.754
X23.753Y47.734
X23.773Y47.714
X23.792Y47.695
X23.813Y47.676
X23.833Y47.657
X23.854Y47.638
X23.875Y47.62
X23.919Y47.585
X23.941Y47.568
X23.963Y47.552
X24.009Y47.52
X24.032Y47.504
X24.055Y47.489
X24.079Y47.475
X24.103Y47.461
X24.13Y47.446
X24.152Y47.434
X24.177Y47.421
G0Z1
X38.258Y48.83
G1Z-0.2F5
X38.275Y48.654F10
X38.326Y48.485
X38.409Y48.329
X38.522Y48.192
X38.658Y48.08
X38.814Y47.997
X38.983Y47.946
X39.159Y47.928
X39.335Y47.946
X39.504Y47.997
X39.66Y48.08
X39.796Y48.192
X39.908Y48.329
X39.992Y48.485
X40.043Y48.654
X40.06Y48.83
X40.043Y49.006
X39.992Y49.175
X39.908Y49.331
X39.796Y49.467
X39.66Y49.579
X39.504Y49.662
X39.335Y49.714
X39.159Y49.731
X38.983Y49.714
X38.814Y49.662
X38.658Y49.579
X38.522Y49.467
X38.409Y49.331
X38.326Y49.175
X38.275Y49.006
X38.258Y48.83
G0Z1
X54.162
G1Z-0.2F5
X54.179Y48.654F10
X54.23Y48.485
X54.314Y48.329
X54.426Y48.192
X54.562Y48.08
X54.718Y47.997
X54.887Y47.946
X55.063Y47.928
X55.239Y47.946
X55.408Y47.997
X55.564Y48.08
X55.7Y48.192
X55.812Y48.329
X55.896Y48.485
X55.947Y48.654
X55.964Y48.83
X55.947Y49.006
X55.896Y49.175
X55.812Y49.331
X55.7Y49.467
X55.564Y49.579
X55.408Y49.662
X55.239Y49.714
X55.063Y49.731
X54.887Y49.714
X54.718Y49.662
X54.562Y49.579
X54.426Y49.467
X54.314Y49.331
X54.23Y49.175
X54.179Y49.006
X54.162Y48.83
G0Z1
X57.693Y56.784
G1Z-0.2F5
X58.461Y56.779F10
X59.203Y56.762
X59.887Y56.736
X60.001Y56.729
X62.935
X62.973
X63.011Y56.728
X63.05Y56.725
X63.088Y56.722
X63.126Y56.718
X63.164Y56.713
X63.201Y56.707
X63.239Y56.7
X63.276Y56.692
X63.314Y56.684
X63.351Y56.674
X63.388Y56.664
X63.424Y56.652
X63.46Y56.64
X63.496Y56.627
X63.532Y56.613
X63.567Y56.598
X63.602Y56.583
X63.637Y56.566
X63.671Y56.549
X63.705Y56.53
X63.739Y56.511
X63.772Y56.491
X63.805Y56.471
X63.837Y56.449
X63.868Y56.427
X63.899Y56.404
X63.93Y56.38
X63.96Y56.356
X63.989Y56.33
X64.017Y56.304
X64.045Y56.278
X64.073Y56.251
X64.099Y56.223
X64.125Y56.194
X64.151Y56.165
X64.175Y56.135
X64.199Y56.105
X64.222Y56.074
X64.244Y56.042
X64.266Y56.01
X64.288Y55.975
X64.31Y55.939
X64.327Y55.909
X64.343Y55.879
X64.365Y55.836
X64.378Y55.809
X64.393Y55.776
X64.407Y55.743
X64.42Y55.71
X64.434Y55.672
X64.447Y55.634
X64.459Y55.595
X64.47Y55.556
X64.479Y55.524
X64.486Y55.491
X64.493Y55.459
X64.502Y55.415
X64.51Y55.365
X64.512Y55.352
X64.523Y55.317
X64.534Y55.28
X64.544Y55.241
X64.553Y55.203
X64.561Y55.164
X64.569Y55.126
X64.575Y55.087
X64.58Y55.048
X64.585Y55.008
X64.588Y54.969
X64.591Y54.93
X64.592Y54.89
X64.593Y54.851
X64.592Y43.979
X64.59Y43.901
X64.584Y43.823
X64.581Y43.788
X64.515Y43.148
X64.51Y43.114
X64.505Y43.08
X64.499Y43.046
X64.492Y43.012
X64.484Y42.976
X64.476Y42.941
X64.466Y42.907
X64.456Y42.872
X64.445Y42.837
X64.433Y42.803
X64.42Y42.768
X64.404Y42.728
X64.392Y42.698
X64.378Y42.669
X64.36Y42.631
X64.341Y42.594
X64.325Y42.565
X64.309Y42.536
X64.292Y42.508
X64.273Y42.478
X64.254Y42.448
X64.234Y42.419
X64.213Y42.391
X64.192Y42.363
X64.17Y42.335
X64.139Y42.298
X64.107Y42.262
X64.079Y42.233
X64.051Y42.205
X64.03Y42.184
X64.007Y42.163
X63.978Y42.137
X63.963Y42.124
X63.932Y42.098
X63.9Y42.074
X63.868Y42.049
X63.835Y42.026
X63.801Y42.004
X63.767Y41.982
X63.732Y41.961
X63.697Y41.942
X63.662Y41.923
X63.626Y41.905
X63.59Y41.889
X63.554Y41.873
X63.517Y41.858
X63.48Y41.844
X63.443Y41.831
X63.405Y41.818
X63.367Y41.807
X63.328Y41.797
X63.29Y41.787
X63.251Y41.779
X63.212Y41.772
X63.172Y41.765
X63.133Y41.76
X63.094Y41.755
X63.054Y41.752
X63.014Y41.749
X62.975Y41.748
X62.935Y41.747
X34.935
X34.897Y41.748
X34.859Y41.749
X34.82Y41.752
X34.776Y41.755
X34.731Y41.761
X34.686Y41.767
X34.646Y41.774
X34.607Y41.782
X34.564Y41.791
X31.258
X30.097Y41.782
X28.943Y41.754
X27.789Y41.708
X26.637Y41.644
X25.356Y41.552
X25.239Y41.545
X25.122Y41.541
X25.006Y41.538
X24.902Y41.537
X19.825Y41.538
X19.747Y41.54
X19.67Y41.546
X19.593Y41.554
X19.517Y41.565
X19.44Y41.578
X19.364Y41.594
X19.288Y41.613
X19.215Y41.634
X19.141Y41.658
X19.068Y41.684
X18.996Y41.713
X18.926Y41.744
X18.855Y41.779
X18.787Y41.815
X18.72Y41.853
X18.654Y41.894
X18.59Y41.937
X18.527Y41.983
X18.466Y42.03
X18.407Y42.08
X18.349Y42.132
X18.294Y42.185
X18.239Y42.242
X18.187Y42.298
X18.137Y42.358
X18.089Y42.419
X18.044Y42.481
X18Y42.545
X17.959Y42.611
X17.92Y42.678
X17.883Y42.746
X17.849Y42.816
X17.817Y42.886
X17.788Y42.958
X17.761Y43.031
X17.737Y43.105
X17.716Y43.178
X17.697Y43.253
X17.68Y43.329
X17.666Y43.406
X17.66Y43.444
X17.245Y46.31
X17.224Y46.466
X17.205Y46.623
X17.19Y46.78
X17.177Y46.938
X17.166Y47.095
X17.159Y47.253
X17.154Y47.411
X17.152Y47.569
Y47.727
X17.155Y47.885
X17.161Y48.043
X17.17Y48.2
X17.181Y48.358
X17.195Y48.515
X17.212Y48.672
X17.231Y48.829
X17.253Y48.985
X17.278Y49.141
X17.306Y49.297
X17.336Y49.452
X17.368Y49.606
X17.404Y49.761
X17.442Y49.914
X17.483Y50.066
X17.526Y50.218
X17.572Y50.369
X17.62Y50.52
X17.671Y50.669
X17.725Y50.818
X17.781Y50.965
X17.839Y51.112
X17.9Y51.258
X17.964Y51.403
X18.03Y51.546
X18.099Y51.688
X18.17Y51.829
X18.243Y51.969
X18.319Y52.108
X18.397Y52.245
X18.477Y52.381
X18.56Y52.516
X18.645Y52.649
X18.732Y52.78
X18.822Y52.91
X18.914Y53.039
X19.008Y53.166
X19.104Y53.291
X19.202Y53.415
X19.302Y53.536
X19.384Y53.633
X19.468Y53.727
X19.553Y53.821
X19.64Y53.913
X19.729Y54.003
X19.819Y54.092
X19.911Y54.179
X20.005Y54.265
X20.099Y54.349
X20.196Y54.432
X20.293Y54.512
X20.392Y54.591
X20.492Y54.669
X20.594Y54.744
X20.697Y54.818
X20.801Y54.89
X20.906Y54.96
X21.013Y55.028
X21.12Y55.095
X21.23Y55.159
X21.339Y55.222
X21.45Y55.283
X21.563Y55.342
X21.676Y55.398
X21.79Y55.453
X21.905Y55.506
X22.021Y55.557
X22.137Y55.606
X22.255Y55.653
X22.373Y55.698
X22.492Y55.741
X22.612Y55.781
X22.733Y55.82
X22.854Y55.856
X22.976Y55.891
X23.098Y55.923
X23.221Y55.953
X23.344Y55.981
X23.468Y56.007
X24.11Y56.131
X24.754Y56.244
X25.4Y56.347
X26.048Y56.439
X26.697Y56.52
X27.347Y56.59
X27.998Y56.65
X28.65Y56.698
X29.303Y56.736
X29.957Y56.763
X30.611Y56.779
X31.252Y56.784
X57.693
G0Z1
X24.177Y47.421
G1Z-0.3F5
X24.202Y47.408F10
X24.227Y47.396
X24.252Y47.385
X24.278Y47.374
X24.303Y47.363
X24.329Y47.353
X24.356Y47.343
X24.382Y47.334
X24.408Y47.325
X24.435Y47.316
X24.488Y47.301
X24.516Y47.294
X24.543Y47.288
X24.57Y47.282
X24.597Y47.276
X24.624Y47.271
X24.652Y47.266
X24.679Y47.262
X24.707Y47.259
X24.735Y47.255
X24.762Y47.253
X24.79Y47.251
X24.818Y47.249
X24.846Y47.248
X24.874Y47.247
X24.902
X24.957Y47.248
X24.985Y47.249
X25.041Y47.253
X25.069Y47.255
X25.096Y47.259
X25.124Y47.262
X25.151Y47.266
X25.195Y47.274
X25.236Y47.282
X25.261Y47.288
X25.288Y47.294
X25.315Y47.301
X25.342Y47.309
X25.368Y47.316
X25.395Y47.325
X25.421Y47.334
X25.448Y47.343
X25.474Y47.353
X25.5Y47.363
X25.525Y47.374
X25.566Y47.392
X25.601Y47.408
X25.626Y47.421
X25.651Y47.434
X25.676Y47.447
X25.7Y47.461
X25.724Y47.475
X25.748Y47.489
X25.771Y47.504
X25.794Y47.52
X25.817Y47.535
X25.84Y47.552
X25.862Y47.568
X25.885Y47.585
X25.906Y47.602
X25.928Y47.62
X25.949Y47.638
X25.97Y47.657
X25.99Y47.676
X26.011Y47.695
X26.031Y47.714
X26.05Y47.734
X26.069Y47.754
X26.088Y47.775
X26.107Y47.796
X26.125Y47.817
X26.142Y47.839
X26.16Y47.86
X26.177Y47.882
X26.193Y47.905
X26.209Y47.928
X26.225Y47.951
X26.241Y47.974
X26.27Y48.021
X26.284Y48.045
X26.298Y48.069
X26.311Y48.094
X26.324Y48.118
X26.337Y48.143
X26.349Y48.169
X26.36Y48.194
X26.371Y48.22
X26.382Y48.245
X26.402Y48.297
X26.411Y48.323
X26.42Y48.35
X26.428Y48.377
X26.436Y48.403
X26.444Y48.43
X26.451Y48.457
X26.457Y48.484
X26.463Y48.511
X26.469Y48.539
X26.474Y48.566
X26.479Y48.594
X26.483Y48.621
X26.486Y48.649
X26.489Y48.677
X26.492Y48.704
X26.494Y48.732
X26.496Y48.76
X26.497Y48.788
X26.498Y48.815
Y48.843
Y48.871
X26.497Y48.899
X26.496Y48.927
X26.494Y48.955
X26.492Y48.982
X26.489Y49.01
X26.486Y49.038
X26.483Y49.066
X26.479Y49.093
X26.474Y49.121
X26.469Y49.148
X26.463Y49.175
X26.451Y49.23
X26.444Y49.256
X26.436Y49.283
X26.43Y49.303
X26.419Y49.339
X26.411Y49.363
X26.392Y49.416
X26.382Y49.441
X26.371Y49.467
X26.36Y49.493
X26.349Y49.518
X26.337Y49.543
X26.324Y49.568
X26.311Y49.593
X26.298Y49.617
X26.284Y49.642
X26.27Y49.665
X26.256Y49.689
X26.225Y49.736
X26.209Y49.759
X26.193Y49.782
X26.177Y49.804
X26.16Y49.826
X26.143Y49.848
X26.125Y49.87
X26.107Y49.891
X26.088Y49.912
X26.069Y49.932
X26.05Y49.952
X26.031Y49.972
X26.011Y49.992
X25.99Y50.011
X25.97Y50.03
X25.949Y50.048
X25.928Y50.066
X25.906Y50.084
X25.885Y50.101
X25.86Y50.12
X25.84Y50.135
X25.817Y50.151
X25.771Y50.182
X25.748Y50.197
X25.724Y50.212
X25.697Y50.227
X25.676Y50.24
X25.651Y50.253
X25.626Y50.266
X25.602Y50.278
X25.577Y50.29
X25.551Y50.302
X25.525Y50.313
X25.5Y50.324
X25.474Y50.334
X25.452Y50.342
X25.42Y50.353
X25.395Y50.362
X25.368Y50.37
X25.339Y50.379
X25.315Y50.386
X25.288Y50.393
X25.261Y50.399
X25.234Y50.405
X25.206Y50.411
X25.179Y50.416
X25.152Y50.42
X25.124Y50.424
X25.096Y50.428
X25.069Y50.431
X25.013Y50.436
X24.985Y50.438
X24.957Y50.439
X24.93Y50.44
X24.902
X24.874
X24.846Y50.439
X24.79Y50.436
X24.762Y50.434
X24.735Y50.431
X24.707Y50.428
X24.652Y50.42
X24.624Y50.416
X24.597Y50.411
X24.57Y50.405
X24.542Y50.399
X24.515Y50.393
X24.488Y50.386
X24.461Y50.378
X24.435Y50.37
X24.408Y50.362
X24.353Y50.343
X24.314Y50.328
X24.275Y50.312
X24.227Y50.29
X24.201Y50.278
X24.177Y50.266
X24.152Y50.253
X24.127Y50.24
X24.103Y50.226
X24.079Y50.212
X24.056Y50.197
X24.032Y50.182
X23.986Y50.151
X23.941Y50.118
X23.915Y50.098
X23.897Y50.084
X23.854Y50.048
X23.833Y50.03
X23.813Y50.011
X23.793Y49.992
X23.773Y49.972
X23.753Y49.952
X23.734Y49.932
X23.715Y49.912
X23.697Y49.891
X23.679Y49.87
X23.661Y49.848
X23.643Y49.826
X23.626Y49.804
X23.61Y49.782
X23.594Y49.759
X23.578Y49.736
X23.547Y49.688
X23.533Y49.666
X23.519Y49.642
X23.492Y49.593
X23.479Y49.568
X23.467Y49.543
X23.455Y49.518
X23.443Y49.493
X23.432Y49.467
X23.421Y49.442
X23.411Y49.416
X23.401Y49.389
X23.392Y49.363
X23.375Y49.31
X23.367Y49.283
X23.359Y49.256
X23.352Y49.23
X23.346Y49.203
X23.34Y49.175
X23.334Y49.148
X23.329Y49.12
X23.325Y49.093
X23.321Y49.069
X23.317Y49.037
X23.314Y49.01
X23.311Y48.983
X23.309Y48.955
X23.307Y48.927
X23.306Y48.899
X23.305Y48.868
Y48.843
Y48.815
X23.307Y48.76
X23.309Y48.732
X23.311Y48.709
X23.314Y48.675
X23.317Y48.649
X23.32Y48.621
X23.325Y48.594
X23.329Y48.566
X23.334Y48.539
X23.34Y48.511
X23.346Y48.484
X23.359Y48.43
X23.367Y48.403
X23.375Y48.377
X23.383Y48.35
X23.392Y48.324
X23.401Y48.297
X23.411Y48.271
X23.421Y48.245
X23.432Y48.22
X23.443Y48.194
X23.455Y48.168
X23.467Y48.143
X23.479Y48.118
X23.491Y48.096
X23.506Y48.069
X23.519Y48.045
X23.533Y48.021
X23.548Y47.997
X23.563Y47.974
X23.576Y47.953
X23.594Y47.927
X23.61Y47.905
X23.626Y47.882
X23.643Y47.86
X23.678Y47.817
X23.697Y47.796
X23.715Y47.775
X23.734Y47.754
X23.753Y47.734
X23.773Y47.714
X23.792Y47.695
X23.813Y47.676
X23.833Y47.657
X23.854Y47.638
X23.875Y47.62
X23.919Y47.585
X23.941Y47.568
X23.963Y47.552
X24.009Y47.52
X24.032Y47.504
X24.055Y47.489
X24.079Y47.475
X24.103Y47.461
X24.13Y47.446
X24.152Y47.434
X24.177Y47.421
G0Z1
X38.258Y48.83
G1Z-0.3F5
X38.275Y48.654F10
X38.326Y48.485
X38.409Y48.329
X38.522Y48.192
X38.658Y48.08
X38.814Y47.997
X38.983Y47.946
X39.159Y47.928
X39.335Y47.946
X39.504Y47.997
X39.66Y48.08
X39.796Y48.192
X39.908Y48.329
X39.992Y48.485
X40.043Y48.654
X40.06Y48.83
X40.043Y49.006
X39.992Y49.175
X39.908Y49.331
X39.796Y49.467
X39.66Y49.579
X39.504Y49.662
X39.335Y49.714
X39.159Y49.731
X38.983Y49.714
X38.814Y49.662
X38.658Y49.579
X38.522Y49.467
X38.409Y49.331
X38.326Y49.175
X38.275Y49.006
X38.258Y48.83
G0Z1
X54.162
G1Z-0.3F5
X54.179Y48.654F10
X54.23Y48.485
X54.314Y48.329
X54.426Y48.192
X54.562Y48.08
X54.718Y47.997
X54.887Y47.946
X55.063Y47.928
X55.239Y47.946
X55.408Y47.997
X55.564Y48.08
X55.7Y48.192
X55.812Y48.329
X55.896Y48.485
X55.947Y48.654
X55.964Y48.83
X55.947Y49.006
X55.896Y49.175
X55.812Y49.331
X55.7Y49.467
X55.564Y49.579
X55.408Y49.662
X55.239Y49.714
X55.063Y49.731
X54.887Y49.714
X54.718Y49.662
X54.562Y49.579
X54.426Y49.467
X54.314Y49.331
X54.23Y49.175
X54.179Y49.006
X54.162Y48.83
G0Z1
X57.693Y56.784
G1Z-0.3F5
X58.461Y56.779F10
X59.203Y56.762
X59.887Y56.736
X60.001Y56.729
X62.935
X62.973
X63.011Y56.728
X63.05Y56.725
X63.088Y56.722
X63.126Y56.718
X63.164Y56.713
X63.201Y56.707
X63.239Y56.7
X63.276Y56.692
X63.314Y56.684
X63.351Y56.674
X63.388Y56.664
X63.424Y56.652
X63.46Y56.64
X63.496Y56.627
X63.532Y56.613
X63.567Y56.598
X63.602Y56.583
X63.637Y56.566
X63.671Y56.549
X63.705Y56.53
X63.739Y56.511
X63.772Y56.491
X63.805Y56.471
X63.837Y56.449
X63.868Y56.427
X63.899Y56.404
X63.93Y56.38
X63.96Y56.356
X63.989Y56.33
X64.017Y56.304
X64.045Y56.278
X64.073Y56.251
X64.099Y56.223
X64.125Y56.194
X64.151Y56.165
X64.175Y56.135
X64.199Y56.105
X64.222Y56.074
X64.244Y56.042
X64.266Y56.01
X64.288Y55.975
X64.31Y55.939
X64.327Y55.909
X64.343Y55.879
X64.365Y55.836
X64.378Y55.809
X64.393Y55.776
X64.407Y55.743
X64.42Y55.71
X64.434Y55.672
X64.447Y55.634
X64.459Y55.595
X64.47Y55.556
X64.479Y55.524
X64.486Y55.491
X64.493Y55.459
X64.502Y55.415
X64.51Y55.365
X64.512Y55.352
X64.523Y55.317
X64.534Y55.28
X64.544Y55.241
X64.553Y55.203
X64.561Y55.164
X64.569Y55.126
X64.575Y55.087
X64.58Y55.048
X64.585Y55.008
X64.588Y54.969
X64.591Y54.93
X64.592Y54.89
X64.593Y54.851
X64.592Y43.979
X64.59Y43.901
X64.584Y43.823
X64.581Y43.788
X64.515Y43.148
X64.51Y43.114
X64.505Y43.08
X64.499Y43.046
X64.492Y43.012
X64.484Y42.976
X64.476Y42.941
X64.466Y42.907
X64.456Y42.872
X64.445Y42.837
X64.433Y42.803
X64.42Y42.768
X64.404Y42.728
X64.392Y42.698
X64.378Y42.669
X64.36Y42.631
X64.341Y42.594
X64.325Y42.565
X64.309Y42.536
X64.292Y42.508
X64.273Y42.478
X64.254Y42.448
X64.234Y42.419
X64.213Y42.391
X64.192Y42.363
X64.17Y42.335
X64.139Y42.298
X64.107Y42.262
X64.079Y42.233
X64.051Y42.205
X64.03Y42.184
X64.007Y42.163
X63.978Y42.137
X63.963Y42.124
X63.932Y42.098
X63.9Y42.074
X63.868Y42.049
X63.835Y42.026
X63.801Y42.004
X63.767Y41.982
X63.732Y41.961
X63.697Y41.942
X63.662Y41.923
X63.626Y41.905
X63.59Y41.889
X63.554Y41.873
X63.517Y41.858
X63.48Y41.844
X63.443Y41.831
X63.405Y41.818
X63.367Y41.807
X63.328Y41.797
X63.29Y41.787
X63.251Y41.779
X63.212Y41.772
X63.172Y41.765
X63.133Y41.76
X63.094Y41.755
X63.054Y41.752
X63.014Y41.749
X62.975Y41.748
X62.935Y41.747
X34.935
X34.897Y41.748
X34.859Y41.749
X34.82Y41.752
X34.776Y41.755
X34.731Y41.761
X34.686Y41.767
X34.646Y41.774
X34.607Y41.782
X34.564Y41.791
X31.258
X30.097Y41.782
X28.943Y41.754
X27.789Y41.708
X26.637Y41.644
X25.356Y41.552
X25.239Y41.545
X25.122Y41.541
X25.006Y41.538
X24.902Y41.537
X19.825Y41.538
X19.747Y41.54
X19.67Y41.546
X19.593Y41.554
X19.517Y41.565
X19.44Y41.578
X19.364Y41.594
X19.288Y41.613
X19.215Y41.634
X19.141Y41.658
X19.068Y41.684
X18.996Y41.713
X18.926Y41.744
X18.855Y41.779
X18.787Y41.815
X18.72Y41.853
X18.654Y41.894
X18.59Y41.937
X18.527Y41.983
X18.466Y42.03
X18.407Y42.08
X18.349Y42.132
X18.294Y42.185
X18.239Y42.242
X18.187Y42.298
X18.137Y42.358
X18.089Y42.419
X18.044Y42.481
X18Y42.545
X17.959Y42.611
X17.92Y42.678
X17.883Y42.746
X17.849Y42.816
X17.817Y42.886
X17.788Y42.958
X17.761Y43.031
X17.737Y43.105
X17.716Y43.178
X17.697Y43.253
X17.68Y43.329
X17.666Y43.406
X17.66Y43.444
X17.245Y46.31
X17.224Y46.466
X17.205Y46.623
X17.19Y46.78
X17.177Y46.938
X17.166Y47.095
X17.159Y47.253
X17.154Y47.411
X17.152Y47.569
Y47.727
X17.155Y47.885
X17.161Y48.043
X17.17Y48.2
X17.181Y48.358
X17.195Y48.515
X17.212Y48.672
X17.231Y48.829
X17.253Y48.985
X17.278Y49.141
X17.306Y49.297
X17.336Y49.452
X17.368Y49.606
X17.404Y49.761
X17.442Y49.914
X17.483Y50.066
X17.526Y50.218
X17.572Y50.369
X17.62Y50.52
X17.671Y50.669
X17.725Y50.818
X17.781Y50.965
X17.839Y51.112
X17.9Y51.258
X17.964Y51.403
X18.03Y51.546
X18.099Y51.688
X18.17Y51.829
X18.243Y51.969
X18.319Y52.108
X18.397Y52.245
X18.477Y52.381
X18.56Y52.516
X18.645Y52.649
X18.732Y52.78
X18.822Y52.91
X18.914Y53.039
X19.008Y53.166
X19.104Y53.291
X19.202Y53.415
X19.302Y53.536
X19.384Y53.633
X19.468Y53.727
X19.553Y53.821
X19.64Y53.913
X19.729Y54.003
X19.819Y54.092
X19.911Y54.179
X20.005Y54.265
X20.099Y54.349
X20.196Y54.432
X20.293Y54.512
X20.392Y54.591
X20.492Y54.669
X20.594Y54.744
X20.697Y54.818
X20.801Y54.89
X20.906Y54.96
X21.013Y55.028
X21.12Y55.095
X21.23Y55.159
X21.339Y55.222
X21.45Y55.283
X21.563Y55.342
X21.676Y55.398
X21.79Y55.453
X21.905Y55.506
X22.021Y55.557
X22.137Y55.606
X22.255Y55.653
X22.373Y55.698
X22.492Y55.741
X22.612Y55.781
X22.733Y55.82
X22.854Y55.856
X22.976Y55.891
X23.098Y55.923
X23.221Y55.953
X23.344Y55.981
X23.468Y56.007
X24.11Y56.131
X24.754Y56.244
X25.4Y56.347
X26.048Y56.439
X26.697Y56.52
X27.347Y56.59
X27.998Y56.65
X28.65Y56.698
X29.303Y56.736
X29.957Y56.763
X30.611Y56.779
X31.252Y56.784
X57.693
G0Z1
X24.177Y47.421
G1Z-0.4F5
X24.202Y47.408F10
X24.227Y47.396
X24.252Y47.385
X24.278Y47.374
X24.303Y47.363
X24.329Y47.353
X24.356Y47.343
X24.382Y47.334
X24.408Y47.325
X24.435Y47.316
X24.488Y47.301
X24.516Y47.294
X24.543Y47.288
X24.57Y47.282
X24.597Y47.276
X24.624Y47.271
X24.652Y47.266
X24.679Y47.262
X24.707Y47.259
X24.735Y47.255
X24.762Y47.253
X24.79Y47.251
X24.818Y47.249
X24.846Y47.248
X24.874Y47.247
X24.902
X24.957Y47.248
X24.985Y47.249
X25.041Y47.253
X25.069Y47.255
X25.096Y47.259
X25.124Y47.262
X25.151Y47.266
X25.195Y47.274
X25.236Y47.282
X25.261Y47.288
X25.288Y47.294
X25.315Y47.301
X25.342Y47.309
X25.368Y47.316
X25.395Y47.325
X25.421Y47.334
X25.448Y47.343
X25.474Y47.353
X25.5Y47.363
X25.525Y47.374
X25.566Y47.392
X25.601Y47.408
X25.626Y47.421
X25.651Y47.434
X25.676Y47.447
X25.7Y47.461
X25.724Y47.475
X25.748Y47.489
X25.771Y47.504
X25.794Y47.52
X25.817Y47.535
X25.84Y47.552
X25.862Y47.568
X25.885Y47.585
X25.906Y47.602
X25.928Y47.62
X25.949Y47.638
X25.97Y47.657
X25.99Y47.676
X26.011Y47.695
X26.031Y47.714
X26.05Y47.734
X26.069Y47.754
X26.088Y47.775
X26.107Y47.796
X26.125Y47.817
X26.142Y47.839
X26.16Y47.86
X26.177Y47.882
X26.193Y47.905
X26.209Y47.928
X26.225Y47.951
X26.241Y47.974
X26.27Y48.021
X26.284Y48.045
X26.298Y48.069
X26.311Y48.094
X26.324Y48.118
X26.337Y48.143
X26.349Y48.169
X26.36Y48.194
X26.371Y48.22
X26.382Y48.245
X26.402Y48.297
X26.411Y48.323
X26.42Y48.35
X26.428Y48.377
X26.436Y48.403
X26.444Y48.43
X26.451Y48.457
X26.457Y48.484
X26.463Y48.511
X26.469Y48.539
X26.474Y48.566
X26.479Y48.594
X26.483Y48.621
X26.486Y48.649
X26.489Y48.677
X26.492Y48.704
X26.494Y48.732
X26.496Y48.76
X26.497Y48.788
X26.498Y48.815
Y48.843
Y48.871
X26.497Y48.899
X26.496Y48.927
X26.494Y48.955
X26.492Y48.982
X26.489Y49.01
X26.486Y49.038
X26.483Y49.066
X26.479Y49.093
X26.474Y49.121
X26.469Y49.148
X26.463Y49.175
X26.451Y49.23
X26.444Y49.256
X26.436Y49.283
X26.43Y49.303
X26.419Y49.339
X26.411Y49.363
X26.392Y49.416
X26.382Y49.441
X26.371Y49.467
X26.36Y49.493
X26.349Y49.518
X26.337Y49.543
X26.324Y49.568
X26.311Y49.593
X26.298Y49.617
X26.284Y49.642
X26.27Y49.665
X26.256Y49.689
X26.225Y49.736
X26.209Y49.759
X26.193Y49.782
X26.177Y49.804
X26.16Y49.826
X26.143Y49.848
X26.125Y49.87
X26.107Y49.891
X26.088Y49.912
X26.069Y49.932
X26.05Y49.952
X26.031Y49.972
X26.011Y49.992
X25.99Y50.011
X25.97Y50.03
X25.949Y50.048
X25.928Y50.066
X25.906Y50.084
X25.885Y50.101
X25.86Y50.12
X25.84Y50.135
X25.817Y50.151
X25.771Y50.182
X25.748Y50.197
X25.724Y50.212
X25.697Y50.227
X25.676Y50.24
X25.651Y50.253
X25.626Y50.266
X25.602Y50.278
X25.577Y50.29
X25.551Y50.302
X25.525Y50.313
X25.5Y50.324
X25.474Y50.334
X25.452Y50.342
X25.42Y50.353
X25.395Y50.362
X25.368Y50.37
X25.339Y50.379
X25.315Y50.386
X25.288Y50.393
X25.261Y50.399
X25.234Y50.405
X25.206Y50.411
X25.179Y50.416
X25.152Y50.42
X25.124Y50.424
X25.096Y50.428
X25.069Y50.431
X25.013Y50.436
X24.985Y50.438
X24.957Y50.439
X24.93Y50.44
X24.902
X24.874
X24.846Y50.439
X24.79Y50.436
X24.762Y50.434
X24.735Y50.431
X24.707Y50.428
X24.652Y50.42
X24.624Y50.416
X24.597Y50.411
X24.57Y50.405
X24.542Y50.399
X24.515Y50.393
X24.488Y50.386
X24.461Y50.378
X24.435Y50.37
X24.408Y50.362
X24.353Y50.343
X24.314Y50.328
X24.275Y50.312
X24.227Y50.29
X24.201Y50.278
X24.177Y50.266
X24.152Y50.253
X24.127Y50.24
X24.103Y50.226
X24.079Y50.212
X24.056Y50.197
X24.032Y50.182
X23.986Y50.151
X23.941Y50.118
X23.915Y50.098
X23.897Y50.084
X23.854Y50.048
X23.833Y50.03
X23.813Y50.011
X23.793Y49.992
X23.773Y49.972
X23.753Y49.952
X23.734Y49.932
X23.715Y49.912
X23.697Y49.891
X23.679Y49.87
X23.661Y49.848
X23.643Y49.826
X23.626Y49.804
X23.61Y49.782
X23.594Y49.759
X23.578Y49.736
X23.547Y49.688
X23.533Y49.666
X23.519Y49.642
X23.492Y49.593
X23.479Y49.568
X23.467Y49.543
X23.455Y49.518
X23.443Y49.493
X23.432Y49.467
X23.421Y49.442
X23.411Y49.416
X23.401Y49.389
X23.392Y49.363
X23.375Y49.31
X23.367Y49.283
X23.359Y49.256
X23.352Y49.23
X23.346Y49.203
X23.34Y49.175
X23.334Y49.148
X23.329Y49.12
X23.325Y49.093
X23.321Y49.069
X23.317Y49.037
X23.314Y49.01
X23.311Y48.983
X23.309Y48.955
X23.307Y48.927
X23.306Y48.899
X23.305Y48.868
Y48.843
Y48.815
X23.307Y48.76
X23.309Y48.732
X23.311Y48.709
X23.314Y48.675
X23.317Y48.649
X23.32Y48.621
X23.325Y48.594
X23.329Y48.566
X23.334Y48.539
X23.34Y48.511
X23.346Y48.484
X23.359Y48.43
X23.367Y48.403
X23.375Y48.377
X23.383Y48.35
X23.392Y48.324
X23.401Y48.297
X23.411Y48.271
X23.421Y48.245
X23.432Y48.22
X23.443Y48.194
X23.455Y48.168
X23.467Y48.143
X23.479Y48.118
X23.491Y48.096
X23.506Y48.069
X23.519Y48.045
X23.533Y48.021
X23.548Y47.997
X23.563Y47.974
X23.576Y47.953
X23.594Y47.927
X23.61Y47.905
X23.626Y47.882
X23.643Y47.86
X23.678Y47.817
X23.697Y47.796
X23.715Y47.775
X23.734Y47.754
X23.753Y47.734
X23.773Y47.714
X23.792Y47.695
X23.813Y47.676
X23.833Y47.657
X23.854Y47.638
X23.875Y47.62
X23.919Y47.585
X23.941Y47.568
X23.963Y47.552
X24.009Y47.52
X24.032Y47.504
X24.055Y47.489
X24.079Y47.475
X24.103Y47.461
X24.13Y47.446
X24.152Y47.434
X24.177Y47.421
G0Z1
X38.258Y48.83
G1Z-0.4F5
X38.275Y48.654F10
X38.326Y48.485
X38.409Y48.329
X38.522Y48.192
X38.658Y48.08
X38.814Y47.997
X38.983Y47.946
X39.159Y47.928
X39.335Y47.946
X39.504Y47.997
X39.66Y48.08
X39.796Y48.192
X39.908Y48.329
X39.992Y48.485
X40.043Y48.654
X40.06Y48.83
X40.043Y49.006
X39.992Y49.175
X39.908Y49.331
X39.796Y49.467
X39.66Y49.579
X39.504Y49.662
X39.335Y49.714
X39.159Y49.731
X38.983Y49.714
X38.814Y49.662
X38.658Y49.579
X38.522Y49.467
X38.409Y49.331
X38.326Y49.175
X38.275Y49.006
X38.258Y48.83
G0Z1
X54.162
G1Z-0.4F5
X54.179Y48.654F10
X54.23Y48.485
X54.314Y48.329
X54.426Y48.192
X54.562Y48.08
X54.718Y47.997
X54.887Y47.946
X55.063Y47.928
X55.239Y47.946
X55.408Y47.997
X55.564Y48.08
X55.7Y48.192
X55.812Y48.329
X55.896Y48.485
X55.947Y48.654
X55.964Y48.83
X55.947Y49.006
X55.896Y49.175
X55.812Y49.331
X55.7Y49.467
X55.564Y49.579
X55.408Y49.662
X55.239Y49.714
X55.063Y49.731
X54.887Y49.714
X54.718Y49.662
X54.562Y49.579
X54.426Y49.467
X54.314Y49.331
X54.23Y49.175
X54.179Y49.006
X54.162Y48.83
G0Z1
X57.693Y56.784
G1Z-0.4F5
X58.461Y56.779F10
X59.203Y56.762
X59.887Y56.736
X60.001Y56.729
X62.935
X62.973
X63.011Y56.728
X63.05Y56.725
X63.088Y56.722
X63.126Y56.718
X63.164Y56.713
X63.201Y56.707
X63.239Y56.7
X63.276Y56.692
X63.314Y56.684
X63.351Y56.674
X63.388Y56.664
X63.424Y56.652
X63.46Y56.64
X63.496Y56.627
X63.532Y56.613
X63.567Y56.598
X63.602Y56.583
X63.637Y56.566
X63.671Y56.549
X63.705Y56.53
X63.739Y56.511
X63.772Y56.491
X63.805Y56.471
X63.837Y56.449
X63.868Y56.427
X63.899Y56.404
X63.93Y56.38
X63.96Y56.356
X63.989Y56.33
X64.017Y56.304
X64.045Y56.278
X64.073Y56.251
X64.099Y56.223
X64.125Y56.194
X64.151Y56.165
X64.175Y56.135
X64.199Y56.105
X64.222Y56.074
X64.244Y56.042
X64.266Y56.01
X64.288Y55.975
X64.31Y55.939
X64.327Y55.909
X64.343Y55.879
X64.365Y55.836
X64.378Y55.809
X64.393Y55.776
X64.407Y55.743
X64.42Y55.71
X64.434Y55.672
X64.447Y55.634
X64.459Y55.595
X64.47Y55.556
X64.479Y55.524
X64.486Y55.491
X64.493Y55.459
X64.502Y55.415
X64.51Y55.365
X64.512Y55.352
X64.523Y55.317
X64.534Y55.28
X64.544Y55.241
X64.553Y55.203
X64.561Y55.164
X64.569Y55.126
X64.575Y55.087
X64.58Y55.048
X64.585Y55.008
X64.588Y54.969
X64.591Y54.93
X64.592Y54.89
X64.593Y54.851
X64.592Y43.979
X64.59Y43.901
X64.584Y43.823
X64.581Y43.788
X64.515Y43.148
X64.51Y43.114
X64.505Y43.08
X64.499Y43.046
X64.492Y43.012
X64.484Y42.976
X64.476Y42.941
X64.466Y42.907
X64.456Y42.872
X64.445Y42.837
X64.433Y42.803
X64.42Y42.768
X64.404Y42.728
X64.392Y42.698
X64.378Y42.669
X64.36Y42.631
X64.341Y42.594
X64.325Y42.565
X64.309Y42.536
X64.292Y42.508
X64.273Y42.478
X64.254Y42.448
X64.234Y42.419
X64.213Y42.391
X64.192Y42.363
X64.17Y42.335
X64.139Y42.298
X64.107Y42.262
X64.079Y42.233
X64.051Y42.205
X64.03Y42.184
X64.007Y42.163
X63.978Y42.137
X63.963Y42.124
X63.932Y42.098
X63.9Y42.074
X63.868Y42.049
X63.835Y42.026
X63.801Y42.004
X63.767Y41.982
X63.732Y41.961
X63.697Y41.942
X63.662Y41.923
X63.626Y41.905
X63.59Y41.889
X63.554Y41.873
X63.517Y41.858
X63.48Y41.844
X63.443Y41.831
X63.405Y41.818
X63.367Y41.807
X63.328Y41.797
X63.29Y41.787
X63.251Y41.779
X63.212Y41.772
X63.172Y41.765
X63.133Y41.76
X63.094Y41.755
X63.054Y41.752
X63.014Y41.749
X62.975Y41.748
X62.935Y41.747
X34.935
X34.897Y41.748
X34.859Y41.749
X34.82Y41.752
X34.776Y41.755
X34.731Y41.761
X34.686Y41.767
X34.646Y41.774
X34.607Y41.782
X34.564Y41.791
X31.258
X30.097Y41.782
X28.943Y41.754
X27.789Y41.708
X26.637Y41.644
X25.356Y41.552
X25.239Y41.545
X25.122Y41.541
X25.006Y41.538
X24.902Y41.537
X19.825Y41.538
X19.747Y41.54
X19.67Y41.546
X19.593Y41.554
X19.517Y41.565
X19.44Y41.578
X19.364Y41.594
X19.288Y41.613
X19.215Y41.634
X19.141Y41.658
X19.068Y41.684
X18.996Y41.713
X18.926Y41.744
X18.855Y41.779
X18.787Y41.815
X18.72Y41.853
X18.654Y41.894
X18.59Y41.937
X18.527Y41.983
X18.466Y42.03
X18.407Y42.08
X18.349Y42.132
X18.294Y42.185
X18.239Y42.242
X18.187Y42.298
X18.137Y42.358
X18.089Y42.419
X18.044Y42.481
X18Y42.545
X17.959Y42.611
X17.92Y42.678
X17.883Y42.746
X17.849Y42.816
X17.817Y42.886
X17.788Y42.958
X17.761Y43.031
X17.737Y43.105
X17.716Y43.178
X17.697Y43.253
X17.68Y43.329
X17.666Y43.406
X17.66Y43.444
X17.245Y46.31
X17.224Y46.466
X17.205Y46.623
X17.19Y46.78
X17.177Y46.938
X17.166Y47.095
X17.159Y47.253
X17.154Y47.411
X17.152Y47.569
Y47.727
X17.155Y47.885
X17.161Y48.043
X17.17Y48.2
X17.181Y48.358
X17.195Y48.515
X17.212Y48.672
X17.231Y48.829
X17.253Y48.985
X17.278Y49.141
X17.306Y49.297
X17.336Y49.452
X17.368Y49.606
X17.404Y49.761
X17.442Y49.914
X17.483Y50.066
X17.526Y50.218
X17.572Y50.369
X17.62Y50.52
X17.671Y50.669
X17.725Y50.818
X17.781Y50.965
X17.839Y51.112
X17.9Y51.258
X17.964Y51.403
X18.03Y51.546
X18.099Y51.688
X18.17Y51.829
X18.243Y51.969
X18.319Y52.108
X18.397Y52.245
X18.477Y52.381
X18.56Y52.516
X18.645Y52.649
X18.732Y52.78
X18.822Y52.91
X18.914Y53.039
X19.008Y53.166
X19.104Y53.291
X19.202Y53.415
X19.302Y53.536
X19.384Y53.633
X19.468Y53.727
X19.553Y53.821
X19.64Y53.913
X19.729Y54.003
X19.819Y54.092
X19.911Y54.179
X20.005Y54.265
X20.099Y54.349
X20.196Y54.432
X20.293Y54.512
X20.392Y54.591
X20.492Y54.669
X20.594Y54.744
X20.697Y54.818
X20.801Y54.89
X20.906Y54.96
X21.013Y55.028
X21.12Y55.095
X21.23Y55.159
X21.339Y55.222
X21.45Y55.283
X21.563Y55.342
X21.676Y55.398
X21.79Y55.453
X21.905Y55.506
X22.021Y55.557
X22.137Y55.606
X22.255Y55.653
X22.373Y55.698
X22.492Y55.741
X22.612Y55.781
X22.733Y55.82
X22.854Y55.856
X22.976Y55.891
X23.098Y55.923
X23.221Y55.953
X23.344Y55.981
X23.468Y56.007
X24.11Y56.131
X24.754Y56.244
X25.4Y56.347
X26.048Y56.439
X26.697Y56.52
X27.347Y56.59
X27.998Y56.65
X28.65Y56.698
X29.303Y56.736
X29.957Y56.763
X30.611Y56.779
X31.252Y56.784
X57.693
G0Z1
X24.177Y47.421
G1Z-0.5F5
X24.202Y47.408F10
X24.227Y47.396
X24.252Y47.385
X24.278Y47.374
X24.303Y47.363
X24.329Y47.353
X24.356Y47.343
X24.382Y47.334
X24.408Y47.325
X24.435Y47.316
X24.488Y47.301
X24.516Y47.294
X24.543Y47.288
X24.57Y47.282
X24.597Y47.276
X24.624Y47.271
X24.652Y47.266
X24.679Y47.262
X24.707Y47.259
X24.735Y47.255
X24.762Y47.253
X24.79Y47.251
X24.818Y47.249
X24.846Y47.248
X24.874Y47.247
X24.902
X24.957Y47.248
X24.985Y47.249
X25.041Y47.253
X25.069Y47.255
X25.096Y47.259
X25.124Y47.262
X25.151Y47.266
X25.195Y47.274
X25.236Y47.282
X25.261Y47.288
X25.288Y47.294
X25.315Y47.301
X25.342Y47.309
X25.368Y47.316
X25.395Y47.325
X25.421Y47.334
X25.448Y47.343
X25.474Y47.353
X25.5Y47.363
X25.525Y47.374
X25.566Y47.392
X25.601Y47.408
X25.626Y47.421
X25.651Y47.434
X25.676Y47.447
X25.7Y47.461
X25.724Y47.475
X25.748Y47.489
X25.771Y47.504
X25.794Y47.52
X25.817Y47.535
X25.84Y47.552
X25.862Y47.568
X25.885Y47.585
X25.906Y47.602
X25.928Y47.62
X25.949Y47.638
X25.97Y47.657
X25.99Y47.676
X26.011Y47.695
X26.031Y47.714
X26.05Y47.734
X26.069Y47.754
X26.088Y47.775
X26.107Y47.796
X26.125Y47.817
X26.142Y47.839
X26.16Y47.86
X26.177Y47.882
X26.193Y47.905
X26.209Y47.928
X26.225Y47.951
X26.241Y47.974
X26.27Y48.021
X26.284Y48.045
X26.298Y48.069
X26.311Y48.094
X26.324Y48.118
X26.337Y48.143
X26.349Y48.169
X26.36Y48.194
X26.371Y48.22
X26.382Y48.245
X26.402Y48.297
X26.411Y48.323
X26.42Y48.35
X26.428Y48.377
X26.436Y48.403
X26.444Y48.43
X26.451Y48.457
X26.457Y48.484
X26.463Y48.511
X26.469Y48.539
X26.474Y48.566
X26.479Y48.594
X26.483Y48.621
X26.486Y48.649
X26.489Y48.677
X26.492Y48.704
X26.494Y48.732
X26.496Y48.76
X26.497Y48.788
X26.498Y48.815
Y48.843
Y48.871
X26.497Y48.899
X26.496Y48.927
X26.494Y48.955
X26.492Y48.982
X26.489Y49.01
X26.486Y49.038
X26.483Y49.066
X26.479Y49.093
X26.474Y49.121
X26.469Y49.148
X26.463Y49.175
X26.451Y49.23
X26.444Y49.256
X26.436Y49.283
X26.43Y49.303
X26.419Y49.339
X26.411Y49.363
X26.392Y49.416
X26.382Y49.441
X26.371Y49.467
X26.36Y49.493
X26.349Y49.518
X26.337Y49.543
X26.324Y49.568
X26.311Y49.593
X26.298Y49.617
X26.284Y49.642
X26.27Y49.665
X26.256Y49.689
X26.225Y49.736
X26.209Y49.759
X26.193Y49.782
X26.177Y49.804
X26.16Y49.826
X26.143Y49.848
X26.125Y49.87
X26.107Y49.891
X26.088Y49.912
X26.069Y49.932
X26.05Y49.952
X26.031Y49.972
X26.011Y49.992
X25.99Y50.011
X25.97Y50.03
X25.949Y50.048
X25.928Y50.066
X25.906Y50.084
X25.885Y50.101
X25.86Y50.12
X25.84Y50.135
X25.817Y50.151
X25.771Y50.182
X25.748Y50.197
X25.724Y50.212
X25.697Y50.227
X25.676Y50.24
X25.651Y50.253
X25.626Y50.266
X25.602Y50.278
X25.577Y50.29
X25.551Y50.302
X25.525Y50.313
X25.5Y50.324
X25.474Y50.334
X25.452Y50.342
X25.42Y50.353
X25.395Y50.362
X25.368Y50.37
X25.339Y50.379
X25.315Y50.386
X25.288Y50.393
X25.261Y50.399
X25.234Y50.405
X25.206Y50.411
X25.179Y50.416
X25.152Y50.42
X25.124Y50.424
X25.096Y50.428
X25.069Y50.431
X25.013Y50.436
X24.985Y50.438
X24.957Y50.439
X24.93Y50.44
X24.902
X24.874
X24.846Y50.439
X24.79Y50.436
X24.762Y50.434
X24.735Y50.431
X24.707Y50.428
X24.652Y50.42
X24.624Y50.416
X24.597Y50.411
X24.57Y50.405
X24.542Y50.399
X24.515Y50.393
X24.488Y50.386
X24.461Y50.378
X24.435Y50.37
X24.408Y50.362
X24.353Y50.343
X24.314Y50.328
X24.275Y50.312
X24.227Y50.29
X24.201Y50.278
X24.177Y50.266
X24.152Y50.253
X24.127Y50.24
X24.103Y50.226
X24.079Y50.212
X24.056Y50.197
X24.032Y50.182
X23.986Y50.151
X23.941Y50.118
X23.915Y50.098
X23.897Y50.084
X23.854Y50.048
X23.833Y50.03
X23.813Y50.011
X23.793Y49.992
X23.773Y49.972
X23.753Y49.952
X23.734Y49.932
X23.715Y49.912
X23.697Y49.891
X23.679Y49.87
X23.661Y49.848
X23.643Y49.826
X23.626Y49.804
X23.61Y49.782
X23.594Y49.759
X23.578Y49.736
X23.547Y49.688
X23.533Y49.666
X23.519Y49.642
X23.492Y49.593
X23.479Y49.568
X23.467Y49.543
X23.455Y49.518
X23.443Y49.493
X23.432Y49.467
X23.421Y49.442
X23.411Y49.416
X23.401Y49.389
X23.392Y49.363
X23.375Y49.31
X23.367Y49.283
X23.359Y49.256
X23.352Y49.23
X23.346Y49.203
X23.34Y49.175
X23.334Y49.148
X23.329Y49.12
X23.325Y49.093
X23.321Y49.069
X23.317Y49.037
X23.314Y49.01
X23.311Y48.983
X23.309Y48.955
X23.307Y48.927
X23.306Y48.899
X23.305Y48.868
Y48.843
Y48.815
X23.307Y48.76
X23.309Y48.732
X23.311Y48.709
X23.314Y48.675
X23.317Y48.649
X23.32Y48.621
X23.325Y48.594
X23.329Y48.566
X23.334Y48.539
X23.34Y48.511
X23.346Y48.484
X23.359Y48.43
X23.367Y48.403
X23.375Y48.377
X23.383Y48.35
X23.392Y48.324
X23.401Y48.297
X23.411Y48.271
X23.421Y48.245
X23.432Y48.22
X23.443Y48.194
X23.455Y48.168
X23.467Y48.143
X23.479Y48.118
X23.491Y48.096
X23.506Y48.069
X23.519Y48.045
X23.533Y48.021
X23.548Y47.997
X23.563Y47.974
X23.576Y47.953
X23.594Y47.927
X23.61Y47.905
X23.626Y47.882
X23.643Y47.86
X23.678Y47.817
X23.697Y47.796
X23.715Y47.775
X23.734Y47.754
X23.753Y47.734
X23.773Y47.714
X23.792Y47.695
X23.813Y47.676
X23.833Y47.657
X23.854Y47.638
X23.875Y47.62
X23.919Y47.585
X23.941Y47.568
X23.963Y47.552
X24.009Y47.52
X24.032Y47.504
X24.055Y47.489
X24.079Y47.475
X24.103Y47.461
X24.13Y47.446
X24.152Y47.434
X24.177Y47.421
G0Z1
X38.258Y48.83
G1Z-0.5F5
X38.275Y48.654F10
X38.326Y48.485
X38.409Y48.329
X38.522Y48.192
X38.658Y48.08
X38.814Y47.997
X38.983Y47.946
X39.159Y47.928
X39.335Y47.946
X39.504Y47.997
X39.66Y48.08
X39.796Y48.192
X39.908Y48.329
X39.992Y48.485
X40.043Y48.654
X40.06Y48.83
X40.043Y49.006
X39.992Y49.175
X39.908Y49.331
X39.796Y49.467
X39.66Y49.579
X39.504Y49.662
X39.335Y49.714
X39.159Y49.731
X38.983Y49.714
X38.814Y49.662
X38.658Y49.579
X38.522Y49.467
X38.409Y49.331
X38.326Y49.175
X38.275Y49.006
X38.258Y48.83
G0Z1
X54.162
G1Z-0.5F5
X54.179Y48.654F10
X54.23Y48.485
X54.314Y48.329
X54.426Y48.192
X54.562Y48.08
X54.718Y47.997
X54.887Y47.946
X55.063Y47.928
X55.239Y47.946
X55.408Y47.997
X55.564Y48.08
X55.7Y48.192
X55.812Y48.329
X55.896Y48.485
X55.947Y48.654
X55.964Y48.83
X55.947Y49.006
X55.896Y49.175
X55.812Y49.331
X55.7Y49.467
X55.564Y49.579
X55.408Y49.662
X55.239Y49.714
X55.063Y49.731
X54.887Y49.714
X54.718Y49.662
X54.562Y49.579
X54.426Y49.467
X54.314Y49.331
X54.23Y49.175
X54.179Y49.006
X54.162Y48.83
G0Z1
X57.693Y56.784
G1Z-0.5F5
X58.461Y56.779F10
X59.203Y56.762
X59.887Y56.736
X60.001Y56.729
X62.935
X62.973
X63.011Y56.728
X63.05Y56.725
X63.088Y56.722
X63.126Y56.718
X63.164Y56.713
X63.201Y56.707
X63.239Y56.7
X63.276Y56.692
X63.314Y56.684
X63.351Y56.674
X63.388Y56.664
X63.424Y56.652
X63.46Y56.64
X63.496Y56.627
X63.532Y56.613
X63.567Y56.598
X63.602Y56.583
X63.637Y56.566
X63.671Y56.549
X63.705Y56.53
X63.739Y56.511
X63.772Y56.491
X63.805Y56.471
X63.837Y56.449
X63.868Y56.427
X63.899Y56.404
X63.93Y56.38
X63.96Y56.356
X63.989Y56.33
X64.017Y56.304
X64.045Y56.278
X64.073Y56.251
X64.099Y56.223
X64.125Y56.194
X64.151Y56.165
X64.175Y56.135
X64.199Y56.105
X64.222Y56.074
X64.244Y56.042
X64.266Y56.01
X64.288Y55.975
X64.31Y55.939
X64.327Y55.909
X64.343Y55.879
X64.365Y55.836
X64.378Y55.809
X64.393Y55.776
X64.407Y55.743
X64.42Y55.71
X64.434Y55.672
X64.447Y55.634
X64.459Y55.595
X64.47Y55.556
X64.479Y55.524
X64.486Y55.491
X64.493Y55.459
X64.502Y55.415
X64.51Y55.365
X64.512Y55.352
X64.523Y55.317
X64.534Y55.28
X64.544Y55.241
X64.553Y55.203
X64.561Y55.164
X64.569Y55.126
X64.575Y55.087
X64.58Y55.048
X64.585Y55.008
X64.588Y54.969
X64.591Y54.93
X64.592Y54.89
X64.593Y54.851
X64.592Y43.979
X64.59Y43.901
X64.584Y43.823
X64.581Y43.788
X64.515Y43.148
X64.51Y43.114
X64.505Y43.08
X64.499Y43.046
X64.492Y43.012
X64.484Y42.976
X64.476Y42.941
X64.466Y42.907
X64.456Y42.872
X64.445Y42.837
X64.433Y42.803
X64.42Y42.768
X64.404Y42.728
X64.392Y42.698
X64.378Y42.669
X64.36Y42.631
X64.341Y42.594
X64.325Y42.565
X64.309Y42.536
X64.292Y42.508
X64.273Y42.478
X64.254Y42.448
X64.234Y42.419
X64.213Y42.391
X64.192Y42.363
X64.17Y42.335
X64.139Y42.298
X64.107Y42.262
X64.079Y42.233
X64.051Y42.205
X64.03Y42.184
X64.007Y42.163
X63.978Y42.137
X63.963Y42.124
X63.932Y42.098
X63.9Y42.074
X63.868Y42.049
X63.835Y42.026
X63.801Y42.004
X63.767Y41.982
X63.732Y41.961
X63.697Y41.942
X63.662Y41.923
X63.626Y41.905
X63.59Y41.889
X63.554Y41.873
X63.517Y41.858
X63.48Y41.844
X63.443Y41.831
X63.405Y41.818
X63.367Y41.807
X63.328Y41.797
X63.29Y41.787
X63.251Y41.779
X63.212Y41.772
X63.172Y41.765
X63.133Y41.76
X63.094Y41.755
X63.054Y41.752
X63.014Y41.749
X62.975Y41.748
X62.935Y41.747
X34.935
X34.897Y41.748
X34.859Y41.749
X34.82Y41.752
X34.776Y41.755
X34.731Y41.761
X34.686Y41.767
X34.646Y41.774
X34.607Y41.782
X34.564Y41.791
X31.258
X30.097Y41.782
X28.943Y41.754
X27.789Y41.708
X26.637Y41.644
X25.356Y41.552
X25.239Y41.545
X25.122Y41.541
X25.006Y41.538
X24.902Y41.537
X19.825Y41.538
X19.747Y41.54
X19.67Y41.546
X19.593Y41.554
X19.517Y41.565
X19.44Y41.578
X19.364Y41.594
X19.288Y41.613
X19.215Y41.634
X19.141Y41.658
X19.068Y41.684
X18.996Y41.713
X18.926Y41.744
X18.855Y41.779
X18.787Y41.815
X18.72Y41.853
X18.654Y41.894
X18.59Y41.937
X18.527Y41.983
X18.466Y42.03
X18.407Y42.08
X18.349Y42.132
X18.294Y42.185
X18.239Y42.242
X18.187Y42.298
X18.137Y42.358
X18.089Y42.419
X18.044Y42.481
X18Y42.545
X17.959Y42.611
X17.92Y42.678
X17.883Y42.746
X17.849Y42.816
X17.817Y42.886
X17.788Y42.958
X17.761Y43.031
X17.737Y43.105
X17.716Y43.178
X17.697Y43.253
X17.68Y43.329
X17.666Y43.406
X17.66Y43.444
X17.245Y46.31
X17.224Y46.466
X17.205Y46.623
X17.19Y46.78
X17.177Y46.938
X17.166Y47.095
X17.159Y47.253
X17.154Y47.411
X17.152Y47.569
Y47.727
X17.155Y47.885
X17.161Y48.043
X17.17Y48.2
X17.181Y48.358
X17.195Y48.515
X17.212Y48.672
X17.231Y48.829
X17.253Y48.985
X17.278Y49.141
X17.306Y49.297
X17.336Y49.452
X17.368Y49.606
X17.404Y49.761
X17.442Y49.914
X17.483Y50.066
X17.526Y50.218
X17.572Y50.369
X17.62Y50.52
X17.671Y50.669
X17.725Y50.818
X17.781Y50.965
X17.839Y51.112
X17.9Y51.258
X17.964Y51.403
X18.03Y51.546
X18.099Y51.688
X18.17Y51.829
X18.243Y51.969
X18.319Y52.108
X18.397Y52.245
X18.477Y52.381
X18.56Y52.516
X18.645Y52.649
X18.732Y52.78
X18.822Y52.91
X18.914Y53.039
X19.008Y53.166
X19.104Y53.291
X19.202Y53.415
X19.302Y53.536
X19.384Y53.633
X19.468Y53.727
X19.553Y53.821
X19.64Y53.913
X19.729Y54.003
X19.819Y54.092
X19.911Y54.179
X20.005Y54.265
X20.099Y54.349
X20.196Y54.432
X20.293Y54.512
X20.392Y54.591
X20.492Y54.669
X20.594Y54.744
X20.697Y54.818
X20.801Y54.89
X20.906Y54.96
X21.013Y55.028
X21.12Y55.095
X21.23Y55.159
X21.339Y55.222
X21.45Y55.283
X21.563Y55.342
X21.676Y55.398
X21.79Y55.453
X21.905Y55.506
X22.021Y55.557
X22.137Y55.606
X22.255Y55.653
X22.373Y55.698
X22.492Y55.741
X22.612Y55.781
X22.733Y55.82
X22.854Y55.856
X22.976Y55.891
X23.098Y55.923
X23.221Y55.953
X23.344Y55.981
X23.468Y56.007
X24.11Y56.131
X24.754Y56.244
X25.4Y56.347
X26.048Y56.439
X26.697Y56.52
X27.347Y56.59
X27.998Y56.65
X28.65Y56.698
X29.303Y56.736
X29.957Y56.763
X30.611Y56.779
X31.252Y56.784
X57.693
G0Z1
X24.177Y47.421
G1Z-0.6F5
X24.202Y47.408F10
X24.227Y47.396
X24.252Y47.385
X24.278Y47.374
X24.303Y47.363
X24.329Y47.353
X24.356Y47.343
X24.382Y47.334
X24.408Y47.325
X24.435Y47.316
X24.488Y47.301
X24.516Y47.294
X24.543Y47.288
X24.57Y47.282
X24.597Y47.276
X24.624Y47.271
X24.652Y47.266
X24.679Y47.262
X24.707Y47.259
X24.735Y47.255
X24.762Y47.253
X24.79Y47.251
X24.818Y47.249
X24.846Y47.248
X24.874Y47.247
X24.902
X24.957Y47.248
X24.985Y47.249
X25.041Y47.253
X25.069Y47.255
X25.096Y47.259
X25.124Y47.262
X25.151Y47.266
X25.195Y47.274
X25.236Y47.282
X25.261Y47.288
X25.288Y47.294
X25.315Y47.301
X25.342Y47.309
X25.368Y47.316
X25.395Y47.325
X25.421Y47.334
X25.448Y47.343
X25.474Y47.353
X25.5Y47.363
X25.525Y47.374
X25.566Y47.392
X25.601Y47.408
X25.626Y47.421
X25.651Y47.434
X25.676Y47.447
X25.7Y47.461
X25.724Y47.475
X25.748Y47.489
X25.771Y47.504
X25.794Y47.52
X25.817Y47.535
X25.84Y47.552
X25.862Y47.568
X25.885Y47.585
X25.906Y47.602
X25.928Y47.62
X25.949Y47.638
X25.97Y47.657
X25.99Y47.676
X26.011Y47.695
X26.031Y47.714
X26.05Y47.734
X26.069Y47.754
X26.088Y47.775
X26.107Y47.796
X26.125Y47.817
X26.142Y47.839
X26.16Y47.86
X26.177Y47.882
X26.193Y47.905
X26.209Y47.928
X26.225Y47.951
X26.241Y47.974
X26.27Y48.021
X26.284Y48.045
X26.298Y48.069
X26.311Y48.094
X26.324Y48.118
X26.337Y48.143
X26.349Y48.169
X26.36Y48.194
X26.371Y48.22
X26.382Y48.245
X26.402Y48.297
X26.411Y48.323
X26.42Y48.35
X26.428Y48.377
X26.436Y48.403
X26.444Y48.43
X26.451Y48.457
X26.457Y48.484
X26.463Y48.511
X26.469Y48.539
X26.474Y48.566
X26.479Y48.594
X26.483Y48.621
X26.486Y48.649
X26.489Y48.677
X26.492Y48.704
X26.494Y48.732
X26.496Y48.76
X26.497Y48.788
X26.498Y48.815
Y48.843
Y48.871
X26.497Y48.899
X26.496Y48.927
X26.494Y48.955
X26.492Y48.982
X26.489Y49.01
X26.486Y49.038
X26.483Y49.066
X26.479Y49.093
X26.474Y49.121
X26.469Y49.148
X26.463Y49.175
X26.451Y49.23
X26.444Y49.256
X26.436Y49.283
X26.43Y49.303
X26.419Y49.339
X26.411Y49.363
X26.392Y49.416
X26.382Y49.441
X26.371Y49.467
X26.36Y49.493
X26.349Y49.518
X26.337Y49.543
X26.324Y49.568
X26.311Y49.593
X26.298Y49.617
X26.284Y49.642
X26.27Y49.665
X26.256Y49.689
X26.225Y49.736
X26.209Y49.759
X26.193Y49.782
X26.177Y49.804
X26.16Y49.826
X26.143Y49.848
X26.125Y49.87
X26.107Y49.891
X26.088Y49.912
X26.069Y49.932
X26.05Y49.952
X26.031Y49.972
X26.011Y49.992
X25.99Y50.011
X25.97Y50.03
X25.949Y50.048
X25.928Y50.066
X25.906Y50.084
X25.885Y50.101
X25.86Y50.12
X25.84Y50.135
X25.817Y50.151
X25.771Y50.182
X25.748Y50.197
X25.724Y50.212
X25.697Y50.227
X25.676Y50.24
X25.651Y50.253
X25.626Y50.266
X25.602Y50.278
X25.577Y50.29
X25.551Y50.302
X25.525Y50.313
X25.5Y50.324
X25.474Y50.334
X25.452Y50.342
X25.42Y50.353
X25.395Y50.362
X25.368Y50.37
X25.339Y50.379
X25.315Y50.386
X25.288Y50.393
X25.261Y50.399
X25.234Y50.405
X25.206Y50.411
X25.179Y50.416
X25.152Y50.42
X25.124Y50.424
X25.096Y50.428
X25.069Y50.431
X25.013Y50.436
X24.985Y50.438
X24.957Y50.439
X24.93Y50.44
X24.902
X24.874
X24.846Y50.439
X24.79Y50.436
X24.762Y50.434
X24.735Y50.431
X24.707Y50.428
X24.652Y50.42
X24.624Y50.416
X24.597Y50.411
X24.57Y50.405
X24.542Y50.399
X24.515Y50.393
X24.488Y50.386
X24.461Y50.378
X24.435Y50.37
X24.408Y50.362
X24.353Y50.343
X24.314Y50.328
X24.275Y50.312
X24.227Y50.29
X24.201Y50.278
X24.177Y50.266
X24.152Y50.253
X24.127Y50.24
X24.103Y50.226
X24.079Y50.212
X24.056Y50.197
X24.032Y50.182
X23.986Y50.151
X23.941Y50.118
X23.915Y50.098
X23.897Y50.084
X23.854Y50.048
X23.833Y50.03
X23.813Y50.011
X23.793Y49.992
X23.773Y49.972
X23.753Y49.952
X23.734Y49.932
X23.715Y49.912
X23.697Y49.891
X23.679Y49.87
X23.661Y49.848
X23.643Y49.826
X23.626Y49.804
X23.61Y49.782
X23.594Y49.759
X23.578Y49.736
X23.547Y49.688
X23.533Y49.666
X23.519Y49.642
X23.492Y49.593
X23.479Y49.568
X23.467Y49.543
X23.455Y49.518
X23.443Y49.493
X23.432Y49.467
X23.421Y49.442
X23.411Y49.416
X23.401Y49.389
X23.392Y49.363
X23.375Y49.31
X23.367Y49.283
X23.359Y49.256
X23.352Y49.23
X23.346Y49.203
X23.34Y49.175
X23.334Y49.148
X23.329Y49.12
X23.325Y49.093
X23.321Y49.069
X23.317Y49.037
X23.314Y49.01
X23.311Y48.983
X23.309Y48.955
X23.307Y48.927
X23.306Y48.899
X23.305Y48.868
Y48.843
Y48.815
X23.307Y48.76
X23.309Y48.732
X23.311Y48.709
X23.314Y48.675
X23.317Y48.649
X23.32Y48.621
X23.325Y48.594
X23.329Y48.566
X23.334Y48.539
X23.34Y48.511
X23.346Y48.484
X23.359Y48.43
X23.367Y48.403
X23.375Y48.377
X23.383Y48.35
X23.392Y48.324
X23.401Y48.297
X23.411Y48.271
X23.421Y48.245
X23.432Y48.22
X23.443Y48.194
X23.455Y48.168
X23.467Y48.143
X23.479Y48.118
X23.491Y48.096
X23.506Y48.069
X23.519Y48.045
X23.533Y48.021
X23.548Y47.997
X23.563Y47.974
X23.576Y47.953
X23.594Y47.927
X23.61Y47.905
X23.626Y47.882
X23.643Y47.86
X23.678Y47.817
X23.697Y47.796
X23.715Y47.775
X23.734Y47.754
X23.753Y47.734
X23.773Y47.714
X23.792Y47.695
X23.813Y47.676
X23.833Y47.657
X23.854Y47.638
X23.875Y47.62
X23.919Y47.585
X23.941Y47.568
X23.963Y47.552
X24.009Y47.52
X24.032Y47.504
X24.055Y47.489
X24.079Y47.475
X24.103Y47.461
X24.13Y47.446
X24.152Y47.434
X24.177Y47.421
G0Z1
X38.258Y48.83
G1Z-0.6F5
X38.275Y48.654F10
X38.326Y48.485
X38.409Y48.329
X38.522Y48.192
X38.658Y48.08
X38.814Y47.997
X38.983Y47.946
X39.159Y47.928
X39.335Y47.946
X39.504Y47.997
X39.66Y48.08
X39.796Y48.192
X39.908Y48.329
X39.992Y48.485
X40.043Y48.654
X40.06Y48.83
X40.043Y49.006
X39.992Y49.175
X39.908Y49.331
X39.796Y49.467
X39.66Y49.579
X39.504Y49.662
X39.335Y49.714
X39.159Y49.731
X38.983Y49.714
X38.814Y49.662
X38.658Y49.579
X38.522Y49.467
X38.409Y49.331
X38.326Y49.175
X38.275Y49.006
X38.258Y48.83
G0Z1
X54.162
G1Z-0.6F5
X54.179Y48.654F10
X54.23Y48.485
X54.314Y48.329
X54.426Y48.192
X54.562Y48.08
X54.718Y47.997
X54.887Y47.946
X55.063Y47.928
X55.239Y47.946
X55.408Y47.997
X55.564Y48.08
X55.7Y48.192
X55.812Y48.329
X55.896Y48.485
X55.947Y48.654
X55.964Y48.83
X55.947Y49.006
X55.896Y49.175
X55.812Y49.331
X55.7Y49.467
X55.564Y49.579
X55.408Y49.662
X55.239Y49.714
X55.063Y49.731
X54.887Y49.714
X54.718Y49.662
X54.562Y49.579
X54.426Y49.467
X54.314Y49.331
X54.23Y49.175
X54.179Y49.006
X54.162Y48.83
G0Z1
X57.693Y56.784
G1Z-0.6F5
X58.461Y56.779F10
X59.203Y56.762
X59.887Y56.736
X60.001Y56.729
X62.935
X62.973
X63.011Y56.728
X63.05Y56.725
X63.088Y56.722
X63.126Y56.718
X63.164Y56.713
X63.201Y56.707
X63.239Y56.7
X63.276Y56.692
X63.314Y56.684
X63.351Y56.674
X63.388Y56.664
X63.424Y56.652
X63.46Y56.64
X63.496Y56.627
X63.532Y56.613
X63.567Y56.598
X63.602Y56.583
X63.637Y56.566
X63.671Y56.549
X63.705Y56.53
X63.739Y56.511
X63.772Y56.491
X63.805Y56.471
X63.837Y56.449
X63.868Y56.427
X63.899Y56.404
X63.93Y56.38
X63.96Y56.356
X63.989Y56.33
X64.017Y56.304
X64.045Y56.278
X64.073Y56.251
X64.099Y56.223
X64.125Y56.194
X64.151Y56.165
X64.175Y56.135
X64.199Y56.105
X64.222Y56.074
X64.244Y56.042
X64.266Y56.01
X64.288Y55.975
X64.31Y55.939
X64.327Y55.909
X64.343Y55.879
X64.365Y55.836
X64.378Y55.809
X64.393Y55.776
X64.407Y55.743
X64.42Y55.71
X64.434Y55.672
X64.447Y55.634
X64.459Y55.595
X64.47Y55.556
X64.479Y55.524
X64.486Y55.491
X64.493Y55.459
X64.502Y55.415
X64.51Y55.365
X64.512Y55.352
X64.523Y55.317
X64.534Y55.28
X64.544Y55.241
X64.553Y55.203
X64.561Y55.164
X64.569Y55.126
X64.575Y55.087
X64.58Y55.048
X64.585Y55.008
X64.588Y54.969
X64.591Y54.93
X64.592Y54.89
X64.593Y54.851
X64.592Y43.979
X64.59Y43.901
X64.584Y43.823
X64.581Y43.788
X64.515Y43.148
X64.51Y43.114
X64.505Y43.08
X64.499Y43.046
X64.492Y43.012
X64.484Y42.976
X64.476Y42.941
X64.466Y42.907
X64.456Y42.872
X64.445Y42.837
X64.433Y42.803
X64.42Y42.768
X64.404Y42.728
X64.392Y42.698
X64.378Y42.669
X64.36Y42.631
X64.341Y42.594
X64.325Y42.565
X64.309Y42.536
X64.292Y42.508
X64.273Y42.478
X64.254Y42.448
X64.234Y42.419
X64.213Y42.391
X64.192Y42.363
X64.17Y42.335
X64.139Y42.298
X64.107Y42.262
X64.079Y42.233
X64.051Y42.205
X64.03Y42.184
X64.007Y42.163
X63.978Y42.137
X63.963Y42.124
X63.932Y42.098
X63.9Y42.074
X63.868Y42.049
X63.835Y42.026
X63.801Y42.004
X63.767Y41.982
X63.732Y41.961
X63.697Y41.942
X63.662Y41.923
X63.626Y41.905
X63.59Y41.889
X63.554Y41.873
X63.517Y41.858
X63.48Y41.844
X63.443Y41.831
X63.405Y41.818
X63.367Y41.807
X63.328Y41.797
X63.29Y41.787
X63.251Y41.779
X63.212Y41.772
X63.172Y41.765
X63.133Y41.76
X63.094Y41.755
X63.054Y41.752
X63.014Y41.749
X62.975Y41.748
X62.935Y41.747
X34.935
X34.897Y41.748
X34.859Y41.749
X34.82Y41.752
X34.776Y41.755
X34.731Y41.761
X34.686Y41.767
X34.646Y41.774
X34.607Y41.782
X34.564Y41.791
X31.258
X30.097Y41.782
X28.943Y41.754
X27.789Y41.708
X26.637Y41.644
X25.356Y41.552
X25.239Y41.545
X25.122Y41.541
X25.006Y41.538
X24.902Y41.537
X19.825Y41.538
X19.747Y41.54
X19.67Y41.546
X19.593Y41.554
X19.517Y41.565
X19.44Y41.578
X19.364Y41.594
X19.288Y41.613
X19.215Y41.634
X19.141Y41.658
X19.068Y41.684
X18.996Y41.713
X18.926Y41.744
X18.855Y41.779
X18.787Y41.815
X18.72Y41.853
X18.654Y41.894
X18.59Y41.937
X18.527Y41.983
X18.466Y42.03
X18.407Y42.08
X18.349Y42.132
X18.294Y42.185
X18.239Y42.242
X18.187Y42.298
X18.137Y42.358
X18.089Y42.419
X18.044Y42.481
X18Y42.545
X17.959Y42.611
X17.92Y42.678
X17.883Y42.746
X17.849Y42.816
X17.817Y42.886
X17.788Y42.958
X17.761Y43.031
X17.737Y43.105
X17.716Y43.178
X17.697Y43.253
X17.68Y43.329
X17.666Y43.406
X17.66Y43.444
X17.245Y46.31
X17.224Y46.466
X17.205Y46.623
X17.19Y46.78
X17.177Y46.938
X17.166Y47.095
X17.159Y47.253
X17.154Y47.411
X17.152Y47.569
Y47.727
X17.155Y47.885
X17.161Y48.043
X17.17Y48.2
X17.181Y48.358
X17.195Y48.515
X17.212Y48.672
X17.231Y48.829
X17.253Y48.985
X17.278Y49.141
X17.306Y49.297
X17.336Y49.452
X17.368Y49.606
X17.404Y49.761
X17.442Y49.914
X17.483Y50.066
X17.526Y50.218
X17.572Y50.369
X17.62Y50.52
X17.671Y50.669
X17.725Y50.818
X17.781Y50.965
X17.839Y51.112
X17.9Y51.258
X17.964Y51.403
X18.03Y51.546
X18.099Y51.688
X18.17Y51.829
X18.243Y51.969
X18.319Y52.108
X18.397Y52.245
X18.477Y52.381
X18.56Y52.516
X18.645Y52.649
X18.732Y52.78
X18.822Y52.91
X18.914Y53.039
X19.008Y53.166
X19.104Y53.291
X19.202Y53.415
X19.302Y53.536
X19.384Y53.633
X19.468Y53.727
X19.553Y53.821
X19.64Y53.913
X19.729Y54.003
X19.819Y54.092
X19.911Y54.179
X20.005Y54.265
X20.099Y54.349
X20.196Y54.432
X20.293Y54.512
X20.392Y54.591
X20.492Y54.669
X20.594Y54.744
X20.697Y54.818
X20.801Y54.89
X20.906Y54.96
X21.013Y55.028
X21.12Y55.095
X21.23Y55.159
X21.339Y55.222
X21.45Y55.283
X21.563Y55.342
X21.676Y55.398
X21.79Y55.453
X21.905Y55.506
X22.021Y55.557
X22.137Y55.606
X22.255Y55.653
X22.373Y55.698
X22.492Y55.741
X22.612Y55.781
X22.733Y55.82
X22.854Y55.856
X22.976Y55.891
X23.098Y55.923
X23.221Y55.953
X23.344Y55.981
X23.468Y56.007
X24.11Y56.131
X24.754Y56.244
X25.4Y56.347
X26.048Y56.439
X26.697Y56.52
X27.347Y56.59
X27.998Y56.65
X28.65Y56.698
X29.303Y56.736
X29.957Y56.763
X30.611Y56.779
X31.252Y56.784
X57.693
G0Z1
X24.177Y47.421
G1Z-0.7F5
X24.202Y47.408F10
X24.227Y47.396
X24.252Y47.385
X24.278Y47.374
X24.303Y47.363
X24.329Y47.353
X24.356Y47.343
X24.382Y47.334
X24.408Y47.325
X24.435Y47.316
X24.488Y47.301
X24.516Y47.294
X24.543Y47.288
X24.57Y47.282
X24.597Y47.276
X24.624Y47.271
X24.652Y47.266
X24.679Y47.262
X24.707Y47.259
X24.735Y47.255
X24.762Y47.253
X24.79Y47.251
X24.818Y47.249
X24.846Y47.248
X24.874Y47.247
X24.902
X24.957Y47.248
X24.985Y47.249
X25.041Y47.253
X25.069Y47.255
X25.096Y47.259
X25.124Y47.262
X25.151Y47.266
X25.195Y47.274
X25.236Y47.282
X25.261Y47.288
X25.288Y47.294
X25.315Y47.301
X25.342Y47.309
X25.368Y47.316
X25.395Y47.325
X25.421Y47.334
X25.448Y47.343
X25.474Y47.353
X25.5Y47.363
X25.525Y47.374
X25.566Y47.392
X25.601Y47.408
X25.626Y47.421
X25.651Y47.434
X25.676Y47.447
X25.7Y47.461
X25.724Y47.475
X25.748Y47.489
X25.771Y47.504
X25.794Y47.52
X25.817Y47.535
X25.84Y47.552
X25.862Y47.568
X25.885Y47.585
X25.906Y47.602
X25.928Y47.62
X25.949Y47.638
X25.97Y47.657
X25.99Y47.676
X26.011Y47.695
X26.031Y47.714
X26.05Y47.734
X26.069Y47.754
X26.088Y47.775
X26.107Y47.796
X26.125Y47.817
X26.142Y47.839
X26.16Y47.86
X26.177Y47.882
X26.193Y47.905
X26.209Y47.928
X26.225Y47.951
X26.241Y47.974
X26.27Y48.021
X26.284Y48.045
X26.298Y48.069
X26.311Y48.094
X26.324Y48.118
X26.337Y48.143
X26.349Y48.169
X26.36Y48.194
X26.371Y48.22
X26.382Y48.245
X26.402Y48.297
X26.411Y48.323
X26.42Y48.35
X26.428Y48.377
X26.436Y48.403
X26.444Y48.43
X26.451Y48.457
X26.457Y48.484
X26.463Y48.511
X26.469Y48.539
X26.474Y48.566
X26.479Y48.594
X26.483Y48.621
X26.486Y48.649
X26.489Y48.677
X26.492Y48.704
X26.494Y48.732
X26.496Y48.76
X26.497Y48.788
X26.498Y48.815
Y48.843
Y48.871
X26.497Y48.899
X26.496Y48.927
X26.494Y48.955
X26.492Y48.982
X26.489Y49.01
X26.486Y49.038
X26.483Y49.066
X26.479Y49.093
X26.474Y49.121
X26.469Y49.148
X26.463Y49.175
X26.451Y49.23
X26.444Y49.256
X26.436Y49.283
X26.43Y49.303
X26.419Y49.339
X26.411Y49.363
X26.392Y49.416
X26.382Y49.441
X26.371Y49.467
X26.36Y49.493
X26.349Y49.518
X26.337Y49.543
X26.324Y49.568
X26.311Y49.593
X26.298Y49.617
X26.284Y49.642
X26.27Y49.665
X26.256Y49.689
X26.225Y49.736
X26.209Y49.759
X26.193Y49.782
X26.177Y49.804
X26.16Y49.826
X26.143Y49.848
X26.125Y49.87
X26.107Y49.891
X26.088Y49.912
X26.069Y49.932
X26.05Y49.952
X26.031Y49.972
X26.011Y49.992
X25.99Y50.011
X25.97Y50.03
X25.949Y50.048
X25.928Y50.066
X25.906Y50.084
X25.885Y50.101
X25.86Y50.12
X25.84Y50.135
X25.817Y50.151
X25.771Y50.182
X25.748Y50.197
X25.724Y50.212
X25.697Y50.227
X25.676Y50.24
X25.651Y50.253
X25.626Y50.266
X25.602Y50.278
X25.577Y50.29
X25.551Y50.302
X25.525Y50.313
X25.5Y50.324
X25.474Y50.334
X25.452Y50.342
X25.42Y50.353
X25.395Y50.362
X25.368Y50.37
X25.339Y50.379
X25.315Y50.386
X25.288Y50.393
X25.261Y50.399
X25.234Y50.405
X25.206Y50.411
X25.179Y50.416
X25.152Y50.42
X25.124Y50.424
X25.096Y50.428
X25.069Y50.431
X25.013Y50.436
X24.985Y50.438
X24.957Y50.439
X24.93Y50.44
X24.902
X24.874
X24.846Y50.439
X24.79Y50.436
X24.762Y50.434
X24.735Y50.431
X24.707Y50.428
X24.652Y50.42
X24.624Y50.416
X24.597Y50.411
X24.57Y50.405
X24.542Y50.399
X24.515Y50.393
X24.488Y50.386
X24.461Y50.378
X24.435Y50.37
X24.408Y50.362
X24.353Y50.343
X24.314Y50.328
X24.275Y50.312
X24.227Y50.29
X24.201Y50.278
X24.177Y50.266
X24.152Y50.253
X24.127Y50.24
X24.103Y50.226
X24.079Y50.212
X24.056Y50.197
X24.032Y50.182
X23.986Y50.151
X23.941Y50.118
X23.915Y50.098
X23.897Y50.084
X23.854Y50.048
X23.833Y50.03
X23.813Y50.011
X23.793Y49.992
X23.773Y49.972
X23.753Y49.952
X23.734Y49.932
X23.715Y49.912
X23.697Y49.891
X23.679Y49.87
X23.661Y49.848
X23.643Y49.826
X23.626Y49.804
X23.61Y49.782
X23.594Y49.759
X23.578Y49.736
X23.547Y49.688
X23.533Y49.666
X23.519Y49.642
X23.492Y49.593
X23.479Y49.568
X23.467Y49.543
X23.455Y49.518
X23.443Y49.493
X23.432Y49.467
X23.421Y49.442
X23.411Y49.416
X23.401Y49.389
X23.392Y49.363
X23.375Y49.31
X23.367Y49.283
X23.359Y49.256
X23.352Y49.23
X23.346Y49.203
X23.34Y49.175
X23.334Y49.148
X23.329Y49.12
X23.325Y49.093
X23.321Y49.069
X23.317Y49.037
X23.314Y49.01
X23.311Y48.983
X23.309Y48.955
X23.307Y48.927
X23.306Y48.899
X23.305Y48.868
Y48.843
Y48.815
X23.307Y48.76
X23.309Y48.732
X23.311Y48.709
X23.314Y48.675
X23.317Y48.649
X23.32Y48.621
X23.325Y48.594
X23.329Y48.566
X23.334Y48.539
X23.34Y48.511
X23.346Y48.484
X23.359Y48.43
X23.367Y48.403
X23.375Y48.377
X23.383Y48.35
X23.392Y48.324
X23.401Y48.297
X23.411Y48.271
X23.421Y48.245
X23.432Y48.22
X23.443Y48.194
X23.455Y48.168
X23.467Y48.143
X23.479Y48.118
X23.491Y48.096
X23.506Y48.069
X23.519Y48.045
X23.533Y48.021
X23.548Y47.997
X23.563Y47.974
X23.576Y47.953
X23.594Y47.927
X23.61Y47.905
X23.626Y47.882
X23.643Y47.86
X23.678Y47.817
X23.697Y47.796
X23.715Y47.775
X23.734Y47.754
X23.753Y47.734
X23.773Y47.714
X23.792Y47.695
X23.813Y47.676
X23.833Y47.657
X23.854Y47.638
X23.875Y47.62
X23.919Y47.585
X23.941Y47.568
X23.963Y47.552
X24.009Y47.52
X24.032Y47.504
X24.055Y47.489
X24.079Y47.475
X24.103Y47.461
X24.13Y47.446
X24.152Y47.434
X24.177Y47.421
G0Z1
X38.258Y48.83
G1Z-0.7F5
X38.275Y48.654F10
X38.326Y48.485
X38.409Y48.329
X38.522Y48.192
X38.658Y48.08
X38.814Y47.997
X38.983Y47.946
X39.159Y47.928
X39.335Y47.946
X39.504Y47.997
X39.66Y48.08
X39.796Y48.192
X39.908Y48.329
X39.992Y48.485
X40.043Y48.654
X40.06Y48.83
X40.043Y49.006
X39.992Y49.175
X39.908Y49.331
X39.796Y49.467
X39.66Y49.579
X39.504Y49.662
X39.335Y49.714
X39.159Y49.731
X38.983Y49.714
X38.814Y49.662
X38.658Y49.579
X38.522Y49.467
X38.409Y49.331
X38.326Y49.175
X38.275Y49.006
X38.258Y48.83
G0Z1
X54.162
G1Z-0.7F5
X54.179Y48.654F10
X54.23Y48.485
X54.314Y48.329
X54.426Y48.192
X54.562Y48.08
X54.718Y47.997
X54.887Y47.946
X55.063Y47.928
X55.239Y47.946
X55.408Y47.997
X55.564Y48.08
X55.7Y48.192
X55.812Y48.329
X55.896Y48.485
X55.947Y48.654
X55.964Y48.83
X55.947Y49.006
X55.896Y49.175
X55.812Y49.331
X55.7Y49.467
X55.564Y49.579
X55.408Y49.662
X55.239Y49.714
X55.063Y49.731
X54.887Y49.714
X54.718Y49.662
X54.562Y49.579
X54.426Y49.467
X54.314Y49.331
X54.23Y49.175
X54.179Y49.006
X54.162Y48.83
G0Z1
X57.693Y56.784
G1Z-0.7F5
X58.461Y56.779F10
X59.203Y56.762
X59.887Y56.736
X60.001Y56.729
X62.935
X62.973
X63.011Y56.728
X63.05Y56.725
X63.088Y56.722
X63.126Y56.718
X63.164Y56.713
X63.201Y56.707
X63.239Y56.7
X63.276Y56.692
X63.314Y56.684
X63.351Y56.674
X63.388Y56.664
X63.424Y56.652
X63.46Y56.64
X63.496Y56.627
X63.532Y56.613
X63.567Y56.598
X63.602Y56.583
X63.637Y56.566
X63.671Y56.549
X63.705Y56.53
X63.739Y56.511
X63.772Y56.491
X63.805Y56.471
X63.837Y56.449
X63.868Y56.427
X63.899Y56.404
X63.93Y56.38
X63.96Y56.356
X63.989Y56.33
X64.017Y56.304
X64.045Y56.278
X64.073Y56.251
X64.099Y56.223
X64.125Y56.194
X64.151Y56.165
X64.175Y56.135
X64.199Y56.105
X64.222Y56.074
X64.244Y56.042
X64.266Y56.01
X64.288Y55.975
X64.31Y55.939
X64.327Y55.909
X64.343Y55.879
X64.365Y55.836
X64.378Y55.809
X64.393Y55.776
X64.407Y55.743
X64.42Y55.71
X64.434Y55.672
X64.447Y55.634
X64.459Y55.595
X64.47Y55.556
X64.479Y55.524
X64.486Y55.491
X64.493Y55.459
X64.502Y55.415
X64.51Y55.365
X64.512Y55.352
X64.523Y55.317
X64.534Y55.28
X64.544Y55.241
X64.553Y55.203
X64.561Y55.164
X64.569Y55.126
X64.575Y55.087
X64.58Y55.048
X64.585Y55.008
X64.588Y54.969
X64.591Y54.93
X64.592Y54.89
X64.593Y54.851
X64.592Y43.979
X64.59Y43.901
X64.584Y43.823
X64.581Y43.788
X64.515Y43.148
X64.51Y43.114
X64.505Y43.08
X64.499Y43.046
X64.492Y43.012
X64.484Y42.976
X64.476Y42.941
X64.466Y42.907
X64.456Y42.872
X64.445Y42.837
X64.433Y42.803
X64.42Y42.768
X64.404Y42.728
X64.392Y42.698
X64.378Y42.669
X64.36Y42.631
X64.341Y42.594
X64.325Y42.565
X64.309Y42.536
X64.292Y42.508
X64.273Y42.478
X64.254Y42.448
X64.234Y42.419
X64.213Y42.391
X64.192Y42.363
X64.17Y42.335
X64.139Y42.298
X64.107Y42.262
X64.079Y42.233
X64.051Y42.205
X64.03Y42.184
X64.007Y42.163
X63.978Y42.137
X63.963Y42.124
X63.932Y42.098
X63.9Y42.074
X63.868Y42.049
X63.835Y42.026
X63.801Y42.004
X63.767Y41.982
X63.732Y41.961
X63.697Y41.942
X63.662Y41.923
X63.626Y41.905
X63.59Y41.889
X63.554Y41.873
X63.517Y41.858
X63.48Y41.844
X63.443Y41.831
X63.405Y41.818
X63.367Y41.807
X63.328Y41.797
X63.29Y41.787
X63.251Y41.779
X63.212Y41.772
X63.172Y41.765
X63.133Y41.76
X63.094Y41.755
X63.054Y41.752
X63.014Y41.749
X62.975Y41.748
X62.935Y41.747
X34.935
X34.897Y41.748
X34.859Y41.749
X34.82Y41.752
X34.776Y41.755
X34.731Y41.761
X34.686Y41.767
X34.646Y41.774
X34.607Y41.782
X34.564Y41.791
X31.258
X30.097Y41.782
X28.943Y41.754
X27.789Y41.708
X26.637Y41.644
X25.356Y41.552
X25.239Y41.545
X25.122Y41.541
X25.006Y41.538
X24.902Y41.537
X19.825Y41.538
X19.747Y41.54
X19.67Y41.546
X19.593Y41.554
X19.517Y41.565
X19.44Y41.578
X19.364Y41.594
X19.288Y41.613
X19.215Y41.634
X19.141Y41.658
X19.068Y41.684
X18.996Y41.713
X18.926Y41.744
X18.855Y41.779
X18.787Y41.815
X18.72Y41.853
X18.654Y41.894
X18.59Y41.937
X18.527Y41.983
X18.466Y42.03
X18.407Y42.08
X18.349Y42.132
X18.294Y42.185
X18.239Y42.242
X18.187Y42.298
X18.137Y42.358
X18.089Y42.419
X18.044Y42.481
X18Y42.545
X17.959Y42.611
X17.92Y42.678
X17.883Y42.746
X17.849Y42.816
X17.817Y42.886
X17.788Y42.958
X17.761Y43.031
X17.737Y43.105
X17.716Y43.178
X17.697Y43.253
X17.68Y43.329
X17.666Y43.406
X17.66Y43.444
X17.245Y46.31
X17.224Y46.466
X17.205Y46.623
X17.19Y46.78
X17.177Y46.938
X17.166Y47.095
X17.159Y47.253
X17.154Y47.411
X17.152Y47.569
Y47.727
X17.155Y47.885
X17.161Y48.043
X17.17Y48.2
X17.181Y48.358
X17.195Y48.515
X17.212Y48.672
X17.231Y48.829
X17.253Y48.985
X17.278Y49.141
X17.306Y49.297
X17.336Y49.452
X17.368Y49.606
X17.404Y49.761
X17.442Y49.914
X17.483Y50.066
X17.526Y50.218
X17.572Y50.369
X17.62Y50.52
X17.671Y50.669
X17.725Y50.818
X17.781Y50.965
X17.839Y51.112
X17.9Y51.258
X17.964Y51.403
X18.03Y51.546
X18.099Y51.688
X18.17Y51.829
X18.243Y51.969
X18.319Y52.108
X18.397Y52.245
X18.477Y52.381
X18.56Y52.516
X18.645Y52.649
X18.732Y52.78
X18.822Y52.91
X18.914Y53.039
X19.008Y53.166
X19.104Y53.291
X19.202Y53.415
X19.302Y53.536
X19.384Y53.633
X19.468Y53.727
X19.553Y53.821
X19.64Y53.913
X19.729Y54.003
X19.819Y54.092
X19.911Y54.179
X20.005Y54.265
X20.099Y54.349
X20.196Y54.432
X20.293Y54.512
X20.392Y54.591
X20.492Y54.669
X20.594Y54.744
X20.697Y54.818
X20.801Y54.89
X20.906Y54.96
X21.013Y55.028
X21.12Y55.095
X21.23Y55.159
X21.339Y55.222
X21.45Y55.283
X21.563Y55.342
X21.676Y55.398
X21.79Y55.453
X21.905Y55.506
X22.021Y55.557
X22.137Y55.606
X22.255Y55.653
X22.373Y55.698
X22.492Y55.741
X22.612Y55.781
X22.733Y55.82
X22.854Y55.856
X22.976Y55.891
X23.098Y55.923
X23.221Y55.953
X23.344Y55.981
X23.468Y56.007
X24.11Y56.131
X24.754Y56.244
X25.4Y56.347
X26.048Y56.439
X26.697Y56.52
X27.347Y56.59
X27.998Y56.65
X28.65Y56.698
X29.303Y56.736
X29.957Y56.763
X30.611Y56.779
X31.252Y56.784
X57.693
G0Z1
X24.177Y47.421
G1Z-0.8F5
X24.202Y47.408F10
X24.227Y47.396
X24.252Y47.385
X24.278Y47.374
X24.303Y47.363
X24.329Y47.353
X24.356Y47.343
X24.382Y47.334
X24.408Y47.325
X24.435Y47.316
X24.488Y47.301
X24.516Y47.294
X24.543Y47.288
X24.57Y47.282
X24.597Y47.276
X24.624Y47.271
X24.652Y47.266
X24.679Y47.262
X24.707Y47.259
X24.735Y47.255
X24.762Y47.253
X24.79Y47.251
X24.818Y47.249
X24.846Y47.248
X24.874Y47.247
X24.902
X24.957Y47.248
X24.985Y47.249
X25.041Y47.253
X25.069Y47.255
X25.096Y47.259
X25.124Y47.262
X25.151Y47.266
X25.195Y47.274
X25.236Y47.282
X25.261Y47.288
X25.288Y47.294
X25.315Y47.301
X25.342Y47.309
X25.368Y47.316
X25.395Y47.325
X25.421Y47.334
X25.448Y47.343
X25.474Y47.353
X25.5Y47.363
X25.525Y47.374
X25.566Y47.392
X25.601Y47.408
X25.626Y47.421
X25.651Y47.434
X25.676Y47.447
X25.7Y47.461
X25.724Y47.475
X25.748Y47.489
X25.771Y47.504
X25.794Y47.52
X25.817Y47.535
X25.84Y47.552
X25.862Y47.568
X25.885Y47.585
X25.906Y47.602
X25.928Y47.62
X25.949Y47.638
X25.97Y47.657
X25.99Y47.676
X26.011Y47.695
X26.031Y47.714
X26.05Y47.734
X26.069Y47.754
X26.088Y47.775
X26.107Y47.796
X26.125Y47.817
X26.142Y47.839
X26.16Y47.86
X26.177Y47.882
X26.193Y47.905
X26.209Y47.928
X26.225Y47.951
X26.241Y47.974
X26.27Y48.021
X26.284Y48.045
X26.298Y48.069
X26.311Y48.094
X26.324Y48.118
X26.337Y48.143
X26.349Y48.169
X26.36Y48.194
X26.371Y48.22
X26.382Y48.245
X26.402Y48.297
X26.411Y48.323
X26.42Y48.35
X26.428Y48.377
X26.436Y48.403
X26.444Y48.43
X26.451Y48.457
X26.457Y48.484
X26.463Y48.511
X26.469Y48.539
X26.474Y48.566
X26.479Y48.594
X26.483Y48.621
X26.486Y48.649
X26.489Y48.677
X26.492Y48.704
X26.494Y48.732
X26.496Y48.76
X26.497Y48.788
X26.498Y48.815
Y48.843
Y48.871
X26.497Y48.899
X26.496Y48.927
X26.494Y48.955
X26.492Y48.982
X26.489Y49.01
X26.486Y49.038
X26.483Y49.066
X26.479Y49.093
X26.474Y49.121
X26.469Y49.148
X26.463Y49.175
X26.451Y49.23
X26.444Y49.256
X26.436Y49.283
X26.43Y49.303
X26.419Y49.339
X26.411Y49.363
X26.392Y49.416
X26.382Y49.441
X26.371Y49.467
X26.36Y49.493
X26.349Y49.518
X26.337Y49.543
X26.324Y49.568
X26.311Y49.593
X26.298Y49.617
X26.284Y49.642
X26.27Y49.665
X26.256Y49.689
X26.225Y49.736
X26.209Y49.759
X26.193Y49.782
X26.177Y49.804
X26.16Y49.826
X26.143Y49.848
X26.125Y49.87
X26.107Y49.891
X26.088Y49.912
X26.069Y49.932
X26.05Y49.952
X26.031Y49.972
X26.011Y49.992
X25.99Y50.011
X25.97Y50.03
X25.949Y50.048
X25.928Y50.066
X25.906Y50.084
X25.885Y50.101
X25.86Y50.12
X25.84Y50.135
X25.817Y50.151
X25.771Y50.182
X25.748Y50.197
X25.724Y50.212
X25.697Y50.227
X25.676Y50.24
X25.651Y50.253
X25.626Y50.266
X25.602Y50.278
X25.577Y50.29
X25.551Y50.302
X25.525Y50.313
X25.5Y50.324
X25.474Y50.334
X25.452Y50.342
X25.42Y50.353
X25.395Y50.362
X25.368Y50.37
X25.339Y50.379
X25.315Y50.386
X25.288Y50.393
X25.261Y50.399
X25.234Y50.405
X25.206Y50.411
X25.179Y50.416
X25.152Y50.42
X25.124Y50.424
X25.096Y50.428
X25.069Y50.431
X25.013Y50.436
X24.985Y50.438
X24.957Y50.439
X24.93Y50.44
X24.902
X24.874
X24.846Y50.439
X24.79Y50.436
X24.762Y50.434
X24.735Y50.431
X24.707Y50.428
X24.652Y50.42
X24.624Y50.416
X24.597Y50.411
X24.57Y50.405
X24.542Y50.399
X24.515Y50.393
X24.488Y50.386
X24.461Y50.378
X24.435Y50.37
X24.408Y50.362
X24.353Y50.343
X24.314Y50.328
X24.275Y50.312
X24.227Y50.29
X24.201Y50.278
X24.177Y50.266
X24.152Y50.253
X24.127Y50.24
X24.103Y50.226
X24.079Y50.212
X24.056Y50.197
X24.032Y50.182
X23.986Y50.151
X23.941Y50.118
X23.915Y50.098
X23.897Y50.084
X23.854Y50.048
X23.833Y50.03
X23.813Y50.011
X23.793Y49.992
X23.773Y49.972
X23.753Y49.952
X23.734Y49.932
X23.715Y49.912
X23.697Y49.891
X23.679Y49.87
X23.661Y49.848
X23.643Y49.826
X23.626Y49.804
X23.61Y49.782
X23.594Y49.759
X23.578Y49.736
X23.547Y49.688
X23.533Y49.666
X23.519Y49.642
X23.492Y49.593
X23.479Y49.568
X23.467Y49.543
X23.455Y49.518
X23.443Y49.493
X23.432Y49.467
X23.421Y49.442
X23.411Y49.416
X23.401Y49.389
X23.392Y49.363
X23.375Y49.31
X23.367Y49.283
X23.359Y49.256
X23.352Y49.23
X23.346Y49.203
X23.34Y49.175
X23.334Y49.148
X23.329Y49.12
X23.325Y49.093
X23.321Y49.069
X23.317Y49.037
X23.314Y49.01
X23.311Y48.983
X23.309Y48.955
X23.307Y48.927
X23.306Y48.899
X23.305Y48.868
Y48.843
Y48.815
X23.307Y48.76
X23.309Y48.732
X23.311Y48.709
X23.314Y48.675
X23.317Y48.649
X23.32Y48.621
X23.325Y48.594
X23.329Y48.566
X23.334Y48.539
X23.34Y48.511
X23.346Y48.484
X23.359Y48.43
X23.367Y48.403
X23.375Y48.377
X23.383Y48.35
X23.392Y48.324
X23.401Y48.297
X23.411Y48.271
X23.421Y48.245
X23.432Y48.22
X23.443Y48.194
X23.455Y48.168
X23.467Y48.143
X23.479Y48.118
X23.491Y48.096
X23.506Y48.069
X23.519Y48.045
X23.533Y48.021
X23.548Y47.997
X23.563Y47.974
X23.576Y47.953
X23.594Y47.927
X23.61Y47.905
X23.626Y47.882
X23.643Y47.86
X23.678Y47.817
X23.697Y47.796
X23.715Y47.775
X23.734Y47.754
X23.753Y47.734
X23.773Y47.714
X23.792Y47.695
X23.813Y47.676
X23.833Y47.657
X23.854Y47.638
X23.875Y47.62
X23.919Y47.585
X23.941Y47.568
X23.963Y47.552
X24.009Y47.52
X24.032Y47.504
X24.055Y47.489
X24.079Y47.475
X24.103Y47.461
X24.13Y47.446
X24.152Y47.434
X24.177Y47.421
G0Z1
X38.258Y48.83
G1Z-0.8F5
X38.275Y48.654F10
X38.326Y48.485
X38.409Y48.329
X38.522Y48.192
X38.658Y48.08
X38.814Y47.997
X38.983Y47.946
X39.159Y47.928
X39.335Y47.946
X39.504Y47.997
X39.66Y48.08
X39.796Y48.192
X39.908Y48.329
X39.992Y48.485
X40.043Y48.654
X40.06Y48.83
X40.043Y49.006
X39.992Y49.175
X39.908Y49.331
X39.796Y49.467
X39.66Y49.579
X39.504Y49.662
X39.335Y49.714
X39.159Y49.731
X38.983Y49.714
X38.814Y49.662
X38.658Y49.579
X38.522Y49.467
X38.409Y49.331
X38.326Y49.175
X38.275Y49.006
X38.258Y48.83
G0Z1
X54.162
G1Z-0.8F5
X54.179Y48.654F10
X54.23Y48.485
X54.314Y48.329
X54.426Y48.192
X54.562Y48.08
X54.718Y47.997
X54.887Y47.946
X55.063Y47.928
X55.239Y47.946
X55.408Y47.997
X55.564Y48.08
X55.7Y48.192
X55.812Y48.329
X55.896Y48.485
X55.947Y48.654
X55.964Y48.83
X55.947Y49.006
X55.896Y49.175
X55.812Y49.331
X55.7Y49.467
X55.564Y49.579
X55.408Y49.662
X55.239Y49.714
X55.063Y49.731
X54.887Y49.714
X54.718Y49.662
X54.562Y49.579
X54.426Y49.467
X54.314Y49.331
X54.23Y49.175
X54.179Y49.006
X54.162Y48.83
G0Z1
X57.693Y56.784
G1Z-0.8F5
X58.461Y56.779F10
X59.203Y56.762
X59.887Y56.736
X60.001Y56.729
X62.935
X62.973
X63.011Y56.728
X63.05Y56.725
X63.088Y56.722
X63.126Y56.718
X63.164Y56.713
X63.201Y56.707
X63.239Y56.7
X63.276Y56.692
X63.314Y56.684
X63.351Y56.674
X63.388Y56.664
X63.424Y56.652
X63.46Y56.64
X63.496Y56.627
X63.532Y56.613
X63.567Y56.598
X63.602Y56.583
X63.637Y56.566
X63.671Y56.549
X63.705Y56.53
X63.739Y56.511
X63.772Y56.491
X63.805Y56.471
X63.837Y56.449
X63.868Y56.427
X63.899Y56.404
X63.93Y56.38
X63.96Y56.356
X63.989Y56.33
X64.017Y56.304
X64.045Y56.278
X64.073Y56.251
X64.099Y56.223
X64.125Y56.194
X64.151Y56.165
X64.175Y56.135
X64.199Y56.105
X64.222Y56.074
X64.244Y56.042
X64.266Y56.01
X64.288Y55.975
X64.31Y55.939
X64.327Y55.909
X64.343Y55.879
X64.365Y55.836
X64.378Y55.809
X64.393Y55.776
X64.407Y55.743
X64.42Y55.71
X64.434Y55.672
X64.447Y55.634
X64.459Y55.595
X64.47Y55.556
X64.479Y55.524
X64.486Y55.491
X64.493Y55.459
X64.502Y55.415
X64.51Y55.365
X64.512Y55.352
X64.523Y55.317
X64.534Y55.28
X64.544Y55.241
X64.553Y55.203
X64.561Y55.164
X64.569Y55.126
X64.575Y55.087
X64.58Y55.048
X64.585Y55.008
X64.588Y54.969
X64.591Y54.93
X64.592Y54.89
X64.593Y54.851
X64.592Y43.979
X64.59Y43.901
X64.584Y43.823
X64.581Y43.788
X64.515Y43.148
X64.51Y43.114
X64.505Y43.08
X64.499Y43.046
X64.492Y43.012
X64.484Y42.976
X64.476Y42.941
X64.466Y42.907
X64.456Y42.872
X64.445Y42.837
X64.433Y42.803
X64.42Y42.768
X64.404Y42.728
X64.392Y42.698
X64.378Y42.669
X64.36Y42.631
X64.341Y42.594
X64.325Y42.565
X64.309Y42.536
X64.292Y42.508
X64.273Y42.478
X64.254Y42.448
X64.234Y42.419
X64.213Y42.391
X64.192Y42.363
X64.17Y42.335
X64.139Y42.298
X64.107Y42.262
X64.079Y42.233
X64.051Y42.205
X64.03Y42.184
X64.007Y42.163
X63.978Y42.137
X63.963Y42.124
X63.932Y42.098
X63.9Y42.074
X63.868Y42.049
X63.835Y42.026
X63.801Y42.004
X63.767Y41.982
X63.732Y41.961
X63.697Y41.942
X63.662Y41.923
X63.626Y41.905
X63.59Y41.889
X63.554Y41.873
X63.517Y41.858
X63.48Y41.844
X63.443Y41.831
X63.405Y41.818
X63.367Y41.807
X63.328Y41.797
X63.29Y41.787
X63.251Y41.779
X63.212Y41.772
X63.172Y41.765
X63.133Y41.76
X63.094Y41.755
X63.054Y41.752
X63.014Y41.749
X62.975Y41.748
X62.935Y41.747
X34.935
X34.897Y41.748
X34.859Y41.749
X34.82Y41.752
X34.776Y41.755
X34.731Y41.761
X34.686Y41.767
X34.646Y41.774
X34.607Y41.782
X34.564Y41.791
X31.258
X30.097Y41.782
X28.943Y41.754
X27.789Y41.708
X26.637Y41.644
X25.356Y41.552
X25.239Y41.545
X25.122Y41.541
X25.006Y41.538
X24.902Y41.537
X19.825Y41.538
X19.747Y41.54
X19.67Y41.546
X19.593Y41.554
X19.517Y41.565
X19.44Y41.578
X19.364Y41.594
X19.288Y41.613
X19.215Y41.634
X19.141Y41.658
X19.068Y41.684
X18.996Y41.713
X18.926Y41.744
X18.855Y41.779
X18.787Y41.815
X18.72Y41.853
X18.654Y41.894
X18.59Y41.937
X18.527Y41.983
X18.466Y42.03
X18.407Y42.08
X18.349Y42.132
X18.294Y42.185
X18.239Y42.242
X18.187Y42.298
X18.137Y42.358
X18.089Y42.419
X18.044Y42.481
X18Y42.545
X17.959Y42.611
X17.92Y42.678
X17.883Y42.746
X17.849Y42.816
X17.817Y42.886
X17.788Y42.958
X17.761Y43.031
X17.737Y43.105
X17.716Y43.178
X17.697Y43.253
X17.68Y43.329
X17.666Y43.406
X17.66Y43.444
X17.245Y46.31
X17.224Y46.466
X17.205Y46.623
X17.19Y46.78
X17.177Y46.938
X17.166Y47.095
X17.159Y47.253
X17.154Y47.411
X17.152Y47.569
Y47.727
X17.155Y47.885
X17.161Y48.043
X17.17Y48.2
X17.181Y48.358
X17.195Y48.515
X17.212Y48.672
X17.231Y48.829
X17.253Y48.985
X17.278Y49.141
X17.306Y49.297
X17.336Y49.452
X17.368Y49.606
X17.404Y49.761
X17.442Y49.914
X17.483Y50.066
X17.526Y50.218
X17.572Y50.369
X17.62Y50.52
X17.671Y50.669
X17.725Y50.818
X17.781Y50.965
X17.839Y51.112
X17.9Y51.258
X17.964Y51.403
X18.03Y51.546
X18.099Y51.688
X18.17Y51.829
X18.243Y51.969
X18.319Y52.108
X18.397Y52.245
X18.477Y52.381
X18.56Y52.516
X18.645Y52.649
X18.732Y52.78
X18.822Y52.91
X18.914Y53.039
X19.008Y53.166
X19.104Y53.291
X19.202Y53.415
X19.302Y53.536
X19.384Y53.633
X19.468Y53.727
X19.553Y53.821
X19.64Y53.913
X19.729Y54.003
X19.819Y54.092
X19.911Y54.179
X20.005Y54.265
X20.099Y54.349
X20.196Y54.432
X20.293Y54.512
X20.392Y54.591
X20.492Y54.669
X20.594Y54.744
X20.697Y54.818
X20.801Y54.89
X20.906Y54.96
X21.013Y55.028
X21.12Y55.095
X21.23Y55.159
X21.339Y55.222
X21.45Y55.283
X21.563Y55.342
X21.676Y55.398
X21.79Y55.453
X21.905Y55.506
X22.021Y55.557
X22.137Y55.606
X22.255Y55.653
X22.373Y55.698
X22.492Y55.741
X22.612Y55.781
X22.733Y55.82
X22.854Y55.856
X22.976Y55.891
X23.098Y55.923
X23.221Y55.953
X23.344Y55.981
X23.468Y56.007
X24.11Y56.131
X24.754Y56.244
X25.4Y56.347
X26.048Y56.439
X26.697Y56.52
X27.347Y56.59
X27.998Y56.65
X28.65Y56.698
X29.303Y56.736
X29.957Y56.763
X30.611Y56.779
X31.252Y56.784
X57.693
G0Z1
X24.177Y47.421
G1Z-0.9F5
X24.202Y47.408F10
X24.227Y47.396
X24.252Y47.385
X24.278Y47.374
X24.303Y47.363
X24.329Y47.353
X24.356Y47.343
X24.382Y47.334
X24.408Y47.325
X24.435Y47.316
X24.488Y47.301
X24.516Y47.294
X24.543Y47.288
X24.57Y47.282
X24.597Y47.276
X24.624Y47.271
X24.652Y47.266
X24.679Y47.262
X24.707Y47.259
X24.735Y47.255
X24.762Y47.253
X24.79Y47.251
X24.818Y47.249
X24.846Y47.248
X24.874Y47.247
X24.902
X24.957Y47.248
X24.985Y47.249
X25.041Y47.253
X25.069Y47.255
X25.096Y47.259
X25.124Y47.262
X25.151Y47.266
X25.195Y47.274
X25.236Y47.282
X25.261Y47.288
X25.288Y47.294
X25.315Y47.301
X25.342Y47.309
X25.368Y47.316
X25.395Y47.325
X25.421Y47.334
X25.448Y47.343
X25.474Y47.353
X25.5Y47.363
X25.525Y47.374
X25.566Y47.392
X25.601Y47.408
X25.626Y47.421
X25.651Y47.434
X25.676Y47.447
X25.7Y47.461
X25.724Y47.475
X25.748Y47.489
X25.771Y47.504
X25.794Y47.52
X25.817Y47.535
X25.84Y47.552
X25.862Y47.568
X25.885Y47.585
X25.906Y47.602
X25.928Y47.62
X25.949Y47.638
X25.97Y47.657
X25.99Y47.676
X26.011Y47.695
X26.031Y47.714
X26.05Y47.734
X26.069Y47.754
X26.088Y47.775
X26.107Y47.796
X26.125Y47.817
X26.142Y47.839
X26.16Y47.86
X26.177Y47.882
X26.193Y47.905
X26.209Y47.928
X26.225Y47.951
X26.241Y47.974
X26.27Y48.021
X26.284Y48.045
X26.298Y48.069
X26.311Y48.094
X26.324Y48.118
X26.337Y48.143
X26.349Y48.169
X26.36Y48.194
X26.371Y48.22
X26.382Y48.245
X26.402Y48.297
X26.411Y48.323
X26.42Y48.35
X26.428Y48.377
X26.436Y48.403
X26.444Y48.43
X26.451Y48.457
X26.457Y48.484
X26.463Y48.511
X26.469Y48.539
X26.474Y48.566
X26.479Y48.594
X26.483Y48.621
X26.486Y48.649
X26.489Y48.677
X26.492Y48.704
X26.494Y48.732
X26.496Y48.76
X26.497Y48.788
X26.498Y48.815
Y48.843
Y48.871
X26.497Y48.899
X26.496Y48.927
X26.494Y48.955
X26.492Y48.982
X26.489Y49.01
X26.486Y49.038
X26.483Y49.066
X26.479Y49.093
X26.474Y49.121
X26.469Y49.148
X26.463Y49.175
X26.451Y49.23
X26.444Y49.256
X26.436Y49.283
X26.43Y49.303
X26.419Y49.339
X26.411Y49.363
X26.392Y49.416
X26.382Y49.441
X26.371Y49.467
X26.36Y49.493
X26.349Y49.518
X26.337Y49.543
X26.324Y49.568
X26.311Y49.593
X26.298Y49.617
X26.284Y49.642
X26.27Y49.665
X26.256Y49.689
X26.225Y49.736
X26.209Y49.759
X26.193Y49.782
X26.177Y49.804
X26.16Y49.826
X26.143Y49.848
X26.125Y49.87
X26.107Y49.891
X26.088Y49.912
X26.069Y49.932
X26.05Y49.952
X26.031Y49.972
X26.011Y49.992
X25.99Y50.011
X25.97Y50.03
X25.949Y50.048
X25.928Y50.066
X25.906Y50.084
X25.885Y50.101
X25.86Y50.12
X25.84Y50.135
X25.817Y50.151
X25.771Y50.182
X25.748Y50.197
X25.724Y50.212
X25.697Y50.227
X25.676Y50.24
X25.651Y50.253
X25.626Y50.266
X25.602Y50.278
X25.577Y50.29
X25.551Y50.302
X25.525Y50.313
X25.5Y50.324
X25.474Y50.334
X25.452Y50.342
X25.42Y50.353
X25.395Y50.362
X25.368Y50.37
X25.339Y50.379
X25.315Y50.386
X25.288Y50.393
X25.261Y50.399
X25.234Y50.405
X25.206Y50.411
X25.179Y50.416
X25.152Y50.42
X25.124Y50.424
X25.096Y50.428
X25.069Y50.431
X25.013Y50.436
X24.985Y50.438
X24.957Y50.439
X24.93Y50.44
X24.902
X24.874
X24.846Y50.439
X24.79Y50.436
X24.762Y50.434
X24.735Y50.431
X24.707Y50.428
X24.652Y50.42
X24.624Y50.416
X24.597Y50.411
X24.57Y50.405
X24.542Y50.399
X24.515Y50.393
X24.488Y50.386
X24.461Y50.378
X24.435Y50.37
X24.408Y50.362
X24.353Y50.343
X24.314Y50.328
X24.275Y50.312
X24.227Y50.29
X24.201Y50.278
X24.177Y50.266
X24.152Y50.253
X24.127Y50.24
X24.103Y50.226
X24.079Y50.212
X24.056Y50.197
X24.032Y50.182
X23.986Y50.151
X23.941Y50.118
X23.915Y50.098
X23.897Y50.084
X23.854Y50.048
X23.833Y50.03
X23.813Y50.011
X23.793Y49.992
X23.773Y49.972
X23.753Y49.952
X23.734Y49.932
X23.715Y49.912
X23.697Y49.891
X23.679Y49.87
X23.661Y49.848
X23.643Y49.826
X23.626Y49.804
X23.61Y49.782
X23.594Y49.759
X23.578Y49.736
X23.547Y49.688
X23.533Y49.666
X23.519Y49.642
X23.492Y49.593
X23.479Y49.568
X23.467Y49.543
X23.455Y49.518
X23.443Y49.493
X23.432Y49.467
X23.421Y49.442
X23.411Y49.416
X23.401Y49.389
X23.392Y49.363
X23.375Y49.31
X23.367Y49.283
X23.359Y49.256
X23.352Y49.23
X23.346Y49.203
X23.34Y49.175
X23.334Y49.148
X23.329Y49.12
X23.325Y49.093
X23.321Y49.069
X23.317Y49.037
X23.314Y49.01
X23.311Y48.983
X23.309Y48.955
X23.307Y48.927
X23.306Y48.899
X23.305Y48.868
Y48.843
Y48.815
X23.307Y48.76
X23.309Y48.732
X23.311Y48.709
X23.314Y48.675
X23.317Y48.649
X23.32Y48.621
X23.325Y48.594
X23.329Y48.566
X23.334Y48.539
X23.34Y48.511
X23.346Y48.484
X23.359Y48.43
X23.367Y48.403
X23.375Y48.377
X23.383Y48.35
X23.392Y48.324
X23.401Y48.297
X23.411Y48.271
X23.421Y48.245
X23.432Y48.22
X23.443Y48.194
X23.455Y48.168
X23.467Y48.143
X23.479Y48.118
X23.491Y48.096
X23.506Y48.069
X23.519Y48.045
X23.533Y48.021
X23.548Y47.997
X23.563Y47.974
X23.576Y47.953
X23.594Y47.927
X23.61Y47.905
X23.626Y47.882
X23.643Y47.86
X23.678Y47.817
X23.697Y47.796
X23.715Y47.775
X23.734Y47.754
X23.753Y47.734
X23.773Y47.714
X23.792Y47.695
X23.813Y47.676
X23.833Y47.657
X23.854Y47.638
X23.875Y47.62
X23.919Y47.585
X23.941Y47.568
X23.963Y47.552
X24.009Y47.52
X24.032Y47.504
X24.055Y47.489
X24.079Y47.475
X24.103Y47.461
X24.13Y47.446
X24.152Y47.434
X24.177Y47.421
G0Z1
X38.258Y48.83
G1Z-0.9F5
X38.275Y48.654F10
X38.326Y48.485
X38.409Y48.329
X38.522Y48.192
X38.658Y48.08
X38.814Y47.997
X38.983Y47.946
X39.159Y47.928
X39.335Y47.946
X39.504Y47.997
X39.66Y48.08
X39.796Y48.192
X39.908Y48.329
X39.992Y48.485
X40.043Y48.654
X40.06Y48.83
X40.043Y49.006
X39.992Y49.175
X39.908Y49.331
X39.796Y49.467
X39.66Y49.579
X39.504Y49.662
X39.335Y49.714
X39.159Y49.731
X38.983Y49.714
X38.814Y49.662
X38.658Y49.579
X38.522Y49.467
X38.409Y49.331
X38.326Y49.175
X38.275Y49.006
X38.258Y48.83
G0Z1
X54.162
G1Z-0.9F5
X54.179Y48.654F10
X54.23Y48.485
X54.314Y48.329
X54.426Y48.192
X54.562Y48.08
X54.718Y47.997
X54.887Y47.946
X55.063Y47.928
X55.239Y47.946
X55.408Y47.997
X55.564Y48.08
X55.7Y48.192
X55.812Y48.329
X55.896Y48.485
X55.947Y48.654
X55.964Y48.83
X55.947Y49.006
X55.896Y49.175
X55.812Y49.331
X55.7Y49.467
X55.564Y49.579
X55.408Y49.662
X55.239Y49.714
X55.063Y49.731
X54.887Y49.714
X54.718Y49.662
X54.562Y49.579
X54.426Y49.467
X54.314Y49.331
X54.23Y49.175
X54.179Y49.006
X54.162Y48.83
G0Z1
X57.693Y56.784
G1Z-0.9F5
X58.461Y56.779F10
X59.203Y56.762
X59.887Y56.736
X60.001Y56.729
X62.935
X62.973
X63.011Y56.728
X63.05Y56.725
X63.088Y56.722
X63.126Y56.718
X63.164Y56.713
X63.201Y56.707
X63.239Y56.7
X63.276Y56.692
X63.314Y56.684
X63.351Y56.674
X63.388Y56.664
X63.424Y56.652
X63.46Y56.64
X63.496Y56.627
X63.532Y56.613
X63.567Y56.598
X63.602Y56.583
X63.637Y56.566
X63.671Y56.549
X63.705Y56.53
X63.739Y56.511
X63.772Y56.491
X63.805Y56.471
X63.837Y56.449
X63.868Y56.427
X63.899Y56.404
X63.93Y56.38
X63.96Y56.356
X63.989Y56.33
X64.017Y56.304
X64.045Y56.278
X64.073Y56.251
X64.099Y56.223
X64.125Y56.194
X64.151Y56.165
X64.175Y56.135
X64.199Y56.105
X64.222Y56.074
X64.244Y56.042
X64.266Y56.01
X64.288Y55.975
X64.31Y55.939
X64.327Y55.909
X64.343Y55.879
X64.365Y55.836
X64.378Y55.809
X64.393Y55.776
X64.407Y55.743
X64.42Y55.71
X64.434Y55.672
X64.447Y55.634
X64.459Y55.595
X64.47Y55.556
X64.479Y55.524
X64.486Y55.491
X64.493Y55.459
X64.502Y55.415
X64.51Y55.365
X64.512Y55.352
X64.523Y55.317
X64.534Y55.28
X64.544Y55.241
X64.553Y55.203
X64.561Y55.164
X64.569Y55.126
X64.575Y55.087
X64.58Y55.048
X64.585Y55.008
X64.588Y54.969
X64.591Y54.93
X64.592Y54.89
X64.593Y54.851
X64.592Y43.979
X64.59Y43.901
X64.584Y43.823
X64.581Y43.788
X64.515Y43.148
X64.51Y43.114
X64.505Y43.08
X64.499Y43.046
X64.492Y43.012
X64.484Y42.976
X64.476Y42.941
X64.466Y42.907
X64.456Y42.872
X64.445Y42.837
X64.433Y42.803
X64.42Y42.768
X64.404Y42.728
X64.392Y42.698
X64.378Y42.669
X64.36Y42.631
X64.341Y42.594
X64.325Y42.565
X64.309Y42.536
X64.292Y42.508
X64.273Y42.478
X64.254Y42.448
X64.234Y42.419
X64.213Y42.391
X64.192Y42.363
X64.17Y42.335
X64.139Y42.298
X64.107Y42.262
X64.079Y42.233
X64.051Y42.205
X64.03Y42.184
X64.007Y42.163
X63.978Y42.137
X63.963Y42.124
X63.932Y42.098
X63.9Y42.074
X63.868Y42.049
X63.835Y42.026
X63.801Y42.004
X63.767Y41.982
X63.732Y41.961
X63.697Y41.942
X63.662Y41.923
X63.626Y41.905
X63.59Y41.889
X63.554Y41.873
X63.517Y41.858
X63.48Y41.844
X63.443Y41.831
X63.405Y41.818
X63.367Y41.807
X63.328Y41.797
X63.29Y41.787
X63.251Y41.779
X63.212Y41.772
X63.172Y41.765
X63.133Y41.76
X63.094Y41.755
X63.054Y41.752
X63.014Y41.749
X62.975Y41.748
X62.935Y41.747
X34.935
X34.897Y41.748
X34.859Y41.749
X34.82Y41.752
X34.776Y41.755
X34.731Y41.761
X34.686Y41.767
X34.646Y41.774
X34.607Y41.782
X34.564Y41.791
X31.258
X30.097Y41.782
X28.943Y41.754
X27.789Y41.708
X26.637Y41.644
X25.356Y41.552
X25.239Y41.545
X25.122Y41.541
X25.006Y41.538
X24.902Y41.537
X19.825Y41.538
X19.747Y41.54
X19.67Y41.546
X19.593Y41.554
X19.517Y41.565
X19.44Y41.578
X19.364Y41.594
X19.288Y41.613
X19.215Y41.634
X19.141Y41.658
X19.068Y41.684
X18.996Y41.713
X18.926Y41.744
X18.855Y41.779
X18.787Y41.815
X18.72Y41.853
X18.654Y41.894
X18.59Y41.937
X18.527Y41.983
X18.466Y42.03
X18.407Y42.08
X18.349Y42.132
X18.294Y42.185
X18.239Y42.242
X18.187Y42.298
X18.137Y42.358
X18.089Y42.419
X18.044Y42.481
X18Y42.545
X17.959Y42.611
X17.92Y42.678
X17.883Y42.746
X17.849Y42.816
X17.817Y42.886
X17.788Y42.958
X17.761Y43.031
X17.737Y43.105
X17.716Y43.178
X17.697Y43.253
X17.68Y43.329
X17.666Y43.406
X17.66Y43.444
X17.245Y46.31
X17.224Y46.466
X17.205Y46.623
X17.19Y46.78
X17.177Y46.938
X17.166Y47.095
X17.159Y47.253
X17.154Y47.411
X17.152Y47.569
Y47.727
X17.155Y47.885
X17.161Y48.043
X17.17Y48.2
X17.181Y48.358
X17.195Y48.515
X17.212Y48.672
X17.231Y48.829
X17.253Y48.985
X17.278Y49.141
X17.306Y49.297
X17.336Y49.452
X17.368Y49.606
X17.404Y49.761
X17.442Y49.914
X17.483Y50.066
X17.526Y50.218
X17.572Y50.369
X17.62Y50.52
X17.671Y50.669
X17.725Y50.818
X17.781Y50.965
X17.839Y51.112
X17.9Y51.258
X17.964Y51.403
X18.03Y51.546
X18.099Y51.688
X18.17Y51.829
X18.243Y51.969
X18.319Y52.108
X18.397Y52.245
X18.477Y52.381
X18.56Y52.516
X18.645Y52.649
X18.732Y52.78
X18.822Y52.91
X18.914Y53.039
X19.008Y53.166
X19.104Y53.291
X19.202Y53.415
X19.302Y53.536
X19.384Y53.633
X19.468Y53.727
X19.553Y53.821
X19.64Y53.913
X19.729Y54.003
X19.819Y54.092
X19.911Y54.179
X20.005Y54.265
X20.099Y54.349
X20.196Y54.432
X20.293Y54.512
X20.392Y54.591
X20.492Y54.669
X20.594Y54.744
X20.697Y54.818
X20.801Y54.89
X20.906Y54.96
X21.013Y55.028
X21.12Y55.095
X21.23Y55.159
X21.339Y55.222
X21.45Y55.283
X21.563Y55.342
X21.676Y55.398
X21.79Y55.453
X21.905Y55.506
X22.021Y55.557
X22.137Y55.606
X22.255Y55.653
X22.373Y55.698
X22.492Y55.741
X22.612Y55.781
X22.733Y55.82
X22.854Y55.856
X22.976Y55.891
X23.098Y55.923
X23.221Y55.953
X23.344Y55.981
X23.468Y56.007
X24.11Y56.131
X24.754Y56.244
X25.4Y56.347
X26.048Y56.439
X26.697Y56.52
X27.347Y56.59
X27.998Y56.65
X28.65Y56.698
X29.303Y56.736
X29.957Y56.763
X30.611Y56.779
X31.252Y56.784
X57.693
G0Z1
X24.177Y47.421
G1Z-1F5
X24.202Y47.408F10
X24.227Y47.396
X24.252Y47.385
X24.278Y47.374
X24.303Y47.363
X24.329Y47.353
X24.356Y47.343
X24.382Y47.334
X24.408Y47.325
X24.435Y47.316
X24.488Y47.301
X24.516Y47.294
X24.543Y47.288
X24.57Y47.282
X24.597Y47.276
X24.624Y47.271
X24.652Y47.266
X24.679Y47.262
X24.707Y47.259
X24.735Y47.255
X24.762Y47.253
X24.79Y47.251
X24.818Y47.249
X24.846Y47.248
X24.874Y47.247
X24.902
X24.957Y47.248
X24.985Y47.249
X25.041Y47.253
X25.069Y47.255
X25.096Y47.259
X25.124Y47.262
X25.151Y47.266
X25.195Y47.274
X25.236Y47.282
X25.261Y47.288
X25.288Y47.294
X25.315Y47.301
X25.342Y47.309
X25.368Y47.316
X25.395Y47.325
X25.421Y47.334
X25.448Y47.343
X25.474Y47.353
X25.5Y47.363
X25.525Y47.374
X25.566Y47.392
X25.601Y47.408
X25.626Y47.421
X25.651Y47.434
X25.676Y47.447
X25.7Y47.461
X25.724Y47.475
X25.748Y47.489
X25.771Y47.504
X25.794Y47.52
X25.817Y47.535
X25.84Y47.552
X25.862Y47.568
X25.885Y47.585
X25.906Y47.602
X25.928Y47.62
X25.949Y47.638
X25.97Y47.657
X25.99Y47.676
X26.011Y47.695
X26.031Y47.714
X26.05Y47.734
X26.069Y47.754
X26.088Y47.775
X26.107Y47.796
X26.125Y47.817
X26.142Y47.839
X26.16Y47.86
X26.177Y47.882
X26.193Y47.905
X26.209Y47.928
X26.225Y47.951
X26.241Y47.974
X26.27Y48.021
X26.284Y48.045
X26.298Y48.069
X26.311Y48.094
X26.324Y48.118
X26.337Y48.143
X26.349Y48.169
X26.36Y48.194
X26.371Y48.22
X26.382Y48.245
X26.402Y48.297
X26.411Y48.323
X26.42Y48.35
X26.428Y48.377
X26.436Y48.403
X26.444Y48.43
X26.451Y48.457
X26.457Y48.484
X26.463Y48.511
X26.469Y48.539
X26.474Y48.566
X26.479Y48.594
X26.483Y48.621
X26.486Y48.649
X26.489Y48.677
X26.492Y48.704
X26.494Y48.732
X26.496Y48.76
X26.497Y48.788
X26.498Y48.815
Y48.843
Y48.871
X26.497Y48.899
X26.496Y48.927
X26.494Y48.955
X26.492Y48.982
X26.489Y49.01
X26.486Y49.038
X26.483Y49.066
X26.479Y49.093
X26.474Y49.121
X26.469Y49.148
X26.463Y49.175
X26.451Y49.23
X26.444Y49.256
X26.436Y49.283
X26.43Y49.303
X26.419Y49.339
X26.411Y49.363
X26.392Y49.416
X26.382Y49.441
X26.371Y49.467
X26.36Y49.493
X26.349Y49.518
X26.337Y49.543
X26.324Y49.568
X26.311Y49.593
X26.298Y49.617
X26.284Y49.642
X26.27Y49.665
X26.256Y49.689
X26.225Y49.736
X26.209Y49.759
X26.193Y49.782
X26.177Y49.804
X26.16Y49.826
X26.143Y49.848
X26.125Y49.87
X26.107Y49.891
X26.088Y49.912
X26.069Y49.932
X26.05Y49.952
X26.031Y49.972
X26.011Y49.992
X25.99Y50.011
X25.97Y50.03
X25.949Y50.048
X25.928Y50.066
X25.906Y50.084
X25.885Y50.101
X25.86Y50.12
X25.84Y50.135
X25.817Y50.151
X25.771Y50.182
X25.748Y50.197
X25.724Y50.212
X25.697Y50.227
X25.676Y50.24
X25.651Y50.253
X25.626Y50.266
X25.602Y50.278
X25.577Y50.29
X25.551Y50.302
X25.525Y50.313
X25.5Y50.324
X25.474Y50.334
X25.452Y50.342
X25.42Y50.353
X25.395Y50.362
X25.368Y50.37
X25.339Y50.379
X25.315Y50.386
X25.288Y50.393
X25.261Y50.399
X25.234Y50.405
X25.206Y50.411
X25.179Y50.416
X25.152Y50.42
X25.124Y50.424
X25.096Y50.428
X25.069Y50.431
X25.013Y50.436
X24.985Y50.438
X24.957Y50.439
X24.93Y50.44
X24.902
X24.874
X24.846Y50.439
X24.79Y50.436
X24.762Y50.434
X24.735Y50.431
X24.707Y50.428
X24.652Y50.42
X24.624Y50.416
X24.597Y50.411
X24.57Y50.405
X24.542Y50.399
X24.515Y50.393
X24.488Y50.386
X24.461Y50.378
X24.435Y50.37
X24.408Y50.362
X24.353Y50.343
X24.314Y50.328
X24.275Y50.312
X24.227Y50.29
X24.201Y50.278
X24.177Y50.266
X24.152Y50.253
X24.127Y50.24
X24.103Y50.226
X24.079Y50.212
X24.056Y50.197
X24.032Y50.182
X23.986Y50.151
X23.941Y50.118
X23.915Y50.098
X23.897Y50.084
X23.854Y50.048
X23.833Y50.03
X23.813Y50.011
X23.793Y49.992
X23.773Y49.972
X23.753Y49.952
X23.734Y49.932
X23.715Y49.912
X23.697Y49.891
X23.679Y49.87
X23.661Y49.848
X23.643Y49.826
X23.626Y49.804
X23.61Y49.782
X23.594Y49.759
X23.578Y49.736
X23.547Y49.688
X23.533Y49.666
X23.519Y49.642
X23.492Y49.593
X23.479Y49.568
X23.467Y49.543
X23.455Y49.518
X23.443Y49.493
X23.432Y49.467
X23.421Y49.442
X23.411Y49.416
X23.401Y49.389
X23.392Y49.363
X23.375Y49.31
X23.367Y49.283
X23.359Y49.256
X23.352Y49.23
X23.346Y49.203
X23.34Y49.175
X23.334Y49.148
X23.329Y49.12
X23.325Y49.093
X23.321Y49.069
X23.317Y49.037
X23.314Y49.01
X23.311Y48.983
X23.309Y48.955
X23.307Y48.927
X23.306Y48.899
X23.305Y48.868
Y48.843
Y48.815
X23.307Y48.76
X23.309Y48.732
X23.311Y48.709
X23.314Y48.675
X23.317Y48.649
X23.32Y48.621
X23.325Y48.594
X23.329Y48.566
X23.334Y48.539
X23.34Y48.511
X23.346Y48.484
X23.359Y48.43
X23.367Y48.403
X23.375Y48.377
X23.383Y48.35
X23.392Y48.324
X23.401Y48.297
X23.411Y48.271
X23.421Y48.245
X23.432Y48.22
X23.443Y48.194
X23.455Y48.168
X23.467Y48.143
X23.479Y48.118
X23.491Y48.096
X23.506Y48.069
X23.519Y48.045
X23.533Y48.021
X23.548Y47.997
X23.563Y47.974
X23.576Y47.953
X23.594Y47.927
X23.61Y47.905
X23.626Y47.882
X23.643Y47.86
X23.678Y47.817
X23.697Y47.796
X23.715Y47.775
X23.734Y47.754
X23.753Y47.734
X23.773Y47.714
X23.792Y47.695
X23.813Y47.676
X23.833Y47.657
X23.854Y47.638
X23.875Y47.62
X23.919Y47.585
X23.941Y47.568
X23.963Y47.552
X24.009Y47.52
X24.032Y47.504
X24.055Y47.489
X24.079Y47.475
X24.103Y47.461
X24.13Y47.446
X24.152Y47.434
X24.177Y47.421
G0Z1
X38.258Y48.83
G1Z-1F5
X38.275Y48.654F10
X38.326Y48.485
X38.409Y48.329
X38.522Y48.192
X38.658Y48.08
X38.814Y47.997
X38.983Y47.946
X39.159Y47.928
X39.335Y47.946
X39.504Y47.997
X39.66Y48.08
X39.796Y48.192
X39.908Y48.329
X39.992Y48.485
X40.043Y48.654
X40.06Y48.83
X40.043Y49.006
X39.992Y49.175
X39.908Y49.331
X39.796Y49.467
X39.66Y49.579
X39.504Y49.662
X39.335Y49.714
X39.159Y49.731
X38.983Y49.714
X38.814Y49.662
X38.658Y49.579
X38.522Y49.467
X38.409Y49.331
X38.326Y49.175
X38.275Y49.006
X38.258Y48.83
G0Z1
X54.162
G1Z-1F5
X54.179Y48.654F10
X54.23Y48.485
X54.314Y48.329
X54.426Y48.192
X54.562Y48.08
X54.718Y47.997
X54.887Y47.946
X55.063Y47.928
X55.239Y47.946
X55.408Y47.997
X55.564Y48.08
X55.7Y48.192
X55.812Y48.329
X55.896Y48.485
X55.947Y48.654
X55.964Y48.83
X55.947Y49.006
X55.896Y49.175
X55.812Y49.331
X55.7Y49.467
X55.564Y49.579
X55.408Y49.662
X55.239Y49.714
X55.063Y49.731
X54.887Y49.714
X54.718Y49.662
X54.562Y49.579
X54.426Y49.467
X54.314Y49.331
X54.23Y49.175
X54.179Y49.006
X54.162Y48.83
G0Z1
X57.693Y56.784
G1Z-1F5
X58.461Y56.779F10
X59.203Y56.762
