(Created with grbl post processor 2024/11/24 13:46)
G21
(G-code generated with BlenderCAM and NC library)
G17G90
(Tool: D = 3.18 mm  type END flutes 2)
S1000M03
G00 Z1.0

G0X0Y0Z1
X77.46Y82.301
G1Z-0.1F5
X77.597Y82.189F10
X77.752Y82.105
X77.922Y82.054
X78.097Y82.037
X78.273Y82.054
X78.442Y82.105
X78.598Y82.189
X78.735Y82.301
X78.847Y82.437
X78.93Y82.593
X78.981Y82.762
X78.999Y82.938
X78.981Y83.114
X78.93Y83.283
X78.847Y83.439
X78.735Y83.575
X78.598Y83.687
X78.442Y83.771
X78.273Y83.822
X78.097Y83.839
X77.922Y83.822
X77.752Y83.771
X77.597Y83.687
X77.46Y83.575
X77.348Y83.439
X77.265Y83.283
X77.213Y83.114
X77.196Y82.938
X77.213Y82.762
X77.265Y82.593
X77.348Y82.437
X77.46Y82.301
G0Z1
X78.097Y97.941
G1Z-0.1F5
X78.273Y97.958F10
X78.442Y98.01
X78.598Y98.093
X78.735Y98.205
X78.847Y98.342
X78.93Y98.497
X78.981Y98.666
X78.999Y98.842
X78.981Y99.018
X78.93Y99.187
X78.847Y99.343
X78.735Y99.48
X78.598Y99.592
X78.442Y99.675
X78.273Y99.726
X78.097Y99.744
X77.922Y99.726
X77.752Y99.675
X77.597Y99.592
X77.46Y99.48
X77.348Y99.343
X77.265Y99.187
X77.213Y99.018
X77.196Y98.842
X77.213Y98.666
X77.265Y98.497
X77.348Y98.342
X77.46Y98.205
X77.597Y98.093
X77.752Y98.01
X77.922Y97.958
X78.097Y97.941
G0Z1
X78.111Y111.503
G1Z-0.1F5
X78.139F10
X78.167Y111.504
X78.195Y111.505
X78.222Y111.507
X78.25Y111.509
X78.278Y111.512
X78.305Y111.515
X78.333Y111.518
X78.361Y111.523
X78.388Y111.527
X78.415Y111.532
X78.443Y111.538
X78.47Y111.544
X78.497Y111.55
X78.524Y111.557
X78.578Y111.573
X78.604Y111.581
X78.631Y111.59
X78.657Y111.599
X78.683Y111.609
X78.709Y111.619
X78.735Y111.63
X78.76Y111.641
X78.786Y111.652
X78.811Y111.664
X78.836Y111.677
X78.861Y111.69
X78.885Y111.703
X78.909Y111.717
X78.933Y111.731
X78.981Y111.761
X79.004Y111.776
X79.027Y111.792
X79.049Y111.808
X79.072Y111.824
X79.094Y111.841
X79.116Y111.859
X79.137Y111.876
X79.156Y111.893
X79.18Y111.914
X79.2Y111.932
X79.22Y111.951
X79.24Y111.971
X79.26Y111.991
X79.279Y112.011
X79.297Y112.031
X79.334Y112.073
X79.369Y112.117
X79.386Y112.139
X79.403Y112.161
X79.419Y112.184
X79.435Y112.207
X79.45Y112.23
X79.465Y112.253
X79.479Y112.277
X79.494Y112.301
X79.507Y112.325
X79.521Y112.35
X79.534Y112.375
X79.546Y112.399
X79.558Y112.425
X79.57Y112.45
X79.581Y112.476
X79.591Y112.501
X79.602Y112.527
X79.611Y112.553
X79.621Y112.58
X79.629Y112.606
X79.646Y112.66
X79.652Y112.682
X79.66Y112.715
X79.667Y112.74
X79.673Y112.767
X79.684Y112.824
X79.688Y112.85
X79.696Y112.905
X79.699Y112.933
X79.701Y112.96
X79.704Y112.988
X79.705Y113.016
X79.707Y113.062
X79.708Y113.102
X79.707Y113.127
X79.705Y113.183
X79.704Y113.211
X79.699Y113.267
X79.696Y113.294
X79.692Y113.322
X79.688Y113.349
X79.683Y113.377
X79.678Y113.404
X79.673Y113.432
X79.667Y113.459
X79.66Y113.486
X79.653Y113.513
X79.646Y113.54
X79.638Y113.566
X79.629Y113.593
X79.621Y113.619
X79.611Y113.645
X79.602Y113.672
X79.581Y113.723
X79.57Y113.749
X79.558Y113.775
X79.546Y113.8
X79.534Y113.824
X79.521Y113.849
X79.494Y113.898
X79.479Y113.922
X79.465Y113.946
X79.45Y113.969
X79.435Y113.992
X79.419Y114.015
X79.386Y114.06
X79.369Y114.083
X79.352Y114.104
X79.334Y114.126
X79.316Y114.147
X79.297Y114.168
X79.279Y114.188
X79.26Y114.208
X79.24Y114.229
X79.22Y114.248
X79.198Y114.269
X79.179Y114.286
X79.158Y114.304
X79.137Y114.323
X79.116Y114.34
X79.094Y114.358
X79.072Y114.375
X79.049Y114.391
X79.027Y114.407
X79.004Y114.423
X78.98Y114.439
X78.957Y114.454
X78.935Y114.467
X78.909Y114.483
X78.885Y114.496
X78.86Y114.509
X78.836Y114.522
X78.811Y114.535
X78.789Y114.545
X78.759Y114.559
X78.735Y114.569
X78.693Y114.586
X78.649Y114.603
X78.615Y114.614
X78.575Y114.627
X78.551Y114.634
X78.524Y114.642
X78.497Y114.649
X78.47Y114.655
X78.443Y114.661
X78.416Y114.667
X78.388Y114.672
X78.361Y114.677
X78.333Y114.681
X78.305Y114.684
X78.278Y114.687
X78.25Y114.69
X78.222Y114.692
X78.194Y114.694
X78.166Y114.695
X78.136Y114.696
X78.111
X78.084
X78.027Y114.694
X77.999Y114.692
X77.974Y114.69
X77.943Y114.687
X77.916Y114.684
X77.889Y114.681
X77.861Y114.677
X77.834Y114.672
X77.806Y114.667
X77.752Y114.655
X77.725Y114.649
X77.698Y114.642
X77.644Y114.626
X77.617Y114.618
X77.591Y114.609
X77.565Y114.6
X77.513Y114.58
X77.487Y114.569
X77.462Y114.558
X77.436Y114.547
X77.414Y114.536
X77.385Y114.522
X77.361Y114.509
X77.337Y114.496
X77.313Y114.482
X77.289Y114.468
X77.265Y114.454
X77.241Y114.439
X77.218Y114.423
X77.195Y114.407
X77.172Y114.391
X77.15Y114.375
X77.128Y114.358
X77.106Y114.34
X77.085Y114.323
X77.063Y114.305
X77.043Y114.286
X77.022Y114.267
X77.002Y114.248
X76.982Y114.229
X76.962Y114.209
X76.943Y114.188
X76.924Y114.168
X76.906Y114.147
X76.888Y114.126
X76.87Y114.104
X76.853Y114.083
X76.836Y114.06
X76.819Y114.038
X76.803Y114.015
X76.787Y113.992
X76.772Y113.969
X76.742Y113.922
X76.728Y113.898
X76.714Y113.873
X76.701Y113.849
X76.688Y113.824
X76.676Y113.799
X76.664Y113.774
X76.652Y113.749
X76.641Y113.723
X76.62Y113.672
X76.611Y113.645
X76.601Y113.619
X76.592Y113.593
X76.584Y113.566
X76.576Y113.54
X76.569Y113.513
X76.562Y113.486
X76.555Y113.458
X76.549Y113.431
X76.544Y113.404
X76.536Y113.361
X76.529Y113.319
X76.526Y113.294
X76.523Y113.266
X76.52Y113.24
X76.518Y113.21
X76.516Y113.166
X76.514Y113.125
Y113.1
X76.515Y113.044
X76.516Y113.016
X76.52Y112.96
X76.526Y112.905
X76.53Y112.877
X76.534Y112.85
X76.539Y112.822
X76.544Y112.795
X76.549Y112.768
X76.555Y112.741
X76.562Y112.713
X76.569Y112.686
X76.576Y112.659
X76.584Y112.633
X76.592Y112.606
X76.601Y112.58
X76.609Y112.558
X76.621Y112.526
X76.631Y112.501
X76.641Y112.476
X76.664Y112.425
X76.676Y112.4
X76.688Y112.375
X76.701Y112.35
X76.714Y112.326
X76.728Y112.301
X76.742Y112.277
X76.757Y112.253
X76.772Y112.23
X76.787Y112.207
X76.803Y112.184
X76.819Y112.161
X76.836Y112.139
X76.853Y112.117
X76.87Y112.095
X76.888Y112.073
X76.906Y112.052
X76.925Y112.031
X76.943Y112.011
X76.962Y111.99
X76.994Y111.958
X77.024Y111.93
X77.043Y111.913
X77.063Y111.894
X77.085Y111.876
X77.106Y111.859
X77.128Y111.841
X77.15Y111.824
X77.172Y111.808
X77.195Y111.792
X77.218Y111.776
X77.241Y111.761
X77.278Y111.737
X77.315Y111.715
X77.337Y111.703
X77.361Y111.69
X77.386Y111.677
X77.411Y111.664
X77.436Y111.652
X77.459Y111.642
X77.488Y111.629
X77.513Y111.619
X77.539Y111.609
X77.565Y111.599
X77.591Y111.59
X77.618Y111.581
X77.644Y111.573
X77.671Y111.565
X77.698Y111.557
X77.725Y111.55
X77.752Y111.544
X77.779Y111.538
X77.806Y111.532
X77.834Y111.527
X77.861Y111.523
X77.889Y111.518
X77.916Y111.515
X77.944Y111.512
X77.972Y111.509
X77.999Y111.507
X78.027Y111.505
X78.055Y111.504
X78.083Y111.503
X78.111
G0Z1
X70.911Y111.364
G1Z-0.1F5
X70.819Y112.645F10
X70.813Y112.762
X70.808Y112.879
X70.806Y112.995
X70.805Y113.1
Y118.176
X70.808Y118.254
X70.813Y118.331
X70.821Y118.409
X70.832Y118.485
X70.846Y118.561
X70.862Y118.637
X70.88Y118.712
X70.902Y118.786
X70.926Y118.86
X70.952Y118.933
X70.981Y119.005
X71.012Y119.076
X71.046Y119.146
X71.082Y119.214
X71.121Y119.281
X71.162Y119.347
X71.205Y119.411
X71.251Y119.475
X71.298Y119.535
X71.347Y119.594
X71.4Y119.653
X71.453Y119.707
X71.509Y119.762
X71.566Y119.814
X71.625Y119.864
X71.687Y119.912
X71.749Y119.957
X71.813Y120.001
X71.878Y120.042
X71.945Y120.081
X72.014Y120.118
X72.084Y120.152
X72.154Y120.184
X72.226Y120.213
X72.298Y120.24
X72.372Y120.264
X72.446Y120.286
X72.521Y120.304
X72.597Y120.321
X72.673Y120.335
X72.711Y120.341
X75.577Y120.756
X75.734Y120.777
X75.891Y120.796
X76.048Y120.811
X76.205Y120.824
X76.363Y120.835
X76.521Y120.842
X76.679Y120.847
X76.836Y120.849
X76.994
X77.152Y120.846
X77.31Y120.84
X77.468Y120.831
X77.625Y120.82
X77.783Y120.806
X77.94Y120.789
X78.097Y120.77
X78.253Y120.748
X78.409Y120.723
X78.564Y120.696
X78.72Y120.665
X78.874Y120.633
X79.028Y120.597
X79.181Y120.559
X79.334Y120.519
X79.486Y120.475
X79.637Y120.43
X79.787Y120.381
X79.937Y120.33
X80.085Y120.277
X80.233Y120.22
X80.38Y120.162
X80.525Y120.101
X80.67Y120.037
X80.813Y119.971
X80.956Y119.903
X81.097Y119.831
X81.237Y119.758
X81.376Y119.682
X81.513Y119.604
X81.649Y119.524
X81.783Y119.441
X81.916Y119.356
X82.048Y119.269
X82.178Y119.179
X82.306Y119.087
X82.433Y118.993
X82.559Y118.897
X82.682Y118.799
X82.804Y118.699
X82.9Y118.617
X82.995Y118.533
X83.088Y118.448
X83.18Y118.361
X83.27Y118.272
X83.359Y118.182
X83.446Y118.091
X83.533Y117.996
X83.617Y117.902
X83.699Y117.806
X83.78Y117.708
X83.859Y117.609
X83.936Y117.509
X84.012Y117.407
X84.086Y117.304
X84.157Y117.2
X84.228Y117.095
X84.296Y116.988
X84.362Y116.881
X84.427Y116.772
X84.49Y116.662
X84.55Y116.551
X84.609Y116.438
X84.666Y116.326
X84.721Y116.211
X84.774Y116.097
X84.825Y115.981
X84.874Y115.864
X84.921Y115.746
X84.965Y115.628
X85.008Y115.509
X85.049Y115.389
X85.087Y115.269
X85.124Y115.147
X85.159Y115.025
X85.191Y114.903
X85.221Y114.78
X85.249Y114.657
X85.275Y114.533
X85.399Y113.891
X85.512Y113.247
X85.615Y112.601
X85.706Y111.953
X85.787Y111.304
X85.858Y110.654
X85.917Y110.003
X85.966Y109.351
X86.004Y108.698
X86.031Y108.044
X86.047Y107.39
X86.052Y106.75
Y80.297
X86.046Y79.54
X86.029Y78.798
X86.003Y78.114
X85.997Y78
Y75.066
Y75.028
X85.995Y74.99
X85.993Y74.951
X85.99Y74.913
X85.985Y74.875
X85.98Y74.837
X85.974Y74.8
X85.968Y74.762
X85.96Y74.725
X85.951Y74.687
X85.942Y74.65
X85.931Y74.614
X85.92Y74.577
X85.908Y74.541
X85.895Y74.505
X85.881Y74.469
X85.866Y74.434
X85.85Y74.399
X85.834Y74.365
X85.816Y74.33
X85.798Y74.296
X85.779Y74.262
X85.759Y74.229
X85.738Y74.196
X85.717Y74.164
X85.694Y74.133
X85.671Y74.102
X85.648Y74.071
X85.623Y74.042
X85.598Y74.012
X85.572Y73.984
X85.545Y73.956
X85.518Y73.928
X85.49Y73.902
X85.462Y73.876
X85.433Y73.851
X85.403Y73.826
X85.372Y73.802
X85.341Y73.779
X85.31Y73.757
X85.278Y73.735
X85.242Y73.713
X85.206Y73.691
X85.177Y73.674
X85.147Y73.658
X85.103Y73.636
X85.077Y73.623
X85.044Y73.609
X85.011Y73.595
X84.977Y73.581
X84.939Y73.567
X84.901Y73.554
X84.863Y73.542
X84.824Y73.531
X84.791Y73.522
X84.759Y73.515
X84.726Y73.508
X84.682Y73.499
X84.632Y73.491
X84.62Y73.49
X84.585Y73.478
X84.547Y73.467
X84.509Y73.457
X84.471Y73.448
X84.432Y73.44
X84.393Y73.432
X84.354Y73.426
X84.315Y73.421
X84.276Y73.416
X84.237Y73.413
X84.197Y73.41
X84.158Y73.409
X84.118
X73.247
X73.168Y73.412
X73.091Y73.417
X73.055Y73.42
X72.432Y73.485
X72.394Y73.489
X72.355Y73.495
X72.317Y73.501
X72.279Y73.509
X72.244Y73.517
X72.207Y73.526
X72.164Y73.538
X72.125Y73.549
X72.07Y73.568
X72.022Y73.586
X71.966Y73.61
X71.936Y73.623
X71.899Y73.641
X71.861Y73.66
X71.832Y73.676
X71.804Y73.692
X71.776Y73.709
X71.746Y73.728
X71.716Y73.747
X71.687Y73.768
X71.658Y73.788
X71.63Y73.809
X71.603Y73.831
X71.566Y73.862
X71.53Y73.894
X71.501Y73.922
X71.472Y73.95
X71.451Y73.972
X71.431Y73.994
X71.405Y74.023
X71.392Y74.038
X71.366Y74.069
X71.341Y74.101
X71.317Y74.133
X71.294Y74.167
X71.271Y74.2
X71.25Y74.234
X71.229Y74.269
X71.209Y74.304
X71.191Y74.339
X71.173Y74.375
X71.156Y74.411
X71.14Y74.447
X71.125Y74.484
X71.111Y74.521
X71.098Y74.559
X71.086Y74.596
X71.075Y74.634
X71.064Y74.673
X71.055Y74.711
X71.047Y74.75
X71.039Y74.79
X71.033Y74.829
X71.027Y74.868
X71.023Y74.908
X71.019Y74.947
X71.017Y74.987
X71.015Y75.026
Y75.066
Y103.066
Y103.104
X71.017Y103.142
X71.019Y103.181
X71.023Y103.226
X71.028Y103.27
X71.035Y103.315
X71.041Y103.355
X71.049Y103.394
X71.059Y103.437
Y106.743
X71.05Y107.904
X71.022Y109.058
X70.976Y110.212
X70.911Y111.364
G0Z1
X77.46Y82.301
G1Z-0.2F5
X77.597Y82.189F10
X77.752Y82.105
X77.922Y82.054
X78.097Y82.037
X78.273Y82.054
X78.442Y82.105
X78.598Y82.189
X78.735Y82.301
X78.847Y82.437
X78.93Y82.593
X78.981Y82.762
X78.999Y82.938
X78.981Y83.114
X78.93Y83.283
X78.847Y83.439
X78.735Y83.575
X78.598Y83.687
X78.442Y83.771
X78.273Y83.822
X78.097Y83.839
X77.922Y83.822
X77.752Y83.771
X77.597Y83.687
X77.46Y83.575
X77.348Y83.439
X77.265Y83.283
X77.213Y83.114
X77.196Y82.938
X77.213Y82.762
X77.265Y82.593
X77.348Y82.437
X77.46Y82.301
G0Z1
X78.097Y97.941
G1Z-0.2F5
X78.273Y97.958F10
X78.442Y98.01
X78.598Y98.093
X78.735Y98.205
X78.847Y98.342
X78.93Y98.497
X78.981Y98.666
X78.999Y98.842
X78.981Y99.018
X78.93Y99.187
X78.847Y99.343
X78.735Y99.48
X78.598Y99.592
X78.442Y99.675
X78.273Y99.726
X78.097Y99.744
X77.922Y99.726
X77.752Y99.675
X77.597Y99.592
X77.46Y99.48
X77.348Y99.343
X77.265Y99.187
X77.213Y99.018
X77.196Y98.842
X77.213Y98.666
X77.265Y98.497
X77.348Y98.342
X77.46Y98.205
X77.597Y98.093
X77.752Y98.01
X77.922Y97.958
X78.097Y97.941
G0Z1
X78.111Y111.503
G1Z-0.2F5
X78.139F10
X78.167Y111.504
X78.195Y111.505
X78.222Y111.507
X78.25Y111.509
X78.278Y111.512
X78.305Y111.515
X78.333Y111.518
X78.361Y111.523
X78.388Y111.527
X78.415Y111.532
X78.443Y111.538
X78.47Y111.544
X78.497Y111.55
X78.524Y111.557
X78.578Y111.573
X78.604Y111.581
X78.631Y111.59
X78.657Y111.599
X78.683Y111.609
X78.709Y111.619
X78.735Y111.63
X78.76Y111.641
X78.786Y111.652
X78.811Y111.664
X78.836Y111.677
X78.861Y111.69
X78.885Y111.703
X78.909Y111.717
X78.933Y111.731
X78.981Y111.761
X79.004Y111.776
X79.027Y111.792
X79.049Y111.808
X79.072Y111.824
X79.094Y111.841
X79.116Y111.859
X79.137Y111.876
X79.156Y111.893
X79.18Y111.914
X79.2Y111.932
X79.22Y111.951
X79.24Y111.971
X79.26Y111.991
X79.279Y112.011
X79.297Y112.031
X79.334Y112.073
X79.369Y112.117
X79.386Y112.139
X79.403Y112.161
X79.419Y112.184
X79.435Y112.207
X79.45Y112.23
X79.465Y112.253
X79.479Y112.277
X79.494Y112.301
X79.507Y112.325
X79.521Y112.35
X79.534Y112.375
X79.546Y112.399
X79.558Y112.425
X79.57Y112.45
X79.581Y112.476
X79.591Y112.501
X79.602Y112.527
X79.611Y112.553
X79.621Y112.58
X79.629Y112.606
X79.646Y112.66
X79.652Y112.682
X79.66Y112.715
X79.667Y112.74
X79.673Y112.767
X79.684Y112.824
X79.688Y112.85
X79.696Y112.905
X79.699Y112.933
X79.701Y112.96
X79.704Y112.988
X79.705Y113.016
X79.707Y113.062
X79.708Y113.102
X79.707Y113.127
X79.705Y113.183
X79.704Y113.211
X79.699Y113.267
X79.696Y113.294
X79.692Y113.322
X79.688Y113.349
X79.683Y113.377
X79.678Y113.404
X79.673Y113.432
X79.667Y113.459
X79.66Y113.486
X79.653Y113.513
X79.646Y113.54
X79.638Y113.566
X79.629Y113.593
X79.621Y113.619
X79.611Y113.645
X79.602Y113.672
X79.581Y113.723
X79.57Y113.749
X79.558Y113.775
X79.546Y113.8
X79.534Y113.824
X79.521Y113.849
X79.494Y113.898
X79.479Y113.922
X79.465Y113.946
X79.45Y113.969
X79.435Y113.992
X79.419Y114.015
X79.386Y114.06
X79.369Y114.083
X79.352Y114.104
X79.334Y114.126
X79.316Y114.147
X79.297Y114.168
X79.279Y114.188
X79.26Y114.208
X79.24Y114.229
X79.22Y114.248
X79.198Y114.269
X79.179Y114.286
X79.158Y114.304
X79.137Y114.323
X79.116Y114.34
X79.094Y114.358
X79.072Y114.375
X79.049Y114.391
X79.027Y114.407
X79.004Y114.423
X78.98Y114.439
X78.957Y114.454
X78.935Y114.467
X78.909Y114.483
X78.885Y114.496
X78.86Y114.509
X78.836Y114.522
X78.811Y114.535
X78.789Y114.545
X78.759Y114.559
X78.735Y114.569
X78.693Y114.586
X78.649Y114.603
X78.615Y114.614
X78.575Y114.627
X78.551Y114.634
X78.524Y114.642
X78.497Y114.649
X78.47Y114.655
X78.443Y114.661
X78.416Y114.667
X78.388Y114.672
X78.361Y114.677
X78.333Y114.681
X78.305Y114.684
X78.278Y114.687
X78.25Y114.69
X78.222Y114.692
X78.194Y114.694
X78.166Y114.695
X78.136Y114.696
X78.111
X78.084
X78.027Y114.694
X77.999Y114.692
X77.974Y114.69
X77.943Y114.687
X77.916Y114.684
X77.889Y114.681
X77.861Y114.677
X77.834Y114.672
X77.806Y114.667
X77.752Y114.655
X77.725Y114.649
X77.698Y114.642
X77.644Y114.626
X77.617Y114.618
X77.591Y114.609
X77.565Y114.6
X77.513Y114.58
X77.487Y114.569
X77.462Y114.558
X77.436Y114.547
X77.414Y114.536
X77.385Y114.522
X77.361Y114.509
X77.337Y114.496
X77.313Y114.482
X77.289Y114.468
X77.265Y114.454
X77.241Y114.439
X77.218Y114.423
X77.195Y114.407
X77.172Y114.391
X77.15Y114.375
X77.128Y114.358
X77.106Y114.34
X77.085Y114.323
X77.063Y114.305
X77.043Y114.286
X77.022Y114.267
X77.002Y114.248
X76.982Y114.229
X76.962Y114.209
X76.943Y114.188
X76.924Y114.168
X76.906Y114.147
X76.888Y114.126
X76.87Y114.104
X76.853Y114.083
X76.836Y114.06
X76.819Y114.038
X76.803Y114.015
X76.787Y113.992
X76.772Y113.969
X76.742Y113.922
X76.728Y113.898
X76.714Y113.873
X76.701Y113.849
X76.688Y113.824
X76.676Y113.799
X76.664Y113.774
X76.652Y113.749
X76.641Y113.723
X76.62Y113.672
X76.611Y113.645
X76.601Y113.619
X76.592Y113.593
X76.584Y113.566
X76.576Y113.54
X76.569Y113.513
X76.562Y113.486
X76.555Y113.458
X76.549Y113.431
X76.544Y113.404
X76.536Y113.361
X76.529Y113.319
X76.526Y113.294
X76.523Y113.266
X76.52Y113.24
X76.518Y113.21
X76.516Y113.166
X76.514Y113.125
Y113.1
X76.515Y113.044
X76.516Y113.016
X76.52Y112.96
X76.526Y112.905
X76.53Y112.877
X76.534Y112.85
X76.539Y112.822
X76.544Y112.795
X76.549Y112.768
X76.555Y112.741
X76.562Y112.713
X76.569Y112.686
X76.576Y112.659
X76.584Y112.633
X76.592Y112.606
X76.601Y112.58
X76.609Y112.558
X76.621Y112.526
X76.631Y112.501
X76.641Y112.476
X76.664Y112.425
X76.676Y112.4
X76.688Y112.375
X76.701Y112.35
X76.714Y112.326
X76.728Y112.301
X76.742Y112.277
X76.757Y112.253
X76.772Y112.23
X76.787Y112.207
X76.803Y112.184
X76.819Y112.161
X76.836Y112.139
X76.853Y112.117
X76.87Y112.095
X76.888Y112.073
X76.906Y112.052
X76.925Y112.031
X76.943Y112.011
X76.962Y111.99
X76.994Y111.958
X77.024Y111.93
X77.043Y111.913
X77.063Y111.894
X77.085Y111.876
X77.106Y111.859
X77.128Y111.841
X77.15Y111.824
X77.172Y111.808
X77.195Y111.792
X77.218Y111.776
X77.241Y111.761
X77.278Y111.737
X77.315Y111.715
X77.337Y111.703
X77.361Y111.69
X77.386Y111.677
X77.411Y111.664
X77.436Y111.652
X77.459Y111.642
X77.488Y111.629
X77.513Y111.619
X77.539Y111.609
X77.565Y111.599
X77.591Y111.59
X77.618Y111.581
X77.644Y111.573
X77.671Y111.565
X77.698Y111.557
X77.725Y111.55
X77.752Y111.544
X77.779Y111.538
X77.806Y111.532
X77.834Y111.527
X77.861Y111.523
X77.889Y111.518
X77.916Y111.515
X77.944Y111.512
X77.972Y111.509
X77.999Y111.507
X78.027Y111.505
X78.055Y111.504
X78.083Y111.503
X78.111
G0Z1
X70.911Y111.364
G1Z-0.2F5
X70.819Y112.645F10
X70.813Y112.762
X70.808Y112.879
X70.806Y112.995
X70.805Y113.1
Y118.176
X70.808Y118.254
X70.813Y118.331
X70.821Y118.409
X70.832Y118.485
X70.846Y118.561
X70.862Y118.637
X70.88Y118.712
X70.902Y118.786
X70.926Y118.86
X70.952Y118.933
X70.981Y119.005
X71.012Y119.076
X71.046Y119.146
X71.082Y119.214
X71.121Y119.281
X71.162Y119.347
X71.205Y119.411
X71.251Y119.475
X71.298Y119.535
X71.347Y119.594
X71.4Y119.653
X71.453Y119.707
X71.509Y119.762
X71.566Y119.814
X71.625Y119.864
X71.687Y119.912
X71.749Y119.957
X71.813Y120.001
X71.878Y120.042
X71.945Y120.081
X72.014Y120.118
X72.084Y120.152
X72.154Y120.184
X72.226Y120.213
X72.298Y120.24
X72.372Y120.264
X72.446Y120.286
X72.521Y120.304
X72.597Y120.321
X72.673Y120.335
X72.711Y120.341
X75.577Y120.756
X75.734Y120.777
X75.891Y120.796
X76.048Y120.811
X76.205Y120.824
X76.363Y120.835
X76.521Y120.842
X76.679Y120.847
X76.836Y120.849
X76.994
X77.152Y120.846
X77.31Y120.84
X77.468Y120.831
X77.625Y120.82
X77.783Y120.806
X77.94Y120.789
X78.097Y120.77
X78.253Y120.748
X78.409Y120.723
X78.564Y120.696
X78.72Y120.665
X78.874Y120.633
X79.028Y120.597
X79.181Y120.559
X79.334Y120.519
X79.486Y120.475
X79.637Y120.43
X79.787Y120.381
X79.937Y120.33
X80.085Y120.277
X80.233Y120.22
X80.38Y120.162
X80.525Y120.101
X80.67Y120.037
X80.813Y119.971
X80.956Y119.903
X81.097Y119.831
X81.237Y119.758
X81.376Y119.682
X81.513Y119.604
X81.649Y119.524
X81.783Y119.441
X81.916Y119.356
X82.048Y119.269
X82.178Y119.179
X82.306Y119.087
X82.433Y118.993
X82.559Y118.897
X82.682Y118.799
X82.804Y118.699
X82.9Y118.617
X82.995Y118.533
X83.088Y118.448
X83.18Y118.361
X83.27Y118.272
X83.359Y118.182
X83.446Y118.091
X83.533Y117.996
X83.617Y117.902
X83.699Y117.806
X83.78Y117.708
X83.859Y117.609
X83.936Y117.509
X84.012Y117.407
X84.086Y117.304
X84.157Y117.2
X84.228Y117.095
X84.296Y116.988
X84.362Y116.881
X84.427Y116.772
X84.49Y116.662
X84.55Y116.551
X84.609Y116.438
X84.666Y116.326
X84.721Y116.211
X84.774Y116.097
X84.825Y115.981
X84.874Y115.864
X84.921Y115.746
X84.965Y115.628
X85.008Y115.509
X85.049Y115.389
X85.087Y115.269
X85.124Y115.147
X85.159Y115.025
X85.191Y114.903
X85.221Y114.78
X85.249Y114.657
X85.275Y114.533
X85.399Y113.891
X85.512Y113.247
X85.615Y112.601
X85.706Y111.953
X85.787Y111.304
X85.858Y110.654
X85.917Y110.003
X85.966Y109.351
X86.004Y108.698
X86.031Y108.044
X86.047Y107.39
X86.052Y106.75
Y80.297
X86.046Y79.54
X86.029Y78.798
X86.003Y78.114
X85.997Y78
Y75.066
Y75.028
X85.995Y74.99
X85.993Y74.951
X85.99Y74.913
X85.985Y74.875
X85.98Y74.837
X85.974Y74.8
X85.968Y74.762
X85.96Y74.725
X85.951Y74.687
X85.942Y74.65
X85.931Y74.614
X85.92Y74.577
X85.908Y74.541
X85.895Y74.505
X85.881Y74.469
X85.866Y74.434
X85.85Y74.399
X85.834Y74.365
X85.816Y74.33
X85.798Y74.296
X85.779Y74.262
X85.759Y74.229
X85.738Y74.196
X85.717Y74.164
X85.694Y74.133
X85.671Y74.102
X85.648Y74.071
X85.623Y74.042
X85.598Y74.012
X85.572Y73.984
X85.545Y73.956
X85.518Y73.928
X85.49Y73.902
X85.462Y73.876
X85.433Y73.851
X85.403Y73.826
X85.372Y73.802
X85.341Y73.779
X85.31Y73.757
X85.278Y73.735
X85.242Y73.713
X85.206Y73.691
X85.177Y73.674
X85.147Y73.658
X85.103Y73.636
X85.077Y73.623
X85.044Y73.609
X85.011Y73.595
X84.977Y73.581
X84.939Y73.567
X84.901Y73.554
X84.863Y73.542
X84.824Y73.531
X84.791Y73.522
X84.759Y73.515
X84.726Y73.508
X84.682Y73.499
X84.632Y73.491
X84.62Y73.49
X84.585Y73.478
X84.547Y73.467
X84.509Y73.457
X84.471Y73.448
X84.432Y73.44
X84.393Y73.432
X84.354Y73.426
X84.315Y73.421
X84.276Y73.416
X84.237Y73.413
X84.197Y73.41
X84.158Y73.409
X84.118
X73.247
X73.168Y73.412
X73.091Y73.417
X73.055Y73.42
X72.432Y73.485
X72.394Y73.489
X72.355Y73.495
X72.317Y73.501
X72.279Y73.509
X72.244Y73.517
X72.207Y73.526
X72.164Y73.538
X72.125Y73.549
X72.07Y73.568
X72.022Y73.586
X71.966Y73.61
X71.936Y73.623
X71.899Y73.641
X71.861Y73.66
X71.832Y73.676
X71.804Y73.692
X71.776Y73.709
X71.746Y73.728
X71.716Y73.747
X71.687Y73.768
X71.658Y73.788
X71.63Y73.809
X71.603Y73.831
X71.566Y73.862
X71.53Y73.894
X71.501Y73.922
X71.472Y73.95
X71.451Y73.972
X71.431Y73.994
X71.405Y74.023
X71.392Y74.038
X71.366Y74.069
X71.341Y74.101
X71.317Y74.133
X71.294Y74.167
X71.271Y74.2
X71.25Y74.234
X71.229Y74.269
X71.209Y74.304
X71.191Y74.339
X71.173Y74.375
X71.156Y74.411
X71.14Y74.447
X71.125Y74.484
X71.111Y74.521
X71.098Y74.559
X71.086Y74.596
X71.075Y74.634
X71.064Y74.673
X71.055Y74.711
X71.047Y74.75
X71.039Y74.79
X71.033Y74.829
X71.027Y74.868
X71.023Y74.908
X71.019Y74.947
X71.017Y74.987
X71.015Y75.026
Y75.066
Y103.066
Y103.104
X71.017Y103.142
X71.019Y103.181
X71.023Y103.226
X71.028Y103.27
X71.035Y103.315
X71.041Y103.355
X71.049Y103.394
X71.059Y103.437
Y106.743
X71.05Y107.904
X71.022Y109.058
X70.976Y110.212
X70.911Y111.364
G0Z1
X77.46Y82.301
G1Z-0.3F5
X77.597Y82.189F10
X77.752Y82.105
X77.922Y82.054
X78.097Y82.037
X78.273Y82.054
X78.442Y82.105
X78.598Y82.189
X78.735Y82.301
X78.847Y82.437
X78.93Y82.593
X78.981Y82.762
X78.999Y82.938
X78.981Y83.114
X78.93Y83.283
X78.847Y83.439
X78.735Y83.575
X78.598Y83.687
X78.442Y83.771
X78.273Y83.822
X78.097Y83.839
X77.922Y83.822
X77.752Y83.771
X77.597Y83.687
X77.46Y83.575
X77.348Y83.439
X77.265Y83.283
X77.213Y83.114
X77.196Y82.938
X77.213Y82.762
X77.265Y82.593
X77.348Y82.437
X77.46Y82.301
G0Z1
X78.097Y97.941
G1Z-0.3F5
X78.273Y97.958F10
X78.442Y98.01
X78.598Y98.093
X78.735Y98.205
X78.847Y98.342
X78.93Y98.497
X78.981Y98.666
X78.999Y98.842
X78.981Y99.018
X78.93Y99.187
X78.847Y99.343
X78.735Y99.48
X78.598Y99.592
X78.442Y99.675
X78.273Y99.726
X78.097Y99.744
X77.922Y99.726
X77.752Y99.675
X77.597Y99.592
X77.46Y99.48
X77.348Y99.343
X77.265Y99.187
X77.213Y99.018
X77.196Y98.842
X77.213Y98.666
X77.265Y98.497
X77.348Y98.342
X77.46Y98.205
X77.597Y98.093
X77.752Y98.01
X77.922Y97.958
X78.097Y97.941
G0Z1
X78.111Y111.503
G1Z-0.3F5
X78.139F10
X78.167Y111.504
X78.195Y111.505
X78.222Y111.507
X78.25Y111.509
X78.278Y111.512
X78.305Y111.515
X78.333Y111.518
X78.361Y111.523
X78.388Y111.527
X78.415Y111.532
X78.443Y111.538
X78.47Y111.544
X78.497Y111.55
X78.524Y111.557
X78.578Y111.573
X78.604Y111.581
X78.631Y111.59
X78.657Y111.599
X78.683Y111.609
X78.709Y111.619
X78.735Y111.63
X78.76Y111.641
X78.786Y111.652
X78.811Y111.664
X78.836Y111.677
X78.861Y111.69
X78.885Y111.703
X78.909Y111.717
X78.933Y111.731
X78.981Y111.761
X79.004Y111.776
X79.027Y111.792
X79.049Y111.808
X79.072Y111.824
X79.094Y111.841
X79.116Y111.859
X79.137Y111.876
X79.156Y111.893
X79.18Y111.914
X79.2Y111.932
X79.22Y111.951
X79.24Y111.971
X79.26Y111.991
X79.279Y112.011
X79.297Y112.031
X79.334Y112.073
X79.369Y112.117
X79.386Y112.139
X79.403Y112.161
X79.419Y112.184
X79.435Y112.207
X79.45Y112.23
X79.465Y112.253
X79.479Y112.277
X79.494Y112.301
X79.507Y112.325
X79.521Y112.35
X79.534Y112.375
X79.546Y112.399
X79.558Y112.425
X79.57Y112.45
X79.581Y112.476
X79.591Y112.501
X79.602Y112.527
X79.611Y112.553
X79.621Y112.58
X79.629Y112.606
X79.646Y112.66
X79.652Y112.682
X79.66Y112.715
X79.667Y112.74
X79.673Y112.767
X79.684Y112.824
X79.688Y112.85
X79.696Y112.905
X79.699Y112.933
X79.701Y112.96
X79.704Y112.988
X79.705Y113.016
X79.707Y113.062
X79.708Y113.102
X79.707Y113.127
X79.705Y113.183
X79.704Y113.211
X79.699Y113.267
X79.696Y113.294
X79.692Y113.322
X79.688Y113.349
X79.683Y113.377
X79.678Y113.404
X79.673Y113.432
X79.667Y113.459
X79.66Y113.486
X79.653Y113.513
X79.646Y113.54
X79.638Y113.566
X79.629Y113.593
X79.621Y113.619
X79.611Y113.645
X79.602Y113.672
X79.581Y113.723
X79.57Y113.749
X79.558Y113.775
X79.546Y113.8
X79.534Y113.824
X79.521Y113.849
X79.494Y113.898
X79.479Y113.922
X79.465Y113.946
X79.45Y113.969
X79.435Y113.992
X79.419Y114.015
X79.386Y114.06
X79.369Y114.083
X79.352Y114.104
X79.334Y114.126
X79.316Y114.147
X79.297Y114.168
X79.279Y114.188
X79.26Y114.208
X79.24Y114.229
X79.22Y114.248
X79.198Y114.269
X79.179Y114.286
X79.158Y114.304
X79.137Y114.323
X79.116Y114.34
X79.094Y114.358
X79.072Y114.375
X79.049Y114.391
X79.027Y114.407
X79.004Y114.423
X78.98Y114.439
X78.957Y114.454
X78.935Y114.467
X78.909Y114.483
X78.885Y114.496
X78.86Y114.509
X78.836Y114.522
X78.811Y114.535
X78.789Y114.545
X78.759Y114.559
X78.735Y114.569
X78.693Y114.586
X78.649Y114.603
X78.615Y114.614
X78.575Y114.627
X78.551Y114.634
X78.524Y114.642
X78.497Y114.649
X78.47Y114.655
X78.443Y114.661
X78.416Y114.667
X78.388Y114.672
X78.361Y114.677
X78.333Y114.681
X78.305Y114.684
X78.278Y114.687
X78.25Y114.69
X78.222Y114.692
X78.194Y114.694
X78.166Y114.695
X78.136Y114.696
X78.111
X78.084
X78.027Y114.694
X77.999Y114.692
X77.974Y114.69
X77.943Y114.687
X77.916Y114.684
X77.889Y114.681
X77.861Y114.677
X77.834Y114.672
X77.806Y114.667
X77.752Y114.655
X77.725Y114.649
X77.698Y114.642
X77.644Y114.626
X77.617Y114.618
X77.591Y114.609
X77.565Y114.6
X77.513Y114.58
X77.487Y114.569
X77.462Y114.558
X77.436Y114.547
X77.414Y114.536
X77.385Y114.522
X77.361Y114.509
X77.337Y114.496
X77.313Y114.482
X77.289Y114.468
X77.265Y114.454
X77.241Y114.439
X77.218Y114.423
X77.195Y114.407
X77.172Y114.391
X77.15Y114.375
X77.128Y114.358
X77.106Y114.34
X77.085Y114.323
X77.063Y114.305
X77.043Y114.286
X77.022Y114.267
X77.002Y114.248
X76.982Y114.229
X76.962Y114.209
X76.943Y114.188
X76.924Y114.168
X76.906Y114.147
X76.888Y114.126
X76.87Y114.104
X76.853Y114.083
X76.836Y114.06
X76.819Y114.038
X76.803Y114.015
X76.787Y113.992
X76.772Y113.969
X76.742Y113.922
X76.728Y113.898
X76.714Y113.873
X76.701Y113.849
X76.688Y113.824
X76.676Y113.799
X76.664Y113.774
X76.652Y113.749
X76.641Y113.723
X76.62Y113.672
X76.611Y113.645
X76.601Y113.619
X76.592Y113.593
X76.584Y113.566
X76.576Y113.54
X76.569Y113.513
X76.562Y113.486
X76.555Y113.458
X76.549Y113.431
X76.544Y113.404
X76.536Y113.361
X76.529Y113.319
X76.526Y113.294
X76.523Y113.266
X76.52Y113.24
X76.518Y113.21
X76.516Y113.166
X76.514Y113.125
Y113.1
X76.515Y113.044
X76.516Y113.016
X76.52Y112.96
X76.526Y112.905
X76.53Y112.877
X76.534Y112.85
X76.539Y112.822
X76.544Y112.795
X76.549Y112.768
X76.555Y112.741
X76.562Y112.713
X76.569Y112.686
X76.576Y112.659
X76.584Y112.633
X76.592Y112.606
X76.601Y112.58
X76.609Y112.558
X76.621Y112.526
X76.631Y112.501
X76.641Y112.476
X76.664Y112.425
X76.676Y112.4
X76.688Y112.375
X76.701Y112.35
X76.714Y112.326
X76.728Y112.301
X76.742Y112.277
X76.757Y112.253
X76.772Y112.23
X76.787Y112.207
X76.803Y112.184
X76.819Y112.161
X76.836Y112.139
X76.853Y112.117
X76.87Y112.095
X76.888Y112.073
X76.906Y112.052
X76.925Y112.031
X76.943Y112.011
X76.962Y111.99
X76.994Y111.958
X77.024Y111.93
X77.043Y111.913
X77.063Y111.894
X77.085Y111.876
X77.106Y111.859
X77.128Y111.841
X77.15Y111.824
X77.172Y111.808
X77.195Y111.792
X77.218Y111.776
X77.241Y111.761
X77.278Y111.737
X77.315Y111.715
X77.337Y111.703
X77.361Y111.69
X77.386Y111.677
X77.411Y111.664
X77.436Y111.652
X77.459Y111.642
X77.488Y111.629
X77.513Y111.619
X77.539Y111.609
X77.565Y111.599
X77.591Y111.59
X77.618Y111.581
X77.644Y111.573
X77.671Y111.565
X77.698Y111.557
X77.725Y111.55
X77.752Y111.544
X77.779Y111.538
X77.806Y111.532
X77.834Y111.527
X77.861Y111.523
X77.889Y111.518
X77.916Y111.515
X77.944Y111.512
X77.972Y111.509
X77.999Y111.507
X78.027Y111.505
X78.055Y111.504
X78.083Y111.503
X78.111
G0Z1
X70.911Y111.364
G1Z-0.3F5
X70.819Y112.645F10
X70.813Y112.762
X70.808Y112.879
X70.806Y112.995
X70.805Y113.1
Y118.176
X70.808Y118.254
X70.813Y118.331
X70.821Y118.409
X70.832Y118.485
X70.846Y118.561
X70.862Y118.637
X70.88Y118.712
X70.902Y118.786
X70.926Y118.86
X70.952Y118.933
X70.981Y119.005
X71.012Y119.076
X71.046Y119.146
X71.082Y119.214
X71.121Y119.281
X71.162Y119.347
X71.205Y119.411
X71.251Y119.475
X71.298Y119.535
X71.347Y119.594
X71.4Y119.653
X71.453Y119.707
X71.509Y119.762
X71.566Y119.814
X71.625Y119.864
X71.687Y119.912
X71.749Y119.957
X71.813Y120.001
X71.878Y120.042
X71.945Y120.081
X72.014Y120.118
X72.084Y120.152
X72.154Y120.184
X72.226Y120.213
X72.298Y120.24
X72.372Y120.264
X72.446Y120.286
X72.521Y120.304
X72.597Y120.321
X72.673Y120.335
X72.711Y120.341
X75.577Y120.756
X75.734Y120.777
X75.891Y120.796
X76.048Y120.811
X76.205Y120.824
X76.363Y120.835
X76.521Y120.842
X76.679Y120.847
X76.836Y120.849
X76.994
X77.152Y120.846
X77.31Y120.84
X77.468Y120.831
X77.625Y120.82
X77.783Y120.806
X77.94Y120.789
X78.097Y120.77
X78.253Y120.748
X78.409Y120.723
X78.564Y120.696
X78.72Y120.665
X78.874Y120.633
X79.028Y120.597
X79.181Y120.559
X79.334Y120.519
X79.486Y120.475
X79.637Y120.43
X79.787Y120.381
X79.937Y120.33
X80.085Y120.277
X80.233Y120.22
X80.38Y120.162
X80.525Y120.101
X80.67Y120.037
X80.813Y119.971
X80.956Y119.903
X81.097Y119.831
X81.237Y119.758
X81.376Y119.682
X81.513Y119.604
X81.649Y119.524
X81.783Y119.441
X81.916Y119.356
X82.048Y119.269
X82.178Y119.179
X82.306Y119.087
X82.433Y118.993
X82.559Y118.897
X82.682Y118.799
X82.804Y118.699
X82.9Y118.617
X82.995Y118.533
X83.088Y118.448
X83.18Y118.361
X83.27Y118.272
X83.359Y118.182
X83.446Y118.091
X83.533Y117.996
X83.617Y117.902
X83.699Y117.806
X83.78Y117.708
X83.859Y117.609
X83.936Y117.509
X84.012Y117.407
X84.086Y117.304
X84.157Y117.2
X84.228Y117.095
X84.296Y116.988
X84.362Y116.881
X84.427Y116.772
X84.49Y116.662
X84.55Y116.551
X84.609Y116.438
X84.666Y116.326
X84.721Y116.211
X84.774Y116.097
X84.825Y115.981
X84.874Y115.864
X84.921Y115.746
X84.965Y115.628
X85.008Y115.509
X85.049Y115.389
X85.087Y115.269
X85.124Y115.147
X85.159Y115.025
X85.191Y114.903
X85.221Y114.78
X85.249Y114.657
X85.275Y114.533
X85.399Y113.891
X85.512Y113.247
X85.615Y112.601
X85.706Y111.953
X85.787Y111.304
X85.858Y110.654
X85.917Y110.003
X85.966Y109.351
X86.004Y108.698
X86.031Y108.044
X86.047Y107.39
X86.052Y106.75
Y80.297
X86.046Y79.54
X86.029Y78.798
X86.003Y78.114
X85.997Y78
Y75.066
Y75.028
X85.995Y74.99
X85.993Y74.951
X85.99Y74.913
X85.985Y74.875
X85.98Y74.837
X85.974Y74.8
X85.968Y74.762
X85.96Y74.725
X85.951Y74.687
X85.942Y74.65
X85.931Y74.614
X85.92Y74.577
X85.908Y74.541
X85.895Y74.505
X85.881Y74.469
X85.866Y74.434
X85.85Y74.399
X85.834Y74.365
X85.816Y74.33
X85.798Y74.296
X85.779Y74.262
X85.759Y74.229
X85.738Y74.196
X85.717Y74.164
X85.694Y74.133
X85.671Y74.102
X85.648Y74.071
X85.623Y74.042
X85.598Y74.012
X85.572Y73.984
X85.545Y73.956
X85.518Y73.928
X85.49Y73.902
X85.462Y73.876
X85.433Y73.851
X85.403Y73.826
X85.372Y73.802
X85.341Y73.779
X85.31Y73.757
X85.278Y73.735
X85.242Y73.713
X85.206Y73.691
X85.177Y73.674
X85.147Y73.658
X85.103Y73.636
X85.077Y73.623
X85.044Y73.609
X85.011Y73.595
X84.977Y73.581
X84.939Y73.567
X84.901Y73.554
X84.863Y73.542
X84.824Y73.531
X84.791Y73.522
X84.759Y73.515
X84.726Y73.508
X84.682Y73.499
X84.632Y73.491
X84.62Y73.49
X84.585Y73.478
X84.547Y73.467
X84.509Y73.457
X84.471Y73.448
X84.432Y73.44
X84.393Y73.432
X84.354Y73.426
X84.315Y73.421
X84.276Y73.416
X84.237Y73.413
X84.197Y73.41
X84.158Y73.409
X84.118
X73.247
X73.168Y73.412
X73.091Y73.417
X73.055Y73.42
X72.432Y73.485
X72.394Y73.489
X72.355Y73.495
X72.317Y73.501
X72.279Y73.509
X72.244Y73.517
X72.207Y73.526
X72.164Y73.538
X72.125Y73.549
X72.07Y73.568
X72.022Y73.586
X71.966Y73.61
X71.936Y73.623
X71.899Y73.641
X71.861Y73.66
X71.832Y73.676
X71.804Y73.692
X71.776Y73.709
X71.746Y73.728
X71.716Y73.747
X71.687Y73.768
X71.658Y73.788
X71.63Y73.809
X71.603Y73.831
X71.566Y73.862
X71.53Y73.894
X71.501Y73.922
X71.472Y73.95
X71.451Y73.972
X71.431Y73.994
X71.405Y74.023
X71.392Y74.038
X71.366Y74.069
X71.341Y74.101
X71.317Y74.133
X71.294Y74.167
X71.271Y74.2
X71.25Y74.234
X71.229Y74.269
X71.209Y74.304
X71.191Y74.339
X71.173Y74.375
X71.156Y74.411
X71.14Y74.447
X71.125Y74.484
X71.111Y74.521
X71.098Y74.559
X71.086Y74.596
X71.075Y74.634
X71.064Y74.673
X71.055Y74.711
X71.047Y74.75
X71.039Y74.79
X71.033Y74.829
X71.027Y74.868
X71.023Y74.908
X71.019Y74.947
X71.017Y74.987
X71.015Y75.026
Y75.066
Y103.066
Y103.104
X71.017Y103.142
X71.019Y103.181
X71.023Y103.226
X71.028Y103.27
X71.035Y103.315
X71.041Y103.355
X71.049Y103.394
X71.059Y103.437
Y106.743
X71.05Y107.904
X71.022Y109.058
X70.976Y110.212
X70.911Y111.364
G0Z1
X77.46Y82.301
G1Z-0.4F5
X77.597Y82.189F10
X77.752Y82.105
X77.922Y82.054
X78.097Y82.037
X78.273Y82.054
X78.442Y82.105
X78.598Y82.189
X78.735Y82.301
X78.847Y82.437
X78.93Y82.593
X78.981Y82.762
X78.999Y82.938
X78.981Y83.114
X78.93Y83.283
X78.847Y83.439
X78.735Y83.575
X78.598Y83.687
X78.442Y83.771
X78.273Y83.822
X78.097Y83.839
X77.922Y83.822
X77.752Y83.771
X77.597Y83.687
X77.46Y83.575
X77.348Y83.439
X77.265Y83.283
X77.213Y83.114
X77.196Y82.938
X77.213Y82.762
X77.265Y82.593
X77.348Y82.437
X77.46Y82.301
G0Z1
X78.097Y97.941
G1Z-0.4F5
X78.273Y97.958F10
X78.442Y98.01
X78.598Y98.093
X78.735Y98.205
X78.847Y98.342
X78.93Y98.497
X78.981Y98.666
X78.999Y98.842
X78.981Y99.018
X78.93Y99.187
X78.847Y99.343
X78.735Y99.48
X78.598Y99.592
X78.442Y99.675
X78.273Y99.726
X78.097Y99.744
X77.922Y99.726
X77.752Y99.675
X77.597Y99.592
X77.46Y99.48
X77.348Y99.343
X77.265Y99.187
X77.213Y99.018
X77.196Y98.842
X77.213Y98.666
X77.265Y98.497
X77.348Y98.342
X77.46Y98.205
X77.597Y98.093
X77.752Y98.01
X77.922Y97.958
X78.097Y97.941
G0Z1
X78.111Y111.503
G1Z-0.4F5
X78.139F10
X78.167Y111.504
X78.195Y111.505
X78.222Y111.507
X78.25Y111.509
X78.278Y111.512
X78.305Y111.515
X78.333Y111.518
X78.361Y111.523
X78.388Y111.527
X78.415Y111.532
X78.443Y111.538
X78.47Y111.544
X78.497Y111.55
X78.524Y111.557
X78.578Y111.573
X78.604Y111.581
X78.631Y111.59
X78.657Y111.599
X78.683Y111.609
X78.709Y111.619
X78.735Y111.63
X78.76Y111.641
X78.786Y111.652
X78.811Y111.664
X78.836Y111.677
X78.861Y111.69
X78.885Y111.703
X78.909Y111.717
X78.933Y111.731
X78.981Y111.761
X79.004Y111.776
X79.027Y111.792
X79.049Y111.808
X79.072Y111.824
X79.094Y111.841
X79.116Y111.859
X79.137Y111.876
X79.156Y111.893
X79.18Y111.914
X79.2Y111.932
X79.22Y111.951
X79.24Y111.971
X79.26Y111.991
X79.279Y112.011
X79.297Y112.031
X79.334Y112.073
X79.369Y112.117
X79.386Y112.139
X79.403Y112.161
X79.419Y112.184
X79.435Y112.207
X79.45Y112.23
X79.465Y112.253
X79.479Y112.277
X79.494Y112.301
X79.507Y112.325
X79.521Y112.35
X79.534Y112.375
X79.546Y112.399
X79.558Y112.425
X79.57Y112.45
X79.581Y112.476
X79.591Y112.501
X79.602Y112.527
X79.611Y112.553
X79.621Y112.58
X79.629Y112.606
X79.646Y112.66
X79.652Y112.682
X79.66Y112.715
X79.667Y112.74
X79.673Y112.767
X79.684Y112.824
X79.688Y112.85
X79.696Y112.905
X79.699Y112.933
X79.701Y112.96
X79.704Y112.988
X79.705Y113.016
X79.707Y113.062
X79.708Y113.102
X79.707Y113.127
X79.705Y113.183
X79.704Y113.211
X79.699Y113.267
X79.696Y113.294
X79.692Y113.322
X79.688Y113.349
X79.683Y113.377
X79.678Y113.404
X79.673Y113.432
X79.667Y113.459
X79.66Y113.486
X79.653Y113.513
X79.646Y113.54
X79.638Y113.566
X79.629Y113.593
X79.621Y113.619
X79.611Y113.645
X79.602Y113.672
X79.581Y113.723
X79.57Y113.749
X79.558Y113.775
X79.546Y113.8
X79.534Y113.824
X79.521Y113.849
X79.494Y113.898
X79.479Y113.922
X79.465Y113.946
X79.45Y113.969
X79.435Y113.992
X79.419Y114.015
X79.386Y114.06
X79.369Y114.083
X79.352Y114.104
X79.334Y114.126
X79.316Y114.147
X79.297Y114.168
X79.279Y114.188
X79.26Y114.208
X79.24Y114.229
X79.22Y114.248
X79.198Y114.269
X79.179Y114.286
X79.158Y114.304
X79.137Y114.323
X79.116Y114.34
X79.094Y114.358
X79.072Y114.375
X79.049Y114.391
X79.027Y114.407
X79.004Y114.423
X78.98Y114.439
X78.957Y114.454
X78.935Y114.467
X78.909Y114.483
X78.885Y114.496
X78.86Y114.509
X78.836Y114.522
X78.811Y114.535
X78.789Y114.545
X78.759Y114.559
X78.735Y114.569
X78.693Y114.586
X78.649Y114.603
X78.615Y114.614
X78.575Y114.627
X78.551Y114.634
X78.524Y114.642
X78.497Y114.649
X78.47Y114.655
X78.443Y114.661
X78.416Y114.667
X78.388Y114.672
X78.361Y114.677
X78.333Y114.681
X78.305Y114.684
X78.278Y114.687
X78.25Y114.69
X78.222Y114.692
X78.194Y114.694
X78.166Y114.695
X78.136Y114.696
X78.111
X78.084
X78.027Y114.694
X77.999Y114.692
X77.974Y114.69
X77.943Y114.687
X77.916Y114.684
X77.889Y114.681
X77.861Y114.677
X77.834Y114.672
X77.806Y114.667
X77.752Y114.655
X77.725Y114.649
X77.698Y114.642
X77.644Y114.626
X77.617Y114.618
X77.591Y114.609
X77.565Y114.6
X77.513Y114.58
X77.487Y114.569
X77.462Y114.558
X77.436Y114.547
X77.414Y114.536
X77.385Y114.522
X77.361Y114.509
X77.337Y114.496
X77.313Y114.482
X77.289Y114.468
X77.265Y114.454
X77.241Y114.439
X77.218Y114.423
X77.195Y114.407
X77.172Y114.391
X77.15Y114.375
X77.128Y114.358
X77.106Y114.34
X77.085Y114.323
X77.063Y114.305
X77.043Y114.286
X77.022Y114.267
X77.002Y114.248
X76.982Y114.229
X76.962Y114.209
X76.943Y114.188
X76.924Y114.168
X76.906Y114.147
X76.888Y114.126
X76.87Y114.104
X76.853Y114.083
X76.836Y114.06
X76.819Y114.038
X76.803Y114.015
X76.787Y113.992
X76.772Y113.969
X76.742Y113.922
X76.728Y113.898
X76.714Y113.873
X76.701Y113.849
X76.688Y113.824
X76.676Y113.799
X76.664Y113.774
X76.652Y113.749
X76.641Y113.723
X76.62Y113.672
X76.611Y113.645
X76.601Y113.619
X76.592Y113.593
X76.584Y113.566
X76.576Y113.54
X76.569Y113.513
X76.562Y113.486
X76.555Y113.458
X76.549Y113.431
X76.544Y113.404
X76.536Y113.361
X76.529Y113.319
X76.526Y113.294
X76.523Y113.266
X76.52Y113.24
X76.518Y113.21
X76.516Y113.166
X76.514Y113.125
Y113.1
X76.515Y113.044
X76.516Y113.016
X76.52Y112.96
X76.526Y112.905
X76.53Y112.877
X76.534Y112.85
X76.539Y112.822
X76.544Y112.795
X76.549Y112.768
X76.555Y112.741
X76.562Y112.713
X76.569Y112.686
X76.576Y112.659
X76.584Y112.633
X76.592Y112.606
X76.601Y112.58
X76.609Y112.558
X76.621Y112.526
X76.631Y112.501
X76.641Y112.476
X76.664Y112.425
X76.676Y112.4
X76.688Y112.375
X76.701Y112.35
X76.714Y112.326
X76.728Y112.301
X76.742Y112.277
X76.757Y112.253
X76.772Y112.23
X76.787Y112.207
X76.803Y112.184
X76.819Y112.161
X76.836Y112.139
X76.853Y112.117
X76.87Y112.095
X76.888Y112.073
X76.906Y112.052
X76.925Y112.031
X76.943Y112.011
X76.962Y111.99
X76.994Y111.958
X77.024Y111.93
X77.043Y111.913
X77.063Y111.894
X77.085Y111.876
X77.106Y111.859
X77.128Y111.841
X77.15Y111.824
X77.172Y111.808
X77.195Y111.792
X77.218Y111.776
X77.241Y111.761
X77.278Y111.737
X77.315Y111.715
X77.337Y111.703
X77.361Y111.69
X77.386Y111.677
X77.411Y111.664
X77.436Y111.652
X77.459Y111.642
X77.488Y111.629
X77.513Y111.619
X77.539Y111.609
X77.565Y111.599
X77.591Y111.59
X77.618Y111.581
X77.644Y111.573
X77.671Y111.565
X77.698Y111.557
X77.725Y111.55
X77.752Y111.544
X77.779Y111.538
X77.806Y111.532
X77.834Y111.527
X77.861Y111.523
X77.889Y111.518
X77.916Y111.515
X77.944Y111.512
X77.972Y111.509
X77.999Y111.507
X78.027Y111.505
X78.055Y111.504
X78.083Y111.503
X78.111
G0Z1
X70.911Y111.364
G1Z-0.4F5
X70.819Y112.645F10
X70.813Y112.762
X70.808Y112.879
X70.806Y112.995
X70.805Y113.1
Y118.176
X70.808Y118.254
X70.813Y118.331
X70.821Y118.409
X70.832Y118.485
X70.846Y118.561
X70.862Y118.637
X70.88Y118.712
X70.902Y118.786
X70.926Y118.86
X70.952Y118.933
X70.981Y119.005
X71.012Y119.076
X71.046Y119.146
X71.082Y119.214
X71.121Y119.281
X71.162Y119.347
X71.205Y119.411
X71.251Y119.475
X71.298Y119.535
X71.347Y119.594
X71.4Y119.653
X71.453Y119.707
X71.509Y119.762
X71.566Y119.814
X71.625Y119.864
X71.687Y119.912
X71.749Y119.957
X71.813Y120.001
X71.878Y120.042
X71.945Y120.081
X72.014Y120.118
X72.084Y120.152
X72.154Y120.184
X72.226Y120.213
X72.298Y120.24
X72.372Y120.264
X72.446Y120.286
X72.521Y120.304
X72.597Y120.321
X72.673Y120.335
X72.711Y120.341
X75.577Y120.756
X75.734Y120.777
X75.891Y120.796
X76.048Y120.811
X76.205Y120.824
X76.363Y120.835
X76.521Y120.842
X76.679Y120.847
X76.836Y120.849
X76.994
X77.152Y120.846
X77.31Y120.84
X77.468Y120.831
X77.625Y120.82
X77.783Y120.806
X77.94Y120.789
X78.097Y120.77
X78.253Y120.748
X78.409Y120.723
X78.564Y120.696
X78.72Y120.665
X78.874Y120.633
X79.028Y120.597
X79.181Y120.559
X79.334Y120.519
X79.486Y120.475
X79.637Y120.43
X79.787Y120.381
X79.937Y120.33
X80.085Y120.277
X80.233Y120.22
X80.38Y120.162
X80.525Y120.101
X80.67Y120.037
X80.813Y119.971
X80.956Y119.903
X81.097Y119.831
X81.237Y119.758
X81.376Y119.682
X81.513Y119.604
X81.649Y119.524
X81.783Y119.441
X81.916Y119.356
X82.048Y119.269
X82.178Y119.179
X82.306Y119.087
X82.433Y118.993
X82.559Y118.897
X82.682Y118.799
X82.804Y118.699
X82.9Y118.617
X82.995Y118.533
X83.088Y118.448
X83.18Y118.361
X83.27Y118.272
X83.359Y118.182
X83.446Y118.091
X83.533Y117.996
X83.617Y117.902
X83.699Y117.806
X83.78Y117.708
X83.859Y117.609
X83.936Y117.509
X84.012Y117.407
X84.086Y117.304
X84.157Y117.2
X84.228Y117.095
X84.296Y116.988
X84.362Y116.881
X84.427Y116.772
X84.49Y116.662
X84.55Y116.551
X84.609Y116.438
X84.666Y116.326
X84.721Y116.211
X84.774Y116.097
X84.825Y115.981
X84.874Y115.864
X84.921Y115.746
X84.965Y115.628
X85.008Y115.509
X85.049Y115.389
X85.087Y115.269
X85.124Y115.147
X85.159Y115.025
X85.191Y114.903
X85.221Y114.78
X85.249Y114.657
X85.275Y114.533
X85.399Y113.891
X85.512Y113.247
X85.615Y112.601
X85.706Y111.953
X85.787Y111.304
X85.858Y110.654
X85.917Y110.003
X85.966Y109.351
X86.004Y108.698
X86.031Y108.044
X86.047Y107.39
X86.052Y106.75
Y80.297
X86.046Y79.54
X86.029Y78.798
X86.003Y78.114
X85.997Y78
Y75.066
Y75.028
X85.995Y74.99
X85.993Y74.951
X85.99Y74.913
X85.985Y74.875
X85.98Y74.837
X85.974Y74.8
X85.968Y74.762
X85.96Y74.725
X85.951Y74.687
X85.942Y74.65
X85.931Y74.614
X85.92Y74.577
X85.908Y74.541
X85.895Y74.505
X85.881Y74.469
X85.866Y74.434
X85.85Y74.399
X85.834Y74.365
X85.816Y74.33
X85.798Y74.296
X85.779Y74.262
X85.759Y74.229
X85.738Y74.196
X85.717Y74.164
X85.694Y74.133
X85.671Y74.102
X85.648Y74.071
X85.623Y74.042
X85.598Y74.012
X85.572Y73.984
X85.545Y73.956
X85.518Y73.928
X85.49Y73.902
X85.462Y73.876
X85.433Y73.851
X85.403Y73.826
X85.372Y73.802
X85.341Y73.779
X85.31Y73.757
X85.278Y73.735
X85.242Y73.713
X85.206Y73.691
X85.177Y73.674
X85.147Y73.658
X85.103Y73.636
X85.077Y73.623
X85.044Y73.609
X85.011Y73.595
X84.977Y73.581
X84.939Y73.567
X84.901Y73.554
X84.863Y73.542
X84.824Y73.531
X84.791Y73.522
X84.759Y73.515
X84.726Y73.508
X84.682Y73.499
X84.632Y73.491
X84.62Y73.49
X84.585Y73.478
X84.547Y73.467
X84.509Y73.457
X84.471Y73.448
X84.432Y73.44
X84.393Y73.432
X84.354Y73.426
X84.315Y73.421
X84.276Y73.416
X84.237Y73.413
X84.197Y73.41
X84.158Y73.409
X84.118
X73.247
X73.168Y73.412
X73.091Y73.417
X73.055Y73.42
X72.432Y73.485
X72.394Y73.489
X72.355Y73.495
X72.317Y73.501
X72.279Y73.509
X72.244Y73.517
X72.207Y73.526
X72.164Y73.538
X72.125Y73.549
X72.07Y73.568
X72.022Y73.586
X71.966Y73.61
X71.936Y73.623
X71.899Y73.641
X71.861Y73.66
X71.832Y73.676
X71.804Y73.692
X71.776Y73.709
X71.746Y73.728
X71.716Y73.747
X71.687Y73.768
X71.658Y73.788
X71.63Y73.809
X71.603Y73.831
X71.566Y73.862
X71.53Y73.894
X71.501Y73.922
X71.472Y73.95
X71.451Y73.972
X71.431Y73.994
X71.405Y74.023
X71.392Y74.038
X71.366Y74.069
X71.341Y74.101
X71.317Y74.133
X71.294Y74.167
X71.271Y74.2
X71.25Y74.234
X71.229Y74.269
X71.209Y74.304
X71.191Y74.339
X71.173Y74.375
X71.156Y74.411
X71.14Y74.447
X71.125Y74.484
X71.111Y74.521
X71.098Y74.559
X71.086Y74.596
X71.075Y74.634
X71.064Y74.673
X71.055Y74.711
X71.047Y74.75
X71.039Y74.79
X71.033Y74.829
X71.027Y74.868
X71.023Y74.908
X71.019Y74.947
X71.017Y74.987
X71.015Y75.026
Y75.066
Y103.066
Y103.104
X71.017Y103.142
X71.019Y103.181
X71.023Y103.226
X71.028Y103.27
X71.035Y103.315
X71.041Y103.355
X71.049Y103.394
X71.059Y103.437
Y106.743
X71.05Y107.904
X71.022Y109.058
X70.976Y110.212
X70.911Y111.364
G0Z1
X77.46Y82.301
G1Z-0.5F5
X77.597Y82.189F10
X77.752Y82.105
X77.922Y82.054
X78.097Y82.037
X78.273Y82.054
X78.442Y82.105
X78.598Y82.189
X78.735Y82.301
X78.847Y82.437
X78.93Y82.593
X78.981Y82.762
X78.999Y82.938
X78.981Y83.114
X78.93Y83.283
X78.847Y83.439
X78.735Y83.575
X78.598Y83.687
X78.442Y83.771
X78.273Y83.822
X78.097Y83.839
X77.922Y83.822
X77.752Y83.771
X77.597Y83.687
X77.46Y83.575
X77.348Y83.439
X77.265Y83.283
X77.213Y83.114
X77.196Y82.938
X77.213Y82.762
X77.265Y82.593
X77.348Y82.437
X77.46Y82.301
G0Z1
X78.097Y97.941
G1Z-0.5F5
X78.273Y97.958F10
X78.442Y98.01
X78.598Y98.093
X78.735Y98.205
X78.847Y98.342
X78.93Y98.497
X78.981Y98.666
X78.999Y98.842
X78.981Y99.018
X78.93Y99.187
X78.847Y99.343
X78.735Y99.48
X78.598Y99.592
X78.442Y99.675
X78.273Y99.726
X78.097Y99.744
X77.922Y99.726
X77.752Y99.675
X77.597Y99.592
X77.46Y99.48
X77.348Y99.343
X77.265Y99.187
X77.213Y99.018
X77.196Y98.842
X77.213Y98.666
X77.265Y98.497
X77.348Y98.342
X77.46Y98.205
X77.597Y98.093
X77.752Y98.01
X77.922Y97.958
X78.097Y97.941
G0Z1
X78.111Y111.503
G1Z-0.5F5
X78.139F10
X78.167Y111.504
X78.195Y111.505
X78.222Y111.507
X78.25Y111.509
X78.278Y111.512
X78.305Y111.515
X78.333Y111.518
X78.361Y111.523
X78.388Y111.527
X78.415Y111.532
X78.443Y111.538
X78.47Y111.544
X78.497Y111.55
X78.524Y111.557
X78.578Y111.573
X78.604Y111.581
X78.631Y111.59
X78.657Y111.599
X78.683Y111.609
X78.709Y111.619
X78.735Y111.63
X78.76Y111.641
X78.786Y111.652
X78.811Y111.664
X78.836Y111.677
X78.861Y111.69
X78.885Y111.703
X78.909Y111.717
X78.933Y111.731
X78.981Y111.761
X79.004Y111.776
X79.027Y111.792
X79.049Y111.808
X79.072Y111.824
X79.094Y111.841
X79.116Y111.859
X79.137Y111.876
X79.156Y111.893
X79.18Y111.914
X79.2Y111.932
X79.22Y111.951
X79.24Y111.971
X79.26Y111.991
X79.279Y112.011
X79.297Y112.031
X79.334Y112.073
X79.369Y112.117
X79.386Y112.139
X79.403Y112.161
X79.419Y112.184
X79.435Y112.207
X79.45Y112.23
X79.465Y112.253
X79.479Y112.277
X79.494Y112.301
X79.507Y112.325
X79.521Y112.35
X79.534Y112.375
X79.546Y112.399
X79.558Y112.425
X79.57Y112.45
X79.581Y112.476
X79.591Y112.501
X79.602Y112.527
X79.611Y112.553
X79.621Y112.58
X79.629Y112.606
X79.646Y112.66
X79.652Y112.682
X79.66Y112.715
X79.667Y112.74
X79.673Y112.767
X79.684Y112.824
X79.688Y112.85
X79.696Y112.905
X79.699Y112.933
X79.701Y112.96
X79.704Y112.988
X79.705Y113.016
X79.707Y113.062
X79.708Y113.102
X79.707Y113.127
X79.705Y113.183
X79.704Y113.211
X79.699Y113.267
X79.696Y113.294
X79.692Y113.322
X79.688Y113.349
X79.683Y113.377
X79.678Y113.404
X79.673Y113.432
X79.667Y113.459
X79.66Y113.486
X79.653Y113.513
X79.646Y113.54
X79.638Y113.566
X79.629Y113.593
X79.621Y113.619
X79.611Y113.645
X79.602Y113.672
X79.581Y113.723
X79.57Y113.749
X79.558Y113.775
X79.546Y113.8
X79.534Y113.824
X79.521Y113.849
X79.494Y113.898
X79.479Y113.922
X79.465Y113.946
X79.45Y113.969
X79.435Y113.992
X79.419Y114.015
X79.386Y114.06
X79.369Y114.083
X79.352Y114.104
X79.334Y114.126
X79.316Y114.147
X79.297Y114.168
X79.279Y114.188
X79.26Y114.208
X79.24Y114.229
X79.22Y114.248
X79.198Y114.269
X79.179Y114.286
X79.158Y114.304
X79.137Y114.323
X79.116Y114.34
X79.094Y114.358
X79.072Y114.375
X79.049Y114.391
X79.027Y114.407
X79.004Y114.423
X78.98Y114.439
X78.957Y114.454
X78.935Y114.467
X78.909Y114.483
X78.885Y114.496
X78.86Y114.509
X78.836Y114.522
X78.811Y114.535
X78.789Y114.545
X78.759Y114.559
X78.735Y114.569
X78.693Y114.586
X78.649Y114.603
X78.615Y114.614
X78.575Y114.627
X78.551Y114.634
X78.524Y114.642
X78.497Y114.649
X78.47Y114.655
X78.443Y114.661
X78.416Y114.667
X78.388Y114.672
X78.361Y114.677
X78.333Y114.681
X78.305Y114.684
X78.278Y114.687
X78.25Y114.69
X78.222Y114.692
X78.194Y114.694
X78.166Y114.695
X78.136Y114.696
X78.111
X78.084
X78.027Y114.694
X77.999Y114.692
X77.974Y114.69
X77.943Y114.687
X77.916Y114.684
X77.889Y114.681
X77.861Y114.677
X77.834Y114.672
X77.806Y114.667
X77.752Y114.655
X77.725Y114.649
X77.698Y114.642
X77.644Y114.626
X77.617Y114.618
X77.591Y114.609
X77.565Y114.6
X77.513Y114.58
X77.487Y114.569
X77.462Y114.558
X77.436Y114.547
X77.414Y114.536
X77.385Y114.522
X77.361Y114.509
X77.337Y114.496
X77.313Y114.482
X77.289Y114.468
X77.265Y114.454
X77.241Y114.439
X77.218Y114.423
X77.195Y114.407
X77.172Y114.391
X77.15Y114.375
X77.128Y114.358
X77.106Y114.34
X77.085Y114.323
X77.063Y114.305
X77.043Y114.286
X77.022Y114.267
X77.002Y114.248
X76.982Y114.229
X76.962Y114.209
X76.943Y114.188
X76.924Y114.168
X76.906Y114.147
X76.888Y114.126
X76.87Y114.104
X76.853Y114.083
X76.836Y114.06
X76.819Y114.038
X76.803Y114.015
X76.787Y113.992
X76.772Y113.969
X76.742Y113.922
X76.728Y113.898
X76.714Y113.873
X76.701Y113.849
X76.688Y113.824
X76.676Y113.799
X76.664Y113.774
X76.652Y113.749
X76.641Y113.723
X76.62Y113.672
X76.611Y113.645
X76.601Y113.619
X76.592Y113.593
X76.584Y113.566
X76.576Y113.54
X76.569Y113.513
X76.562Y113.486
X76.555Y113.458
X76.549Y113.431
X76.544Y113.404
X76.536Y113.361
X76.529Y113.319
X76.526Y113.294
X76.523Y113.266
X76.52Y113.24
X76.518Y113.21
X76.516Y113.166
X76.514Y113.125
Y113.1
X76.515Y113.044
X76.516Y113.016
X76.52Y112.96
X76.526Y112.905
X76.53Y112.877
X76.534Y112.85
X76.539Y112.822
X76.544Y112.795
X76.549Y112.768
X76.555Y112.741
X76.562Y112.713
X76.569Y112.686
X76.576Y112.659
X76.584Y112.633
X76.592Y112.606
X76.601Y112.58
X76.609Y112.558
X76.621Y112.526
X76.631Y112.501
X76.641Y112.476
X76.664Y112.425
X76.676Y112.4
X76.688Y112.375
X76.701Y112.35
X76.714Y112.326
X76.728Y112.301
X76.742Y112.277
X76.757Y112.253
X76.772Y112.23
X76.787Y112.207
X76.803Y112.184
X76.819Y112.161
X76.836Y112.139
X76.853Y112.117
X76.87Y112.095
X76.888Y112.073
X76.906Y112.052
X76.925Y112.031
X76.943Y112.011
X76.962Y111.99
X76.994Y111.958
X77.024Y111.93
X77.043Y111.913
X77.063Y111.894
X77.085Y111.876
X77.106Y111.859
X77.128Y111.841
X77.15Y111.824
X77.172Y111.808
X77.195Y111.792
X77.218Y111.776
X77.241Y111.761
X77.278Y111.737
X77.315Y111.715
X77.337Y111.703
X77.361Y111.69
X77.386Y111.677
X77.411Y111.664
X77.436Y111.652
X77.459Y111.642
X77.488Y111.629
X77.513Y111.619
X77.539Y111.609
X77.565Y111.599
X77.591Y111.59
X77.618Y111.581
X77.644Y111.573
X77.671Y111.565
X77.698Y111.557
X77.725Y111.55
X77.752Y111.544
X77.779Y111.538
X77.806Y111.532
X77.834Y111.527
X77.861Y111.523
X77.889Y111.518
X77.916Y111.515
X77.944Y111.512
X77.972Y111.509
X77.999Y111.507
X78.027Y111.505
X78.055Y111.504
X78.083Y111.503
X78.111
G0Z1
X70.911Y111.364
G1Z-0.5F5
X70.819Y112.645F10
X70.813Y112.762
X70.808Y112.879
X70.806Y112.995
X70.805Y113.1
Y118.176
X70.808Y118.254
X70.813Y118.331
X70.821Y118.409
X70.832Y118.485
X70.846Y118.561
X70.862Y118.637
X70.88Y118.712
X70.902Y118.786
X70.926Y118.86
X70.952Y118.933
X70.981Y119.005
X71.012Y119.076
X71.046Y119.146
X71.082Y119.214
X71.121Y119.281
X71.162Y119.347
X71.205Y119.411
X71.251Y119.475
X71.298Y119.535
X71.347Y119.594
X71.4Y119.653
X71.453Y119.707
X71.509Y119.762
X71.566Y119.814
X71.625Y119.864
X71.687Y119.912
X71.749Y119.957
X71.813Y120.001
X71.878Y120.042
X71.945Y120.081
X72.014Y120.118
X72.084Y120.152
X72.154Y120.184
X72.226Y120.213
X72.298Y120.24
X72.372Y120.264
X72.446Y120.286
X72.521Y120.304
X72.597Y120.321
X72.673Y120.335
X72.711Y120.341
X75.577Y120.756
X75.734Y120.777
X75.891Y120.796
X76.048Y120.811
X76.205Y120.824
X76.363Y120.835
X76.521Y120.842
X76.679Y120.847
X76.836Y120.849
X76.994
X77.152Y120.846
X77.31Y120.84
X77.468Y120.831
X77.625Y120.82
X77.783Y120.806
X77.94Y120.789
X78.097Y120.77
X78.253Y120.748
X78.409Y120.723
X78.564Y120.696
X78.72Y120.665
X78.874Y120.633
X79.028Y120.597
X79.181Y120.559
X79.334Y120.519
X79.486Y120.475
X79.637Y120.43
X79.787Y120.381
X79.937Y120.33
X80.085Y120.277
X80.233Y120.22
X80.38Y120.162
X80.525Y120.101
X80.67Y120.037
X80.813Y119.971
X80.956Y119.903
X81.097Y119.831
X81.237Y119.758
X81.376Y119.682
X81.513Y119.604
X81.649Y119.524
X81.783Y119.441
X81.916Y119.356
X82.048Y119.269
X82.178Y119.179
X82.306Y119.087
X82.433Y118.993
X82.559Y118.897
X82.682Y118.799
X82.804Y118.699
X82.9Y118.617
X82.995Y118.533
X83.088Y118.448
X83.18Y118.361
X83.27Y118.272
X83.359Y118.182
X83.446Y118.091
X83.533Y117.996
X83.617Y117.902
X83.699Y117.806
X83.78Y117.708
X83.859Y117.609
X83.936Y117.509
X84.012Y117.407
X84.086Y117.304
X84.157Y117.2
X84.228Y117.095
X84.296Y116.988
X84.362Y116.881
X84.427Y116.772
X84.49Y116.662
X84.55Y116.551
X84.609Y116.438
X84.666Y116.326
X84.721Y116.211
X84.774Y116.097
X84.825Y115.981
X84.874Y115.864
X84.921Y115.746
X84.965Y115.628
X85.008Y115.509
X85.049Y115.389
X85.087Y115.269
X85.124Y115.147
X85.159Y115.025
X85.191Y114.903
X85.221Y114.78
X85.249Y114.657
X85.275Y114.533
X85.399Y113.891
X85.512Y113.247
X85.615Y112.601
X85.706Y111.953
X85.787Y111.304
X85.858Y110.654
X85.917Y110.003
X85.966Y109.351
X86.004Y108.698
X86.031Y108.044
X86.047Y107.39
X86.052Y106.75
Y80.297
X86.046Y79.54
X86.029Y78.798
X86.003Y78.114
X85.997Y78
Y75.066
Y75.028
X85.995Y74.99
X85.993Y74.951
X85.99Y74.913
X85.985Y74.875
X85.98Y74.837
X85.974Y74.8
X85.968Y74.762
X85.96Y74.725
X85.951Y74.687
X85.942Y74.65
X85.931Y74.614
X85.92Y74.577
X85.908Y74.541
X85.895Y74.505
X85.881Y74.469
X85.866Y74.434
X85.85Y74.399
X85.834Y74.365
X85.816Y74.33
X85.798Y74.296
X85.779Y74.262
X85.759Y74.229
X85.738Y74.196
X85.717Y74.164
X85.694Y74.133
X85.671Y74.102
X85.648Y74.071
X85.623Y74.042
X85.598Y74.012
X85.572Y73.984
X85.545Y73.956
X85.518Y73.928
X85.49Y73.902
X85.462Y73.876
X85.433Y73.851
X85.403Y73.826
X85.372Y73.802
X85.341Y73.779
X85.31Y73.757
X85.278Y73.735
X85.242Y73.713
X85.206Y73.691
X85.177Y73.674
X85.147Y73.658
X85.103Y73.636
X85.077Y73.623
X85.044Y73.609
X85.011Y73.595
X84.977Y73.581
X84.939Y73.567
X84.901Y73.554
X84.863Y73.542
X84.824Y73.531
X84.791Y73.522
X84.759Y73.515
X84.726Y73.508
X84.682Y73.499
X84.632Y73.491
X84.62Y73.49
X84.585Y73.478
X84.547Y73.467
X84.509Y73.457
X84.471Y73.448
X84.432Y73.44
X84.393Y73.432
X84.354Y73.426
X84.315Y73.421
X84.276Y73.416
X84.237Y73.413
X84.197Y73.41
X84.158Y73.409
X84.118
X73.247
X73.168Y73.412
X73.091Y73.417
X73.055Y73.42
X72.432Y73.485
X72.394Y73.489
X72.355Y73.495
X72.317Y73.501
X72.279Y73.509
X72.244Y73.517
X72.207Y73.526
X72.164Y73.538
X72.125Y73.549
X72.07Y73.568
X72.022Y73.586
X71.966Y73.61
X71.936Y73.623
X71.899Y73.641
X71.861Y73.66
X71.832Y73.676
X71.804Y73.692
X71.776Y73.709
X71.746Y73.728
X71.716Y73.747
X71.687Y73.768
X71.658Y73.788
X71.63Y73.809
X71.603Y73.831
X71.566Y73.862
X71.53Y73.894
X71.501Y73.922
X71.472Y73.95
X71.451Y73.972
X71.431Y73.994
X71.405Y74.023
X71.392Y74.038
X71.366Y74.069
X71.341Y74.101
X71.317Y74.133
X71.294Y74.167
X71.271Y74.2
X71.25Y74.234
X71.229Y74.269
X71.209Y74.304
X71.191Y74.339
X71.173Y74.375
X71.156Y74.411
X71.14Y74.447
X71.125Y74.484
X71.111Y74.521
X71.098Y74.559
X71.086Y74.596
X71.075Y74.634
X71.064Y74.673
X71.055Y74.711
X71.047Y74.75
X71.039Y74.79
X71.033Y74.829
X71.027Y74.868
X71.023Y74.908
X71.019Y74.947
X71.017Y74.987
X71.015Y75.026
Y75.066
Y103.066
Y103.104
X71.017Y103.142
X71.019Y103.181
X71.023Y103.226
X71.028Y103.27
X71.035Y103.315
X71.041Y103.355
X71.049Y103.394
X71.059Y103.437
Y106.743
X71.05Y107.904
X71.022Y109.058
X70.976Y110.212
X70.911Y111.364
G0Z1
X77.46Y82.301
G1Z-0.6F5
X77.597Y82.189F10
X77.752Y82.105
X77.922Y82.054
X78.097Y82.037
X78.273Y82.054
X78.442Y82.105
X78.598Y82.189
X78.735Y82.301
X78.847Y82.437
X78.93Y82.593
X78.981Y82.762
X78.999Y82.938
X78.981Y83.114
X78.93Y83.283
X78.847Y83.439
X78.735Y83.575
X78.598Y83.687
X78.442Y83.771
X78.273Y83.822
X78.097Y83.839
X77.922Y83.822
X77.752Y83.771
X77.597Y83.687
X77.46Y83.575
X77.348Y83.439
X77.265Y83.283
X77.213Y83.114
X77.196Y82.938
X77.213Y82.762
X77.265Y82.593
X77.348Y82.437
X77.46Y82.301
G0Z1
X78.097Y97.941
G1Z-0.6F5
X78.273Y97.958F10
X78.442Y98.01
X78.598Y98.093
X78.735Y98.205
X78.847Y98.342
X78.93Y98.497
X78.981Y98.666
X78.999Y98.842
X78.981Y99.018
X78.93Y99.187
X78.847Y99.343
X78.735Y99.48
X78.598Y99.592
X78.442Y99.675
X78.273Y99.726
X78.097Y99.744
X77.922Y99.726
X77.752Y99.675
X77.597Y99.592
X77.46Y99.48
X77.348Y99.343
X77.265Y99.187
X77.213Y99.018
X77.196Y98.842
X77.213Y98.666
X77.265Y98.497
X77.348Y98.342
X77.46Y98.205
X77.597Y98.093
X77.752Y98.01
X77.922Y97.958
X78.097Y97.941
G0Z1
X78.111Y111.503
G1Z-0.6F5
X78.139F10
X78.167Y111.504
X78.195Y111.505
X78.222Y111.507
X78.25Y111.509
X78.278Y111.512
X78.305Y111.515
X78.333Y111.518
X78.361Y111.523
X78.388Y111.527
X78.415Y111.532
X78.443Y111.538
X78.47Y111.544
X78.497Y111.55
X78.524Y111.557
X78.578Y111.573
X78.604Y111.581
X78.631Y111.59
X78.657Y111.599
X78.683Y111.609
X78.709Y111.619
X78.735Y111.63
X78.76Y111.641
X78.786Y111.652
X78.811Y111.664
X78.836Y111.677
X78.861Y111.69
X78.885Y111.703
X78.909Y111.717
X78.933Y111.731
X78.981Y111.761
X79.004Y111.776
X79.027Y111.792
X79.049Y111.808
X79.072Y111.824
X79.094Y111.841
X79.116Y111.859
X79.137Y111.876
X79.156Y111.893
X79.18Y111.914
X79.2Y111.932
X79.22Y111.951
X79.24Y111.971
X79.26Y111.991
X79.279Y112.011
X79.297Y112.031
X79.334Y112.073
X79.369Y112.117
X79.386Y112.139
X79.403Y112.161
X79.419Y112.184
X79.435Y112.207
X79.45Y112.23
X79.465Y112.253
X79.479Y112.277
X79.494Y112.301
X79.507Y112.325
X79.521Y112.35
X79.534Y112.375
X79.546Y112.399
X79.558Y112.425
X79.57Y112.45
X79.581Y112.476
X79.591Y112.501
X79.602Y112.527
X79.611Y112.553
X79.621Y112.58
X79.629Y112.606
X79.646Y112.66
X79.652Y112.682
X79.66Y112.715
X79.667Y112.74
X79.673Y112.767
X79.684Y112.824
X79.688Y112.85
X79.696Y112.905
X79.699Y112.933
X79.701Y112.96
X79.704Y112.988
X79.705Y113.016
X79.707Y113.062
X79.708Y113.102
X79.707Y113.127
X79.705Y113.183
X79.704Y113.211
X79.699Y113.267
X79.696Y113.294
X79.692Y113.322
X79.688Y113.349
X79.683Y113.377
X79.678Y113.404
X79.673Y113.432
X79.667Y113.459
X79.66Y113.486
X79.653Y113.513
X79.646Y113.54
X79.638Y113.566
X79.629Y113.593
X79.621Y113.619
X79.611Y113.645
X79.602Y113.672
X79.581Y113.723
X79.57Y113.749
X79.558Y113.775
X79.546Y113.8
X79.534Y113.824
X79.521Y113.849
X79.494Y113.898
X79.479Y113.922
X79.465Y113.946
X79.45Y113.969
X79.435Y113.992
X79.419Y114.015
X79.386Y114.06
X79.369Y114.083
X79.352Y114.104
X79.334Y114.126
X79.316Y114.147
X79.297Y114.168
X79.279Y114.188
X79.26Y114.208
X79.24Y114.229
X79.22Y114.248
X79.198Y114.269
X79.179Y114.286
X79.158Y114.304
X79.137Y114.323
X79.116Y114.34
X79.094Y114.358
X79.072Y114.375
X79.049Y114.391
X79.027Y114.407
X79.004Y114.423
X78.98Y114.439
X78.957Y114.454
X78.935Y114.467
X78.909Y114.483
X78.885Y114.496
X78.86Y114.509
X78.836Y114.522
X78.811Y114.535
X78.789Y114.545
X78.759Y114.559
X78.735Y114.569
X78.693Y114.586
X78.649Y114.603
X78.615Y114.614
X78.575Y114.627
X78.551Y114.634
X78.524Y114.642
X78.497Y114.649
X78.47Y114.655
X78.443Y114.661
X78.416Y114.667
X78.388Y114.672
X78.361Y114.677
X78.333Y114.681
X78.305Y114.684
X78.278Y114.687
X78.25Y114.69
X78.222Y114.692
X78.194Y114.694
X78.166Y114.695
X78.136Y114.696
X78.111
X78.084
X78.027Y114.694
X77.999Y114.692
X77.974Y114.69
X77.943Y114.687
X77.916Y114.684
X77.889Y114.681
X77.861Y114.677
X77.834Y114.672
X77.806Y114.667
X77.752Y114.655
X77.725Y114.649
X77.698Y114.642
X77.644Y114.626
X77.617Y114.618
X77.591Y114.609
X77.565Y114.6
X77.513Y114.58
X77.487Y114.569
X77.462Y114.558
X77.436Y114.547
X77.414Y114.536
X77.385Y114.522
X77.361Y114.509
X77.337Y114.496
X77.313Y114.482
X77.289Y114.468
X77.265Y114.454
X77.241Y114.439
X77.218Y114.423
X77.195Y114.407
X77.172Y114.391
X77.15Y114.375
X77.128Y114.358
X77.106Y114.34
X77.085Y114.323
X77.063Y114.305
X77.043Y114.286
X77.022Y114.267
X77.002Y114.248
X76.982Y114.229
X76.962Y114.209
X76.943Y114.188
X76.924Y114.168
X76.906Y114.147
X76.888Y114.126
X76.87Y114.104
X76.853Y114.083
X76.836Y114.06
X76.819Y114.038
X76.803Y114.015
X76.787Y113.992
X76.772Y113.969
X76.742Y113.922
X76.728Y113.898
X76.714Y113.873
X76.701Y113.849
X76.688Y113.824
X76.676Y113.799
X76.664Y113.774
X76.652Y113.749
X76.641Y113.723
X76.62Y113.672
X76.611Y113.645
X76.601Y113.619
X76.592Y113.593
X76.584Y113.566
X76.576Y113.54
X76.569Y113.513
X76.562Y113.486
X76.555Y113.458
X76.549Y113.431
X76.544Y113.404
X76.536Y113.361
X76.529Y113.319
X76.526Y113.294
X76.523Y113.266
X76.52Y113.24
X76.518Y113.21
X76.516Y113.166
X76.514Y113.125
Y113.1
X76.515Y113.044
X76.516Y113.016
X76.52Y112.96
X76.526Y112.905
X76.53Y112.877
X76.534Y112.85
X76.539Y112.822
X76.544Y112.795
X76.549Y112.768
X76.555Y112.741
X76.562Y112.713
X76.569Y112.686
X76.576Y112.659
X76.584Y112.633
X76.592Y112.606
X76.601Y112.58
X76.609Y112.558
X76.621Y112.526
X76.631Y112.501
X76.641Y112.476
X76.664Y112.425
X76.676Y112.4
X76.688Y112.375
X76.701Y112.35
X76.714Y112.326
X76.728Y112.301
X76.742Y112.277
X76.757Y112.253
X76.772Y112.23
X76.787Y112.207
X76.803Y112.184
X76.819Y112.161
X76.836Y112.139
X76.853Y112.117
X76.87Y112.095
X76.888Y112.073
X76.906Y112.052
X76.925Y112.031
X76.943Y112.011
X76.962Y111.99
X76.994Y111.958
X77.024Y111.93
X77.043Y111.913
X77.063Y111.894
X77.085Y111.876
X77.106Y111.859
X77.128Y111.841
X77.15Y111.824
X77.172Y111.808
X77.195Y111.792
X77.218Y111.776
X77.241Y111.761
X77.278Y111.737
X77.315Y111.715
X77.337Y111.703
X77.361Y111.69
X77.386Y111.677
X77.411Y111.664
X77.436Y111.652
X77.459Y111.642
X77.488Y111.629
X77.513Y111.619
X77.539Y111.609
X77.565Y111.599
X77.591Y111.59
X77.618Y111.581
X77.644Y111.573
X77.671Y111.565
X77.698Y111.557
X77.725Y111.55
X77.752Y111.544
X77.779Y111.538
X77.806Y111.532
X77.834Y111.527
X77.861Y111.523
X77.889Y111.518
X77.916Y111.515
X77.944Y111.512
X77.972Y111.509
X77.999Y111.507
X78.027Y111.505
X78.055Y111.504
X78.083Y111.503
X78.111
G0Z1
X70.911Y111.364
G1Z-0.6F5
X70.819Y112.645F10
X70.813Y112.762
X70.808Y112.879
X70.806Y112.995
X70.805Y113.1
Y118.176
X70.808Y118.254
X70.813Y118.331
X70.821Y118.409
X70.832Y118.485
X70.846Y118.561
X70.862Y118.637
X70.88Y118.712
X70.902Y118.786
X70.926Y118.86
X70.952Y118.933
X70.981Y119.005
X71.012Y119.076
X71.046Y119.146
X71.082Y119.214
X71.121Y119.281
X71.162Y119.347
X71.205Y119.411
X71.251Y119.475
X71.298Y119.535
X71.347Y119.594
X71.4Y119.653
X71.453Y119.707
X71.509Y119.762
X71.566Y119.814
X71.625Y119.864
X71.687Y119.912
X71.749Y119.957
X71.813Y120.001
X71.878Y120.042
X71.945Y120.081
X72.014Y120.118
X72.084Y120.152
X72.154Y120.184
X72.226Y120.213
X72.298Y120.24
X72.372Y120.264
X72.446Y120.286
X72.521Y120.304
X72.597Y120.321
X72.673Y120.335
X72.711Y120.341
X75.577Y120.756
X75.734Y120.777
X75.891Y120.796
X76.048Y120.811
X76.205Y120.824
X76.363Y120.835
X76.521Y120.842
X76.679Y120.847
X76.836Y120.849
X76.994
X77.152Y120.846
X77.31Y120.84
X77.468Y120.831
X77.625Y120.82
X77.783Y120.806
X77.94Y120.789
X78.097Y120.77
X78.253Y120.748
X78.409Y120.723
X78.564Y120.696
X78.72Y120.665
X78.874Y120.633
X79.028Y120.597
X79.181Y120.559
X79.334Y120.519
X79.486Y120.475
X79.637Y120.43
X79.787Y120.381
X79.937Y120.33
X80.085Y120.277
X80.233Y120.22
X80.38Y120.162
X80.525Y120.101
X80.67Y120.037
X80.813Y119.971
X80.956Y119.903
X81.097Y119.831
X81.237Y119.758
X81.376Y119.682
X81.513Y119.604
X81.649Y119.524
X81.783Y119.441
X81.916Y119.356
X82.048Y119.269
X82.178Y119.179
X82.306Y119.087
X82.433Y118.993
X82.559Y118.897
X82.682Y118.799
X82.804Y118.699
X82.9Y118.617
X82.995Y118.533
X83.088Y118.448
X83.18Y118.361
X83.27Y118.272
X83.359Y118.182
X83.446Y118.091
X83.533Y117.996
X83.617Y117.902
X83.699Y117.806
X83.78Y117.708
X83.859Y117.609
X83.936Y117.509
X84.012Y117.407
X84.086Y117.304
X84.157Y117.2
X84.228Y117.095
X84.296Y116.988
X84.362Y116.881
X84.427Y116.772
X84.49Y116.662
X84.55Y116.551
X84.609Y116.438
X84.666Y116.326
X84.721Y116.211
X84.774Y116.097
X84.825Y115.981
X84.874Y115.864
X84.921Y115.746
X84.965Y115.628
X85.008Y115.509
X85.049Y115.389
X85.087Y115.269
X85.124Y115.147
X85.159Y115.025
X85.191Y114.903
X85.221Y114.78
X85.249Y114.657
X85.275Y114.533
X85.399Y113.891
X85.512Y113.247
X85.615Y112.601
X85.706Y111.953
X85.787Y111.304
X85.858Y110.654
X85.917Y110.003
X85.966Y109.351
X86.004Y108.698
X86.031Y108.044
X86.047Y107.39
X86.052Y106.75
Y80.297
X86.046Y79.54
X86.029Y78.798
X86.003Y78.114
X85.997Y78
Y75.066
Y75.028
X85.995Y74.99
X85.993Y74.951
X85.99Y74.913
X85.985Y74.875
X85.98Y74.837
X85.974Y74.8
X85.968Y74.762
X85.96Y74.725
X85.951Y74.687
X85.942Y74.65
X85.931Y74.614
X85.92Y74.577
X85.908Y74.541
X85.895Y74.505
X85.881Y74.469
X85.866Y74.434
X85.85Y74.399
X85.834Y74.365
X85.816Y74.33
X85.798Y74.296
X85.779Y74.262
X85.759Y74.229
X85.738Y74.196
X85.717Y74.164
X85.694Y74.133
X85.671Y74.102
X85.648Y74.071
X85.623Y74.042
X85.598Y74.012
X85.572Y73.984
X85.545Y73.956
X85.518Y73.928
X85.49Y73.902
X85.462Y73.876
X85.433Y73.851
X85.403Y73.826
X85.372Y73.802
X85.341Y73.779
X85.31Y73.757
X85.278Y73.735
X85.242Y73.713
X85.206Y73.691
X85.177Y73.674
X85.147Y73.658
X85.103Y73.636
X85.077Y73.623
X85.044Y73.609
X85.011Y73.595
X84.977Y73.581
X84.939Y73.567
X84.901Y73.554
X84.863Y73.542
X84.824Y73.531
X84.791Y73.522
X84.759Y73.515
X84.726Y73.508
X84.682Y73.499
X84.632Y73.491
X84.62Y73.49
X84.585Y73.478
X84.547Y73.467
X84.509Y73.457
X84.471Y73.448
X84.432Y73.44
X84.393Y73.432
X84.354Y73.426
X84.315Y73.421
X84.276Y73.416
X84.237Y73.413
X84.197Y73.41
X84.158Y73.409
X84.118
X73.247
X73.168Y73.412
X73.091Y73.417
X73.055Y73.42
X72.432Y73.485
X72.394Y73.489
X72.355Y73.495
X72.317Y73.501
X72.279Y73.509
X72.244Y73.517
X72.207Y73.526
X72.164Y73.538
X72.125Y73.549
X72.07Y73.568
X72.022Y73.586
X71.966Y73.61
X71.936Y73.623
X71.899Y73.641
X71.861Y73.66
X71.832Y73.676
X71.804Y73.692
X71.776Y73.709
X71.746Y73.728
X71.716Y73.747
X71.687Y73.768
X71.658Y73.788
X71.63Y73.809
X71.603Y73.831
X71.566Y73.862
X71.53Y73.894
X71.501Y73.922
X71.472Y73.95
X71.451Y73.972
X71.431Y73.994
X71.405Y74.023
X71.392Y74.038
X71.366Y74.069
X71.341Y74.101
X71.317Y74.133
X71.294Y74.167
X71.271Y74.2
X71.25Y74.234
X71.229Y74.269
X71.209Y74.304
X71.191Y74.339
X71.173Y74.375
X71.156Y74.411
X71.14Y74.447
X71.125Y74.484
X71.111Y74.521
X71.098Y74.559
X71.086Y74.596
X71.075Y74.634
X71.064Y74.673
X71.055Y74.711
X71.047Y74.75
X71.039Y74.79
X71.033Y74.829
X71.027Y74.868
X71.023Y74.908
X71.019Y74.947
X71.017Y74.987
X71.015Y75.026
Y75.066
Y103.066
Y103.104
X71.017Y103.142
X71.019Y103.181
X71.023Y103.226
X71.028Y103.27
X71.035Y103.315
X71.041Y103.355
X71.049Y103.394
X71.059Y103.437
Y106.743
X71.05Y107.904
X71.022Y109.058
X70.976Y110.212
X70.911Y111.364
G0Z1
X77.46Y82.301
G1Z-0.7F5
X77.597Y82.189F10
X77.752Y82.105
X77.922Y82.054
X78.097Y82.037
X78.273Y82.054
X78.442Y82.105
X78.598Y82.189
X78.735Y82.301
X78.847Y82.437
X78.93Y82.593
X78.981Y82.762
X78.999Y82.938
X78.981Y83.114
X78.93Y83.283
X78.847Y83.439
X78.735Y83.575
X78.598Y83.687
X78.442Y83.771
X78.273Y83.822
X78.097Y83.839
X77.922Y83.822
X77.752Y83.771
X77.597Y83.687
X77.46Y83.575
X77.348Y83.439
X77.265Y83.283
X77.213Y83.114
X77.196Y82.938
X77.213Y82.762
X77.265Y82.593
X77.348Y82.437
X77.46Y82.301
G0Z1
X78.097Y97.941
G1Z-0.7F5
X78.273Y97.958F10
X78.442Y98.01
X78.598Y98.093
X78.735Y98.205
X78.847Y98.342
X78.93Y98.497
X78.981Y98.666
X78.999Y98.842
X78.981Y99.018
X78.93Y99.187
X78.847Y99.343
X78.735Y99.48
X78.598Y99.592
X78.442Y99.675
X78.273Y99.726
X78.097Y99.744
X77.922Y99.726
X77.752Y99.675
X77.597Y99.592
X77.46Y99.48
X77.348Y99.343
X77.265Y99.187
X77.213Y99.018
X77.196Y98.842
X77.213Y98.666
X77.265Y98.497
X77.348Y98.342
X77.46Y98.205
X77.597Y98.093
X77.752Y98.01
X77.922Y97.958
X78.097Y97.941
G0Z1
X78.111Y111.503
G1Z-0.7F5
X78.139F10
X78.167Y111.504
X78.195Y111.505
X78.222Y111.507
X78.25Y111.509
X78.278Y111.512
X78.305Y111.515
X78.333Y111.518
X78.361Y111.523
X78.388Y111.527
X78.415Y111.532
X78.443Y111.538
X78.47Y111.544
X78.497Y111.55
X78.524Y111.557
X78.578Y111.573
X78.604Y111.581
X78.631Y111.59
X78.657Y111.599
X78.683Y111.609
X78.709Y111.619
X78.735Y111.63
X78.76Y111.641
X78.786Y111.652
X78.811Y111.664
X78.836Y111.677
X78.861Y111.69
X78.885Y111.703
X78.909Y111.717
X78.933Y111.731
X78.981Y111.761
X79.004Y111.776
X79.027Y111.792
X79.049Y111.808
X79.072Y111.824
X79.094Y111.841
X79.116Y111.859
X79.137Y111.876
X79.156Y111.893
X79.18Y111.914
X79.2Y111.932
X79.22Y111.951
X79.24Y111.971
X79.26Y111.991
X79.279Y112.011
X79.297Y112.031
X79.334Y112.073
X79.369Y112.117
X79.386Y112.139
X79.403Y112.161
X79.419Y112.184
X79.435Y112.207
X79.45Y112.23
X79.465Y112.253
X79.479Y112.277
X79.494Y112.301
X79.507Y112.325
X79.521Y112.35
X79.534Y112.375
X79.546Y112.399
X79.558Y112.425
X79.57Y112.45
X79.581Y112.476
X79.591Y112.501
X79.602Y112.527
X79.611Y112.553
X79.621Y112.58
X79.629Y112.606
X79.646Y112.66
X79.652Y112.682
X79.66Y112.715
X79.667Y112.74
X79.673Y112.767
X79.684Y112.824
X79.688Y112.85
X79.696Y112.905
X79.699Y112.933
X79.701Y112.96
X79.704Y112.988
X79.705Y113.016
X79.707Y113.062
X79.708Y113.102
X79.707Y113.127
X79.705Y113.183
X79.704Y113.211
X79.699Y113.267
X79.696Y113.294
X79.692Y113.322
X79.688Y113.349
X79.683Y113.377
X79.678Y113.404
X79.673Y113.432
X79.667Y113.459
X79.66Y113.486
X79.653Y113.513
X79.646Y113.54
X79.638Y113.566
X79.629Y113.593
X79.621Y113.619
X79.611Y113.645
X79.602Y113.672
X79.581Y113.723
X79.57Y113.749
X79.558Y113.775
X79.546Y113.8
X79.534Y113.824
X79.521Y113.849
X79.494Y113.898
X79.479Y113.922
X79.465Y113.946
X79.45Y113.969
X79.435Y113.992
X79.419Y114.015
X79.386Y114.06
X79.369Y114.083
X79.352Y114.104
X79.334Y114.126
X79.316Y114.147
X79.297Y114.168
X79.279Y114.188
X79.26Y114.208
X79.24Y114.229
X79.22Y114.248
X79.198Y114.269
X79.179Y114.286
X79.158Y114.304
X79.137Y114.323
X79.116Y114.34
X79.094Y114.358
X79.072Y114.375
X79.049Y114.391
X79.027Y114.407
X79.004Y114.423
X78.98Y114.439
X78.957Y114.454
X78.935Y114.467
X78.909Y114.483
X78.885Y114.496
X78.86Y114.509
X78.836Y114.522
X78.811Y114.535
X78.789Y114.545
X78.759Y114.559
X78.735Y114.569
X78.693Y114.586
X78.649Y114.603
X78.615Y114.614
X78.575Y114.627
X78.551Y114.634
X78.524Y114.642
X78.497Y114.649
X78.47Y114.655
X78.443Y114.661
X78.416Y114.667
X78.388Y114.672
X78.361Y114.677
X78.333Y114.681
X78.305Y114.684
X78.278Y114.687
X78.25Y114.69
X78.222Y114.692
X78.194Y114.694
X78.166Y114.695
X78.136Y114.696
X78.111
X78.084
X78.027Y114.694
X77.999Y114.692
X77.974Y114.69
X77.943Y114.687
X77.916Y114.684
X77.889Y114.681
X77.861Y114.677
X77.834Y114.672
X77.806Y114.667
X77.752Y114.655
X77.725Y114.649
X77.698Y114.642
X77.644Y114.626
X77.617Y114.618
X77.591Y114.609
X77.565Y114.6
X77.513Y114.58
X77.487Y114.569
X77.462Y114.558
X77.436Y114.547
X77.414Y114.536
X77.385Y114.522
X77.361Y114.509
X77.337Y114.496
X77.313Y114.482
X77.289Y114.468
X77.265Y114.454
X77.241Y114.439
X77.218Y114.423
X77.195Y114.407
X77.172Y114.391
X77.15Y114.375
X77.128Y114.358
X77.106Y114.34
X77.085Y114.323
X77.063Y114.305
X77.043Y114.286
X77.022Y114.267
X77.002Y114.248
X76.982Y114.229
X76.962Y114.209
X76.943Y114.188
X76.924Y114.168
X76.906Y114.147
X76.888Y114.126
X76.87Y114.104
X76.853Y114.083
X76.836Y114.06
X76.819Y114.038
X76.803Y114.015
X76.787Y113.992
X76.772Y113.969
X76.742Y113.922
X76.728Y113.898
X76.714Y113.873
X76.701Y113.849
X76.688Y113.824
X76.676Y113.799
X76.664Y113.774
X76.652Y113.749
X76.641Y113.723
X76.62Y113.672
X76.611Y113.645
X76.601Y113.619
X76.592Y113.593
X76.584Y113.566
X76.576Y113.54
X76.569Y113.513
X76.562Y113.486
X76.555Y113.458
X76.549Y113.431
X76.544Y113.404
X76.536Y113.361
X76.529Y113.319
X76.526Y113.294
X76.523Y113.266
X76.52Y113.24
X76.518Y113.21
X76.516Y113.166
X76.514Y113.125
Y113.1
X76.515Y113.044
X76.516Y113.016
X76.52Y112.96
X76.526Y112.905
X76.53Y112.877
X76.534Y112.85
X76.539Y112.822
X76.544Y112.795
X76.549Y112.768
X76.555Y112.741
X76.562Y112.713
X76.569Y112.686
X76.576Y112.659
X76.584Y112.633
X76.592Y112.606
X76.601Y112.58
X76.609Y112.558
X76.621Y112.526
X76.631Y112.501
X76.641Y112.476
X76.664Y112.425
X76.676Y112.4
X76.688Y112.375
X76.701Y112.35
X76.714Y112.326
X76.728Y112.301
X76.742Y112.277
X76.757Y112.253
X76.772Y112.23
X76.787Y112.207
X76.803Y112.184
X76.819Y112.161
X76.836Y112.139
X76.853Y112.117
X76.87Y112.095
X76.888Y112.073
X76.906Y112.052
X76.925Y112.031
X76.943Y112.011
X76.962Y111.99
X76.994Y111.958
X77.024Y111.93
X77.043Y111.913
X77.063Y111.894
X77.085Y111.876
X77.106Y111.859
X77.128Y111.841
X77.15Y111.824
X77.172Y111.808
X77.195Y111.792
X77.218Y111.776
X77.241Y111.761
X77.278Y111.737
X77.315Y111.715
X77.337Y111.703
X77.361Y111.69
X77.386Y111.677
X77.411Y111.664
X77.436Y111.652
X77.459Y111.642
X77.488Y111.629
X77.513Y111.619
X77.539Y111.609
X77.565Y111.599
X77.591Y111.59
X77.618Y111.581
X77.644Y111.573
X77.671Y111.565
X77.698Y111.557
X77.725Y111.55
X77.752Y111.544
X77.779Y111.538
X77.806Y111.532
X77.834Y111.527
X77.861Y111.523
X77.889Y111.518
X77.916Y111.515
X77.944Y111.512
X77.972Y111.509
X77.999Y111.507
X78.027Y111.505
X78.055Y111.504
X78.083Y111.503
X78.111
G0Z1
X70.911Y111.364
G1Z-0.7F5
X70.819Y112.645F10
X70.813Y112.762
X70.808Y112.879
X70.806Y112.995
X70.805Y113.1
Y118.176
X70.808Y118.254
X70.813Y118.331
X70.821Y118.409
X70.832Y118.485
X70.846Y118.561
X70.862Y118.637
X70.88Y118.712
X70.902Y118.786
X70.926Y118.86
X70.952Y118.933
X70.981Y119.005
X71.012Y119.076
X71.046Y119.146
X71.082Y119.214
X71.121Y119.281
X71.162Y119.347
X71.205Y119.411
X71.251Y119.475
X71.298Y119.535
X71.347Y119.594
X71.4Y119.653
X71.453Y119.707
X71.509Y119.762
X71.566Y119.814
X71.625Y119.864
X71.687Y119.912
X71.749Y119.957
X71.813Y120.001
X71.878Y120.042
X71.945Y120.081
X72.014Y120.118
X72.084Y120.152
X72.154Y120.184
X72.226Y120.213
X72.298Y120.24
X72.372Y120.264
X72.446Y120.286
X72.521Y120.304
X72.597Y120.321
X72.673Y120.335
X72.711Y120.341
X75.577Y120.756
X75.734Y120.777
X75.891Y120.796
X76.048Y120.811
X76.205Y120.824
X76.363Y120.835
X76.521Y120.842
X76.679Y120.847
X76.836Y120.849
X76.994
X77.152Y120.846
X77.31Y120.84
X77.468Y120.831
X77.625Y120.82
X77.783Y120.806
X77.94Y120.789
X78.097Y120.77
X78.253Y120.748
X78.409Y120.723
X78.564Y120.696
X78.72Y120.665
X78.874Y120.633
X79.028Y120.597
X79.181Y120.559
X79.334Y120.519
X79.486Y120.475
X79.637Y120.43
X79.787Y120.381
X79.937Y120.33
X80.085Y120.277
X80.233Y120.22
X80.38Y120.162
X80.525Y120.101
X80.67Y120.037
X80.813Y119.971
X80.956Y119.903
X81.097Y119.831
X81.237Y119.758
X81.376Y119.682
X81.513Y119.604
X81.649Y119.524
X81.783Y119.441
X81.916Y119.356
X82.048Y119.269
X82.178Y119.179
X82.306Y119.087
X82.433Y118.993
X82.559Y118.897
X82.682Y118.799
X82.804Y118.699
X82.9Y118.617
X82.995Y118.533
X83.088Y118.448
X83.18Y118.361
X83.27Y118.272
X83.359Y118.182
X83.446Y118.091
X83.533Y117.996
X83.617Y117.902
X83.699Y117.806
X83.78Y117.708
X83.859Y117.609
X83.936Y117.509
X84.012Y117.407
X84.086Y117.304
X84.157Y117.2
X84.228Y117.095
X84.296Y116.988
X84.362Y116.881
X84.427Y116.772
X84.49Y116.662
X84.55Y116.551
X84.609Y116.438
X84.666Y116.326
X84.721Y116.211
X84.774Y116.097
X84.825Y115.981
X84.874Y115.864
X84.921Y115.746
X84.965Y115.628
X85.008Y115.509
X85.049Y115.389
X85.087Y115.269
X85.124Y115.147
X85.159Y115.025
X85.191Y114.903
X85.221Y114.78
X85.249Y114.657
X85.275Y114.533
X85.399Y113.891
X85.512Y113.247
X85.615Y112.601
X85.706Y111.953
X85.787Y111.304
X85.858Y110.654
X85.917Y110.003
X85.966Y109.351
X86.004Y108.698
X86.031Y108.044
X86.047Y107.39
X86.052Y106.75
Y80.297
X86.046Y79.54
X86.029Y78.798
X86.003Y78.114
X85.997Y78
Y75.066
Y75.028
X85.995Y74.99
X85.993Y74.951
X85.99Y74.913
X85.985Y74.875
X85.98Y74.837
X85.974Y74.8
X85.968Y74.762
X85.96Y74.725
X85.951Y74.687
X85.942Y74.65
X85.931Y74.614
X85.92Y74.577
X85.908Y74.541
X85.895Y74.505
X85.881Y74.469
X85.866Y74.434
X85.85Y74.399
X85.834Y74.365
X85.816Y74.33
X85.798Y74.296
X85.779Y74.262
X85.759Y74.229
X85.738Y74.196
X85.717Y74.164
X85.694Y74.133
X85.671Y74.102
X85.648Y74.071
X85.623Y74.042
X85.598Y74.012
X85.572Y73.984
X85.545Y73.956
X85.518Y73.928
X85.49Y73.902
X85.462Y73.876
X85.433Y73.851
X85.403Y73.826
X85.372Y73.802
X85.341Y73.779
X85.31Y73.757
X85.278Y73.735
X85.242Y73.713
X85.206Y73.691
X85.177Y73.674
X85.147Y73.658
X85.103Y73.636
X85.077Y73.623
X85.044Y73.609
X85.011Y73.595
X84.977Y73.581
X84.939Y73.567
X84.901Y73.554
X84.863Y73.542
X84.824Y73.531
X84.791Y73.522
X84.759Y73.515
X84.726Y73.508
X84.682Y73.499
X84.632Y73.491
X84.62Y73.49
X84.585Y73.478
X84.547Y73.467
X84.509Y73.457
X84.471Y73.448
X84.432Y73.44
X84.393Y73.432
X84.354Y73.426
X84.315Y73.421
X84.276Y73.416
X84.237Y73.413
X84.197Y73.41
X84.158Y73.409
X84.118
X73.247
X73.168Y73.412
X73.091Y73.417
X73.055Y73.42
X72.432Y73.485
X72.394Y73.489
X72.355Y73.495
X72.317Y73.501
X72.279Y73.509
X72.244Y73.517
X72.207Y73.526
X72.164Y73.538
X72.125Y73.549
X72.07Y73.568
X72.022Y73.586
X71.966Y73.61
X71.936Y73.623
X71.899Y73.641
X71.861Y73.66
X71.832Y73.676
X71.804Y73.692
X71.776Y73.709
X71.746Y73.728
X71.716Y73.747
X71.687Y73.768
X71.658Y73.788
X71.63Y73.809
X71.603Y73.831
X71.566Y73.862
X71.53Y73.894
X71.501Y73.922
X71.472Y73.95
X71.451Y73.972
X71.431Y73.994
X71.405Y74.023
X71.392Y74.038
X71.366Y74.069
X71.341Y74.101
X71.317Y74.133
X71.294Y74.167
X71.271Y74.2
X71.25Y74.234
X71.229Y74.269
X71.209Y74.304
X71.191Y74.339
X71.173Y74.375
X71.156Y74.411
X71.14Y74.447
X71.125Y74.484
X71.111Y74.521
X71.098Y74.559
X71.086Y74.596
X71.075Y74.634
X71.064Y74.673
X71.055Y74.711
X71.047Y74.75
X71.039Y74.79
X71.033Y74.829
X71.027Y74.868
X71.023Y74.908
X71.019Y74.947
X71.017Y74.987
X71.015Y75.026
Y75.066
Y103.066
Y103.104
X71.017Y103.142
X71.019Y103.181
X71.023Y103.226
X71.028Y103.27
X71.035Y103.315
X71.041Y103.355
X71.049Y103.394
X71.059Y103.437
Y106.743
X71.05Y107.904
X71.022Y109.058
X70.976Y110.212
X70.911Y111.364
G0Z1
X77.46Y82.301
G1Z-0.8F5
X77.597Y82.189F10
X77.752Y82.105
X77.922Y82.054
X78.097Y82.037
X78.273Y82.054
X78.442Y82.105
X78.598Y82.189
X78.735Y82.301
X78.847Y82.437
X78.93Y82.593
X78.981Y82.762
X78.999Y82.938
X78.981Y83.114
X78.93Y83.283
X78.847Y83.439
X78.735Y83.575
X78.598Y83.687
X78.442Y83.771
X78.273Y83.822
X78.097Y83.839
X77.922Y83.822
X77.752Y83.771
X77.597Y83.687
X77.46Y83.575
X77.348Y83.439
X77.265Y83.283
X77.213Y83.114
X77.196Y82.938
X77.213Y82.762
X77.265Y82.593
X77.348Y82.437
X77.46Y82.301
G0Z1
X78.097Y97.941
G1Z-0.8F5
X78.273Y97.958F10
X78.442Y98.01
X78.598Y98.093
X78.735Y98.205
X78.847Y98.342
X78.93Y98.497
X78.981Y98.666
X78.999Y98.842
X78.981Y99.018
X78.93Y99.187
X78.847Y99.343
X78.735Y99.48
X78.598Y99.592
X78.442Y99.675
X78.273Y99.726
X78.097Y99.744
X77.922Y99.726
X77.752Y99.675
X77.597Y99.592
X77.46Y99.48
X77.348Y99.343
X77.265Y99.187
X77.213Y99.018
X77.196Y98.842
X77.213Y98.666
X77.265Y98.497
X77.348Y98.342
X77.46Y98.205
X77.597Y98.093
X77.752Y98.01
X77.922Y97.958
X78.097Y97.941
G0Z1
X78.111Y111.503
G1Z-0.8F5
X78.139F10
X78.167Y111.504
X78.195Y111.505
X78.222Y111.507
X78.25Y111.509
X78.278Y111.512
X78.305Y111.515
X78.333Y111.518
X78.361Y111.523
X78.388Y111.527
X78.415Y111.532
X78.443Y111.538
X78.47Y111.544
X78.497Y111.55
X78.524Y111.557
X78.578Y111.573
X78.604Y111.581
X78.631Y111.59
X78.657Y111.599
X78.683Y111.609
X78.709Y111.619
X78.735Y111.63
X78.76Y111.641
X78.786Y111.652
X78.811Y111.664
X78.836Y111.677
X78.861Y111.69
X78.885Y111.703
X78.909Y111.717
X78.933Y111.731
X78.981Y111.761
X79.004Y111.776
X79.027Y111.792
X79.049Y111.808
X79.072Y111.824
X79.094Y111.841
X79.116Y111.859
X79.137Y111.876
X79.156Y111.893
X79.18Y111.914
X79.2Y111.932
X79.22Y111.951
X79.24Y111.971
X79.26Y111.991
X79.279Y112.011
X79.297Y112.031
X79.334Y112.073
X79.369Y112.117
X79.386Y112.139
X79.403Y112.161
X79.419Y112.184
X79.435Y112.207
X79.45Y112.23
X79.465Y112.253
X79.479Y112.277
X79.494Y112.301
X79.507Y112.325
X79.521Y112.35
X79.534Y112.375
X79.546Y112.399
X79.558Y112.425
X79.57Y112.45
X79.581Y112.476
X79.591Y112.501
X79.602Y112.527
X79.611Y112.553
X79.621Y112.58
X79.629Y112.606
X79.646Y112.66
X79.652Y112.682
X79.66Y112.715
X79.667Y112.74
X79.673Y112.767
X79.684Y112.824
X79.688Y112.85
X79.696Y112.905
X79.699Y112.933
X79.701Y112.96
X79.704Y112.988
X79.705Y113.016
X79.707Y113.062
X79.708Y113.102
X79.707Y113.127
X79.705Y113.183
X79.704Y113.211
X79.699Y113.267
X79.696Y113.294
X79.692Y113.322
X79.688Y113.349
X79.683Y113.377
X79.678Y113.404
X79.673Y113.432
X79.667Y113.459
X79.66Y113.486
X79.653Y113.513
X79.646Y113.54
X79.638Y113.566
X79.629Y113.593
X79.621Y113.619
X79.611Y113.645
X79.602Y113.672
X79.581Y113.723
X79.57Y113.749
X79.558Y113.775
X79.546Y113.8
X79.534Y113.824
X79.521Y113.849
X79.494Y113.898
X79.479Y113.922
X79.465Y113.946
X79.45Y113.969
X79.435Y113.992
X79.419Y114.015
X79.386Y114.06
X79.369Y114.083
X79.352Y114.104
X79.334Y114.126
X79.316Y114.147
X79.297Y114.168
X79.279Y114.188
X79.26Y114.208
X79.24Y114.229
X79.22Y114.248
X79.198Y114.269
X79.179Y114.286
X79.158Y114.304
X79.137Y114.323
X79.116Y114.34
X79.094Y114.358
X79.072Y114.375
X79.049Y114.391
X79.027Y114.407
X79.004Y114.423
X78.98Y114.439
X78.957Y114.454
X78.935Y114.467
X78.909Y114.483
X78.885Y114.496
X78.86Y114.509
X78.836Y114.522
X78.811Y114.535
X78.789Y114.545
X78.759Y114.559
X78.735Y114.569
X78.693Y114.586
X78.649Y114.603
X78.615Y114.614
X78.575Y114.627
X78.551Y114.634
X78.524Y114.642
X78.497Y114.649
X78.47Y114.655
X78.443Y114.661
X78.416Y114.667
X78.388Y114.672
X78.361Y114.677
X78.333Y114.681
X78.305Y114.684
X78.278Y114.687
X78.25Y114.69
X78.222Y114.692
X78.194Y114.694
X78.166Y114.695
X78.136Y114.696
X78.111
X78.084
X78.027Y114.694
X77.999Y114.692
X77.974Y114.69
X77.943Y114.687
X77.916Y114.684
X77.889Y114.681
X77.861Y114.677
X77.834Y114.672
X77.806Y114.667
X77.752Y114.655
X77.725Y114.649
X77.698Y114.642
X77.644Y114.626
X77.617Y114.618
X77.591Y114.609
X77.565Y114.6
X77.513Y114.58
X77.487Y114.569
X77.462Y114.558
X77.436Y114.547
X77.414Y114.536
X77.385Y114.522
X77.361Y114.509
X77.337Y114.496
X77.313Y114.482
X77.289Y114.468
X77.265Y114.454
X77.241Y114.439
X77.218Y114.423
X77.195Y114.407
X77.172Y114.391
X77.15Y114.375
X77.128Y114.358
X77.106Y114.34
X77.085Y114.323
X77.063Y114.305
X77.043Y114.286
X77.022Y114.267
X77.002Y114.248
X76.982Y114.229
X76.962Y114.209
X76.943Y114.188
X76.924Y114.168
X76.906Y114.147
X76.888Y114.126
X76.87Y114.104
X76.853Y114.083
X76.836Y114.06
X76.819Y114.038
X76.803Y114.015
X76.787Y113.992
X76.772Y113.969
X76.742Y113.922
X76.728Y113.898
X76.714Y113.873
X76.701Y113.849
X76.688Y113.824
X76.676Y113.799
X76.664Y113.774
X76.652Y113.749
X76.641Y113.723
X76.62Y113.672
X76.611Y113.645
X76.601Y113.619
X76.592Y113.593
X76.584Y113.566
X76.576Y113.54
X76.569Y113.513
X76.562Y113.486
X76.555Y113.458
X76.549Y113.431
X76.544Y113.404
X76.536Y113.361
X76.529Y113.319
X76.526Y113.294
X76.523Y113.266
X76.52Y113.24
X76.518Y113.21
X76.516Y113.166
X76.514Y113.125
Y113.1
X76.515Y113.044
X76.516Y113.016
X76.52Y112.96
X76.526Y112.905
X76.53Y112.877
X76.534Y112.85
X76.539Y112.822
X76.544Y112.795
X76.549Y112.768
X76.555Y112.741
X76.562Y112.713
X76.569Y112.686
X76.576Y112.659
X76.584Y112.633
X76.592Y112.606
X76.601Y112.58
X76.609Y112.558
X76.621Y112.526
X76.631Y112.501
X76.641Y112.476
X76.664Y112.425
X76.676Y112.4
X76.688Y112.375
X76.701Y112.35
X76.714Y112.326
X76.728Y112.301
X76.742Y112.277
X76.757Y112.253
X76.772Y112.23
X76.787Y112.207
X76.803Y112.184
X76.819Y112.161
X76.836Y112.139
X76.853Y112.117
X76.87Y112.095
X76.888Y112.073
X76.906Y112.052
X76.925Y112.031
X76.943Y112.011
X76.962Y111.99
X76.994Y111.958
X77.024Y111.93
X77.043Y111.913
X77.063Y111.894
X77.085Y111.876
X77.106Y111.859
X77.128Y111.841
X77.15Y111.824
X77.172Y111.808
X77.195Y111.792
X77.218Y111.776
X77.241Y111.761
X77.278Y111.737
X77.315Y111.715
X77.337Y111.703
X77.361Y111.69
X77.386Y111.677
X77.411Y111.664
X77.436Y111.652
X77.459Y111.642
X77.488Y111.629
X77.513Y111.619
X77.539Y111.609
X77.565Y111.599
X77.591Y111.59
X77.618Y111.581
X77.644Y111.573
X77.671Y111.565
X77.698Y111.557
X77.725Y111.55
X77.752Y111.544
X77.779Y111.538
X77.806Y111.532
X77.834Y111.527
X77.861Y111.523
X77.889Y111.518
X77.916Y111.515
X77.944Y111.512
X77.972Y111.509
X77.999Y111.507
X78.027Y111.505
X78.055Y111.504
X78.083Y111.503
X78.111
G0Z1
X70.911Y111.364
G1Z-0.8F5
X70.819Y112.645F10
X70.813Y112.762
X70.808Y112.879
X70.806Y112.995
X70.805Y113.1
Y118.176
X70.808Y118.254
X70.813Y118.331
X70.821Y118.409
X70.832Y118.485
X70.846Y118.561
X70.862Y118.637
X70.88Y118.712
X70.902Y118.786
X70.926Y118.86
X70.952Y118.933
X70.981Y119.005
X71.012Y119.076
X71.046Y119.146
X71.082Y119.214
X71.121Y119.281
X71.162Y119.347
X71.205Y119.411
X71.251Y119.475
X71.298Y119.535
X71.347Y119.594
X71.4Y119.653
X71.453Y119.707
X71.509Y119.762
X71.566Y119.814
X71.625Y119.864
X71.687Y119.912
X71.749Y119.957
X71.813Y120.001
X71.878Y120.042
X71.945Y120.081
X72.014Y120.118
X72.084Y120.152
X72.154Y120.184
X72.226Y120.213
X72.298Y120.24
X72.372Y120.264
X72.446Y120.286
X72.521Y120.304
X72.597Y120.321
X72.673Y120.335
X72.711Y120.341
X75.577Y120.756
X75.734Y120.777
X75.891Y120.796
X76.048Y120.811
X76.205Y120.824
X76.363Y120.835
X76.521Y120.842
X76.679Y120.847
X76.836Y120.849
X76.994
X77.152Y120.846
X77.31Y120.84
X77.468Y120.831
X77.625Y120.82
X77.783Y120.806
X77.94Y120.789
X78.097Y120.77
X78.253Y120.748
X78.409Y120.723
X78.564Y120.696
X78.72Y120.665
X78.874Y120.633
X79.028Y120.597
X79.181Y120.559
X79.334Y120.519
X79.486Y120.475
X79.637Y120.43
X79.787Y120.381
X79.937Y120.33
X80.085Y120.277
X80.233Y120.22
X80.38Y120.162
X80.525Y120.101
X80.67Y120.037
X80.813Y119.971
X80.956Y119.903
X81.097Y119.831
X81.237Y119.758
X81.376Y119.682
X81.513Y119.604
X81.649Y119.524
X81.783Y119.441
X81.916Y119.356
X82.048Y119.269
X82.178Y119.179
X82.306Y119.087
X82.433Y118.993
X82.559Y118.897
X82.682Y118.799
X82.804Y118.699
X82.9Y118.617
X82.995Y118.533
X83.088Y118.448
X83.18Y118.361
X83.27Y118.272
X83.359Y118.182
X83.446Y118.091
X83.533Y117.996
X83.617Y117.902
X83.699Y117.806
X83.78Y117.708
X83.859Y117.609
X83.936Y117.509
X84.012Y117.407
X84.086Y117.304
X84.157Y117.2
X84.228Y117.095
X84.296Y116.988
X84.362Y116.881
X84.427Y116.772
X84.49Y116.662
X84.55Y116.551
X84.609Y116.438
X84.666Y116.326
X84.721Y116.211
X84.774Y116.097
X84.825Y115.981
X84.874Y115.864
X84.921Y115.746
X84.965Y115.628
X85.008Y115.509
X85.049Y115.389
X85.087Y115.269
X85.124Y115.147
X85.159Y115.025
X85.191Y114.903
X85.221Y114.78
X85.249Y114.657
X85.275Y114.533
X85.399Y113.891
X85.512Y113.247
X85.615Y112.601
X85.706Y111.953
X85.787Y111.304
X85.858Y110.654
X85.917Y110.003
X85.966Y109.351
X86.004Y108.698
X86.031Y108.044
X86.047Y107.39
X86.052Y106.75
Y80.297
X86.046Y79.54
X86.029Y78.798
X86.003Y78.114
X85.997Y78
Y75.066
Y75.028
X85.995Y74.99
X85.993Y74.951
X85.99Y74.913
X85.985Y74.875
X85.98Y74.837
X85.974Y74.8
X85.968Y74.762
X85.96Y74.725
X85.951Y74.687
X85.942Y74.65
X85.931Y74.614
X85.92Y74.577
X85.908Y74.541
X85.895Y74.505
X85.881Y74.469
X85.866Y74.434
X85.85Y74.399
X85.834Y74.365
X85.816Y74.33
X85.798Y74.296
X85.779Y74.262
X85.759Y74.229
X85.738Y74.196
X85.717Y74.164
X85.694Y74.133
X85.671Y74.102
X85.648Y74.071
X85.623Y74.042
X85.598Y74.012
X85.572Y73.984
X85.545Y73.956
X85.518Y73.928
X85.49Y73.902
X85.462Y73.876
X85.433Y73.851
X85.403Y73.826
X85.372Y73.802
X85.341Y73.779
X85.31Y73.757
X85.278Y73.735
X85.242Y73.713
X85.206Y73.691
X85.177Y73.674
X85.147Y73.658
X85.103Y73.636
X85.077Y73.623
X85.044Y73.609
X85.011Y73.595
X84.977Y73.581
X84.939Y73.567
X84.901Y73.554
X84.863Y73.542
X84.824Y73.531
X84.791Y73.522
X84.759Y73.515
X84.726Y73.508
X84.682Y73.499
X84.632Y73.491
X84.62Y73.49
X84.585Y73.478
X84.547Y73.467
X84.509Y73.457
X84.471Y73.448
X84.432Y73.44
X84.393Y73.432
X84.354Y73.426
X84.315Y73.421
X84.276Y73.416
X84.237Y73.413
X84.197Y73.41
X84.158Y73.409
X84.118
X73.247
X73.168Y73.412
X73.091Y73.417
X73.055Y73.42
X72.432Y73.485
X72.394Y73.489
X72.355Y73.495
X72.317Y73.501
X72.279Y73.509
X72.244Y73.517
X72.207Y73.526
X72.164Y73.538
X72.125Y73.549
X72.07Y73.568
X72.022Y73.586
X71.966Y73.61
X71.936Y73.623
X71.899Y73.641
X71.861Y73.66
X71.832Y73.676
X71.804Y73.692
X71.776Y73.709
X71.746Y73.728
X71.716Y73.747
X71.687Y73.768
X71.658Y73.788
X71.63Y73.809
X71.603Y73.831
X71.566Y73.862
X71.53Y73.894
X71.501Y73.922
X71.472Y73.95
X71.451Y73.972
X71.431Y73.994
X71.405Y74.023
X71.392Y74.038
X71.366Y74.069
X71.341Y74.101
X71.317Y74.133
X71.294Y74.167
X71.271Y74.2
X71.25Y74.234
X71.229Y74.269
X71.209Y74.304
X71.191Y74.339
X71.173Y74.375
X71.156Y74.411
X71.14Y74.447
X71.125Y74.484
X71.111Y74.521
X71.098Y74.559
X71.086Y74.596
X71.075Y74.634
X71.064Y74.673
X71.055Y74.711
X71.047Y74.75
X71.039Y74.79
X71.033Y74.829
X71.027Y74.868
X71.023Y74.908
X71.019Y74.947
X71.017Y74.987
X71.015Y75.026
Y75.066
Y103.066
Y103.104
X71.017Y103.142
X71.019Y103.181
X71.023Y103.226
X71.028Y103.27
X71.035Y103.315
X71.041Y103.355
X71.049Y103.394
X71.059Y103.437
Y106.743
X71.05Y107.904
X71.022Y109.058
X70.976Y110.212
X70.911Y111.364
G0Z1
X77.46Y82.301
G1Z-0.9F5
X77.597Y82.189F10
X77.752Y82.105
X77.922Y82.054
X78.097Y82.037
X78.273Y82.054
X78.442Y82.105
X78.598Y82.189
X78.735Y82.301
X78.847Y82.437
X78.93Y82.593
X78.981Y82.762
X78.999Y82.938
X78.981Y83.114
X78.93Y83.283
X78.847Y83.439
X78.735Y83.575
X78.598Y83.687
X78.442Y83.771
X78.273Y83.822
X78.097Y83.839
X77.922Y83.822
X77.752Y83.771
X77.597Y83.687
X77.46Y83.575
X77.348Y83.439
X77.265Y83.283
X77.213Y83.114
X77.196Y82.938
X77.213Y82.762
X77.265Y82.593
X77.348Y82.437
X77.46Y82.301
G0Z1
X78.097Y97.941
G1Z-0.9F5
X78.273Y97.958F10
X78.442Y98.01
X78.598Y98.093
X78.735Y98.205
X78.847Y98.342
X78.93Y98.497
X78.981Y98.666
X78.999Y98.842
X78.981Y99.018
X78.93Y99.187
X78.847Y99.343
X78.735Y99.48
X78.598Y99.592
X78.442Y99.675
X78.273Y99.726
X78.097Y99.744
X77.922Y99.726
X77.752Y99.675
X77.597Y99.592
X77.46Y99.48
X77.348Y99.343
X77.265Y99.187
X77.213Y99.018
X77.196Y98.842
X77.213Y98.666
X77.265Y98.497
X77.348Y98.342
X77.46Y98.205
X77.597Y98.093
X77.752Y98.01
X77.922Y97.958
X78.097Y97.941
G0Z1
X78.111Y111.503
G1Z-0.9F5
X78.139F10
X78.167Y111.504
X78.195Y111.505
X78.222Y111.507
X78.25Y111.509
X78.278Y111.512
X78.305Y111.515
X78.333Y111.518
X78.361Y111.523
X78.388Y111.527
X78.415Y111.532
X78.443Y111.538
X78.47Y111.544
X78.497Y111.55
X78.524Y111.557
X78.578Y111.573
X78.604Y111.581
X78.631Y111.59
X78.657Y111.599
X78.683Y111.609
X78.709Y111.619
X78.735Y111.63
X78.76Y111.641
X78.786Y111.652
X78.811Y111.664
X78.836Y111.677
X78.861Y111.69
X78.885Y111.703
X78.909Y111.717
X78.933Y111.731
X78.981Y111.761
X79.004Y111.776
X79.027Y111.792
X79.049Y111.808
X79.072Y111.824
X79.094Y111.841
X79.116Y111.859
X79.137Y111.876
X79.156Y111.893
X79.18Y111.914
X79.2Y111.932
X79.22Y111.951
X79.24Y111.971
X79.26Y111.991
X79.279Y112.011
X79.297Y112.031
X79.334Y112.073
X79.369Y112.117
X79.386Y112.139
X79.403Y112.161
X79.419Y112.184
X79.435Y112.207
X79.45Y112.23
X79.465Y112.253
X79.479Y112.277
X79.494Y112.301
X79.507Y112.325
X79.521Y112.35
X79.534Y112.375
X79.546Y112.399
X79.558Y112.425
X79.57Y112.45
X79.581Y112.476
X79.591Y112.501
X79.602Y112.527
X79.611Y112.553
X79.621Y112.58
X79.629Y112.606
X79.646Y112.66
X79.652Y112.682
X79.66Y112.715
X79.667Y112.74
X79.673Y112.767
X79.684Y112.824
X79.688Y112.85
X79.696Y112.905
X79.699Y112.933
X79.701Y112.96
X79.704Y112.988
X79.705Y113.016
X79.707Y113.062
X79.708Y113.102
X79.707Y113.127
X79.705Y113.183
X79.704Y113.211
X79.699Y113.267
X79.696Y113.294
X79.692Y113.322
X79.688Y113.349
X79.683Y113.377
X79.678Y113.404
X79.673Y113.432
X79.667Y113.459
X79.66Y113.486
X79.653Y113.513
X79.646Y113.54
X79.638Y113.566
X79.629Y113.593
X79.621Y113.619
X79.611Y113.645
X79.602Y113.672
X79.581Y113.723
X79.57Y113.749
X79.558Y113.775
X79.546Y113.8
X79.534Y113.824
X79.521Y113.849
X79.494Y113.898
X79.479Y113.922
X79.465Y113.946
X79.45Y113.969
X79.435Y113.992
X79.419Y114.015
X79.386Y114.06
X79.369Y114.083
X79.352Y114.104
X79.334Y114.126
X79.316Y114.147
X79.297Y114.168
X79.279Y114.188
X79.26Y114.208
X79.24Y114.229
X79.22Y114.248
X79.198Y114.269
X79.179Y114.286
X79.158Y114.304
X79.137Y114.323
X79.116Y114.34
X79.094Y114.358
X79.072Y114.375
X79.049Y114.391
X79.027Y114.407
X79.004Y114.423
X78.98Y114.439
X78.957Y114.454
X78.935Y114.467
X78.909Y114.483
X78.885Y114.496
X78.86Y114.509
X78.836Y114.522
X78.811Y114.535
X78.789Y114.545
X78.759Y114.559
X78.735Y114.569
X78.693Y114.586
X78.649Y114.603
X78.615Y114.614
X78.575Y114.627
X78.551Y114.634
X78.524Y114.642
X78.497Y114.649
X78.47Y114.655
X78.443Y114.661
X78.416Y114.667
X78.388Y114.672
X78.361Y114.677
X78.333Y114.681
X78.305Y114.684
X78.278Y114.687
X78.25Y114.69
X78.222Y114.692
X78.194Y114.694
X78.166Y114.695
X78.136Y114.696
X78.111
X78.084
X78.027Y114.694
X77.999Y114.692
X77.974Y114.69
X77.943Y114.687
X77.916Y114.684
X77.889Y114.681
X77.861Y114.677
X77.834Y114.672
X77.806Y114.667
X77.752Y114.655
X77.725Y114.649
X77.698Y114.642
X77.644Y114.626
X77.617Y114.618
X77.591Y114.609
X77.565Y114.6
X77.513Y114.58
X77.487Y114.569
X77.462Y114.558
X77.436Y114.547
X77.414Y114.536
X77.385Y114.522
X77.361Y114.509
X77.337Y114.496
X77.313Y114.482
X77.289Y114.468
X77.265Y114.454
X77.241Y114.439
X77.218Y114.423
X77.195Y114.407
X77.172Y114.391
X77.15Y114.375
X77.128Y114.358
X77.106Y114.34
X77.085Y114.323
X77.063Y114.305
X77.043Y114.286
X77.022Y114.267
X77.002Y114.248
X76.982Y114.229
X76.962Y114.209
X76.943Y114.188
X76.924Y114.168
X76.906Y114.147
X76.888Y114.126
X76.87Y114.104
X76.853Y114.083
X76.836Y114.06
X76.819Y114.038
X76.803Y114.015
X76.787Y113.992
X76.772Y113.969
X76.742Y113.922
X76.728Y113.898
X76.714Y113.873
X76.701Y113.849
X76.688Y113.824
X76.676Y113.799
X76.664Y113.774
X76.652Y113.749
X76.641Y113.723
X76.62Y113.672
X76.611Y113.645
X76.601Y113.619
X76.592Y113.593
X76.584Y113.566
X76.576Y113.54
X76.569Y113.513
X76.562Y113.486
X76.555Y113.458
X76.549Y113.431
X76.544Y113.404
X76.536Y113.361
X76.529Y113.319
X76.526Y113.294
X76.523Y113.266
X76.52Y113.24
X76.518Y113.21
X76.516Y113.166
X76.514Y113.125
Y113.1
X76.515Y113.044
X76.516Y113.016
X76.52Y112.96
X76.526Y112.905
X76.53Y112.877
X76.534Y112.85
X76.539Y112.822
X76.544Y112.795
X76.549Y112.768
X76.555Y112.741
X76.562Y112.713
X76.569Y112.686
X76.576Y112.659
X76.584Y112.633
X76.592Y112.606
X76.601Y112.58
X76.609Y112.558
X76.621Y112.526
X76.631Y112.501
X76.641Y112.476
X76.664Y112.425
X76.676Y112.4
X76.688Y112.375
X76.701Y112.35
X76.714Y112.326
X76.728Y112.301
X76.742Y112.277
X76.757Y112.253
X76.772Y112.23
X76.787Y112.207
X76.803Y112.184
X76.819Y112.161
X76.836Y112.139
X76.853Y112.117
X76.87Y112.095
X76.888Y112.073
X76.906Y112.052
X76.925Y112.031
X76.943Y112.011
X76.962Y111.99
X76.994Y111.958
X77.024Y111.93
X77.043Y111.913
X77.063Y111.894
X77.085Y111.876
X77.106Y111.859
X77.128Y111.841
X77.15Y111.824
X77.172Y111.808
X77.195Y111.792
X77.218Y111.776
X77.241Y111.761
X77.278Y111.737
X77.315Y111.715
X77.337Y111.703
X77.361Y111.69
X77.386Y111.677
X77.411Y111.664
X77.436Y111.652
X77.459Y111.642
X77.488Y111.629
X77.513Y111.619
X77.539Y111.609
X77.565Y111.599
X77.591Y111.59
X77.618Y111.581
X77.644Y111.573
X77.671Y111.565
X77.698Y111.557
X77.725Y111.55
X77.752Y111.544
X77.779Y111.538
X77.806Y111.532
X77.834Y111.527
X77.861Y111.523
X77.889Y111.518
X77.916Y111.515
X77.944Y111.512
X77.972Y111.509
X77.999Y111.507
X78.027Y111.505
X78.055Y111.504
X78.083Y111.503
X78.111
G0Z1
X70.911Y111.364
G1Z-0.9F5
X70.819Y112.645F10
X70.813Y112.762
X70.808Y112.879
X70.806Y112.995
X70.805Y113.1
Y118.176
X70.808Y118.254
X70.813Y118.331
X70.821Y118.409
X70.832Y118.485
X70.846Y118.561
X70.862Y118.637
X70.88Y118.712
X70.902Y118.786
X70.926Y118.86
X70.952Y118.933
X70.981Y119.005
X71.012Y119.076
X71.046Y119.146
X71.082Y119.214
X71.121Y119.281
X71.162Y119.347
X71.205Y119.411
X71.251Y119.475
X71.298Y119.535
X71.347Y119.594
X71.4Y119.653
X71.453Y119.707
X71.509Y119.762
X71.566Y119.814
X71.625Y119.864
X71.687Y119.912
X71.749Y119.957
X71.813Y120.001
X71.878Y120.042
X71.945Y120.081
X72.014Y120.118
X72.084Y120.152
X72.154Y120.184
X72.226Y120.213
X72.298Y120.24
X72.372Y120.264
X72.446Y120.286
X72.521Y120.304
X72.597Y120.321
X72.673Y120.335
X72.711Y120.341
X75.577Y120.756
X75.734Y120.777
X75.891Y120.796
X76.048Y120.811
X76.205Y120.824
X76.363Y120.835
X76.521Y120.842
X76.679Y120.847
X76.836Y120.849
X76.994
X77.152Y120.846
X77.31Y120.84
X77.468Y120.831
X77.625Y120.82
X77.783Y120.806
X77.94Y120.789
X78.097Y120.77
X78.253Y120.748
X78.409Y120.723
X78.564Y120.696
X78.72Y120.665
X78.874Y120.633
X79.028Y120.597
X79.181Y120.559
X79.334Y120.519
X79.486Y120.475
X79.637Y120.43
X79.787Y120.381
X79.937Y120.33
X80.085Y120.277
X80.233Y120.22
X80.38Y120.162
X80.525Y120.101
X80.67Y120.037
X80.813Y119.971
X80.956Y119.903
X81.097Y119.831
X81.237Y119.758
X81.376Y119.682
X81.513Y119.604
X81.649Y119.524
X81.783Y119.441
X81.916Y119.356
X82.048Y119.269
X82.178Y119.179
X82.306Y119.087
X82.433Y118.993
X82.559Y118.897
X82.682Y118.799
X82.804Y118.699
X82.9Y118.617
X82.995Y118.533
X83.088Y118.448
X83.18Y118.361
X83.27Y118.272
X83.359Y118.182
X83.446Y118.091
X83.533Y117.996
X83.617Y117.902
X83.699Y117.806
X83.78Y117.708
X83.859Y117.609
X83.936Y117.509
X84.012Y117.407
X84.086Y117.304
X84.157Y117.2
X84.228Y117.095
X84.296Y116.988
X84.362Y116.881
X84.427Y116.772
X84.49Y116.662
X84.55Y116.551
X84.609Y116.438
X84.666Y116.326
X84.721Y116.211
X84.774Y116.097
X84.825Y115.981
X84.874Y115.864
X84.921Y115.746
X84.965Y115.628
X85.008Y115.509
X85.049Y115.389
X85.087Y115.269
X85.124Y115.147
X85.159Y115.025
X85.191Y114.903
X85.221Y114.78
X85.249Y114.657
X85.275Y114.533
X85.399Y113.891
X85.512Y113.247
X85.615Y112.601
X85.706Y111.953
X85.787Y111.304
X85.858Y110.654
X85.917Y110.003
X85.966Y109.351
X86.004Y108.698
X86.031Y108.044
X86.047Y107.39
X86.052Y106.75
Y80.297
X86.046Y79.54
X86.029Y78.798
X86.003Y78.114
X85.997Y78
Y75.066
Y75.028
X85.995Y74.99
X85.993Y74.951
X85.99Y74.913
X85.985Y74.875
X85.98Y74.837
X85.974Y74.8
X85.968Y74.762
X85.96Y74.725
X85.951Y74.687
X85.942Y74.65
X85.931Y74.614
X85.92Y74.577
X85.908Y74.541
X85.895Y74.505
X85.881Y74.469
X85.866Y74.434
X85.85Y74.399
X85.834Y74.365
X85.816Y74.33
X85.798Y74.296
X85.779Y74.262
X85.759Y74.229
X85.738Y74.196
X85.717Y74.164
X85.694Y74.133
X85.671Y74.102
X85.648Y74.071
X85.623Y74.042
X85.598Y74.012
X85.572Y73.984
X85.545Y73.956
X85.518Y73.928
X85.49Y73.902
X85.462Y73.876
X85.433Y73.851
X85.403Y73.826
X85.372Y73.802
X85.341Y73.779
X85.31Y73.757
X85.278Y73.735
X85.242Y73.713
X85.206Y73.691
X85.177Y73.674
X85.147Y73.658
X85.103Y73.636
X85.077Y73.623
X85.044Y73.609
X85.011Y73.595
X84.977Y73.581
X84.939Y73.567
X84.901Y73.554
X84.863Y73.542
X84.824Y73.531
X84.791Y73.522
X84.759Y73.515
X84.726Y73.508
X84.682Y73.499
X84.632Y73.491
X84.62Y73.49
X84.585Y73.478
X84.547Y73.467
X84.509Y73.457
X84.471Y73.448
X84.432Y73.44
X84.393Y73.432
X84.354Y73.426
X84.315Y73.421
X84.276Y73.416
X84.237Y73.413
X84.197Y73.41
X84.158Y73.409
X84.118
X73.247
X73.168Y73.412
X73.091Y73.417
X73.055Y73.42
X72.432Y73.485
X72.394Y73.489
X72.355Y73.495
X72.317Y73.501
X72.279Y73.509
X72.244Y73.517
X72.207Y73.526
X72.164Y73.538
X72.125Y73.549
X72.07Y73.568
X72.022Y73.586
X71.966Y73.61
X71.936Y73.623
X71.899Y73.641
X71.861Y73.66
X71.832Y73.676
X71.804Y73.692
X71.776Y73.709
X71.746Y73.728
X71.716Y73.747
X71.687Y73.768
X71.658Y73.788
X71.63Y73.809
X71.603Y73.831
X71.566Y73.862
X71.53Y73.894
X71.501Y73.922
X71.472Y73.95
X71.451Y73.972
X71.431Y73.994
X71.405Y74.023
X71.392Y74.038
X71.366Y74.069
X71.341Y74.101
X71.317Y74.133
X71.294Y74.167
X71.271Y74.2
X71.25Y74.234
X71.229Y74.269
X71.209Y74.304
X71.191Y74.339
X71.173Y74.375
X71.156Y74.411
X71.14Y74.447
X71.125Y74.484
X71.111Y74.521
X71.098Y74.559
X71.086Y74.596
X71.075Y74.634
X71.064Y74.673
X71.055Y74.711
X71.047Y74.75
X71.039Y74.79
X71.033Y74.829
X71.027Y74.868
X71.023Y74.908
X71.019Y74.947
X71.017Y74.987
X71.015Y75.026
Y75.066
Y103.066
Y103.104
X71.017Y103.142
X71.019Y103.181
X71.023Y103.226
X71.028Y103.27
X71.035Y103.315
X71.041Y103.355
X71.049Y103.394
X71.059Y103.437
Y106.743
X71.05Y107.904
X71.022Y109.058
X70.976Y110.212
X70.911Y111.364
G0Z1
X77.46Y82.301
G1Z-1F5
X77.597Y82.189F10
X77.752Y82.105
X77.922Y82.054
X78.097Y82.037
X78.273Y82.054
X78.442Y82.105
X78.598Y82.189
X78.735Y82.301
X78.847Y82.437
X78.93Y82.593
X78.981Y82.762
X78.999Y82.938
X78.981Y83.114
X78.93Y83.283
X78.847Y83.439
X78.735Y83.575
X78.598Y83.687
X78.442Y83.771
X78.273Y83.822
X78.097Y83.839
X77.922Y83.822
X77.752Y83.771
X77.597Y83.687
X77.46Y83.575
X77.348Y83.439
X77.265Y83.283
X77.213Y83.114
X77.196Y82.938
X77.213Y82.762
X77.265Y82.593
X77.348Y82.437
X77.46Y82.301
G0Z1
X78.097Y97.941
G1Z-1F5
X78.273Y97.958F10
X78.442Y98.01
X78.598Y98.093
X78.735Y98.205
X78.847Y98.342
X78.93Y98.497
X78.981Y98.666
X78.999Y98.842
X78.981Y99.018
X78.93Y99.187
X78.847Y99.343
X78.735Y99.48
X78.598Y99.592
X78.442Y99.675
X78.273Y99.726
X78.097Y99.744
X77.922Y99.726
X77.752Y99.675
X77.597Y99.592
X77.46Y99.48
X77.348Y99.343
X77.265Y99.187
X77.213Y99.018
X77.196Y98.842
X77.213Y98.666
X77.265Y98.497
X77.348Y98.342
X77.46Y98.205
X77.597Y98.093
X77.752Y98.01
X77.922Y97.958
X78.097Y97.941
G0Z1
X78.111Y111.503
G1Z-1F5
X78.139F10
X78.167Y111.504
X78.195Y111.505
X78.222Y111.507
X78.25Y111.509
X78.278Y111.512
X78.305Y111.515
X78.333Y111.518
X78.361Y111.523
X78.388Y111.527
X78.415Y111.532
X78.443Y111.538
X78.47Y111.544
X78.497Y111.55
X78.524Y111.557
X78.578Y111.573
X78.604Y111.581
X78.631Y111.59
X78.657Y111.599
X78.683Y111.609
X78.709Y111.619
X78.735Y111.63
X78.76Y111.641
X78.786Y111.652
X78.811Y111.664
X78.836Y111.677
X78.861Y111.69
X78.885Y111.703
X78.909Y111.717
X78.933Y111.731
X78.981Y111.761
X79.004Y111.776
X79.027Y111.792
X79.049Y111.808
X79.072Y111.824
X79.094Y111.841
X79.116Y111.859
X79.137Y111.876
X79.156Y111.893
X79.18Y111.914
X79.2Y111.932
X79.22Y111.951
X79.24Y111.971
X79.26Y111.991
X79.279Y112.011
X79.297Y112.031
X79.334Y112.073
X79.369Y112.117
X79.386Y112.139
X79.403Y112.161
X79.419Y112.184
X79.435Y112.207
X79.45Y112.23
X79.465Y112.253
X79.479Y112.277
X79.494Y112.301
X79.507Y112.325
