(Created with grbl post processor 2024/11/24 13:46)
G21
(G-code generated with BlenderCAM and NC library)
G17G90
(Tool: D = 3.18 mm  type END flutes 2)
S1000M03
G00 Z1.0

G0X0Y0Z1
X24.461Y83.384
G1Z-0.1F5
X24.518Y83.369F10
X24.543Y83.363
X24.57Y83.357
X24.597Y83.352
X24.624Y83.347
X24.652Y83.342
X24.679Y83.338
X24.707Y83.334
X24.735Y83.331
X24.762Y83.329
X24.79Y83.326
X24.818Y83.325
X24.846Y83.324
X24.874Y83.323
X24.93
X24.957Y83.324
X24.985Y83.325
X25.041Y83.329
X25.069Y83.331
X25.096Y83.334
X25.124Y83.338
X25.151Y83.342
X25.179Y83.347
X25.206Y83.352
X25.233Y83.357
X25.261Y83.363
X25.288Y83.37
X25.315Y83.377
X25.342Y83.384
X25.368Y83.392
X25.395Y83.401
X25.421Y83.41
X25.474Y83.429
X25.527Y83.45
X25.551Y83.461
X25.576Y83.472
X25.602Y83.484
X25.626Y83.497
X25.651Y83.509
X25.676Y83.523
X25.7Y83.536
X25.724Y83.551
X25.748Y83.565
X25.771Y83.58
X25.794Y83.595
X25.817Y83.611
X25.84Y83.628
X25.862Y83.644
X25.885Y83.661
X25.906Y83.678
X25.928Y83.696
X25.949Y83.714
X25.97Y83.733
X26.011Y83.771
X26.031Y83.79
X26.05Y83.81
X26.069Y83.83
X26.088Y83.851
X26.125Y83.893
X26.142Y83.914
X26.16Y83.936
X26.177Y83.958
X26.193Y83.981
X26.209Y84.003
X26.225Y84.026
X26.241Y84.05
X26.256Y84.073
X26.27Y84.097
X26.284Y84.121
X26.298Y84.145
X26.311Y84.17
X26.324Y84.194
X26.337Y84.219
X26.349Y84.244
X26.36Y84.27
X26.371Y84.295
X26.382Y84.321
X26.392Y84.347
X26.402Y84.373
X26.411Y84.399
X26.42Y84.426
X26.428Y84.452
X26.436Y84.479
X26.444Y84.506
X26.451Y84.533
X26.457Y84.56
X26.463Y84.587
X26.474Y84.642
X26.479Y84.669
X26.483Y84.697
X26.486Y84.725
X26.489Y84.752
X26.492Y84.78
X26.494Y84.808
X26.496Y84.836
X26.497Y84.863
X26.498Y84.891
Y84.919
Y84.947
X26.497Y84.975
X26.496Y85.003
X26.494Y85.031
X26.492Y85.058
X26.489Y85.086
X26.486Y85.114
X26.483Y85.142
X26.479Y85.169
X26.474Y85.196
X26.469Y85.224
X26.463Y85.251
X26.454Y85.294
X26.443Y85.335
X26.428Y85.386
X26.42Y85.413
X26.411Y85.439
X26.402Y85.465
X26.392Y85.491
X26.382Y85.517
X26.371Y85.543
X26.36Y85.569
X26.349Y85.594
X26.337Y85.619
X26.324Y85.644
X26.311Y85.669
X26.298Y85.693
X26.284Y85.718
X26.27Y85.741
X26.256Y85.765
X26.225Y85.812
X26.212Y85.831
X26.193Y85.859
X26.16Y85.902
X26.143Y85.924
X26.125Y85.946
X26.107Y85.967
X26.088Y85.987
X26.069Y86.008
X26.05Y86.028
X26.031Y86.048
X26.011Y86.068
X25.99Y86.087
X25.97Y86.106
X25.949Y86.124
X25.928Y86.142
X25.906Y86.16
X25.863Y86.194
X25.84Y86.211
X25.817Y86.227
X25.794Y86.243
X25.771Y86.258
X25.748Y86.273
X25.724Y86.288
X25.7Y86.302
X25.676Y86.316
X25.651Y86.329
X25.622Y86.344
X25.602Y86.354
X25.577Y86.366
X25.551Y86.378
X25.525Y86.389
X25.5Y86.4
X25.474Y86.41
X25.448Y86.42
X25.421Y86.429
X25.395Y86.438
X25.368Y86.446
X25.342Y86.454
X25.315Y86.461
X25.288Y86.468
X25.261Y86.475
X25.234Y86.481
X25.206Y86.487
X25.179Y86.492
X25.151Y86.496
X25.124Y86.5
X25.096Y86.504
X25.069Y86.507
X25.041Y86.51
X25.013Y86.512
X24.968Y86.514
X24.927Y86.516
X24.902
X24.874
X24.846Y86.515
X24.818Y86.514
X24.79Y86.512
X24.762Y86.51
X24.735Y86.507
X24.707Y86.504
X24.679Y86.5
X24.652Y86.496
X24.624Y86.492
X24.597Y86.487
X24.57Y86.481
X24.542Y86.475
X24.497Y86.464
X24.459Y86.453
X24.435Y86.446
X24.408Y86.438
X24.355Y86.42
X24.304Y86.4
X24.278Y86.389
X24.227Y86.366
X24.202Y86.354
X24.177Y86.342
X24.152Y86.329
X24.127Y86.316
X24.103Y86.302
X24.079Y86.288
X24.056Y86.273
X24.032Y86.258
X24.009Y86.243
X23.986Y86.227
X23.963Y86.211
X23.941Y86.194
X23.919Y86.177
X23.897Y86.16
X23.875Y86.142
X23.854Y86.124
X23.833Y86.106
X23.813Y86.087
X23.793Y86.068
X23.753Y86.028
X23.732Y86.006
X23.715Y85.987
X23.697Y85.967
X23.679Y85.946
X23.661Y85.924
X23.643Y85.902
X23.626Y85.88
X23.61Y85.858
X23.594Y85.835
X23.578Y85.812
X23.563Y85.789
X23.548Y85.765
X23.533Y85.741
X23.519Y85.717
X23.505Y85.693
X23.492Y85.669
X23.479Y85.644
X23.467Y85.619
X23.455Y85.594
X23.443Y85.569
X23.432Y85.543
X23.421Y85.517
X23.411Y85.492
X23.401Y85.465
X23.392Y85.439
X23.382Y85.41
X23.375Y85.386
X23.367Y85.359
X23.359Y85.332
X23.352Y85.305
X23.342Y85.262
X23.334Y85.221
X23.329Y85.196
X23.325Y85.169
X23.321Y85.144
X23.317Y85.113
X23.314Y85.086
X23.311Y85.058
X23.309Y85.031
X23.307Y85.003
X23.306Y84.975
X23.305Y84.947
Y84.925
Y84.89
X23.307Y84.836
X23.309Y84.808
X23.311Y84.78
X23.314Y84.752
X23.317Y84.725
X23.32Y84.697
X23.325Y84.67
X23.329Y84.642
X23.334Y84.615
X23.34Y84.587
X23.346Y84.56
X23.352Y84.533
X23.359Y84.506
X23.367Y84.479
X23.375Y84.452
X23.383Y84.426
X23.401Y84.373
X23.411Y84.347
X23.421Y84.321
X23.432Y84.295
X23.443Y84.27
X23.455Y84.244
X23.467Y84.219
X23.481Y84.191
X23.492Y84.17
X23.505Y84.145
X23.519Y84.121
X23.533Y84.097
X23.548Y84.073
X23.578Y84.026
X23.594Y84.003
X23.61Y83.981
X23.626Y83.958
X23.643Y83.936
X23.678Y83.893
X23.697Y83.872
X23.715Y83.851
X23.734Y83.83
X23.753Y83.81
X23.773Y83.79
X23.792Y83.771
X23.813Y83.751
X23.833Y83.733
X23.854Y83.714
X23.875Y83.696
X23.919Y83.661
X23.941Y83.644
X23.963Y83.628
X23.986Y83.611
X24.009Y83.595
X24.032Y83.58
X24.055Y83.565
X24.079Y83.551
X24.103Y83.536
X24.128Y83.523
X24.148Y83.512
X24.202Y83.484
X24.227Y83.472
X24.252Y83.461
X24.303Y83.439
X24.329Y83.429
X24.356Y83.419
X24.382Y83.41
X24.408Y83.401
X24.435Y83.392
X24.461Y83.384
G0Z1
X38.275Y84.73
G1Z-0.1F5
X38.326Y84.561F10
X38.409Y84.405
X38.522Y84.268
X38.658Y84.156
X38.814Y84.073
X38.983Y84.022
X39.159Y84.004
X39.335Y84.022
X39.504Y84.073
X39.66Y84.156
X39.796Y84.268
X39.908Y84.405
X39.992Y84.561
X40.043Y84.73
X40.06Y84.906
X40.043Y85.081
X39.992Y85.251
X39.908Y85.406
X39.796Y85.543
X39.66Y85.655
X39.504Y85.738
X39.335Y85.79
X39.159Y85.807
X38.983Y85.79
X38.814Y85.738
X38.658Y85.655
X38.522Y85.543
X38.409Y85.406
X38.326Y85.251
X38.275Y85.081
X38.258Y84.906
X38.275Y84.73
G0Z1
X54.162Y84.906
G1Z-0.1F5
X54.179Y84.73F10
X54.23Y84.561
X54.314Y84.405
X54.426Y84.268
X54.562Y84.156
X54.718Y84.073
X54.887Y84.022
X55.063Y84.004
X55.239Y84.022
X55.408Y84.073
X55.564Y84.156
X55.7Y84.268
X55.812Y84.405
X55.896Y84.561
X55.947Y84.73
X55.964Y84.906
X55.947Y85.081
X55.896Y85.251
X55.812Y85.406
X55.7Y85.543
X55.564Y85.655
X55.408Y85.738
X55.239Y85.79
X55.063Y85.807
X54.887Y85.79
X54.718Y85.738
X54.562Y85.655
X54.426Y85.543
X54.314Y85.406
X54.23Y85.251
X54.179Y85.081
X54.162Y84.906
G0Z1
X57.693Y92.86
G1Z-0.1F5
X58.461Y92.854F10
X59.203Y92.838
X59.887Y92.811
X60.001Y92.805
X62.935
X62.973
X63.011Y92.803
X63.05Y92.801
X63.088Y92.798
X63.126Y92.794
X63.164Y92.789
X63.201Y92.783
X63.239Y92.776
X63.276Y92.768
X63.314Y92.759
X63.351Y92.75
X63.388Y92.739
X63.424Y92.728
X63.46Y92.716
X63.496Y92.703
X63.532Y92.689
X63.567Y92.674
X63.602Y92.659
X63.637Y92.642
X63.671Y92.624
X63.705Y92.606
X63.739Y92.587
X63.772Y92.567
X63.805Y92.546
X63.837Y92.525
X63.868Y92.503
X63.899Y92.48
X63.93Y92.456
X63.96Y92.431
X63.989Y92.406
X64.017Y92.38
X64.045Y92.354
X64.073Y92.326
X64.099Y92.299
X64.125Y92.27
X64.151Y92.241
X64.175Y92.211
X64.199Y92.181
X64.222Y92.15
X64.244Y92.118
X64.266Y92.086
X64.288Y92.051
X64.31Y92.014
X64.327Y91.985
X64.343Y91.955
X64.365Y91.912
X64.378Y91.885
X64.393Y91.852
X64.407Y91.819
X64.42Y91.786
X64.434Y91.748
X64.447Y91.709
X64.459Y91.671
X64.47Y91.632
X64.479Y91.6
X64.486Y91.567
X64.493Y91.535
X64.502Y91.49
X64.51Y91.441
X64.512Y91.428
X64.523Y91.393
X64.534Y91.355
X64.544Y91.317
X64.553Y91.279
X64.561Y91.24
X64.569Y91.202
X64.575Y91.163
X64.58Y91.124
X64.585Y91.084
X64.588Y91.045
X64.591Y91.006
X64.592Y90.966
X64.593Y90.927
X64.592Y80.055
X64.59Y79.977
X64.584Y79.899
X64.581Y79.864
X64.515Y79.224
X64.51Y79.19
X64.505Y79.156
X64.499Y79.122
X64.492Y79.088
X64.484Y79.052
X64.476Y79.017
X64.466Y78.982
X64.456Y78.948
X64.445Y78.913
X64.433Y78.878
X64.42Y78.844
X64.404Y78.804
X64.392Y78.774
X64.378Y78.745
X64.36Y78.707
X64.341Y78.67
X64.325Y78.641
X64.309Y78.612
X64.292Y78.584
X64.273Y78.554
X64.254Y78.524
X64.234Y78.495
X64.213Y78.466
X64.192Y78.438
X64.17Y78.411
X64.139Y78.374
X64.107Y78.338
X64.079Y78.309
X64.051Y78.281
X64.03Y78.26
X64.007Y78.239
X63.978Y78.213
X63.963Y78.2
X63.932Y78.174
X63.9Y78.149
X63.868Y78.125
X63.835Y78.102
X63.801Y78.08
X63.767Y78.058
X63.732Y78.037
X63.697Y78.018
X63.662Y77.999
X63.626Y77.981
X63.59Y77.965
X63.554Y77.949
X63.517Y77.934
X63.48Y77.92
X63.443Y77.906
X63.405Y77.894
X63.367Y77.883
X63.328Y77.873
X63.29Y77.863
X63.251Y77.855
X63.212Y77.847
X63.172Y77.841
X63.133Y77.836
X63.094Y77.831
X63.054Y77.828
X63.014Y77.825
X62.975Y77.824
X62.935Y77.823
X34.935
X34.897Y77.824
X34.859Y77.825
X34.82Y77.827
X34.776Y77.831
X34.731Y77.836
X34.686Y77.843
X34.646Y77.85
X34.607Y77.857
X34.564Y77.867
X31.258
X30.097Y77.858
X28.943Y77.83
X27.789Y77.784
X26.637Y77.72
X25.356Y77.627
X25.239Y77.621
X25.122Y77.617
X25.006Y77.614
X24.902Y77.613
X19.825Y77.614
X19.747Y77.616
X19.67Y77.622
X19.593Y77.63
X19.517Y77.64
X19.44Y77.654
X19.365Y77.67
X19.288Y77.689
X19.215Y77.71
X19.141Y77.734
X19.068Y77.76
X18.996Y77.789
X18.925Y77.821
X18.856Y77.854
X18.787Y77.891
X18.72Y77.929
X18.654Y77.97
X18.59Y78.013
X18.527Y78.059
X18.466Y78.106
X18.407Y78.156
X18.349Y78.208
X18.294Y78.261
X18.239Y78.318
X18.188Y78.374
X18.137Y78.434
X18.089Y78.495
X18.044Y78.557
X18Y78.622
X17.959Y78.686
X17.92Y78.754
X17.883Y78.822
X17.849Y78.892
X17.818Y78.962
X17.788Y79.034
X17.761Y79.106
X17.737Y79.181
X17.716Y79.254
X17.697Y79.329
X17.68Y79.405
X17.666Y79.482
X17.66Y79.52
X17.245Y82.386
X17.224Y82.542
X17.205Y82.699
X17.19Y82.856
X17.177Y83.013
X17.166Y83.171
X17.159Y83.329
X17.154Y83.487
X17.152Y83.645
Y83.803
X17.155Y83.961
X17.161Y84.118
X17.17Y84.276
X17.181Y84.434
X17.195Y84.591
X17.212Y84.748
X17.231Y84.905
X17.253Y85.061
X17.278Y85.217
X17.306Y85.373
X17.336Y85.528
X17.368Y85.682
X17.404Y85.836
X17.442Y85.99
X17.483Y86.142
X17.526Y86.294
X17.572Y86.445
X17.62Y86.596
X17.671Y86.745
X17.725Y86.894
X17.781Y87.041
X17.839Y87.188
X17.9Y87.334
X17.964Y87.478
X18.03Y87.622
X18.099Y87.764
X18.17Y87.905
X18.243Y88.045
X18.319Y88.184
X18.397Y88.321
X18.477Y88.457
X18.56Y88.591
X18.645Y88.724
X18.732Y88.856
X18.822Y88.986
X18.914Y89.115
X19.008Y89.242
X19.104Y89.367
X19.202Y89.491
X19.302Y89.612
X19.384Y89.709
X19.468Y89.803
X19.553Y89.897
X19.64Y89.988
X19.729Y90.079
X19.819Y90.167
X19.911Y90.255
X20.005Y90.341
X20.099Y90.425
X20.196Y90.508
X20.293Y90.588
X20.392Y90.667
X20.492Y90.745
X20.594Y90.82
X20.697Y90.894
X20.801Y90.966
X20.906Y91.036
X21.013Y91.104
X21.12Y91.171
X21.23Y91.235
X21.339Y91.298
X21.45Y91.359
X21.563Y91.418
X21.676Y91.474
X21.79Y91.529
X21.905Y91.582
X22.021Y91.633
X22.137Y91.682
X22.255Y91.729
X22.373Y91.774
X22.492Y91.816
X22.612Y91.857
X22.733Y91.896
X22.854Y91.932
X22.976Y91.967
X23.098Y91.999
X23.221Y92.029
X23.345Y92.057
X23.468Y92.083
X24.11Y92.207
X24.754Y92.32
X25.4Y92.423
X26.048Y92.515
X26.697Y92.596
X27.347Y92.666
X27.998Y92.726
X28.65Y92.774
X29.303Y92.812
X29.957Y92.839
X30.611Y92.855
X31.252Y92.86
X57.693
G0Z1
X24.461Y83.384
G1Z-0.2F5
X24.518Y83.369F10
X24.543Y83.363
X24.57Y83.357
X24.597Y83.352
X24.624Y83.347
X24.652Y83.342
X24.679Y83.338
X24.707Y83.334
X24.735Y83.331
X24.762Y83.329
X24.79Y83.326
X24.818Y83.325
X24.846Y83.324
X24.874Y83.323
X24.93
X24.957Y83.324
X24.985Y83.325
X25.041Y83.329
X25.069Y83.331
X25.096Y83.334
X25.124Y83.338
X25.151Y83.342
X25.179Y83.347
X25.206Y83.352
X25.233Y83.357
X25.261Y83.363
X25.288Y83.37
X25.315Y83.377
X25.342Y83.384
X25.368Y83.392
X25.395Y83.401
X25.421Y83.41
X25.474Y83.429
X25.527Y83.45
X25.551Y83.461
X25.576Y83.472
X25.602Y83.484
X25.626Y83.497
X25.651Y83.509
X25.676Y83.523
X25.7Y83.536
X25.724Y83.551
X25.748Y83.565
X25.771Y83.58
X25.794Y83.595
X25.817Y83.611
X25.84Y83.628
X25.862Y83.644
X25.885Y83.661
X25.906Y83.678
X25.928Y83.696
X25.949Y83.714
X25.97Y83.733
X26.011Y83.771
X26.031Y83.79
X26.05Y83.81
X26.069Y83.83
X26.088Y83.851
X26.125Y83.893
X26.142Y83.914
X26.16Y83.936
X26.177Y83.958
X26.193Y83.981
X26.209Y84.003
X26.225Y84.026
X26.241Y84.05
X26.256Y84.073
X26.27Y84.097
X26.284Y84.121
X26.298Y84.145
X26.311Y84.17
X26.324Y84.194
X26.337Y84.219
X26.349Y84.244
X26.36Y84.27
X26.371Y84.295
X26.382Y84.321
X26.392Y84.347
X26.402Y84.373
X26.411Y84.399
X26.42Y84.426
X26.428Y84.452
X26.436Y84.479
X26.444Y84.506
X26.451Y84.533
X26.457Y84.56
X26.463Y84.587
X26.474Y84.642
X26.479Y84.669
X26.483Y84.697
X26.486Y84.725
X26.489Y84.752
X26.492Y84.78
X26.494Y84.808
X26.496Y84.836
X26.497Y84.863
X26.498Y84.891
Y84.919
Y84.947
X26.497Y84.975
X26.496Y85.003
X26.494Y85.031
X26.492Y85.058
X26.489Y85.086
X26.486Y85.114
X26.483Y85.142
X26.479Y85.169
X26.474Y85.196
X26.469Y85.224
X26.463Y85.251
X26.454Y85.294
X26.443Y85.335
X26.428Y85.386
X26.42Y85.413
X26.411Y85.439
X26.402Y85.465
X26.392Y85.491
X26.382Y85.517
X26.371Y85.543
X26.36Y85.569
X26.349Y85.594
X26.337Y85.619
X26.324Y85.644
X26.311Y85.669
X26.298Y85.693
X26.284Y85.718
X26.27Y85.741
X26.256Y85.765
X26.225Y85.812
X26.212Y85.831
X26.193Y85.859
X26.16Y85.902
X26.143Y85.924
X26.125Y85.946
X26.107Y85.967
X26.088Y85.987
X26.069Y86.008
X26.05Y86.028
X26.031Y86.048
X26.011Y86.068
X25.99Y86.087
X25.97Y86.106
X25.949Y86.124
X25.928Y86.142
X25.906Y86.16
X25.863Y86.194
X25.84Y86.211
X25.817Y86.227
X25.794Y86.243
X25.771Y86.258
X25.748Y86.273
X25.724Y86.288
X25.7Y86.302
X25.676Y86.316
X25.651Y86.329
X25.622Y86.344
X25.602Y86.354
X25.577Y86.366
X25.551Y86.378
X25.525Y86.389
X25.5Y86.4
X25.474Y86.41
X25.448Y86.42
X25.421Y86.429
X25.395Y86.438
X25.368Y86.446
X25.342Y86.454
X25.315Y86.461
X25.288Y86.468
X25.261Y86.475
X25.234Y86.481
X25.206Y86.487
X25.179Y86.492
X25.151Y86.496
X25.124Y86.5
X25.096Y86.504
X25.069Y86.507
X25.041Y86.51
X25.013Y86.512
X24.968Y86.514
X24.927Y86.516
X24.902
X24.874
X24.846Y86.515
X24.818Y86.514
X24.79Y86.512
X24.762Y86.51
X24.735Y86.507
X24.707Y86.504
X24.679Y86.5
X24.652Y86.496
X24.624Y86.492
X24.597Y86.487
X24.57Y86.481
X24.542Y86.475
X24.497Y86.464
X24.459Y86.453
X24.435Y86.446
X24.408Y86.438
X24.355Y86.42
X24.304Y86.4
X24.278Y86.389
X24.227Y86.366
X24.202Y86.354
X24.177Y86.342
X24.152Y86.329
X24.127Y86.316
X24.103Y86.302
X24.079Y86.288
X24.056Y86.273
X24.032Y86.258
X24.009Y86.243
X23.986Y86.227
X23.963Y86.211
X23.941Y86.194
X23.919Y86.177
X23.897Y86.16
X23.875Y86.142
X23.854Y86.124
X23.833Y86.106
X23.813Y86.087
X23.793Y86.068
X23.753Y86.028
X23.732Y86.006
X23.715Y85.987
X23.697Y85.967
X23.679Y85.946
X23.661Y85.924
X23.643Y85.902
X23.626Y85.88
X23.61Y85.858
X23.594Y85.835
X23.578Y85.812
X23.563Y85.789
X23.548Y85.765
X23.533Y85.741
X23.519Y85.717
X23.505Y85.693
X23.492Y85.669
X23.479Y85.644
X23.467Y85.619
X23.455Y85.594
X23.443Y85.569
X23.432Y85.543
X23.421Y85.517
X23.411Y85.492
X23.401Y85.465
X23.392Y85.439
X23.382Y85.41
X23.375Y85.386
X23.367Y85.359
X23.359Y85.332
X23.352Y85.305
X23.342Y85.262
X23.334Y85.221
X23.329Y85.196
X23.325Y85.169
X23.321Y85.144
X23.317Y85.113
X23.314Y85.086
X23.311Y85.058
X23.309Y85.031
X23.307Y85.003
X23.306Y84.975
X23.305Y84.947
Y84.925
Y84.89
X23.307Y84.836
X23.309Y84.808
X23.311Y84.78
X23.314Y84.752
X23.317Y84.725
X23.32Y84.697
X23.325Y84.67
X23.329Y84.642
X23.334Y84.615
X23.34Y84.587
X23.346Y84.56
X23.352Y84.533
X23.359Y84.506
X23.367Y84.479
X23.375Y84.452
X23.383Y84.426
X23.401Y84.373
X23.411Y84.347
X23.421Y84.321
X23.432Y84.295
X23.443Y84.27
X23.455Y84.244
X23.467Y84.219
X23.481Y84.191
X23.492Y84.17
X23.505Y84.145
X23.519Y84.121
X23.533Y84.097
X23.548Y84.073
X23.578Y84.026
X23.594Y84.003
X23.61Y83.981
X23.626Y83.958
X23.643Y83.936
X23.678Y83.893
X23.697Y83.872
X23.715Y83.851
X23.734Y83.83
X23.753Y83.81
X23.773Y83.79
X23.792Y83.771
X23.813Y83.751
X23.833Y83.733
X23.854Y83.714
X23.875Y83.696
X23.919Y83.661
X23.941Y83.644
X23.963Y83.628
X23.986Y83.611
X24.009Y83.595
X24.032Y83.58
X24.055Y83.565
X24.079Y83.551
X24.103Y83.536
X24.128Y83.523
X24.148Y83.512
X24.202Y83.484
X24.227Y83.472
X24.252Y83.461
X24.303Y83.439
X24.329Y83.429
X24.356Y83.419
X24.382Y83.41
X24.408Y83.401
X24.435Y83.392
X24.461Y83.384
G0Z1
X38.275Y84.73
G1Z-0.2F5
X38.326Y84.561F10
X38.409Y84.405
X38.522Y84.268
X38.658Y84.156
X38.814Y84.073
X38.983Y84.022
X39.159Y84.004
X39.335Y84.022
X39.504Y84.073
X39.66Y84.156
X39.796Y84.268
X39.908Y84.405
X39.992Y84.561
X40.043Y84.73
X40.06Y84.906
X40.043Y85.081
X39.992Y85.251
X39.908Y85.406
X39.796Y85.543
X39.66Y85.655
X39.504Y85.738
X39.335Y85.79
X39.159Y85.807
X38.983Y85.79
X38.814Y85.738
X38.658Y85.655
X38.522Y85.543
X38.409Y85.406
X38.326Y85.251
X38.275Y85.081
X38.258Y84.906
X38.275Y84.73
G0Z1
X54.162Y84.906
G1Z-0.2F5
X54.179Y84.73F10
X54.23Y84.561
X54.314Y84.405
X54.426Y84.268
X54.562Y84.156
X54.718Y84.073
X54.887Y84.022
X55.063Y84.004
X55.239Y84.022
X55.408Y84.073
X55.564Y84.156
X55.7Y84.268
X55.812Y84.405
X55.896Y84.561
X55.947Y84.73
X55.964Y84.906
X55.947Y85.081
X55.896Y85.251
X55.812Y85.406
X55.7Y85.543
X55.564Y85.655
X55.408Y85.738
X55.239Y85.79
X55.063Y85.807
X54.887Y85.79
X54.718Y85.738
X54.562Y85.655
X54.426Y85.543
X54.314Y85.406
X54.23Y85.251
X54.179Y85.081
X54.162Y84.906
G0Z1
X57.693Y92.86
G1Z-0.2F5
X58.461Y92.854F10
X59.203Y92.838
X59.887Y92.811
X60.001Y92.805
X62.935
X62.973
X63.011Y92.803
X63.05Y92.801
X63.088Y92.798
X63.126Y92.794
X63.164Y92.789
X63.201Y92.783
X63.239Y92.776
X63.276Y92.768
X63.314Y92.759
X63.351Y92.75
X63.388Y92.739
X63.424Y92.728
X63.46Y92.716
X63.496Y92.703
X63.532Y92.689
X63.567Y92.674
X63.602Y92.659
X63.637Y92.642
X63.671Y92.624
X63.705Y92.606
X63.739Y92.587
X63.772Y92.567
X63.805Y92.546
X63.837Y92.525
X63.868Y92.503
X63.899Y92.48
X63.93Y92.456
X63.96Y92.431
X63.989Y92.406
X64.017Y92.38
X64.045Y92.354
X64.073Y92.326
X64.099Y92.299
X64.125Y92.27
X64.151Y92.241
X64.175Y92.211
X64.199Y92.181
X64.222Y92.15
X64.244Y92.118
X64.266Y92.086
X64.288Y92.051
X64.31Y92.014
X64.327Y91.985
X64.343Y91.955
X64.365Y91.912
X64.378Y91.885
X64.393Y91.852
X64.407Y91.819
X64.42Y91.786
X64.434Y91.748
X64.447Y91.709
X64.459Y91.671
X64.47Y91.632
X64.479Y91.6
X64.486Y91.567
X64.493Y91.535
X64.502Y91.49
X64.51Y91.441
X64.512Y91.428
X64.523Y91.393
X64.534Y91.355
X64.544Y91.317
X64.553Y91.279
X64.561Y91.24
X64.569Y91.202
X64.575Y91.163
X64.58Y91.124
X64.585Y91.084
X64.588Y91.045
X64.591Y91.006
X64.592Y90.966
X64.593Y90.927
X64.592Y80.055
X64.59Y79.977
X64.584Y79.899
X64.581Y79.864
X64.515Y79.224
X64.51Y79.19
X64.505Y79.156
X64.499Y79.122
X64.492Y79.088
X64.484Y79.052
X64.476Y79.017
X64.466Y78.982
X64.456Y78.948
X64.445Y78.913
X64.433Y78.878
X64.42Y78.844
X64.404Y78.804
X64.392Y78.774
X64.378Y78.745
X64.36Y78.707
X64.341Y78.67
X64.325Y78.641
X64.309Y78.612
X64.292Y78.584
X64.273Y78.554
X64.254Y78.524
X64.234Y78.495
X64.213Y78.466
X64.192Y78.438
X64.17Y78.411
X64.139Y78.374
X64.107Y78.338
X64.079Y78.309
X64.051Y78.281
X64.03Y78.26
X64.007Y78.239
X63.978Y78.213
X63.963Y78.2
X63.932Y78.174
X63.9Y78.149
X63.868Y78.125
X63.835Y78.102
X63.801Y78.08
X63.767Y78.058
X63.732Y78.037
X63.697Y78.018
X63.662Y77.999
X63.626Y77.981
X63.59Y77.965
X63.554Y77.949
X63.517Y77.934
X63.48Y77.92
X63.443Y77.906
X63.405Y77.894
X63.367Y77.883
X63.328Y77.873
X63.29Y77.863
X63.251Y77.855
X63.212Y77.847
X63.172Y77.841
X63.133Y77.836
X63.094Y77.831
X63.054Y77.828
X63.014Y77.825
X62.975Y77.824
X62.935Y77.823
X34.935
X34.897Y77.824
X34.859Y77.825
X34.82Y77.827
X34.776Y77.831
X34.731Y77.836
X34.686Y77.843
X34.646Y77.85
X34.607Y77.857
X34.564Y77.867
X31.258
X30.097Y77.858
X28.943Y77.83
X27.789Y77.784
X26.637Y77.72
X25.356Y77.627
X25.239Y77.621
X25.122Y77.617
X25.006Y77.614
X24.902Y77.613
X19.825Y77.614
X19.747Y77.616
X19.67Y77.622
X19.593Y77.63
X19.517Y77.64
X19.44Y77.654
X19.365Y77.67
X19.288Y77.689
X19.215Y77.71
X19.141Y77.734
X19.068Y77.76
X18.996Y77.789
X18.925Y77.821
X18.856Y77.854
X18.787Y77.891
X18.72Y77.929
X18.654Y77.97
X18.59Y78.013
X18.527Y78.059
X18.466Y78.106
X18.407Y78.156
X18.349Y78.208
X18.294Y78.261
X18.239Y78.318
X18.188Y78.374
X18.137Y78.434
X18.089Y78.495
X18.044Y78.557
X18Y78.622
X17.959Y78.686
X17.92Y78.754
X17.883Y78.822
X17.849Y78.892
X17.818Y78.962
X17.788Y79.034
X17.761Y79.106
X17.737Y79.181
X17.716Y79.254
X17.697Y79.329
X17.68Y79.405
X17.666Y79.482
X17.66Y79.52
X17.245Y82.386
X17.224Y82.542
X17.205Y82.699
X17.19Y82.856
X17.177Y83.013
X17.166Y83.171
X17.159Y83.329
X17.154Y83.487
X17.152Y83.645
Y83.803
X17.155Y83.961
X17.161Y84.118
X17.17Y84.276
X17.181Y84.434
X17.195Y84.591
X17.212Y84.748
X17.231Y84.905
X17.253Y85.061
X17.278Y85.217
X17.306Y85.373
X17.336Y85.528
X17.368Y85.682
X17.404Y85.836
X17.442Y85.99
X17.483Y86.142
X17.526Y86.294
X17.572Y86.445
X17.62Y86.596
X17.671Y86.745
X17.725Y86.894
X17.781Y87.041
X17.839Y87.188
X17.9Y87.334
X17.964Y87.478
X18.03Y87.622
X18.099Y87.764
X18.17Y87.905
X18.243Y88.045
X18.319Y88.184
X18.397Y88.321
X18.477Y88.457
X18.56Y88.591
X18.645Y88.724
X18.732Y88.856
X18.822Y88.986
X18.914Y89.115
X19.008Y89.242
X19.104Y89.367
X19.202Y89.491
X19.302Y89.612
X19.384Y89.709
X19.468Y89.803
X19.553Y89.897
X19.64Y89.988
X19.729Y90.079
X19.819Y90.167
X19.911Y90.255
X20.005Y90.341
X20.099Y90.425
X20.196Y90.508
X20.293Y90.588
X20.392Y90.667
X20.492Y90.745
X20.594Y90.82
X20.697Y90.894
X20.801Y90.966
X20.906Y91.036
X21.013Y91.104
X21.12Y91.171
X21.23Y91.235
X21.339Y91.298
X21.45Y91.359
X21.563Y91.418
X21.676Y91.474
X21.79Y91.529
X21.905Y91.582
X22.021Y91.633
X22.137Y91.682
X22.255Y91.729
X22.373Y91.774
X22.492Y91.816
X22.612Y91.857
X22.733Y91.896
X22.854Y91.932
X22.976Y91.967
X23.098Y91.999
X23.221Y92.029
X23.345Y92.057
X23.468Y92.083
X24.11Y92.207
X24.754Y92.32
X25.4Y92.423
X26.048Y92.515
X26.697Y92.596
X27.347Y92.666
X27.998Y92.726
X28.65Y92.774
X29.303Y92.812
X29.957Y92.839
X30.611Y92.855
X31.252Y92.86
X57.693
G0Z1
X24.461Y83.384
G1Z-0.3F5
X24.518Y83.369F10
X24.543Y83.363
X24.57Y83.357
X24.597Y83.352
X24.624Y83.347
X24.652Y83.342
X24.679Y83.338
X24.707Y83.334
X24.735Y83.331
X24.762Y83.329
X24.79Y83.326
X24.818Y83.325
X24.846Y83.324
X24.874Y83.323
X24.93
X24.957Y83.324
X24.985Y83.325
X25.041Y83.329
X25.069Y83.331
X25.096Y83.334
X25.124Y83.338
X25.151Y83.342
X25.179Y83.347
X25.206Y83.352
X25.233Y83.357
X25.261Y83.363
X25.288Y83.37
X25.315Y83.377
X25.342Y83.384
X25.368Y83.392
X25.395Y83.401
X25.421Y83.41
X25.474Y83.429
X25.527Y83.45
X25.551Y83.461
X25.576Y83.472
X25.602Y83.484
X25.626Y83.497
X25.651Y83.509
X25.676Y83.523
X25.7Y83.536
X25.724Y83.551
X25.748Y83.565
X25.771Y83.58
X25.794Y83.595
X25.817Y83.611
X25.84Y83.628
X25.862Y83.644
X25.885Y83.661
X25.906Y83.678
X25.928Y83.696
X25.949Y83.714
X25.97Y83.733
X26.011Y83.771
X26.031Y83.79
X26.05Y83.81
X26.069Y83.83
X26.088Y83.851
X26.125Y83.893
X26.142Y83.914
X26.16Y83.936
X26.177Y83.958
X26.193Y83.981
X26.209Y84.003
X26.225Y84.026
X26.241Y84.05
X26.256Y84.073
X26.27Y84.097
X26.284Y84.121
X26.298Y84.145
X26.311Y84.17
X26.324Y84.194
X26.337Y84.219
X26.349Y84.244
X26.36Y84.27
X26.371Y84.295
X26.382Y84.321
X26.392Y84.347
X26.402Y84.373
X26.411Y84.399
X26.42Y84.426
X26.428Y84.452
X26.436Y84.479
X26.444Y84.506
X26.451Y84.533
X26.457Y84.56
X26.463Y84.587
X26.474Y84.642
X26.479Y84.669
X26.483Y84.697
X26.486Y84.725
X26.489Y84.752
X26.492Y84.78
X26.494Y84.808
X26.496Y84.836
X26.497Y84.863
X26.498Y84.891
Y84.919
Y84.947
X26.497Y84.975
X26.496Y85.003
X26.494Y85.031
X26.492Y85.058
X26.489Y85.086
X26.486Y85.114
X26.483Y85.142
X26.479Y85.169
X26.474Y85.196
X26.469Y85.224
X26.463Y85.251
X26.454Y85.294
X26.443Y85.335
X26.428Y85.386
X26.42Y85.413
X26.411Y85.439
X26.402Y85.465
X26.392Y85.491
X26.382Y85.517
X26.371Y85.543
X26.36Y85.569
X26.349Y85.594
X26.337Y85.619
X26.324Y85.644
X26.311Y85.669
X26.298Y85.693
X26.284Y85.718
X26.27Y85.741
X26.256Y85.765
X26.225Y85.812
X26.212Y85.831
X26.193Y85.859
X26.16Y85.902
X26.143Y85.924
X26.125Y85.946
X26.107Y85.967
X26.088Y85.987
X26.069Y86.008
X26.05Y86.028
X26.031Y86.048
X26.011Y86.068
X25.99Y86.087
X25.97Y86.106
X25.949Y86.124
X25.928Y86.142
X25.906Y86.16
X25.863Y86.194
X25.84Y86.211
X25.817Y86.227
X25.794Y86.243
X25.771Y86.258
X25.748Y86.273
X25.724Y86.288
X25.7Y86.302
X25.676Y86.316
X25.651Y86.329
X25.622Y86.344
X25.602Y86.354
X25.577Y86.366
X25.551Y86.378
X25.525Y86.389
X25.5Y86.4
X25.474Y86.41
X25.448Y86.42
X25.421Y86.429
X25.395Y86.438
X25.368Y86.446
X25.342Y86.454
X25.315Y86.461
X25.288Y86.468
X25.261Y86.475
X25.234Y86.481
X25.206Y86.487
X25.179Y86.492
X25.151Y86.496
X25.124Y86.5
X25.096Y86.504
X25.069Y86.507
X25.041Y86.51
X25.013Y86.512
X24.968Y86.514
X24.927Y86.516
X24.902
X24.874
X24.846Y86.515
X24.818Y86.514
X24.79Y86.512
X24.762Y86.51
X24.735Y86.507
X24.707Y86.504
X24.679Y86.5
X24.652Y86.496
X24.624Y86.492
X24.597Y86.487
X24.57Y86.481
X24.542Y86.475
X24.497Y86.464
X24.459Y86.453
X24.435Y86.446
X24.408Y86.438
X24.355Y86.42
X24.304Y86.4
X24.278Y86.389
X24.227Y86.366
X24.202Y86.354
X24.177Y86.342
X24.152Y86.329
X24.127Y86.316
X24.103Y86.302
X24.079Y86.288
X24.056Y86.273
X24.032Y86.258
X24.009Y86.243
X23.986Y86.227
X23.963Y86.211
X23.941Y86.194
X23.919Y86.177
X23.897Y86.16
X23.875Y86.142
X23.854Y86.124
X23.833Y86.106
X23.813Y86.087
X23.793Y86.068
X23.753Y86.028
X23.732Y86.006
X23.715Y85.987
X23.697Y85.967
X23.679Y85.946
X23.661Y85.924
X23.643Y85.902
X23.626Y85.88
X23.61Y85.858
X23.594Y85.835
X23.578Y85.812
X23.563Y85.789
X23.548Y85.765
X23.533Y85.741
X23.519Y85.717
X23.505Y85.693
X23.492Y85.669
X23.479Y85.644
X23.467Y85.619
X23.455Y85.594
X23.443Y85.569
X23.432Y85.543
X23.421Y85.517
X23.411Y85.492
X23.401Y85.465
X23.392Y85.439
X23.382Y85.41
X23.375Y85.386
X23.367Y85.359
X23.359Y85.332
X23.352Y85.305
X23.342Y85.262
X23.334Y85.221
X23.329Y85.196
X23.325Y85.169
X23.321Y85.144
X23.317Y85.113
X23.314Y85.086
X23.311Y85.058
X23.309Y85.031
X23.307Y85.003
X23.306Y84.975
X23.305Y84.947
Y84.925
Y84.89
X23.307Y84.836
X23.309Y84.808
X23.311Y84.78
X23.314Y84.752
X23.317Y84.725
X23.32Y84.697
X23.325Y84.67
X23.329Y84.642
X23.334Y84.615
X23.34Y84.587
X23.346Y84.56
X23.352Y84.533
X23.359Y84.506
X23.367Y84.479
X23.375Y84.452
X23.383Y84.426
X23.401Y84.373
X23.411Y84.347
X23.421Y84.321
X23.432Y84.295
X23.443Y84.27
X23.455Y84.244
X23.467Y84.219
X23.481Y84.191
X23.492Y84.17
X23.505Y84.145
X23.519Y84.121
X23.533Y84.097
X23.548Y84.073
X23.578Y84.026
X23.594Y84.003
X23.61Y83.981
X23.626Y83.958
X23.643Y83.936
X23.678Y83.893
X23.697Y83.872
X23.715Y83.851
X23.734Y83.83
X23.753Y83.81
X23.773Y83.79
X23.792Y83.771
X23.813Y83.751
X23.833Y83.733
X23.854Y83.714
X23.875Y83.696
X23.919Y83.661
X23.941Y83.644
X23.963Y83.628
X23.986Y83.611
X24.009Y83.595
X24.032Y83.58
X24.055Y83.565
X24.079Y83.551
X24.103Y83.536
X24.128Y83.523
X24.148Y83.512
X24.202Y83.484
X24.227Y83.472
X24.252Y83.461
X24.303Y83.439
X24.329Y83.429
X24.356Y83.419
X24.382Y83.41
X24.408Y83.401
X24.435Y83.392
X24.461Y83.384
G0Z1
X38.275Y84.73
G1Z-0.3F5
X38.326Y84.561F10
X38.409Y84.405
X38.522Y84.268
X38.658Y84.156
X38.814Y84.073
X38.983Y84.022
X39.159Y84.004
X39.335Y84.022
X39.504Y84.073
X39.66Y84.156
X39.796Y84.268
X39.908Y84.405
X39.992Y84.561
X40.043Y84.73
X40.06Y84.906
X40.043Y85.081
X39.992Y85.251
X39.908Y85.406
X39.796Y85.543
X39.66Y85.655
X39.504Y85.738
X39.335Y85.79
X39.159Y85.807
X38.983Y85.79
X38.814Y85.738
X38.658Y85.655
X38.522Y85.543
X38.409Y85.406
X38.326Y85.251
X38.275Y85.081
X38.258Y84.906
X38.275Y84.73
G0Z1
X54.162Y84.906
G1Z-0.3F5
X54.179Y84.73F10
X54.23Y84.561
X54.314Y84.405
X54.426Y84.268
X54.562Y84.156
X54.718Y84.073
X54.887Y84.022
X55.063Y84.004
X55.239Y84.022
X55.408Y84.073
X55.564Y84.156
X55.7Y84.268
X55.812Y84.405
X55.896Y84.561
X55.947Y84.73
X55.964Y84.906
X55.947Y85.081
X55.896Y85.251
X55.812Y85.406
X55.7Y85.543
X55.564Y85.655
X55.408Y85.738
X55.239Y85.79
X55.063Y85.807
X54.887Y85.79
X54.718Y85.738
X54.562Y85.655
X54.426Y85.543
X54.314Y85.406
X54.23Y85.251
X54.179Y85.081
X54.162Y84.906
G0Z1
X57.693Y92.86
G1Z-0.3F5
X58.461Y92.854F10
X59.203Y92.838
X59.887Y92.811
X60.001Y92.805
X62.935
X62.973
X63.011Y92.803
X63.05Y92.801
X63.088Y92.798
X63.126Y92.794
X63.164Y92.789
X63.201Y92.783
X63.239Y92.776
X63.276Y92.768
X63.314Y92.759
X63.351Y92.75
X63.388Y92.739
X63.424Y92.728
X63.46Y92.716
X63.496Y92.703
X63.532Y92.689
X63.567Y92.674
X63.602Y92.659
X63.637Y92.642
X63.671Y92.624
X63.705Y92.606
X63.739Y92.587
X63.772Y92.567
X63.805Y92.546
X63.837Y92.525
X63.868Y92.503
X63.899Y92.48
X63.93Y92.456
X63.96Y92.431
X63.989Y92.406
X64.017Y92.38
X64.045Y92.354
X64.073Y92.326
X64.099Y92.299
X64.125Y92.27
X64.151Y92.241
X64.175Y92.211
X64.199Y92.181
X64.222Y92.15
X64.244Y92.118
X64.266Y92.086
X64.288Y92.051
X64.31Y92.014
X64.327Y91.985
X64.343Y91.955
X64.365Y91.912
X64.378Y91.885
X64.393Y91.852
X64.407Y91.819
X64.42Y91.786
X64.434Y91.748
X64.447Y91.709
X64.459Y91.671
X64.47Y91.632
X64.479Y91.6
X64.486Y91.567
X64.493Y91.535
X64.502Y91.49
X64.51Y91.441
X64.512Y91.428
X64.523Y91.393
X64.534Y91.355
X64.544Y91.317
X64.553Y91.279
X64.561Y91.24
X64.569Y91.202
X64.575Y91.163
X64.58Y91.124
X64.585Y91.084
X64.588Y91.045
X64.591Y91.006
X64.592Y90.966
X64.593Y90.927
X64.592Y80.055
X64.59Y79.977
X64.584Y79.899
X64.581Y79.864
X64.515Y79.224
X64.51Y79.19
X64.505Y79.156
X64.499Y79.122
X64.492Y79.088
X64.484Y79.052
X64.476Y79.017
X64.466Y78.982
X64.456Y78.948
X64.445Y78.913
X64.433Y78.878
X64.42Y78.844
X64.404Y78.804
X64.392Y78.774
X64.378Y78.745
X64.36Y78.707
X64.341Y78.67
X64.325Y78.641
X64.309Y78.612
X64.292Y78.584
X64.273Y78.554
X64.254Y78.524
X64.234Y78.495
X64.213Y78.466
X64.192Y78.438
X64.17Y78.411
X64.139Y78.374
X64.107Y78.338
X64.079Y78.309
X64.051Y78.281
X64.03Y78.26
X64.007Y78.239
X63.978Y78.213
X63.963Y78.2
X63.932Y78.174
X63.9Y78.149
X63.868Y78.125
X63.835Y78.102
X63.801Y78.08
X63.767Y78.058
X63.732Y78.037
X63.697Y78.018
X63.662Y77.999
X63.626Y77.981
X63.59Y77.965
X63.554Y77.949
X63.517Y77.934
X63.48Y77.92
X63.443Y77.906
X63.405Y77.894
X63.367Y77.883
X63.328Y77.873
X63.29Y77.863
X63.251Y77.855
X63.212Y77.847
X63.172Y77.841
X63.133Y77.836
X63.094Y77.831
X63.054Y77.828
X63.014Y77.825
X62.975Y77.824
X62.935Y77.823
X34.935
X34.897Y77.824
X34.859Y77.825
X34.82Y77.827
X34.776Y77.831
X34.731Y77.836
X34.686Y77.843
X34.646Y77.85
X34.607Y77.857
X34.564Y77.867
X31.258
X30.097Y77.858
X28.943Y77.83
X27.789Y77.784
X26.637Y77.72
X25.356Y77.627
X25.239Y77.621
X25.122Y77.617
X25.006Y77.614
X24.902Y77.613
X19.825Y77.614
X19.747Y77.616
X19.67Y77.622
X19.593Y77.63
X19.517Y77.64
X19.44Y77.654
X19.365Y77.67
X19.288Y77.689
X19.215Y77.71
X19.141Y77.734
X19.068Y77.76
X18.996Y77.789
X18.925Y77.821
X18.856Y77.854
X18.787Y77.891
X18.72Y77.929
X18.654Y77.97
X18.59Y78.013
X18.527Y78.059
X18.466Y78.106
X18.407Y78.156
X18.349Y78.208
X18.294Y78.261
X18.239Y78.318
X18.188Y78.374
X18.137Y78.434
X18.089Y78.495
X18.044Y78.557
X18Y78.622
X17.959Y78.686
X17.92Y78.754
X17.883Y78.822
X17.849Y78.892
X17.818Y78.962
X17.788Y79.034
X17.761Y79.106
X17.737Y79.181
X17.716Y79.254
X17.697Y79.329
X17.68Y79.405
X17.666Y79.482
X17.66Y79.52
X17.245Y82.386
X17.224Y82.542
X17.205Y82.699
X17.19Y82.856
X17.177Y83.013
X17.166Y83.171
X17.159Y83.329
X17.154Y83.487
X17.152Y83.645
Y83.803
X17.155Y83.961
X17.161Y84.118
X17.17Y84.276
X17.181Y84.434
X17.195Y84.591
X17.212Y84.748
X17.231Y84.905
X17.253Y85.061
X17.278Y85.217
X17.306Y85.373
X17.336Y85.528
X17.368Y85.682
X17.404Y85.836
X17.442Y85.99
X17.483Y86.142
X17.526Y86.294
X17.572Y86.445
X17.62Y86.596
X17.671Y86.745
X17.725Y86.894
X17.781Y87.041
X17.839Y87.188
X17.9Y87.334
X17.964Y87.478
X18.03Y87.622
X18.099Y87.764
X18.17Y87.905
X18.243Y88.045
X18.319Y88.184
X18.397Y88.321
X18.477Y88.457
X18.56Y88.591
X18.645Y88.724
X18.732Y88.856
X18.822Y88.986
X18.914Y89.115
X19.008Y89.242
X19.104Y89.367
X19.202Y89.491
X19.302Y89.612
X19.384Y89.709
X19.468Y89.803
X19.553Y89.897
X19.64Y89.988
X19.729Y90.079
X19.819Y90.167
X19.911Y90.255
X20.005Y90.341
X20.099Y90.425
X20.196Y90.508
X20.293Y90.588
X20.392Y90.667
X20.492Y90.745
X20.594Y90.82
X20.697Y90.894
X20.801Y90.966
X20.906Y91.036
X21.013Y91.104
X21.12Y91.171
X21.23Y91.235
X21.339Y91.298
X21.45Y91.359
X21.563Y91.418
X21.676Y91.474
X21.79Y91.529
X21.905Y91.582
X22.021Y91.633
X22.137Y91.682
X22.255Y91.729
X22.373Y91.774
X22.492Y91.816
X22.612Y91.857
X22.733Y91.896
X22.854Y91.932
X22.976Y91.967
X23.098Y91.999
X23.221Y92.029
X23.345Y92.057
X23.468Y92.083
X24.11Y92.207
X24.754Y92.32
X25.4Y92.423
X26.048Y92.515
X26.697Y92.596
X27.347Y92.666
X27.998Y92.726
X28.65Y92.774
X29.303Y92.812
X29.957Y92.839
X30.611Y92.855
X31.252Y92.86
X57.693
G0Z1
X24.461Y83.384
G1Z-0.4F5
X24.518Y83.369F10
X24.543Y83.363
X24.57Y83.357
X24.597Y83.352
X24.624Y83.347
X24.652Y83.342
X24.679Y83.338
X24.707Y83.334
X24.735Y83.331
X24.762Y83.329
X24.79Y83.326
X24.818Y83.325
X24.846Y83.324
X24.874Y83.323
X24.93
X24.957Y83.324
X24.985Y83.325
X25.041Y83.329
X25.069Y83.331
X25.096Y83.334
X25.124Y83.338
X25.151Y83.342
X25.179Y83.347
X25.206Y83.352
X25.233Y83.357
X25.261Y83.363
X25.288Y83.37
X25.315Y83.377
X25.342Y83.384
X25.368Y83.392
X25.395Y83.401
X25.421Y83.41
X25.474Y83.429
X25.527Y83.45
X25.551Y83.461
X25.576Y83.472
X25.602Y83.484
X25.626Y83.497
X25.651Y83.509
X25.676Y83.523
X25.7Y83.536
X25.724Y83.551
X25.748Y83.565
X25.771Y83.58
X25.794Y83.595
X25.817Y83.611
X25.84Y83.628
X25.862Y83.644
X25.885Y83.661
X25.906Y83.678
X25.928Y83.696
X25.949Y83.714
X25.97Y83.733
X26.011Y83.771
X26.031Y83.79
X26.05Y83.81
X26.069Y83.83
X26.088Y83.851
X26.125Y83.893
X26.142Y83.914
X26.16Y83.936
X26.177Y83.958
X26.193Y83.981
X26.209Y84.003
X26.225Y84.026
X26.241Y84.05
X26.256Y84.073
X26.27Y84.097
X26.284Y84.121
X26.298Y84.145
X26.311Y84.17
X26.324Y84.194
X26.337Y84.219
X26.349Y84.244
X26.36Y84.27
X26.371Y84.295
X26.382Y84.321
X26.392Y84.347
X26.402Y84.373
X26.411Y84.399
X26.42Y84.426
X26.428Y84.452
X26.436Y84.479
X26.444Y84.506
X26.451Y84.533
X26.457Y84.56
X26.463Y84.587
X26.474Y84.642
X26.479Y84.669
X26.483Y84.697
X26.486Y84.725
X26.489Y84.752
X26.492Y84.78
X26.494Y84.808
X26.496Y84.836
X26.497Y84.863
X26.498Y84.891
Y84.919
Y84.947
X26.497Y84.975
X26.496Y85.003
X26.494Y85.031
X26.492Y85.058
X26.489Y85.086
X26.486Y85.114
X26.483Y85.142
X26.479Y85.169
X26.474Y85.196
X26.469Y85.224
X26.463Y85.251
X26.454Y85.294
X26.443Y85.335
X26.428Y85.386
X26.42Y85.413
X26.411Y85.439
X26.402Y85.465
X26.392Y85.491
X26.382Y85.517
X26.371Y85.543
X26.36Y85.569
X26.349Y85.594
X26.337Y85.619
X26.324Y85.644
X26.311Y85.669
X26.298Y85.693
X26.284Y85.718
X26.27Y85.741
X26.256Y85.765
X26.225Y85.812
X26.212Y85.831
X26.193Y85.859
X26.16Y85.902
X26.143Y85.924
X26.125Y85.946
X26.107Y85.967
X26.088Y85.987
X26.069Y86.008
X26.05Y86.028
X26.031Y86.048
X26.011Y86.068
X25.99Y86.087
X25.97Y86.106
X25.949Y86.124
X25.928Y86.142
X25.906Y86.16
X25.863Y86.194
X25.84Y86.211
X25.817Y86.227
X25.794Y86.243
X25.771Y86.258
X25.748Y86.273
X25.724Y86.288
X25.7Y86.302
X25.676Y86.316
X25.651Y86.329
X25.622Y86.344
X25.602Y86.354
X25.577Y86.366
X25.551Y86.378
X25.525Y86.389
X25.5Y86.4
X25.474Y86.41
X25.448Y86.42
X25.421Y86.429
X25.395Y86.438
X25.368Y86.446
X25.342Y86.454
X25.315Y86.461
X25.288Y86.468
X25.261Y86.475
X25.234Y86.481
X25.206Y86.487
X25.179Y86.492
X25.151Y86.496
X25.124Y86.5
X25.096Y86.504
X25.069Y86.507
X25.041Y86.51
X25.013Y86.512
X24.968Y86.514
X24.927Y86.516
X24.902
X24.874
X24.846Y86.515
X24.818Y86.514
X24.79Y86.512
X24.762Y86.51
X24.735Y86.507
X24.707Y86.504
X24.679Y86.5
X24.652Y86.496
X24.624Y86.492
X24.597Y86.487
X24.57Y86.481
X24.542Y86.475
X24.497Y86.464
X24.459Y86.453
X24.435Y86.446
X24.408Y86.438
X24.355Y86.42
X24.304Y86.4
X24.278Y86.389
X24.227Y86.366
X24.202Y86.354
X24.177Y86.342
X24.152Y86.329
X24.127Y86.316
X24.103Y86.302
X24.079Y86.288
X24.056Y86.273
X24.032Y86.258
X24.009Y86.243
X23.986Y86.227
X23.963Y86.211
X23.941Y86.194
X23.919Y86.177
X23.897Y86.16
X23.875Y86.142
X23.854Y86.124
X23.833Y86.106
X23.813Y86.087
X23.793Y86.068
X23.753Y86.028
X23.732Y86.006
X23.715Y85.987
X23.697Y85.967
X23.679Y85.946
X23.661Y85.924
X23.643Y85.902
X23.626Y85.88
X23.61Y85.858
X23.594Y85.835
X23.578Y85.812
X23.563Y85.789
X23.548Y85.765
X23.533Y85.741
X23.519Y85.717
X23.505Y85.693
X23.492Y85.669
X23.479Y85.644
X23.467Y85.619
X23.455Y85.594
X23.443Y85.569
X23.432Y85.543
X23.421Y85.517
X23.411Y85.492
X23.401Y85.465
X23.392Y85.439
X23.382Y85.41
X23.375Y85.386
X23.367Y85.359
X23.359Y85.332
X23.352Y85.305
X23.342Y85.262
X23.334Y85.221
X23.329Y85.196
X23.325Y85.169
X23.321Y85.144
X23.317Y85.113
X23.314Y85.086
X23.311Y85.058
X23.309Y85.031
X23.307Y85.003
X23.306Y84.975
X23.305Y84.947
Y84.925
Y84.89
X23.307Y84.836
X23.309Y84.808
X23.311Y84.78
X23.314Y84.752
X23.317Y84.725
X23.32Y84.697
X23.325Y84.67
X23.329Y84.642
X23.334Y84.615
X23.34Y84.587
X23.346Y84.56
X23.352Y84.533
X23.359Y84.506
X23.367Y84.479
X23.375Y84.452
X23.383Y84.426
X23.401Y84.373
X23.411Y84.347
X23.421Y84.321
X23.432Y84.295
X23.443Y84.27
X23.455Y84.244
X23.467Y84.219
X23.481Y84.191
X23.492Y84.17
X23.505Y84.145
X23.519Y84.121
X23.533Y84.097
X23.548Y84.073
X23.578Y84.026
X23.594Y84.003
X23.61Y83.981
X23.626Y83.958
X23.643Y83.936
X23.678Y83.893
X23.697Y83.872
X23.715Y83.851
X23.734Y83.83
X23.753Y83.81
X23.773Y83.79
X23.792Y83.771
X23.813Y83.751
X23.833Y83.733
X23.854Y83.714
X23.875Y83.696
X23.919Y83.661
X23.941Y83.644
X23.963Y83.628
X23.986Y83.611
X24.009Y83.595
X24.032Y83.58
X24.055Y83.565
X24.079Y83.551
X24.103Y83.536
X24.128Y83.523
X24.148Y83.512
X24.202Y83.484
X24.227Y83.472
X24.252Y83.461
X24.303Y83.439
X24.329Y83.429
X24.356Y83.419
X24.382Y83.41
X24.408Y83.401
X24.435Y83.392
X24.461Y83.384
G0Z1
X38.275Y84.73
G1Z-0.4F5
X38.326Y84.561F10
X38.409Y84.405
X38.522Y84.268
X38.658Y84.156
X38.814Y84.073
X38.983Y84.022
X39.159Y84.004
X39.335Y84.022
X39.504Y84.073
X39.66Y84.156
X39.796Y84.268
X39.908Y84.405
X39.992Y84.561
X40.043Y84.73
X40.06Y84.906
X40.043Y85.081
X39.992Y85.251
X39.908Y85.406
X39.796Y85.543
X39.66Y85.655
X39.504Y85.738
X39.335Y85.79
X39.159Y85.807
X38.983Y85.79
X38.814Y85.738
X38.658Y85.655
X38.522Y85.543
X38.409Y85.406
X38.326Y85.251
X38.275Y85.081
X38.258Y84.906
X38.275Y84.73
G0Z1
X54.162Y84.906
G1Z-0.4F5
X54.179Y84.73F10
X54.23Y84.561
X54.314Y84.405
X54.426Y84.268
X54.562Y84.156
X54.718Y84.073
X54.887Y84.022
X55.063Y84.004
X55.239Y84.022
X55.408Y84.073
X55.564Y84.156
X55.7Y84.268
X55.812Y84.405
X55.896Y84.561
X55.947Y84.73
X55.964Y84.906
X55.947Y85.081
X55.896Y85.251
X55.812Y85.406
X55.7Y85.543
X55.564Y85.655
X55.408Y85.738
X55.239Y85.79
X55.063Y85.807
X54.887Y85.79
X54.718Y85.738
X54.562Y85.655
X54.426Y85.543
X54.314Y85.406
X54.23Y85.251
X54.179Y85.081
X54.162Y84.906
G0Z1
X57.693Y92.86
G1Z-0.4F5
X58.461Y92.854F10
X59.203Y92.838
X59.887Y92.811
X60.001Y92.805
X62.935
X62.973
X63.011Y92.803
X63.05Y92.801
X63.088Y92.798
X63.126Y92.794
X63.164Y92.789
X63.201Y92.783
X63.239Y92.776
X63.276Y92.768
X63.314Y92.759
X63.351Y92.75
X63.388Y92.739
X63.424Y92.728
X63.46Y92.716
X63.496Y92.703
X63.532Y92.689
X63.567Y92.674
X63.602Y92.659
X63.637Y92.642
X63.671Y92.624
X63.705Y92.606
X63.739Y92.587
X63.772Y92.567
X63.805Y92.546
X63.837Y92.525
X63.868Y92.503
X63.899Y92.48
X63.93Y92.456
X63.96Y92.431
X63.989Y92.406
X64.017Y92.38
X64.045Y92.354
X64.073Y92.326
X64.099Y92.299
X64.125Y92.27
X64.151Y92.241
X64.175Y92.211
X64.199Y92.181
X64.222Y92.15
X64.244Y92.118
X64.266Y92.086
X64.288Y92.051
X64.31Y92.014
X64.327Y91.985
X64.343Y91.955
X64.365Y91.912
X64.378Y91.885
X64.393Y91.852
X64.407Y91.819
X64.42Y91.786
X64.434Y91.748
X64.447Y91.709
X64.459Y91.671
X64.47Y91.632
X64.479Y91.6
X64.486Y91.567
X64.493Y91.535
X64.502Y91.49
X64.51Y91.441
X64.512Y91.428
X64.523Y91.393
X64.534Y91.355
X64.544Y91.317
X64.553Y91.279
X64.561Y91.24
X64.569Y91.202
X64.575Y91.163
X64.58Y91.124
X64.585Y91.084
X64.588Y91.045
X64.591Y91.006
X64.592Y90.966
X64.593Y90.927
X64.592Y80.055
X64.59Y79.977
X64.584Y79.899
X64.581Y79.864
X64.515Y79.224
X64.51Y79.19
X64.505Y79.156
X64.499Y79.122
X64.492Y79.088
X64.484Y79.052
X64.476Y79.017
X64.466Y78.982
X64.456Y78.948
X64.445Y78.913
X64.433Y78.878
X64.42Y78.844
X64.404Y78.804
X64.392Y78.774
X64.378Y78.745
X64.36Y78.707
X64.341Y78.67
X64.325Y78.641
X64.309Y78.612
X64.292Y78.584
X64.273Y78.554
X64.254Y78.524
X64.234Y78.495
X64.213Y78.466
X64.192Y78.438
X64.17Y78.411
X64.139Y78.374
X64.107Y78.338
X64.079Y78.309
X64.051Y78.281
X64.03Y78.26
X64.007Y78.239
X63.978Y78.213
X63.963Y78.2
X63.932Y78.174
X63.9Y78.149
X63.868Y78.125
X63.835Y78.102
X63.801Y78.08
X63.767Y78.058
X63.732Y78.037
X63.697Y78.018
X63.662Y77.999
X63.626Y77.981
X63.59Y77.965
X63.554Y77.949
X63.517Y77.934
X63.48Y77.92
X63.443Y77.906
X63.405Y77.894
X63.367Y77.883
X63.328Y77.873
X63.29Y77.863
X63.251Y77.855
X63.212Y77.847
X63.172Y77.841
X63.133Y77.836
X63.094Y77.831
X63.054Y77.828
X63.014Y77.825
X62.975Y77.824
X62.935Y77.823
X34.935
X34.897Y77.824
X34.859Y77.825
X34.82Y77.827
X34.776Y77.831
X34.731Y77.836
X34.686Y77.843
X34.646Y77.85
X34.607Y77.857
X34.564Y77.867
X31.258
X30.097Y77.858
X28.943Y77.83
X27.789Y77.784
X26.637Y77.72
X25.356Y77.627
X25.239Y77.621
X25.122Y77.617
X25.006Y77.614
X24.902Y77.613
X19.825Y77.614
X19.747Y77.616
X19.67Y77.622
X19.593Y77.63
X19.517Y77.64
X19.44Y77.654
X19.365Y77.67
X19.288Y77.689
X19.215Y77.71
X19.141Y77.734
X19.068Y77.76
X18.996Y77.789
X18.925Y77.821
X18.856Y77.854
X18.787Y77.891
X18.72Y77.929
X18.654Y77.97
X18.59Y78.013
X18.527Y78.059
X18.466Y78.106
X18.407Y78.156
X18.349Y78.208
X18.294Y78.261
X18.239Y78.318
X18.188Y78.374
X18.137Y78.434
X18.089Y78.495
X18.044Y78.557
X18Y78.622
X17.959Y78.686
X17.92Y78.754
X17.883Y78.822
X17.849Y78.892
X17.818Y78.962
X17.788Y79.034
X17.761Y79.106
X17.737Y79.181
X17.716Y79.254
X17.697Y79.329
X17.68Y79.405
X17.666Y79.482
X17.66Y79.52
X17.245Y82.386
X17.224Y82.542
X17.205Y82.699
X17.19Y82.856
X17.177Y83.013
X17.166Y83.171
X17.159Y83.329
X17.154Y83.487
X17.152Y83.645
Y83.803
X17.155Y83.961
X17.161Y84.118
X17.17Y84.276
X17.181Y84.434
X17.195Y84.591
X17.212Y84.748
X17.231Y84.905
X17.253Y85.061
X17.278Y85.217
X17.306Y85.373
X17.336Y85.528
X17.368Y85.682
X17.404Y85.836
X17.442Y85.99
X17.483Y86.142
X17.526Y86.294
X17.572Y86.445
X17.62Y86.596
X17.671Y86.745
X17.725Y86.894
X17.781Y87.041
X17.839Y87.188
X17.9Y87.334
X17.964Y87.478
X18.03Y87.622
X18.099Y87.764
X18.17Y87.905
X18.243Y88.045
X18.319Y88.184
X18.397Y88.321
X18.477Y88.457
X18.56Y88.591
X18.645Y88.724
X18.732Y88.856
X18.822Y88.986
X18.914Y89.115
X19.008Y89.242
X19.104Y89.367
X19.202Y89.491
X19.302Y89.612
X19.384Y89.709
X19.468Y89.803
X19.553Y89.897
X19.64Y89.988
X19.729Y90.079
X19.819Y90.167
X19.911Y90.255
X20.005Y90.341
X20.099Y90.425
X20.196Y90.508
X20.293Y90.588
X20.392Y90.667
X20.492Y90.745
X20.594Y90.82
X20.697Y90.894
X20.801Y90.966
X20.906Y91.036
X21.013Y91.104
X21.12Y91.171
X21.23Y91.235
X21.339Y91.298
X21.45Y91.359
X21.563Y91.418
X21.676Y91.474
X21.79Y91.529
X21.905Y91.582
X22.021Y91.633
X22.137Y91.682
X22.255Y91.729
X22.373Y91.774
X22.492Y91.816
X22.612Y91.857
X22.733Y91.896
X22.854Y91.932
X22.976Y91.967
X23.098Y91.999
X23.221Y92.029
X23.345Y92.057
X23.468Y92.083
X24.11Y92.207
X24.754Y92.32
X25.4Y92.423
X26.048Y92.515
X26.697Y92.596
X27.347Y92.666
X27.998Y92.726
X28.65Y92.774
X29.303Y92.812
X29.957Y92.839
X30.611Y92.855
X31.252Y92.86
X57.693
G0Z1
X24.461Y83.384
G1Z-0.5F5
X24.518Y83.369F10
X24.543Y83.363
X24.57Y83.357
X24.597Y83.352
X24.624Y83.347
X24.652Y83.342
X24.679Y83.338
X24.707Y83.334
X24.735Y83.331
X24.762Y83.329
X24.79Y83.326
X24.818Y83.325
X24.846Y83.324
X24.874Y83.323
X24.93
X24.957Y83.324
X24.985Y83.325
X25.041Y83.329
X25.069Y83.331
X25.096Y83.334
X25.124Y83.338
X25.151Y83.342
X25.179Y83.347
X25.206Y83.352
X25.233Y83.357
X25.261Y83.363
X25.288Y83.37
X25.315Y83.377
X25.342Y83.384
X25.368Y83.392
X25.395Y83.401
X25.421Y83.41
X25.474Y83.429
X25.527Y83.45
X25.551Y83.461
X25.576Y83.472
X25.602Y83.484
X25.626Y83.497
X25.651Y83.509
X25.676Y83.523
X25.7Y83.536
X25.724Y83.551
X25.748Y83.565
X25.771Y83.58
X25.794Y83.595
X25.817Y83.611
X25.84Y83.628
X25.862Y83.644
X25.885Y83.661
X25.906Y83.678
X25.928Y83.696
X25.949Y83.714
X25.97Y83.733
X26.011Y83.771
X26.031Y83.79
X26.05Y83.81
X26.069Y83.83
X26.088Y83.851
X26.125Y83.893
X26.142Y83.914
X26.16Y83.936
X26.177Y83.958
X26.193Y83.981
X26.209Y84.003
X26.225Y84.026
X26.241Y84.05
X26.256Y84.073
X26.27Y84.097
X26.284Y84.121
X26.298Y84.145
X26.311Y84.17
X26.324Y84.194
X26.337Y84.219
X26.349Y84.244
X26.36Y84.27
X26.371Y84.295
X26.382Y84.321
X26.392Y84.347
X26.402Y84.373
X26.411Y84.399
X26.42Y84.426
X26.428Y84.452
X26.436Y84.479
X26.444Y84.506
X26.451Y84.533
X26.457Y84.56
X26.463Y84.587
X26.474Y84.642
X26.479Y84.669
X26.483Y84.697
X26.486Y84.725
X26.489Y84.752
X26.492Y84.78
X26.494Y84.808
X26.496Y84.836
X26.497Y84.863
X26.498Y84.891
Y84.919
Y84.947
X26.497Y84.975
X26.496Y85.003
X26.494Y85.031
X26.492Y85.058
X26.489Y85.086
X26.486Y85.114
X26.483Y85.142
X26.479Y85.169
X26.474Y85.196
X26.469Y85.224
X26.463Y85.251
X26.454Y85.294
X26.443Y85.335
X26.428Y85.386
X26.42Y85.413
X26.411Y85.439
X26.402Y85.465
X26.392Y85.491
X26.382Y85.517
X26.371Y85.543
X26.36Y85.569
X26.349Y85.594
X26.337Y85.619
X26.324Y85.644
X26.311Y85.669
X26.298Y85.693
X26.284Y85.718
X26.27Y85.741
X26.256Y85.765
X26.225Y85.812
X26.212Y85.831
X26.193Y85.859
X26.16Y85.902
X26.143Y85.924
X26.125Y85.946
X26.107Y85.967
X26.088Y85.987
X26.069Y86.008
X26.05Y86.028
X26.031Y86.048
X26.011Y86.068
X25.99Y86.087
X25.97Y86.106
X25.949Y86.124
X25.928Y86.142
X25.906Y86.16
X25.863Y86.194
X25.84Y86.211
X25.817Y86.227
X25.794Y86.243
X25.771Y86.258
X25.748Y86.273
X25.724Y86.288
X25.7Y86.302
X25.676Y86.316
X25.651Y86.329
X25.622Y86.344
X25.602Y86.354
X25.577Y86.366
X25.551Y86.378
X25.525Y86.389
X25.5Y86.4
X25.474Y86.41
X25.448Y86.42
X25.421Y86.429
X25.395Y86.438
X25.368Y86.446
X25.342Y86.454
X25.315Y86.461
X25.288Y86.468
X25.261Y86.475
X25.234Y86.481
X25.206Y86.487
X25.179Y86.492
X25.151Y86.496
X25.124Y86.5
X25.096Y86.504
X25.069Y86.507
X25.041Y86.51
X25.013Y86.512
X24.968Y86.514
X24.927Y86.516
X24.902
X24.874
X24.846Y86.515
X24.818Y86.514
X24.79Y86.512
X24.762Y86.51
X24.735Y86.507
X24.707Y86.504
X24.679Y86.5
X24.652Y86.496
X24.624Y86.492
X24.597Y86.487
X24.57Y86.481
X24.542Y86.475
X24.497Y86.464
X24.459Y86.453
X24.435Y86.446
X24.408Y86.438
X24.355Y86.42
X24.304Y86.4
X24.278Y86.389
X24.227Y86.366
X24.202Y86.354
X24.177Y86.342
X24.152Y86.329
X24.127Y86.316
X24.103Y86.302
X24.079Y86.288
X24.056Y86.273
X24.032Y86.258
X24.009Y86.243
X23.986Y86.227
X23.963Y86.211
X23.941Y86.194
X23.919Y86.177
X23.897Y86.16
X23.875Y86.142
X23.854Y86.124
X23.833Y86.106
X23.813Y86.087
X23.793Y86.068
X23.753Y86.028
X23.732Y86.006
X23.715Y85.987
X23.697Y85.967
X23.679Y85.946
X23.661Y85.924
X23.643Y85.902
X23.626Y85.88
X23.61Y85.858
X23.594Y85.835
X23.578Y85.812
X23.563Y85.789
X23.548Y85.765
X23.533Y85.741
X23.519Y85.717
X23.505Y85.693
X23.492Y85.669
X23.479Y85.644
X23.467Y85.619
X23.455Y85.594
X23.443Y85.569
X23.432Y85.543
X23.421Y85.517
X23.411Y85.492
X23.401Y85.465
X23.392Y85.439
X23.382Y85.41
X23.375Y85.386
X23.367Y85.359
X23.359Y85.332
X23.352Y85.305
X23.342Y85.262
X23.334Y85.221
X23.329Y85.196
X23.325Y85.169
X23.321Y85.144
X23.317Y85.113
X23.314Y85.086
X23.311Y85.058
X23.309Y85.031
X23.307Y85.003
X23.306Y84.975
X23.305Y84.947
Y84.925
Y84.89
X23.307Y84.836
X23.309Y84.808
X23.311Y84.78
X23.314Y84.752
X23.317Y84.725
X23.32Y84.697
X23.325Y84.67
X23.329Y84.642
X23.334Y84.615
X23.34Y84.587
X23.346Y84.56
X23.352Y84.533
X23.359Y84.506
X23.367Y84.479
X23.375Y84.452
X23.383Y84.426
X23.401Y84.373
X23.411Y84.347
X23.421Y84.321
X23.432Y84.295
X23.443Y84.27
X23.455Y84.244
X23.467Y84.219
X23.481Y84.191
X23.492Y84.17
X23.505Y84.145
X23.519Y84.121
X23.533Y84.097
X23.548Y84.073
X23.578Y84.026
X23.594Y84.003
X23.61Y83.981
X23.626Y83.958
X23.643Y83.936
X23.678Y83.893
X23.697Y83.872
X23.715Y83.851
X23.734Y83.83
X23.753Y83.81
X23.773Y83.79
X23.792Y83.771
X23.813Y83.751
X23.833Y83.733
X23.854Y83.714
X23.875Y83.696
X23.919Y83.661
X23.941Y83.644
X23.963Y83.628
X23.986Y83.611
X24.009Y83.595
X24.032Y83.58
X24.055Y83.565
X24.079Y83.551
X24.103Y83.536
X24.128Y83.523
X24.148Y83.512
X24.202Y83.484
X24.227Y83.472
X24.252Y83.461
X24.303Y83.439
X24.329Y83.429
X24.356Y83.419
X24.382Y83.41
X24.408Y83.401
X24.435Y83.392
X24.461Y83.384
G0Z1
X38.275Y84.73
G1Z-0.5F5
X38.326Y84.561F10
X38.409Y84.405
X38.522Y84.268
X38.658Y84.156
X38.814Y84.073
X38.983Y84.022
X39.159Y84.004
X39.335Y84.022
X39.504Y84.073
X39.66Y84.156
X39.796Y84.268
X39.908Y84.405
X39.992Y84.561
X40.043Y84.73
X40.06Y84.906
X40.043Y85.081
X39.992Y85.251
X39.908Y85.406
X39.796Y85.543
X39.66Y85.655
X39.504Y85.738
X39.335Y85.79
X39.159Y85.807
X38.983Y85.79
X38.814Y85.738
X38.658Y85.655
X38.522Y85.543
X38.409Y85.406
X38.326Y85.251
X38.275Y85.081
X38.258Y84.906
X38.275Y84.73
G0Z1
X54.162Y84.906
G1Z-0.5F5
X54.179Y84.73F10
X54.23Y84.561
X54.314Y84.405
X54.426Y84.268
X54.562Y84.156
X54.718Y84.073
X54.887Y84.022
X55.063Y84.004
X55.239Y84.022
X55.408Y84.073
X55.564Y84.156
X55.7Y84.268
X55.812Y84.405
X55.896Y84.561
X55.947Y84.73
X55.964Y84.906
X55.947Y85.081
X55.896Y85.251
X55.812Y85.406
X55.7Y85.543
X55.564Y85.655
X55.408Y85.738
X55.239Y85.79
X55.063Y85.807
X54.887Y85.79
X54.718Y85.738
X54.562Y85.655
X54.426Y85.543
X54.314Y85.406
X54.23Y85.251
X54.179Y85.081
X54.162Y84.906
G0Z1
X57.693Y92.86
G1Z-0.5F5
X58.461Y92.854F10
X59.203Y92.838
X59.887Y92.811
X60.001Y92.805
X62.935
X62.973
X63.011Y92.803
X63.05Y92.801
X63.088Y92.798
X63.126Y92.794
X63.164Y92.789
X63.201Y92.783
X63.239Y92.776
X63.276Y92.768
X63.314Y92.759
X63.351Y92.75
X63.388Y92.739
X63.424Y92.728
X63.46Y92.716
X63.496Y92.703
X63.532Y92.689
X63.567Y92.674
X63.602Y92.659
X63.637Y92.642
X63.671Y92.624
X63.705Y92.606
X63.739Y92.587
X63.772Y92.567
X63.805Y92.546
X63.837Y92.525
X63.868Y92.503
X63.899Y92.48
X63.93Y92.456
X63.96Y92.431
X63.989Y92.406
X64.017Y92.38
X64.045Y92.354
X64.073Y92.326
X64.099Y92.299
X64.125Y92.27
X64.151Y92.241
X64.175Y92.211
X64.199Y92.181
X64.222Y92.15
X64.244Y92.118
X64.266Y92.086
X64.288Y92.051
X64.31Y92.014
X64.327Y91.985
X64.343Y91.955
X64.365Y91.912
X64.378Y91.885
X64.393Y91.852
X64.407Y91.819
X64.42Y91.786
X64.434Y91.748
X64.447Y91.709
X64.459Y91.671
X64.47Y91.632
X64.479Y91.6
X64.486Y91.567
X64.493Y91.535
X64.502Y91.49
X64.51Y91.441
X64.512Y91.428
X64.523Y91.393
X64.534Y91.355
X64.544Y91.317
X64.553Y91.279
X64.561Y91.24
X64.569Y91.202
X64.575Y91.163
X64.58Y91.124
X64.585Y91.084
X64.588Y91.045
X64.591Y91.006
X64.592Y90.966
X64.593Y90.927
X64.592Y80.055
X64.59Y79.977
X64.584Y79.899
X64.581Y79.864
X64.515Y79.224
X64.51Y79.19
X64.505Y79.156
X64.499Y79.122
X64.492Y79.088
X64.484Y79.052
X64.476Y79.017
X64.466Y78.982
X64.456Y78.948
X64.445Y78.913
X64.433Y78.878
X64.42Y78.844
X64.404Y78.804
X64.392Y78.774
X64.378Y78.745
X64.36Y78.707
X64.341Y78.67
X64.325Y78.641
X64.309Y78.612
X64.292Y78.584
X64.273Y78.554
X64.254Y78.524
X64.234Y78.495
X64.213Y78.466
X64.192Y78.438
X64.17Y78.411
X64.139Y78.374
X64.107Y78.338
X64.079Y78.309
X64.051Y78.281
X64.03Y78.26
X64.007Y78.239
X63.978Y78.213
X63.963Y78.2
X63.932Y78.174
X63.9Y78.149
X63.868Y78.125
X63.835Y78.102
X63.801Y78.08
X63.767Y78.058
X63.732Y78.037
X63.697Y78.018
X63.662Y77.999
X63.626Y77.981
X63.59Y77.965
X63.554Y77.949
X63.517Y77.934
X63.48Y77.92
X63.443Y77.906
X63.405Y77.894
X63.367Y77.883
X63.328Y77.873
X63.29Y77.863
X63.251Y77.855
X63.212Y77.847
X63.172Y77.841
X63.133Y77.836
X63.094Y77.831
X63.054Y77.828
X63.014Y77.825
X62.975Y77.824
X62.935Y77.823
X34.935
X34.897Y77.824
X34.859Y77.825
X34.82Y77.827
X34.776Y77.831
X34.731Y77.836
X34.686Y77.843
X34.646Y77.85
X34.607Y77.857
X34.564Y77.867
X31.258
X30.097Y77.858
X28.943Y77.83
X27.789Y77.784
X26.637Y77.72
X25.356Y77.627
X25.239Y77.621
X25.122Y77.617
X25.006Y77.614
X24.902Y77.613
X19.825Y77.614
X19.747Y77.616
X19.67Y77.622
X19.593Y77.63
X19.517Y77.64
X19.44Y77.654
X19.365Y77.67
X19.288Y77.689
X19.215Y77.71
X19.141Y77.734
X19.068Y77.76
X18.996Y77.789
X18.925Y77.821
X18.856Y77.854
X18.787Y77.891
X18.72Y77.929
X18.654Y77.97
X18.59Y78.013
X18.527Y78.059
X18.466Y78.106
X18.407Y78.156
X18.349Y78.208
X18.294Y78.261
X18.239Y78.318
X18.188Y78.374
X18.137Y78.434
X18.089Y78.495
X18.044Y78.557
X18Y78.622
X17.959Y78.686
X17.92Y78.754
X17.883Y78.822
X17.849Y78.892
X17.818Y78.962
X17.788Y79.034
X17.761Y79.106
X17.737Y79.181
X17.716Y79.254
X17.697Y79.329
X17.68Y79.405
X17.666Y79.482
X17.66Y79.52
X17.245Y82.386
X17.224Y82.542
X17.205Y82.699
X17.19Y82.856
X17.177Y83.013
X17.166Y83.171
X17.159Y83.329
X17.154Y83.487
X17.152Y83.645
Y83.803
X17.155Y83.961
X17.161Y84.118
X17.17Y84.276
X17.181Y84.434
X17.195Y84.591
X17.212Y84.748
X17.231Y84.905
X17.253Y85.061
X17.278Y85.217
X17.306Y85.373
X17.336Y85.528
X17.368Y85.682
X17.404Y85.836
X17.442Y85.99
X17.483Y86.142
X17.526Y86.294
X17.572Y86.445
X17.62Y86.596
X17.671Y86.745
X17.725Y86.894
X17.781Y87.041
X17.839Y87.188
X17.9Y87.334
X17.964Y87.478
X18.03Y87.622
X18.099Y87.764
X18.17Y87.905
X18.243Y88.045
X18.319Y88.184
X18.397Y88.321
X18.477Y88.457
X18.56Y88.591
X18.645Y88.724
X18.732Y88.856
X18.822Y88.986
X18.914Y89.115
X19.008Y89.242
X19.104Y89.367
X19.202Y89.491
X19.302Y89.612
X19.384Y89.709
X19.468Y89.803
X19.553Y89.897
X19.64Y89.988
X19.729Y90.079
X19.819Y90.167
X19.911Y90.255
X20.005Y90.341
X20.099Y90.425
X20.196Y90.508
X20.293Y90.588
X20.392Y90.667
X20.492Y90.745
X20.594Y90.82
X20.697Y90.894
X20.801Y90.966
X20.906Y91.036
X21.013Y91.104
X21.12Y91.171
X21.23Y91.235
X21.339Y91.298
X21.45Y91.359
X21.563Y91.418
X21.676Y91.474
X21.79Y91.529
X21.905Y91.582
X22.021Y91.633
X22.137Y91.682
X22.255Y91.729
X22.373Y91.774
X22.492Y91.816
X22.612Y91.857
X22.733Y91.896
X22.854Y91.932
X22.976Y91.967
X23.098Y91.999
X23.221Y92.029
X23.345Y92.057
X23.468Y92.083
X24.11Y92.207
X24.754Y92.32
X25.4Y92.423
X26.048Y92.515
X26.697Y92.596
X27.347Y92.666
X27.998Y92.726
X28.65Y92.774
X29.303Y92.812
X29.957Y92.839
X30.611Y92.855
X31.252Y92.86
X57.693
G0Z1
X24.461Y83.384
G1Z-0.6F5
X24.518Y83.369F10
X24.543Y83.363
X24.57Y83.357
X24.597Y83.352
X24.624Y83.347
X24.652Y83.342
X24.679Y83.338
X24.707Y83.334
X24.735Y83.331
X24.762Y83.329
X24.79Y83.326
X24.818Y83.325
X24.846Y83.324
X24.874Y83.323
X24.93
X24.957Y83.324
X24.985Y83.325
X25.041Y83.329
X25.069Y83.331
X25.096Y83.334
X25.124Y83.338
X25.151Y83.342
X25.179Y83.347
X25.206Y83.352
X25.233Y83.357
X25.261Y83.363
X25.288Y83.37
X25.315Y83.377
X25.342Y83.384
X25.368Y83.392
X25.395Y83.401
X25.421Y83.41
X25.474Y83.429
X25.527Y83.45
X25.551Y83.461
X25.576Y83.472
X25.602Y83.484
X25.626Y83.497
X25.651Y83.509
X25.676Y83.523
X25.7Y83.536
X25.724Y83.551
X25.748Y83.565
X25.771Y83.58
X25.794Y83.595
X25.817Y83.611
X25.84Y83.628
X25.862Y83.644
X25.885Y83.661
X25.906Y83.678
X25.928Y83.696
X25.949Y83.714
X25.97Y83.733
X26.011Y83.771
X26.031Y83.79
X26.05Y83.81
X26.069Y83.83
X26.088Y83.851
X26.125Y83.893
X26.142Y83.914
X26.16Y83.936
X26.177Y83.958
X26.193Y83.981
X26.209Y84.003
X26.225Y84.026
X26.241Y84.05
X26.256Y84.073
X26.27Y84.097
X26.284Y84.121
X26.298Y84.145
X26.311Y84.17
X26.324Y84.194
X26.337Y84.219
X26.349Y84.244
X26.36Y84.27
X26.371Y84.295
X26.382Y84.321
X26.392Y84.347
X26.402Y84.373
X26.411Y84.399
X26.42Y84.426
X26.428Y84.452
X26.436Y84.479
X26.444Y84.506
X26.451Y84.533
X26.457Y84.56
X26.463Y84.587
X26.474Y84.642
X26.479Y84.669
X26.483Y84.697
X26.486Y84.725
X26.489Y84.752
X26.492Y84.78
X26.494Y84.808
X26.496Y84.836
X26.497Y84.863
X26.498Y84.891
Y84.919
Y84.947
X26.497Y84.975
X26.496Y85.003
X26.494Y85.031
X26.492Y85.058
X26.489Y85.086
X26.486Y85.114
X26.483Y85.142
X26.479Y85.169
X26.474Y85.196
X26.469Y85.224
X26.463Y85.251
X26.454Y85.294
X26.443Y85.335
X26.428Y85.386
X26.42Y85.413
X26.411Y85.439
X26.402Y85.465
X26.392Y85.491
X26.382Y85.517
X26.371Y85.543
X26.36Y85.569
X26.349Y85.594
X26.337Y85.619
X26.324Y85.644
X26.311Y85.669
X26.298Y85.693
X26.284Y85.718
X26.27Y85.741
X26.256Y85.765
X26.225Y85.812
X26.212Y85.831
X26.193Y85.859
X26.16Y85.902
X26.143Y85.924
X26.125Y85.946
X26.107Y85.967
X26.088Y85.987
X26.069Y86.008
X26.05Y86.028
X26.031Y86.048
X26.011Y86.068
X25.99Y86.087
X25.97Y86.106
X25.949Y86.124
X25.928Y86.142
X25.906Y86.16
X25.863Y86.194
X25.84Y86.211
X25.817Y86.227
X25.794Y86.243
X25.771Y86.258
X25.748Y86.273
X25.724Y86.288
X25.7Y86.302
X25.676Y86.316
X25.651Y86.329
X25.622Y86.344
X25.602Y86.354
X25.577Y86.366
X25.551Y86.378
X25.525Y86.389
X25.5Y86.4
X25.474Y86.41
X25.448Y86.42
X25.421Y86.429
X25.395Y86.438
X25.368Y86.446
X25.342Y86.454
X25.315Y86.461
X25.288Y86.468
X25.261Y86.475
X25.234Y86.481
X25.206Y86.487
X25.179Y86.492
X25.151Y86.496
X25.124Y86.5
X25.096Y86.504
X25.069Y86.507
X25.041Y86.51
X25.013Y86.512
X24.968Y86.514
X24.927Y86.516
X24.902
X24.874
X24.846Y86.515
X24.818Y86.514
X24.79Y86.512
X24.762Y86.51
X24.735Y86.507
X24.707Y86.504
X24.679Y86.5
X24.652Y86.496
X24.624Y86.492
X24.597Y86.487
X24.57Y86.481
X24.542Y86.475
X24.497Y86.464
X24.459Y86.453
X24.435Y86.446
X24.408Y86.438
X24.355Y86.42
X24.304Y86.4
X24.278Y86.389
X24.227Y86.366
X24.202Y86.354
X24.177Y86.342
X24.152Y86.329
X24.127Y86.316
X24.103Y86.302
X24.079Y86.288
X24.056Y86.273
X24.032Y86.258
X24.009Y86.243
X23.986Y86.227
X23.963Y86.211
X23.941Y86.194
X23.919Y86.177
X23.897Y86.16
X23.875Y86.142
X23.854Y86.124
X23.833Y86.106
X23.813Y86.087
X23.793Y86.068
X23.753Y86.028
X23.732Y86.006
X23.715Y85.987
X23.697Y85.967
X23.679Y85.946
X23.661Y85.924
X23.643Y85.902
X23.626Y85.88
X23.61Y85.858
X23.594Y85.835
X23.578Y85.812
X23.563Y85.789
X23.548Y85.765
X23.533Y85.741
X23.519Y85.717
X23.505Y85.693
X23.492Y85.669
X23.479Y85.644
X23.467Y85.619
X23.455Y85.594
X23.443Y85.569
X23.432Y85.543
X23.421Y85.517
X23.411Y85.492
X23.401Y85.465
X23.392Y85.439
X23.382Y85.41
X23.375Y85.386
X23.367Y85.359
X23.359Y85.332
X23.352Y85.305
X23.342Y85.262
X23.334Y85.221
X23.329Y85.196
X23.325Y85.169
X23.321Y85.144
X23.317Y85.113
X23.314Y85.086
X23.311Y85.058
X23.309Y85.031
X23.307Y85.003
X23.306Y84.975
X23.305Y84.947
Y84.925
Y84.89
X23.307Y84.836
X23.309Y84.808
X23.311Y84.78
X23.314Y84.752
X23.317Y84.725
X23.32Y84.697
X23.325Y84.67
X23.329Y84.642
X23.334Y84.615
X23.34Y84.587
X23.346Y84.56
X23.352Y84.533
X23.359Y84.506
X23.367Y84.479
X23.375Y84.452
X23.383Y84.426
X23.401Y84.373
X23.411Y84.347
X23.421Y84.321
X23.432Y84.295
X23.443Y84.27
X23.455Y84.244
X23.467Y84.219
X23.481Y84.191
X23.492Y84.17
X23.505Y84.145
X23.519Y84.121
X23.533Y84.097
X23.548Y84.073
X23.578Y84.026
X23.594Y84.003
X23.61Y83.981
X23.626Y83.958
X23.643Y83.936
X23.678Y83.893
X23.697Y83.872
X23.715Y83.851
X23.734Y83.83
X23.753Y83.81
X23.773Y83.79
X23.792Y83.771
X23.813Y83.751
X23.833Y83.733
X23.854Y83.714
X23.875Y83.696
X23.919Y83.661
X23.941Y83.644
X23.963Y83.628
X23.986Y83.611
X24.009Y83.595
X24.032Y83.58
X24.055Y83.565
X24.079Y83.551
X24.103Y83.536
X24.128Y83.523
X24.148Y83.512
X24.202Y83.484
X24.227Y83.472
X24.252Y83.461
X24.303Y83.439
X24.329Y83.429
X24.356Y83.419
X24.382Y83.41
X24.408Y83.401
X24.435Y83.392
X24.461Y83.384
G0Z1
X38.275Y84.73
G1Z-0.6F5
X38.326Y84.561F10
X38.409Y84.405
X38.522Y84.268
X38.658Y84.156
X38.814Y84.073
X38.983Y84.022
X39.159Y84.004
X39.335Y84.022
X39.504Y84.073
X39.66Y84.156
X39.796Y84.268
X39.908Y84.405
X39.992Y84.561
X40.043Y84.73
X40.06Y84.906
X40.043Y85.081
X39.992Y85.251
X39.908Y85.406
X39.796Y85.543
X39.66Y85.655
X39.504Y85.738
X39.335Y85.79
X39.159Y85.807
X38.983Y85.79
X38.814Y85.738
X38.658Y85.655
X38.522Y85.543
X38.409Y85.406
X38.326Y85.251
X38.275Y85.081
X38.258Y84.906
X38.275Y84.73
G0Z1
X54.162Y84.906
G1Z-0.6F5
X54.179Y84.73F10
X54.23Y84.561
X54.314Y84.405
X54.426Y84.268
X54.562Y84.156
X54.718Y84.073
X54.887Y84.022
X55.063Y84.004
X55.239Y84.022
X55.408Y84.073
X55.564Y84.156
X55.7Y84.268
X55.812Y84.405
X55.896Y84.561
X55.947Y84.73
X55.964Y84.906
X55.947Y85.081
X55.896Y85.251
X55.812Y85.406
X55.7Y85.543
X55.564Y85.655
X55.408Y85.738
X55.239Y85.79
X55.063Y85.807
X54.887Y85.79
X54.718Y85.738
X54.562Y85.655
X54.426Y85.543
X54.314Y85.406
X54.23Y85.251
X54.179Y85.081
X54.162Y84.906
G0Z1
X57.693Y92.86
G1Z-0.6F5
X58.461Y92.854F10
X59.203Y92.838
X59.887Y92.811
X60.001Y92.805
X62.935
X62.973
X63.011Y92.803
X63.05Y92.801
X63.088Y92.798
X63.126Y92.794
X63.164Y92.789
X63.201Y92.783
X63.239Y92.776
X63.276Y92.768
X63.314Y92.759
X63.351Y92.75
X63.388Y92.739
X63.424Y92.728
X63.46Y92.716
X63.496Y92.703
X63.532Y92.689
X63.567Y92.674
X63.602Y92.659
X63.637Y92.642
X63.671Y92.624
X63.705Y92.606
X63.739Y92.587
X63.772Y92.567
X63.805Y92.546
X63.837Y92.525
X63.868Y92.503
X63.899Y92.48
X63.93Y92.456
X63.96Y92.431
X63.989Y92.406
X64.017Y92.38
X64.045Y92.354
X64.073Y92.326
X64.099Y92.299
X64.125Y92.27
X64.151Y92.241
X64.175Y92.211
X64.199Y92.181
X64.222Y92.15
X64.244Y92.118
X64.266Y92.086
X64.288Y92.051
X64.31Y92.014
X64.327Y91.985
X64.343Y91.955
X64.365Y91.912
X64.378Y91.885
X64.393Y91.852
X64.407Y91.819
X64.42Y91.786
X64.434Y91.748
X64.447Y91.709
X64.459Y91.671
X64.47Y91.632
X64.479Y91.6
X64.486Y91.567
X64.493Y91.535
X64.502Y91.49
X64.51Y91.441
X64.512Y91.428
X64.523Y91.393
X64.534Y91.355
X64.544Y91.317
X64.553Y91.279
X64.561Y91.24
X64.569Y91.202
X64.575Y91.163
X64.58Y91.124
X64.585Y91.084
X64.588Y91.045
X64.591Y91.006
X64.592Y90.966
X64.593Y90.927
X64.592Y80.055
X64.59Y79.977
X64.584Y79.899
X64.581Y79.864
X64.515Y79.224
X64.51Y79.19
X64.505Y79.156
X64.499Y79.122
X64.492Y79.088
X64.484Y79.052
X64.476Y79.017
X64.466Y78.982
X64.456Y78.948
X64.445Y78.913
X64.433Y78.878
X64.42Y78.844
X64.404Y78.804
X64.392Y78.774
X64.378Y78.745
X64.36Y78.707
X64.341Y78.67
X64.325Y78.641
X64.309Y78.612
X64.292Y78.584
X64.273Y78.554
X64.254Y78.524
X64.234Y78.495
X64.213Y78.466
X64.192Y78.438
X64.17Y78.411
X64.139Y78.374
X64.107Y78.338
X64.079Y78.309
X64.051Y78.281
X64.03Y78.26
X64.007Y78.239
X63.978Y78.213
X63.963Y78.2
X63.932Y78.174
X63.9Y78.149
X63.868Y78.125
X63.835Y78.102
X63.801Y78.08
X63.767Y78.058
X63.732Y78.037
X63.697Y78.018
X63.662Y77.999
X63.626Y77.981
X63.59Y77.965
X63.554Y77.949
X63.517Y77.934
X63.48Y77.92
X63.443Y77.906
X63.405Y77.894
X63.367Y77.883
X63.328Y77.873
X63.29Y77.863
X63.251Y77.855
X63.212Y77.847
X63.172Y77.841
X63.133Y77.836
X63.094Y77.831
X63.054Y77.828
X63.014Y77.825
X62.975Y77.824
X62.935Y77.823
X34.935
X34.897Y77.824
X34.859Y77.825
X34.82Y77.827
X34.776Y77.831
X34.731Y77.836
X34.686Y77.843
X34.646Y77.85
X34.607Y77.857
X34.564Y77.867
X31.258
X30.097Y77.858
X28.943Y77.83
X27.789Y77.784
X26.637Y77.72
X25.356Y77.627
X25.239Y77.621
X25.122Y77.617
X25.006Y77.614
X24.902Y77.613
X19.825Y77.614
X19.747Y77.616
X19.67Y77.622
X19.593Y77.63
X19.517Y77.64
X19.44Y77.654
X19.365Y77.67
X19.288Y77.689
X19.215Y77.71
X19.141Y77.734
X19.068Y77.76
X18.996Y77.789
X18.925Y77.821
X18.856Y77.854
X18.787Y77.891
X18.72Y77.929
X18.654Y77.97
X18.59Y78.013
X18.527Y78.059
X18.466Y78.106
X18.407Y78.156
X18.349Y78.208
X18.294Y78.261
X18.239Y78.318
X18.188Y78.374
X18.137Y78.434
X18.089Y78.495
X18.044Y78.557
X18Y78.622
X17.959Y78.686
X17.92Y78.754
X17.883Y78.822
X17.849Y78.892
X17.818Y78.962
X17.788Y79.034
X17.761Y79.106
X17.737Y79.181
X17.716Y79.254
X17.697Y79.329
X17.68Y79.405
X17.666Y79.482
X17.66Y79.52
X17.245Y82.386
X17.224Y82.542
X17.205Y82.699
X17.19Y82.856
X17.177Y83.013
X17.166Y83.171
X17.159Y83.329
X17.154Y83.487
X17.152Y83.645
Y83.803
X17.155Y83.961
X17.161Y84.118
X17.17Y84.276
X17.181Y84.434
X17.195Y84.591
X17.212Y84.748
X17.231Y84.905
X17.253Y85.061
X17.278Y85.217
X17.306Y85.373
X17.336Y85.528
X17.368Y85.682
X17.404Y85.836
X17.442Y85.99
X17.483Y86.142
X17.526Y86.294
X17.572Y86.445
X17.62Y86.596
X17.671Y86.745
X17.725Y86.894
X17.781Y87.041
X17.839Y87.188
X17.9Y87.334
X17.964Y87.478
X18.03Y87.622
X18.099Y87.764
X18.17Y87.905
X18.243Y88.045
X18.319Y88.184
X18.397Y88.321
X18.477Y88.457
X18.56Y88.591
X18.645Y88.724
X18.732Y88.856
X18.822Y88.986
X18.914Y89.115
X19.008Y89.242
X19.104Y89.367
X19.202Y89.491
X19.302Y89.612
X19.384Y89.709
X19.468Y89.803
X19.553Y89.897
X19.64Y89.988
X19.729Y90.079
X19.819Y90.167
X19.911Y90.255
X20.005Y90.341
X20.099Y90.425
X20.196Y90.508
X20.293Y90.588
X20.392Y90.667
X20.492Y90.745
X20.594Y90.82
X20.697Y90.894
X20.801Y90.966
X20.906Y91.036
X21.013Y91.104
X21.12Y91.171
X21.23Y91.235
X21.339Y91.298
X21.45Y91.359
X21.563Y91.418
X21.676Y91.474
X21.79Y91.529
X21.905Y91.582
X22.021Y91.633
X22.137Y91.682
X22.255Y91.729
X22.373Y91.774
X22.492Y91.816
X22.612Y91.857
X22.733Y91.896
X22.854Y91.932
X22.976Y91.967
X23.098Y91.999
X23.221Y92.029
X23.345Y92.057
X23.468Y92.083
X24.11Y92.207
X24.754Y92.32
X25.4Y92.423
X26.048Y92.515
X26.697Y92.596
X27.347Y92.666
X27.998Y92.726
X28.65Y92.774
X29.303Y92.812
X29.957Y92.839
X30.611Y92.855
X31.252Y92.86
X57.693
G0Z1
X24.461Y83.384
G1Z-0.7F5
X24.518Y83.369F10
X24.543Y83.363
X24.57Y83.357
X24.597Y83.352
X24.624Y83.347
X24.652Y83.342
X24.679Y83.338
X24.707Y83.334
X24.735Y83.331
X24.762Y83.329
X24.79Y83.326
X24.818Y83.325
X24.846Y83.324
X24.874Y83.323
X24.93
X24.957Y83.324
X24.985Y83.325
X25.041Y83.329
X25.069Y83.331
X25.096Y83.334
X25.124Y83.338
X25.151Y83.342
X25.179Y83.347
X25.206Y83.352
X25.233Y83.357
X25.261Y83.363
X25.288Y83.37
X25.315Y83.377
X25.342Y83.384
X25.368Y83.392
X25.395Y83.401
X25.421Y83.41
X25.474Y83.429
X25.527Y83.45
X25.551Y83.461
X25.576Y83.472
X25.602Y83.484
X25.626Y83.497
X25.651Y83.509
X25.676Y83.523
X25.7Y83.536
X25.724Y83.551
X25.748Y83.565
X25.771Y83.58
X25.794Y83.595
X25.817Y83.611
X25.84Y83.628
X25.862Y83.644
X25.885Y83.661
X25.906Y83.678
X25.928Y83.696
X25.949Y83.714
X25.97Y83.733
X26.011Y83.771
X26.031Y83.79
X26.05Y83.81
X26.069Y83.83
X26.088Y83.851
X26.125Y83.893
X26.142Y83.914
X26.16Y83.936
X26.177Y83.958
X26.193Y83.981
X26.209Y84.003
X26.225Y84.026
X26.241Y84.05
X26.256Y84.073
X26.27Y84.097
X26.284Y84.121
X26.298Y84.145
X26.311Y84.17
X26.324Y84.194
X26.337Y84.219
X26.349Y84.244
X26.36Y84.27
X26.371Y84.295
X26.382Y84.321
X26.392Y84.347
X26.402Y84.373
X26.411Y84.399
X26.42Y84.426
X26.428Y84.452
X26.436Y84.479
X26.444Y84.506
X26.451Y84.533
X26.457Y84.56
X26.463Y84.587
X26.474Y84.642
X26.479Y84.669
X26.483Y84.697
X26.486Y84.725
X26.489Y84.752
X26.492Y84.78
X26.494Y84.808
X26.496Y84.836
X26.497Y84.863
X26.498Y84.891
Y84.919
Y84.947
X26.497Y84.975
X26.496Y85.003
X26.494Y85.031
X26.492Y85.058
X26.489Y85.086
X26.486Y85.114
X26.483Y85.142
X26.479Y85.169
X26.474Y85.196
X26.469Y85.224
X26.463Y85.251
X26.454Y85.294
X26.443Y85.335
X26.428Y85.386
X26.42Y85.413
X26.411Y85.439
X26.402Y85.465
X26.392Y85.491
X26.382Y85.517
X26.371Y85.543
X26.36Y85.569
X26.349Y85.594
X26.337Y85.619
X26.324Y85.644
X26.311Y85.669
X26.298Y85.693
X26.284Y85.718
X26.27Y85.741
X26.256Y85.765
X26.225Y85.812
X26.212Y85.831
X26.193Y85.859
X26.16Y85.902
X26.143Y85.924
X26.125Y85.946
X26.107Y85.967
X26.088Y85.987
X26.069Y86.008
X26.05Y86.028
X26.031Y86.048
X26.011Y86.068
X25.99Y86.087
X25.97Y86.106
X25.949Y86.124
X25.928Y86.142
X25.906Y86.16
X25.863Y86.194
X25.84Y86.211
X25.817Y86.227
X25.794Y86.243
X25.771Y86.258
X25.748Y86.273
X25.724Y86.288
X25.7Y86.302
X25.676Y86.316
X25.651Y86.329
X25.622Y86.344
X25.602Y86.354
X25.577Y86.366
X25.551Y86.378
X25.525Y86.389
X25.5Y86.4
X25.474Y86.41
X25.448Y86.42
X25.421Y86.429
X25.395Y86.438
X25.368Y86.446
X25.342Y86.454
X25.315Y86.461
X25.288Y86.468
X25.261Y86.475
X25.234Y86.481
X25.206Y86.487
X25.179Y86.492
X25.151Y86.496
X25.124Y86.5
X25.096Y86.504
X25.069Y86.507
X25.041Y86.51
X25.013Y86.512
X24.968Y86.514
X24.927Y86.516
X24.902
X24.874
X24.846Y86.515
X24.818Y86.514
X24.79Y86.512
X24.762Y86.51
X24.735Y86.507
X24.707Y86.504
X24.679Y86.5
X24.652Y86.496
X24.624Y86.492
X24.597Y86.487
X24.57Y86.481
X24.542Y86.475
X24.497Y86.464
X24.459Y86.453
X24.435Y86.446
X24.408Y86.438
X24.355Y86.42
X24.304Y86.4
X24.278Y86.389
X24.227Y86.366
X24.202Y86.354
X24.177Y86.342
X24.152Y86.329
X24.127Y86.316
X24.103Y86.302
X24.079Y86.288
X24.056Y86.273
X24.032Y86.258
X24.009Y86.243
X23.986Y86.227
X23.963Y86.211
X23.941Y86.194
X23.919Y86.177
X23.897Y86.16
X23.875Y86.142
X23.854Y86.124
X23.833Y86.106
X23.813Y86.087
X23.793Y86.068
X23.753Y86.028
X23.732Y86.006
X23.715Y85.987
X23.697Y85.967
X23.679Y85.946
X23.661Y85.924
X23.643Y85.902
X23.626Y85.88
X23.61Y85.858
X23.594Y85.835
X23.578Y85.812
X23.563Y85.789
X23.548Y85.765
X23.533Y85.741
X23.519Y85.717
X23.505Y85.693
X23.492Y85.669
X23.479Y85.644
X23.467Y85.619
X23.455Y85.594
X23.443Y85.569
X23.432Y85.543
X23.421Y85.517
X23.411Y85.492
X23.401Y85.465
X23.392Y85.439
X23.382Y85.41
X23.375Y85.386
X23.367Y85.359
X23.359Y85.332
X23.352Y85.305
X23.342Y85.262
X23.334Y85.221
X23.329Y85.196
X23.325Y85.169
X23.321Y85.144
X23.317Y85.113
X23.314Y85.086
X23.311Y85.058
X23.309Y85.031
X23.307Y85.003
X23.306Y84.975
X23.305Y84.947
Y84.925
Y84.89
X23.307Y84.836
X23.309Y84.808
X23.311Y84.78
X23.314Y84.752
X23.317Y84.725
X23.32Y84.697
X23.325Y84.67
X23.329Y84.642
X23.334Y84.615
X23.34Y84.587
X23.346Y84.56
X23.352Y84.533
X23.359Y84.506
X23.367Y84.479
X23.375Y84.452
X23.383Y84.426
X23.401Y84.373
X23.411Y84.347
X23.421Y84.321
X23.432Y84.295
X23.443Y84.27
X23.455Y84.244
X23.467Y84.219
X23.481Y84.191
X23.492Y84.17
X23.505Y84.145
X23.519Y84.121
X23.533Y84.097
X23.548Y84.073
X23.578Y84.026
X23.594Y84.003
X23.61Y83.981
X23.626Y83.958
X23.643Y83.936
X23.678Y83.893
X23.697Y83.872
X23.715Y83.851
X23.734Y83.83
X23.753Y83.81
X23.773Y83.79
X23.792Y83.771
X23.813Y83.751
X23.833Y83.733
X23.854Y83.714
X23.875Y83.696
X23.919Y83.661
X23.941Y83.644
X23.963Y83.628
X23.986Y83.611
X24.009Y83.595
X24.032Y83.58
X24.055Y83.565
X24.079Y83.551
X24.103Y83.536
X24.128Y83.523
X24.148Y83.512
X24.202Y83.484
X24.227Y83.472
X24.252Y83.461
X24.303Y83.439
X24.329Y83.429
X24.356Y83.419
X24.382Y83.41
X24.408Y83.401
X24.435Y83.392
X24.461Y83.384
G0Z1
X38.275Y84.73
G1Z-0.7F5
X38.326Y84.561F10
X38.409Y84.405
X38.522Y84.268
X38.658Y84.156
X38.814Y84.073
X38.983Y84.022
X39.159Y84.004
X39.335Y84.022
X39.504Y84.073
X39.66Y84.156
X39.796Y84.268
X39.908Y84.405
X39.992Y84.561
X40.043Y84.73
X40.06Y84.906
X40.043Y85.081
X39.992Y85.251
X39.908Y85.406
X39.796Y85.543
X39.66Y85.655
X39.504Y85.738
X39.335Y85.79
X39.159Y85.807
X38.983Y85.79
X38.814Y85.738
X38.658Y85.655
X38.522Y85.543
X38.409Y85.406
X38.326Y85.251
X38.275Y85.081
X38.258Y84.906
X38.275Y84.73
G0Z1
X54.162Y84.906
G1Z-0.7F5
X54.179Y84.73F10
X54.23Y84.561
X54.314Y84.405
X54.426Y84.268
X54.562Y84.156
X54.718Y84.073
X54.887Y84.022
X55.063Y84.004
X55.239Y84.022
X55.408Y84.073
X55.564Y84.156
X55.7Y84.268
X55.812Y84.405
X55.896Y84.561
X55.947Y84.73
X55.964Y84.906
X55.947Y85.081
X55.896Y85.251
X55.812Y85.406
X55.7Y85.543
X55.564Y85.655
X55.408Y85.738
X55.239Y85.79
X55.063Y85.807
X54.887Y85.79
X54.718Y85.738
X54.562Y85.655
X54.426Y85.543
X54.314Y85.406
X54.23Y85.251
X54.179Y85.081
X54.162Y84.906
G0Z1
X57.693Y92.86
G1Z-0.7F5
X58.461Y92.854F10
X59.203Y92.838
X59.887Y92.811
X60.001Y92.805
X62.935
X62.973
X63.011Y92.803
X63.05Y92.801
X63.088Y92.798
X63.126Y92.794
X63.164Y92.789
X63.201Y92.783
X63.239Y92.776
X63.276Y92.768
X63.314Y92.759
X63.351Y92.75
X63.388Y92.739
X63.424Y92.728
X63.46Y92.716
X63.496Y92.703
X63.532Y92.689
X63.567Y92.674
X63.602Y92.659
X63.637Y92.642
X63.671Y92.624
X63.705Y92.606
X63.739Y92.587
X63.772Y92.567
X63.805Y92.546
X63.837Y92.525
X63.868Y92.503
X63.899Y92.48
X63.93Y92.456
X63.96Y92.431
X63.989Y92.406
X64.017Y92.38
X64.045Y92.354
X64.073Y92.326
X64.099Y92.299
X64.125Y92.27
X64.151Y92.241
X64.175Y92.211
X64.199Y92.181
X64.222Y92.15
X64.244Y92.118
X64.266Y92.086
X64.288Y92.051
X64.31Y92.014
X64.327Y91.985
X64.343Y91.955
X64.365Y91.912
X64.378Y91.885
X64.393Y91.852
X64.407Y91.819
X64.42Y91.786
X64.434Y91.748
X64.447Y91.709
X64.459Y91.671
X64.47Y91.632
X64.479Y91.6
X64.486Y91.567
X64.493Y91.535
X64.502Y91.49
X64.51Y91.441
X64.512Y91.428
X64.523Y91.393
X64.534Y91.355
X64.544Y91.317
X64.553Y91.279
X64.561Y91.24
X64.569Y91.202
X64.575Y91.163
X64.58Y91.124
X64.585Y91.084
X64.588Y91.045
X64.591Y91.006
X64.592Y90.966
X64.593Y90.927
X64.592Y80.055
X64.59Y79.977
X64.584Y79.899
X64.581Y79.864
X64.515Y79.224
X64.51Y79.19
X64.505Y79.156
X64.499Y79.122
X64.492Y79.088
X64.484Y79.052
X64.476Y79.017
X64.466Y78.982
X64.456Y78.948
X64.445Y78.913
X64.433Y78.878
X64.42Y78.844
X64.404Y78.804
X64.392Y78.774
X64.378Y78.745
X64.36Y78.707
X64.341Y78.67
X64.325Y78.641
X64.309Y78.612
X64.292Y78.584
X64.273Y78.554
X64.254Y78.524
X64.234Y78.495
X64.213Y78.466
X64.192Y78.438
X64.17Y78.411
X64.139Y78.374
X64.107Y78.338
X64.079Y78.309
X64.051Y78.281
X64.03Y78.26
X64.007Y78.239
X63.978Y78.213
X63.963Y78.2
X63.932Y78.174
X63.9Y78.149
X63.868Y78.125
X63.835Y78.102
X63.801Y78.08
X63.767Y78.058
X63.732Y78.037
X63.697Y78.018
X63.662Y77.999
X63.626Y77.981
X63.59Y77.965
X63.554Y77.949
X63.517Y77.934
X63.48Y77.92
X63.443Y77.906
X63.405Y77.894
X63.367Y77.883
X63.328Y77.873
X63.29Y77.863
X63.251Y77.855
X63.212Y77.847
X63.172Y77.841
X63.133Y77.836
X63.094Y77.831
X63.054Y77.828
X63.014Y77.825
X62.975Y77.824
X62.935Y77.823
X34.935
X34.897Y77.824
X34.859Y77.825
X34.82Y77.827
X34.776Y77.831
X34.731Y77.836
X34.686Y77.843
X34.646Y77.85
X34.607Y77.857
X34.564Y77.867
X31.258
X30.097Y77.858
X28.943Y77.83
X27.789Y77.784
X26.637Y77.72
X25.356Y77.627
X25.239Y77.621
X25.122Y77.617
X25.006Y77.614
X24.902Y77.613
X19.825Y77.614
X19.747Y77.616
X19.67Y77.622
X19.593Y77.63
X19.517Y77.64
X19.44Y77.654
X19.365Y77.67
X19.288Y77.689
X19.215Y77.71
X19.141Y77.734
X19.068Y77.76
X18.996Y77.789
X18.925Y77.821
X18.856Y77.854
X18.787Y77.891
X18.72Y77.929
X18.654Y77.97
X18.59Y78.013
X18.527Y78.059
X18.466Y78.106
X18.407Y78.156
X18.349Y78.208
X18.294Y78.261
X18.239Y78.318
X18.188Y78.374
X18.137Y78.434
X18.089Y78.495
X18.044Y78.557
X18Y78.622
X17.959Y78.686
X17.92Y78.754
X17.883Y78.822
X17.849Y78.892
X17.818Y78.962
X17.788Y79.034
X17.761Y79.106
X17.737Y79.181
X17.716Y79.254
X17.697Y79.329
X17.68Y79.405
X17.666Y79.482
X17.66Y79.52
X17.245Y82.386
X17.224Y82.542
X17.205Y82.699
X17.19Y82.856
X17.177Y83.013
X17.166Y83.171
X17.159Y83.329
X17.154Y83.487
X17.152Y83.645
Y83.803
X17.155Y83.961
X17.161Y84.118
X17.17Y84.276
X17.181Y84.434
X17.195Y84.591
X17.212Y84.748
X17.231Y84.905
X17.253Y85.061
X17.278Y85.217
X17.306Y85.373
X17.336Y85.528
X17.368Y85.682
X17.404Y85.836
X17.442Y85.99
X17.483Y86.142
X17.526Y86.294
X17.572Y86.445
X17.62Y86.596
X17.671Y86.745
X17.725Y86.894
X17.781Y87.041
X17.839Y87.188
X17.9Y87.334
X17.964Y87.478
X18.03Y87.622
X18.099Y87.764
X18.17Y87.905
X18.243Y88.045
X18.319Y88.184
X18.397Y88.321
X18.477Y88.457
X18.56Y88.591
X18.645Y88.724
X18.732Y88.856
X18.822Y88.986
X18.914Y89.115
X19.008Y89.242
X19.104Y89.367
X19.202Y89.491
X19.302Y89.612
X19.384Y89.709
X19.468Y89.803
X19.553Y89.897
X19.64Y89.988
X19.729Y90.079
X19.819Y90.167
X19.911Y90.255
X20.005Y90.341
X20.099Y90.425
X20.196Y90.508
X20.293Y90.588
X20.392Y90.667
X20.492Y90.745
X20.594Y90.82
X20.697Y90.894
X20.801Y90.966
X20.906Y91.036
X21.013Y91.104
X21.12Y91.171
X21.23Y91.235
X21.339Y91.298
X21.45Y91.359
X21.563Y91.418
X21.676Y91.474
X21.79Y91.529
X21.905Y91.582
X22.021Y91.633
X22.137Y91.682
X22.255Y91.729
X22.373Y91.774
X22.492Y91.816
X22.612Y91.857
X22.733Y91.896
X22.854Y91.932
X22.976Y91.967
X23.098Y91.999
X23.221Y92.029
X23.345Y92.057
X23.468Y92.083
X24.11Y92.207
X24.754Y92.32
X25.4Y92.423
X26.048Y92.515
X26.697Y92.596
X27.347Y92.666
X27.998Y92.726
X28.65Y92.774
X29.303Y92.812
X29.957Y92.839
X30.611Y92.855
X31.252Y92.86
X57.693
G0Z1
X24.461Y83.384
G1Z-0.8F5
X24.518Y83.369F10
X24.543Y83.363
X24.57Y83.357
X24.597Y83.352
X24.624Y83.347
X24.652Y83.342
X24.679Y83.338
X24.707Y83.334
X24.735Y83.331
X24.762Y83.329
X24.79Y83.326
X24.818Y83.325
X24.846Y83.324
X24.874Y83.323
X24.93
X24.957Y83.324
X24.985Y83.325
X25.041Y83.329
X25.069Y83.331
X25.096Y83.334
X25.124Y83.338
X25.151Y83.342
X25.179Y83.347
X25.206Y83.352
X25.233Y83.357
X25.261Y83.363
X25.288Y83.37
X25.315Y83.377
X25.342Y83.384
X25.368Y83.392
X25.395Y83.401
X25.421Y83.41
X25.474Y83.429
X25.527Y83.45
X25.551Y83.461
X25.576Y83.472
X25.602Y83.484
X25.626Y83.497
X25.651Y83.509
X25.676Y83.523
X25.7Y83.536
X25.724Y83.551
X25.748Y83.565
X25.771Y83.58
X25.794Y83.595
X25.817Y83.611
X25.84Y83.628
X25.862Y83.644
X25.885Y83.661
X25.906Y83.678
X25.928Y83.696
X25.949Y83.714
X25.97Y83.733
X26.011Y83.771
X26.031Y83.79
X26.05Y83.81
X26.069Y83.83
X26.088Y83.851
X26.125Y83.893
X26.142Y83.914
X26.16Y83.936
X26.177Y83.958
X26.193Y83.981
X26.209Y84.003
X26.225Y84.026
X26.241Y84.05
X26.256Y84.073
X26.27Y84.097
X26.284Y84.121
X26.298Y84.145
X26.311Y84.17
X26.324Y84.194
X26.337Y84.219
X26.349Y84.244
X26.36Y84.27
X26.371Y84.295
X26.382Y84.321
X26.392Y84.347
X26.402Y84.373
X26.411Y84.399
X26.42Y84.426
X26.428Y84.452
X26.436Y84.479
X26.444Y84.506
X26.451Y84.533
X26.457Y84.56
X26.463Y84.587
X26.474Y84.642
X26.479Y84.669
X26.483Y84.697
X26.486Y84.725
X26.489Y84.752
X26.492Y84.78
X26.494Y84.808
X26.496Y84.836
X26.497Y84.863
X26.498Y84.891
Y84.919
Y84.947
X26.497Y84.975
X26.496Y85.003
X26.494Y85.031
X26.492Y85.058
X26.489Y85.086
X26.486Y85.114
X26.483Y85.142
X26.479Y85.169
X26.474Y85.196
X26.469Y85.224
X26.463Y85.251
X26.454Y85.294
X26.443Y85.335
X26.428Y85.386
X26.42Y85.413
X26.411Y85.439
X26.402Y85.465
X26.392Y85.491
X26.382Y85.517
X26.371Y85.543
X26.36Y85.569
X26.349Y85.594
X26.337Y85.619
X26.324Y85.644
X26.311Y85.669
X26.298Y85.693
X26.284Y85.718
X26.27Y85.741
X26.256Y85.765
X26.225Y85.812
X26.212Y85.831
X26.193Y85.859
X26.16Y85.902
X26.143Y85.924
X26.125Y85.946
X26.107Y85.967
X26.088Y85.987
X26.069Y86.008
X26.05Y86.028
X26.031Y86.048
X26.011Y86.068
X25.99Y86.087
X25.97Y86.106
X25.949Y86.124
X25.928Y86.142
X25.906Y86.16
X25.863Y86.194
X25.84Y86.211
X25.817Y86.227
X25.794Y86.243
X25.771Y86.258
X25.748Y86.273
X25.724Y86.288
X25.7Y86.302
X25.676Y86.316
X25.651Y86.329
X25.622Y86.344
X25.602Y86.354
X25.577Y86.366
X25.551Y86.378
X25.525Y86.389
X25.5Y86.4
X25.474Y86.41
X25.448Y86.42
X25.421Y86.429
X25.395Y86.438
X25.368Y86.446
X25.342Y86.454
X25.315Y86.461
X25.288Y86.468
X25.261Y86.475
X25.234Y86.481
X25.206Y86.487
X25.179Y86.492
X25.151Y86.496
X25.124Y86.5
X25.096Y86.504
X25.069Y86.507
X25.041Y86.51
X25.013Y86.512
X24.968Y86.514
X24.927Y86.516
X24.902
X24.874
X24.846Y86.515
X24.818Y86.514
X24.79Y86.512
X24.762Y86.51
X24.735Y86.507
X24.707Y86.504
X24.679Y86.5
X24.652Y86.496
X24.624Y86.492
X24.597Y86.487
X24.57Y86.481
X24.542Y86.475
X24.497Y86.464
X24.459Y86.453
X24.435Y86.446
X24.408Y86.438
X24.355Y86.42
X24.304Y86.4
X24.278Y86.389
X24.227Y86.366
X24.202Y86.354
X24.177Y86.342
X24.152Y86.329
X24.127Y86.316
X24.103Y86.302
X24.079Y86.288
X24.056Y86.273
X24.032Y86.258
X24.009Y86.243
X23.986Y86.227
X23.963Y86.211
X23.941Y86.194
X23.919Y86.177
X23.897Y86.16
X23.875Y86.142
X23.854Y86.124
X23.833Y86.106
X23.813Y86.087
X23.793Y86.068
X23.753Y86.028
X23.732Y86.006
X23.715Y85.987
X23.697Y85.967
X23.679Y85.946
X23.661Y85.924
X23.643Y85.902
X23.626Y85.88
X23.61Y85.858
X23.594Y85.835
X23.578Y85.812
X23.563Y85.789
X23.548Y85.765
X23.533Y85.741
X23.519Y85.717
X23.505Y85.693
X23.492Y85.669
X23.479Y85.644
X23.467Y85.619
X23.455Y85.594
X23.443Y85.569
X23.432Y85.543
X23.421Y85.517
X23.411Y85.492
X23.401Y85.465
X23.392Y85.439
X23.382Y85.41
X23.375Y85.386
X23.367Y85.359
X23.359Y85.332
X23.352Y85.305
X23.342Y85.262
X23.334Y85.221
X23.329Y85.196
X23.325Y85.169
X23.321Y85.144
X23.317Y85.113
X23.314Y85.086
X23.311Y85.058
X23.309Y85.031
X23.307Y85.003
X23.306Y84.975
X23.305Y84.947
Y84.925
Y84.89
X23.307Y84.836
X23.309Y84.808
X23.311Y84.78
X23.314Y84.752
X23.317Y84.725
X23.32Y84.697
X23.325Y84.67
X23.329Y84.642
X23.334Y84.615
X23.34Y84.587
X23.346Y84.56
X23.352Y84.533
X23.359Y84.506
X23.367Y84.479
X23.375Y84.452
X23.383Y84.426
X23.401Y84.373
X23.411Y84.347
X23.421Y84.321
X23.432Y84.295
X23.443Y84.27
X23.455Y84.244
X23.467Y84.219
X23.481Y84.191
X23.492Y84.17
X23.505Y84.145
X23.519Y84.121
X23.533Y84.097
X23.548Y84.073
X23.578Y84.026
X23.594Y84.003
X23.61Y83.981
X23.626Y83.958
X23.643Y83.936
X23.678Y83.893
X23.697Y83.872
X23.715Y83.851
X23.734Y83.83
X23.753Y83.81
X23.773Y83.79
X23.792Y83.771
X23.813Y83.751
X23.833Y83.733
X23.854Y83.714
X23.875Y83.696
X23.919Y83.661
X23.941Y83.644
X23.963Y83.628
X23.986Y83.611
X24.009Y83.595
X24.032Y83.58
X24.055Y83.565
X24.079Y83.551
X24.103Y83.536
X24.128Y83.523
X24.148Y83.512
X24.202Y83.484
X24.227Y83.472
X24.252Y83.461
X24.303Y83.439
X24.329Y83.429
X24.356Y83.419
X24.382Y83.41
X24.408Y83.401
X24.435Y83.392
X24.461Y83.384
G0Z1
X38.275Y84.73
G1Z-0.8F5
X38.326Y84.561F10
X38.409Y84.405
X38.522Y84.268
X38.658Y84.156
X38.814Y84.073
X38.983Y84.022
X39.159Y84.004
X39.335Y84.022
X39.504Y84.073
X39.66Y84.156
X39.796Y84.268
X39.908Y84.405
X39.992Y84.561
X40.043Y84.73
X40.06Y84.906
X40.043Y85.081
X39.992Y85.251
X39.908Y85.406
X39.796Y85.543
X39.66Y85.655
X39.504Y85.738
X39.335Y85.79
X39.159Y85.807
X38.983Y85.79
X38.814Y85.738
X38.658Y85.655
X38.522Y85.543
X38.409Y85.406
X38.326Y85.251
X38.275Y85.081
X38.258Y84.906
X38.275Y84.73
G0Z1
X54.162Y84.906
G1Z-0.8F5
X54.179Y84.73F10
X54.23Y84.561
X54.314Y84.405
X54.426Y84.268
X54.562Y84.156
X54.718Y84.073
X54.887Y84.022
X55.063Y84.004
X55.239Y84.022
X55.408Y84.073
X55.564Y84.156
X55.7Y84.268
X55.812Y84.405
X55.896Y84.561
X55.947Y84.73
X55.964Y84.906
X55.947Y85.081
X55.896Y85.251
X55.812Y85.406
X55.7Y85.543
X55.564Y85.655
X55.408Y85.738
X55.239Y85.79
X55.063Y85.807
X54.887Y85.79
X54.718Y85.738
X54.562Y85.655
X54.426Y85.543
X54.314Y85.406
X54.23Y85.251
X54.179Y85.081
X54.162Y84.906
G0Z1
X57.693Y92.86
G1Z-0.8F5
X58.461Y92.854F10
X59.203Y92.838
X59.887Y92.811
X60.001Y92.805
X62.935
X62.973
X63.011Y92.803
X63.05Y92.801
X63.088Y92.798
X63.126Y92.794
X63.164Y92.789
X63.201Y92.783
X63.239Y92.776
X63.276Y92.768
X63.314Y92.759
X63.351Y92.75
X63.388Y92.739
X63.424Y92.728
X63.46Y92.716
X63.496Y92.703
X63.532Y92.689
X63.567Y92.674
X63.602Y92.659
X63.637Y92.642
X63.671Y92.624
X63.705Y92.606
X63.739Y92.587
X63.772Y92.567
X63.805Y92.546
X63.837Y92.525
X63.868Y92.503
X63.899Y92.48
X63.93Y92.456
X63.96Y92.431
X63.989Y92.406
X64.017Y92.38
X64.045Y92.354
X64.073Y92.326
X64.099Y92.299
X64.125Y92.27
X64.151Y92.241
X64.175Y92.211
X64.199Y92.181
X64.222Y92.15
X64.244Y92.118
X64.266Y92.086
X64.288Y92.051
X64.31Y92.014
X64.327Y91.985
X64.343Y91.955
X64.365Y91.912
X64.378Y91.885
X64.393Y91.852
X64.407Y91.819
X64.42Y91.786
X64.434Y91.748
X64.447Y91.709
X64.459Y91.671
X64.47Y91.632
X64.479Y91.6
X64.486Y91.567
X64.493Y91.535
X64.502Y91.49
X64.51Y91.441
X64.512Y91.428
X64.523Y91.393
X64.534Y91.355
X64.544Y91.317
X64.553Y91.279
X64.561Y91.24
X64.569Y91.202
X64.575Y91.163
X64.58Y91.124
X64.585Y91.084
X64.588Y91.045
X64.591Y91.006
X64.592Y90.966
X64.593Y90.927
X64.592Y80.055
X64.59Y79.977
X64.584Y79.899
X64.581Y79.864
X64.515Y79.224
X64.51Y79.19
X64.505Y79.156
X64.499Y79.122
X64.492Y79.088
X64.484Y79.052
X64.476Y79.017
X64.466Y78.982
X64.456Y78.948
X64.445Y78.913
X64.433Y78.878
X64.42Y78.844
X64.404Y78.804
X64.392Y78.774
X64.378Y78.745
X64.36Y78.707
X64.341Y78.67
X64.325Y78.641
X64.309Y78.612
X64.292Y78.584
X64.273Y78.554
X64.254Y78.524
X64.234Y78.495
X64.213Y78.466
X64.192Y78.438
X64.17Y78.411
X64.139Y78.374
X64.107Y78.338
X64.079Y78.309
X64.051Y78.281
X64.03Y78.26
X64.007Y78.239
X63.978Y78.213
X63.963Y78.2
X63.932Y78.174
X63.9Y78.149
X63.868Y78.125
X63.835Y78.102
X63.801Y78.08
X63.767Y78.058
X63.732Y78.037
X63.697Y78.018
X63.662Y77.999
X63.626Y77.981
X63.59Y77.965
X63.554Y77.949
X63.517Y77.934
X63.48Y77.92
X63.443Y77.906
X63.405Y77.894
X63.367Y77.883
X63.328Y77.873
X63.29Y77.863
X63.251Y77.855
X63.212Y77.847
X63.172Y77.841
X63.133Y77.836
X63.094Y77.831
X63.054Y77.828
X63.014Y77.825
X62.975Y77.824
X62.935Y77.823
X34.935
X34.897Y77.824
X34.859Y77.825
X34.82Y77.827
X34.776Y77.831
X34.731Y77.836
X34.686Y77.843
X34.646Y77.85
X34.607Y77.857
X34.564Y77.867
X31.258
X30.097Y77.858
X28.943Y77.83
X27.789Y77.784
X26.637Y77.72
X25.356Y77.627
X25.239Y77.621
X25.122Y77.617
X25.006Y77.614
X24.902Y77.613
X19.825Y77.614
X19.747Y77.616
X19.67Y77.622
X19.593Y77.63
X19.517Y77.64
X19.44Y77.654
X19.365Y77.67
X19.288Y77.689
X19.215Y77.71
X19.141Y77.734
X19.068Y77.76
X18.996Y77.789
X18.925Y77.821
X18.856Y77.854
X18.787Y77.891
X18.72Y77.929
X18.654Y77.97
X18.59Y78.013
X18.527Y78.059
X18.466Y78.106
X18.407Y78.156
X18.349Y78.208
X18.294Y78.261
X18.239Y78.318
X18.188Y78.374
X18.137Y78.434
X18.089Y78.495
X18.044Y78.557
X18Y78.622
X17.959Y78.686
X17.92Y78.754
X17.883Y78.822
X17.849Y78.892
X17.818Y78.962
X17.788Y79.034
X17.761Y79.106
X17.737Y79.181
X17.716Y79.254
X17.697Y79.329
X17.68Y79.405
X17.666Y79.482
X17.66Y79.52
X17.245Y82.386
X17.224Y82.542
X17.205Y82.699
X17.19Y82.856
X17.177Y83.013
X17.166Y83.171
X17.159Y83.329
X17.154Y83.487
X17.152Y83.645
Y83.803
X17.155Y83.961
X17.161Y84.118
X17.17Y84.276
X17.181Y84.434
X17.195Y84.591
X17.212Y84.748
X17.231Y84.905
X17.253Y85.061
X17.278Y85.217
X17.306Y85.373
X17.336Y85.528
X17.368Y85.682
X17.404Y85.836
X17.442Y85.99
X17.483Y86.142
X17.526Y86.294
X17.572Y86.445
X17.62Y86.596
X17.671Y86.745
X17.725Y86.894
X17.781Y87.041
X17.839Y87.188
X17.9Y87.334
X17.964Y87.478
X18.03Y87.622
X18.099Y87.764
X18.17Y87.905
X18.243Y88.045
X18.319Y88.184
X18.397Y88.321
X18.477Y88.457
X18.56Y88.591
X18.645Y88.724
X18.732Y88.856
X18.822Y88.986
X18.914Y89.115
X19.008Y89.242
X19.104Y89.367
X19.202Y89.491
X19.302Y89.612
X19.384Y89.709
X19.468Y89.803
X19.553Y89.897
X19.64Y89.988
X19.729Y90.079
X19.819Y90.167
X19.911Y90.255
X20.005Y90.341
X20.099Y90.425
X20.196Y90.508
X20.293Y90.588
X20.392Y90.667
X20.492Y90.745
X20.594Y90.82
X20.697Y90.894
X20.801Y90.966
X20.906Y91.036
X21.013Y91.104
X21.12Y91.171
X21.23Y91.235
X21.339Y91.298
X21.45Y91.359
X21.563Y91.418
X21.676Y91.474
X21.79Y91.529
X21.905Y91.582
X22.021Y91.633
X22.137Y91.682
X22.255Y91.729
X22.373Y91.774
X22.492Y91.816
X22.612Y91.857
X22.733Y91.896
X22.854Y91.932
X22.976Y91.967
X23.098Y91.999
X23.221Y92.029
X23.345Y92.057
X23.468Y92.083
X24.11Y92.207
X24.754Y92.32
X25.4Y92.423
X26.048Y92.515
X26.697Y92.596
X27.347Y92.666
X27.998Y92.726
X28.65Y92.774
X29.303Y92.812
X29.957Y92.839
X30.611Y92.855
X31.252Y92.86
X57.693
G0Z1
X24.461Y83.384
G1Z-0.9F5
X24.518Y83.369F10
X24.543Y83.363
X24.57Y83.357
X24.597Y83.352
X24.624Y83.347
X24.652Y83.342
X24.679Y83.338
X24.707Y83.334
X24.735Y83.331
X24.762Y83.329
X24.79Y83.326
X24.818Y83.325
X24.846Y83.324
X24.874Y83.323
X24.93
X24.957Y83.324
X24.985Y83.325
X25.041Y83.329
X25.069Y83.331
X25.096Y83.334
X25.124Y83.338
X25.151Y83.342
X25.179Y83.347
X25.206Y83.352
X25.233Y83.357
X25.261Y83.363
X25.288Y83.37
X25.315Y83.377
X25.342Y83.384
X25.368Y83.392
X25.395Y83.401
X25.421Y83.41
X25.474Y83.429
X25.527Y83.45
X25.551Y83.461
X25.576Y83.472
X25.602Y83.484
X25.626Y83.497
X25.651Y83.509
X25.676Y83.523
X25.7Y83.536
X25.724Y83.551
X25.748Y83.565
X25.771Y83.58
X25.794Y83.595
X25.817Y83.611
X25.84Y83.628
X25.862Y83.644
X25.885Y83.661
X25.906Y83.678
X25.928Y83.696
X25.949Y83.714
X25.97Y83.733
X26.011Y83.771
X26.031Y83.79
X26.05Y83.81
X26.069Y83.83
X26.088Y83.851
X26.125Y83.893
X26.142Y83.914
X26.16Y83.936
X26.177Y83.958
X26.193Y83.981
X26.209Y84.003
X26.225Y84.026
X26.241Y84.05
X26.256Y84.073
X26.27Y84.097
X26.284Y84.121
X26.298Y84.145
X26.311Y84.17
X26.324Y84.194
X26.337Y84.219
X26.349Y84.244
X26.36Y84.27
X26.371Y84.295
X26.382Y84.321
X26.392Y84.347
X26.402Y84.373
X26.411Y84.399
X26.42Y84.426
X26.428Y84.452
X26.436Y84.479
X26.444Y84.506
X26.451Y84.533
X26.457Y84.56
X26.463Y84.587
X26.474Y84.642
X26.479Y84.669
X26.483Y84.697
X26.486Y84.725
X26.489Y84.752
X26.492Y84.78
X26.494Y84.808
X26.496Y84.836
X26.497Y84.863
X26.498Y84.891
Y84.919
Y84.947
X26.497Y84.975
X26.496Y85.003
X26.494Y85.031
X26.492Y85.058
X26.489Y85.086
X26.486Y85.114
X26.483Y85.142
X26.479Y85.169
X26.474Y85.196
X26.469Y85.224
X26.463Y85.251
X26.454Y85.294
X26.443Y85.335
X26.428Y85.386
X26.42Y85.413
X26.411Y85.439
X26.402Y85.465
X26.392Y85.491
X26.382Y85.517
X26.371Y85.543
X26.36Y85.569
X26.349Y85.594
X26.337Y85.619
X26.324Y85.644
X26.311Y85.669
X26.298Y85.693
X26.284Y85.718
X26.27Y85.741
X26.256Y85.765
X26.225Y85.812
X26.212Y85.831
X26.193Y85.859
X26.16Y85.902
X26.143Y85.924
X26.125Y85.946
X26.107Y85.967
X26.088Y85.987
X26.069Y86.008
X26.05Y86.028
X26.031Y86.048
X26.011Y86.068
X25.99Y86.087
X25.97Y86.106
X25.949Y86.124
X25.928Y86.142
X25.906Y86.16
X25.863Y86.194
X25.84Y86.211
X25.817Y86.227
X25.794Y86.243
X25.771Y86.258
X25.748Y86.273
X25.724Y86.288
X25.7Y86.302
X25.676Y86.316
X25.651Y86.329
X25.622Y86.344
X25.602Y86.354
X25.577Y86.366
X25.551Y86.378
X25.525Y86.389
X25.5Y86.4
X25.474Y86.41
X25.448Y86.42
X25.421Y86.429
X25.395Y86.438
X25.368Y86.446
X25.342Y86.454
X25.315Y86.461
X25.288Y86.468
X25.261Y86.475
X25.234Y86.481
X25.206Y86.487
X25.179Y86.492
X25.151Y86.496
X25.124Y86.5
X25.096Y86.504
X25.069Y86.507
X25.041Y86.51
X25.013Y86.512
X24.968Y86.514
X24.927Y86.516
X24.902
X24.874
X24.846Y86.515
X24.818Y86.514
X24.79Y86.512
X24.762Y86.51
X24.735Y86.507
X24.707Y86.504
X24.679Y86.5
X24.652Y86.496
X24.624Y86.492
X24.597Y86.487
X24.57Y86.481
X24.542Y86.475
X24.497Y86.464
X24.459Y86.453
X24.435Y86.446
X24.408Y86.438
X24.355Y86.42
X24.304Y86.4
X24.278Y86.389
X24.227Y86.366
X24.202Y86.354
X24.177Y86.342
X24.152Y86.329
X24.127Y86.316
X24.103Y86.302
X24.079Y86.288
X24.056Y86.273
X24.032Y86.258
X24.009Y86.243
X23.986Y86.227
X23.963Y86.211
X23.941Y86.194
X23.919Y86.177
X23.897Y86.16
X23.875Y86.142
X23.854Y86.124
X23.833Y86.106
X23.813Y86.087
X23.793Y86.068
X23.753Y86.028
X23.732Y86.006
X23.715Y85.987
X23.697Y85.967
X23.679Y85.946
X23.661Y85.924
X23.643Y85.902
X23.626Y85.88
X23.61Y85.858
X23.594Y85.835
X23.578Y85.812
X23.563Y85.789
X23.548Y85.765
X23.533Y85.741
X23.519Y85.717
X23.505Y85.693
X23.492Y85.669
X23.479Y85.644
X23.467Y85.619
X23.455Y85.594
X23.443Y85.569
X23.432Y85.543
X23.421Y85.517
X23.411Y85.492
X23.401Y85.465
X23.392Y85.439
X23.382Y85.41
X23.375Y85.386
X23.367Y85.359
X23.359Y85.332
X23.352Y85.305
X23.342Y85.262
X23.334Y85.221
X23.329Y85.196
X23.325Y85.169
X23.321Y85.144
X23.317Y85.113
X23.314Y85.086
X23.311Y85.058
X23.309Y85.031
X23.307Y85.003
X23.306Y84.975
X23.305Y84.947
Y84.925
Y84.89
X23.307Y84.836
X23.309Y84.808
X23.311Y84.78
X23.314Y84.752
X23.317Y84.725
X23.32Y84.697
X23.325Y84.67
X23.329Y84.642
X23.334Y84.615
X23.34Y84.587
X23.346Y84.56
X23.352Y84.533
X23.359Y84.506
X23.367Y84.479
X23.375Y84.452
X23.383Y84.426
X23.401Y84.373
X23.411Y84.347
X23.421Y84.321
X23.432Y84.295
X23.443Y84.27
X23.455Y84.244
X23.467Y84.219
X23.481Y84.191
X23.492Y84.17
X23.505Y84.145
X23.519Y84.121
X23.533Y84.097
X23.548Y84.073
X23.578Y84.026
X23.594Y84.003
X23.61Y83.981
X23.626Y83.958
X23.643Y83.936
X23.678Y83.893
X23.697Y83.872
X23.715Y83.851
X23.734Y83.83
X23.753Y83.81
X23.773Y83.79
X23.792Y83.771
X23.813Y83.751
X23.833Y83.733
X23.854Y83.714
X23.875Y83.696
X23.919Y83.661
X23.941Y83.644
X23.963Y83.628
X23.986Y83.611
X24.009Y83.595
X24.032Y83.58
X24.055Y83.565
X24.079Y83.551
X24.103Y83.536
X24.128Y83.523
X24.148Y83.512
X24.202Y83.484
X24.227Y83.472
X24.252Y83.461
X24.303Y83.439
X24.329Y83.429
X24.356Y83.419
X24.382Y83.41
X24.408Y83.401
X24.435Y83.392
X24.461Y83.384
G0Z1
X38.275Y84.73
G1Z-0.9F5
X38.326Y84.561F10
X38.409Y84.405
X38.522Y84.268
X38.658Y84.156
X38.814Y84.073
X38.983Y84.022
X39.159Y84.004
X39.335Y84.022
X39.504Y84.073
X39.66Y84.156
X39.796Y84.268
X39.908Y84.405
X39.992Y84.561
X40.043Y84.73
X40.06Y84.906
X40.043Y85.081
X39.992Y85.251
X39.908Y85.406
X39.796Y85.543
X39.66Y85.655
X39.504Y85.738
X39.335Y85.79
X39.159Y85.807
X38.983Y85.79
X38.814Y85.738
X38.658Y85.655
X38.522Y85.543
X38.409Y85.406
X38.326Y85.251
X38.275Y85.081
X38.258Y84.906
X38.275Y84.73
G0Z1
X54.162Y84.906
G1Z-0.9F5
X54.179Y84.73F10
X54.23Y84.561
X54.314Y84.405
X54.426Y84.268
X54.562Y84.156
X54.718Y84.073
X54.887Y84.022
X55.063Y84.004
X55.239Y84.022
X55.408Y84.073
X55.564Y84.156
X55.7Y84.268
X55.812Y84.405
X55.896Y84.561
X55.947Y84.73
X55.964Y84.906
X55.947Y85.081
X55.896Y85.251
X55.812Y85.406
X55.7Y85.543
X55.564Y85.655
X55.408Y85.738
X55.239Y85.79
X55.063Y85.807
X54.887Y85.79
X54.718Y85.738
X54.562Y85.655
X54.426Y85.543
X54.314Y85.406
X54.23Y85.251
X54.179Y85.081
X54.162Y84.906
G0Z1
X57.693Y92.86
G1Z-0.9F5
X58.461Y92.854F10
X59.203Y92.838
X59.887Y92.811
X60.001Y92.805
X62.935
X62.973
X63.011Y92.803
X63.05Y92.801
X63.088Y92.798
X63.126Y92.794
X63.164Y92.789
X63.201Y92.783
X63.239Y92.776
X63.276Y92.768
X63.314Y92.759
X63.351Y92.75
X63.388Y92.739
X63.424Y92.728
X63.46Y92.716
X63.496Y92.703
X63.532Y92.689
X63.567Y92.674
X63.602Y92.659
X63.637Y92.642
X63.671Y92.624
X63.705Y92.606
X63.739Y92.587
X63.772Y92.567
X63.805Y92.546
X63.837Y92.525
X63.868Y92.503
X63.899Y92.48
X63.93Y92.456
X63.96Y92.431
X63.989Y92.406
X64.017Y92.38
X64.045Y92.354
X64.073Y92.326
X64.099Y92.299
X64.125Y92.27
X64.151Y92.241
X64.175Y92.211
X64.199Y92.181
X64.222Y92.15
X64.244Y92.118
X64.266Y92.086
X64.288Y92.051
X64.31Y92.014
X64.327Y91.985
X64.343Y91.955
X64.365Y91.912
X64.378Y91.885
X64.393Y91.852
X64.407Y91.819
X64.42Y91.786
X64.434Y91.748
X64.447Y91.709
X64.459Y91.671
X64.47Y91.632
X64.479Y91.6
X64.486Y91.567
X64.493Y91.535
X64.502Y91.49
X64.51Y91.441
X64.512Y91.428
X64.523Y91.393
X64.534Y91.355
X64.544Y91.317
X64.553Y91.279
X64.561Y91.24
X64.569Y91.202
X64.575Y91.163
X64.58Y91.124
X64.585Y91.084
X64.588Y91.045
X64.591Y91.006
X64.592Y90.966
X64.593Y90.927
X64.592Y80.055
X64.59Y79.977
X64.584Y79.899
X64.581Y79.864
X64.515Y79.224
X64.51Y79.19
X64.505Y79.156
X64.499Y79.122
X64.492Y79.088
X64.484Y79.052
X64.476Y79.017
X64.466Y78.982
X64.456Y78.948
X64.445Y78.913
X64.433Y78.878
X64.42Y78.844
X64.404Y78.804
X64.392Y78.774
X64.378Y78.745
X64.36Y78.707
X64.341Y78.67
X64.325Y78.641
X64.309Y78.612
X64.292Y78.584
X64.273Y78.554
X64.254Y78.524
X64.234Y78.495
X64.213Y78.466
X64.192Y78.438
X64.17Y78.411
X64.139Y78.374
X64.107Y78.338
X64.079Y78.309
X64.051Y78.281
X64.03Y78.26
X64.007Y78.239
X63.978Y78.213
X63.963Y78.2
X63.932Y78.174
X63.9Y78.149
X63.868Y78.125
X63.835Y78.102
X63.801Y78.08
X63.767Y78.058
X63.732Y78.037
X63.697Y78.018
X63.662Y77.999
X63.626Y77.981
X63.59Y77.965
X63.554Y77.949
X63.517Y77.934
X63.48Y77.92
X63.443Y77.906
X63.405Y77.894
X63.367Y77.883
X63.328Y77.873
X63.29Y77.863
X63.251Y77.855
X63.212Y77.847
X63.172Y77.841
X63.133Y77.836
X63.094Y77.831
X63.054Y77.828
X63.014Y77.825
X62.975Y77.824
X62.935Y77.823
X34.935
X34.897Y77.824
X34.859Y77.825
X34.82Y77.827
X34.776Y77.831
X34.731Y77.836
X34.686Y77.843
X34.646Y77.85
X34.607Y77.857
X34.564Y77.867
X31.258
X30.097Y77.858
X28.943Y77.83
X27.789Y77.784
X26.637Y77.72
X25.356Y77.627
X25.239Y77.621
X25.122Y77.617
X25.006Y77.614
X24.902Y77.613
X19.825Y77.614
X19.747Y77.616
X19.67Y77.622
X19.593Y77.63
X19.517Y77.64
X19.44Y77.654
X19.365Y77.67
X19.288Y77.689
X19.215Y77.71
X19.141Y77.734
X19.068Y77.76
X18.996Y77.789
X18.925Y77.821
X18.856Y77.854
X18.787Y77.891
X18.72Y77.929
X18.654Y77.97
X18.59Y78.013
X18.527Y78.059
X18.466Y78.106
X18.407Y78.156
X18.349Y78.208
X18.294Y78.261
X18.239Y78.318
X18.188Y78.374
X18.137Y78.434
X18.089Y78.495
X18.044Y78.557
X18Y78.622
X17.959Y78.686
X17.92Y78.754
X17.883Y78.822
X17.849Y78.892
X17.818Y78.962
X17.788Y79.034
X17.761Y79.106
X17.737Y79.181
X17.716Y79.254
X17.697Y79.329
X17.68Y79.405
X17.666Y79.482
X17.66Y79.52
X17.245Y82.386
X17.224Y82.542
X17.205Y82.699
X17.19Y82.856
X17.177Y83.013
X17.166Y83.171
X17.159Y83.329
X17.154Y83.487
X17.152Y83.645
Y83.803
X17.155Y83.961
X17.161Y84.118
X17.17Y84.276
X17.181Y84.434
X17.195Y84.591
X17.212Y84.748
X17.231Y84.905
X17.253Y85.061
X17.278Y85.217
X17.306Y85.373
X17.336Y85.528
X17.368Y85.682
X17.404Y85.836
X17.442Y85.99
X17.483Y86.142
X17.526Y86.294
X17.572Y86.445
X17.62Y86.596
X17.671Y86.745
X17.725Y86.894
X17.781Y87.041
X17.839Y87.188
X17.9Y87.334
X17.964Y87.478
X18.03Y87.622
X18.099Y87.764
X18.17Y87.905
X18.243Y88.045
X18.319Y88.184
X18.397Y88.321
X18.477Y88.457
X18.56Y88.591
X18.645Y88.724
X18.732Y88.856
X18.822Y88.986
X18.914Y89.115
X19.008Y89.242
X19.104Y89.367
X19.202Y89.491
X19.302Y89.612
X19.384Y89.709
X19.468Y89.803
X19.553Y89.897
X19.64Y89.988
X19.729Y90.079
X19.819Y90.167
X19.911Y90.255
X20.005Y90.341
X20.099Y90.425
X20.196Y90.508
X20.293Y90.588
X20.392Y90.667
X20.492Y90.745
X20.594Y90.82
X20.697Y90.894
X20.801Y90.966
X20.906Y91.036
X21.013Y91.104
X21.12Y91.171
X21.23Y91.235
X21.339Y91.298
X21.45Y91.359
X21.563Y91.418
X21.676Y91.474
X21.79Y91.529
X21.905Y91.582
X22.021Y91.633
X22.137Y91.682
X22.255Y91.729
X22.373Y91.774
X22.492Y91.816
X22.612Y91.857
X22.733Y91.896
X22.854Y91.932
X22.976Y91.967
X23.098Y91.999
X23.221Y92.029
X23.345Y92.057
X23.468Y92.083
X24.11Y92.207
X24.754Y92.32
X25.4Y92.423
X26.048Y92.515
X26.697Y92.596
X27.347Y92.666
X27.998Y92.726
X28.65Y92.774
X29.303Y92.812
X29.957Y92.839
X30.611Y92.855
X31.252Y92.86
X57.693
G0Z1
X24.461Y83.384
G1Z-1F5
X24.518Y83.369F10
X24.543Y83.363
X24.57Y83.357
X24.597Y83.352
X24.624Y83.347
X24.652Y83.342
X24.679Y83.338
X24.707Y83.334
X24.735Y83.331
X24.762Y83.329
X24.79Y83.326
X24.818Y83.325
X24.846Y83.324
X24.874Y83.323
X24.93
X24.957Y83.324
X24.985Y83.325
X25.041Y83.329
X25.069Y83.331
X25.096Y83.334
X25.124Y83.338
X25.151Y83.342
X25.179Y83.347
X25.206Y83.352
X25.233Y83.357
X25.261Y83.363
X25.288Y83.37
X25.315Y83.377
X25.342Y83.384
X25.368Y83.392
X25.395Y83.401
X25.421Y83.41
X25.474Y83.429
X25.527Y83.45
X25.551Y83.461
X25.576Y83.472
X25.602Y83.484
X25.626Y83.497
X25.651Y83.509
X25.676Y83.523
X25.7Y83.536
X25.724Y83.551
X25.748Y83.565
X25.771Y83.58
X25.794Y83.595
X25.817Y83.611
X25.84Y83.628
X25.862Y83.644
X25.885Y83.661
X25.906Y83.678
X25.928Y83.696
X25.949Y83.714
X25.97Y83.733
X26.011Y83.771
X26.031Y83.79
X26.05Y83.81
X26.069Y83.83
X26.088Y83.851
X26.125Y83.893
X26.142Y83.914
X26.16Y83.936
X26.177Y83.958
X26.193Y83.981
X26.209Y84.003
X26.225Y84.026
X26.241Y84.05
X26.256Y84.073
X26.27Y84.097
X26.284Y84.121
X26.298Y84.145
X26.311Y84.17
X26.324Y84.194
X26.337Y84.219
X26.349Y84.244
X26.36Y84.27
X26.371Y84.295
X26.382Y84.321
X26.392Y84.347
X26.402Y84.373
X26.411Y84.399
X26.42Y84.426
X26.428Y84.452
X26.436Y84.479
X26.444Y84.506
X26.451Y84.533
X26.457Y84.56
X26.463Y84.587
X26.474Y84.642
X26.479Y84.669
X26.483Y84.697
X26.486Y84.725
X26.489Y84.752
X26.492Y84.78
X26.494Y84.808
X26.496Y84.836
X26.497Y84.863
X26.498Y84.891
Y84.919
Y84.947
X26.497Y84.975
X26.496Y85.003
X26.494Y85.031
X26.492Y85.058
X26.489Y85.086
X26.486Y85.114
X26.483Y85.142
X26.479Y85.169
X26.474Y85.196
X26.469Y85.224
X26.463Y85.251
X26.454Y85.294
X26.443Y85.335
X26.428Y85.386
X26.42Y85.413
X26.411Y85.439
X26.402Y85.465
X26.392Y85.491
X26.382Y85.517
X26.371Y85.543
X26.36Y85.569
X26.349Y85.594
X26.337Y85.619
X26.324Y85.644
X26.311Y85.669
X26.298Y85.693
X26.284Y85.718
X26.27Y85.741
X26.256Y85.765
X26.225Y85.812
X26.212Y85.831
X26.193Y85.859
X26.16Y85.902
X26.143Y85.924
X26.125Y85.946
X26.107Y85.967
X26.088Y85.987
X26.069Y86.008
X26.05Y86.028
X26.031Y86.048
X26.011Y86.068
X25.99Y86.087
X25.97Y86.106
X25.949Y86.124
X25.928Y86.142
X25.906Y86.16
X25.863Y86.194
X25.84Y86.211
X25.817Y86.227
X25.794Y86.243
X25.771Y86.258
X25.748Y86.273
X25.724Y86.288
X25.7Y86.302
X25.676Y86.316
X25.651Y86.329
X25.622Y86.344
X25.602Y86.354
X25.577Y86.366
X25.551Y86.378
X25.525Y86.389
X25.5Y86.4
X25.474Y86.41
X25.448Y86.42
X25.421Y86.429
X25.395Y86.438
X25.368Y86.446
X25.342Y86.454
X25.315Y86.461
X25.288Y86.468
X25.261Y86.475
X25.234Y86.481
X25.206Y86.487
X25.179Y86.492
X25.151Y86.496
X25.124Y86.5
X25.096Y86.504
X25.069Y86.507
X25.041Y86.51
X25.013Y86.512
X24.968Y86.514
X24.927Y86.516
X24.902
X24.874
X24.846Y86.515
X24.818Y86.514
X24.79Y86.512
X24.762Y86.51
X24.735Y86.507
X24.707Y86.504
X24.679Y86.5
X24.652Y86.496
X24.624Y86.492
X24.597Y86.487
X24.57Y86.481
X24.542Y86.475
X24.497Y86.464
X24.459Y86.453
X24.435Y86.446
X24.408Y86.438
X24.355Y86.42
X24.304Y86.4
X24.278Y86.389
X24.227Y86.366
X24.202Y86.354
X24.177Y86.342
X24.152Y86.329
X24.127Y86.316
X24.103Y86.302
X24.079Y86.288
X24.056Y86.273
X24.032Y86.258
X24.009Y86.243
X23.986Y86.227
X23.963Y86.211
X23.941Y86.194
X23.919Y86.177
X23.897Y86.16
X23.875Y86.142
X23.854Y86.124
X23.833Y86.106
X23.813Y86.087
X23.793Y86.068
X23.753Y86.028
X23.732Y86.006
X23.715Y85.987
X23.697Y85.967
X23.679Y85.946
X23.661Y85.924
X23.643Y85.902
X23.626Y85.88
X23.61Y85.858
X23.594Y85.835
X23.578Y85.812
X23.563Y85.789
X23.548Y85.765
X23.533Y85.741
X23.519Y85.717
X23.505Y85.693
X23.492Y85.669
X23.479Y85.644
X23.467Y85.619
X23.455Y85.594
X23.443Y85.569
X23.432Y85.543
X23.421Y85.517
X23.411Y85.492
X23.401Y85.465
X23.392Y85.439
X23.382Y85.41
X23.375Y85.386
X23.367Y85.359
X23.359Y85.332
X23.352Y85.305
X23.342Y85.262
X23.334Y85.221
X23.329Y85.196
X23.325Y85.169
X23.321Y85.144
X23.317Y85.113
X23.314Y85.086
X23.311Y85.058
X23.309Y85.031
X23.307Y85.003
X23.306Y84.975
X23.305Y84.947
Y84.925
Y84.89
X23.307Y84.836
X23.309Y84.808
X23.311Y84.78
X23.314Y84.752
X23.317Y84.725
X23.32Y84.697
X23.325Y84.67
X23.329Y84.642
X23.334Y84.615
X23.34Y84.587
X23.346Y84.56
X23.352Y84.533
X23.359Y84.506
X23.367Y84.479
X23.375Y84.452
X23.383Y84.426
X23.401Y84.373
X23.411Y84.347
X23.421Y84.321
X23.432Y84.295
X23.443Y84.27
X23.455Y84.244
X23.467Y84.219
X23.481Y84.191
X23.492Y84.17
X23.505Y84.145
X23.519Y84.121
X23.533Y84.097
X23.548Y84.073
X23.578Y84.026
X23.594Y84.003
X23.61Y83.981
X23.626Y83.958
X23.643Y83.936
X23.678Y83.893
X23.697Y83.872
X23.715Y83.851
X23.734Y83.83
X23.753Y83.81
X23.773Y83.79
X23.792Y83.771
X23.813Y83.751
X23.833Y83.733
X23.854Y83.714
X23.875Y83.696
X23.919Y83.661
X23.941Y83.644
X23.963Y83.628
X23.986Y83.611
X24.009Y83.595
X24.032Y83.58
X24.055Y83.565
X24.079Y83.551
X24.103Y83.536
X24.128Y83.523
X24.148Y83.512
X24.202Y83.484
X24.227Y83.472
X24.252Y83.461
X24.303Y83.439
X24.329Y83.429
X24.356Y83.419
X24.382Y83.41
X24.408Y83.401
X24.435Y83.392
X24.461Y83.384
G0Z1
X38.275Y84.73
G1Z-1F5
X38.326Y84.561F10
X38.409Y84.405
X38.522Y84.268
X38.658Y84.156
X38.814Y84.073
X38.983Y84.022
X39.159Y84.004
X39.335Y84.022
X39.504Y84.073
X39.66Y84.156
X39.796Y84.268
X39.908Y84.405
X39.992Y84.561
X40.043Y84.73
X40.06Y84.906
X40.043Y85.081
X39.992Y85.251
X39.908Y85.406
X39.796Y85.543
X39.66Y85.655
X39.504Y85.738
X39.335Y85.79
X39.159Y85.807
X38.983Y85.79
X38.814Y85.738
X38.658Y85.655
X38.522Y85.543
X38.409Y85.406
X38.326Y85.251
X38.275Y85.081
X38.258Y84.906
X38.275Y84.73
G0Z1
X54.162Y84.906
G1Z-1F5
X54.179Y84.73F10
X54.23Y84.561
X54.314Y84.405
X54.426Y84.268
X54.562Y84.156
X54.718Y84.073
X54.887Y84.022
X55.063Y84.004
X55.239Y84.022
X55.408Y84.073
X55.564Y84.156
X55.7Y84.268
X55.812Y84.405
X55.896Y84.561
X55.947Y84.73
X55.964Y84.906
X55.947Y85.081
X55.896Y85.251
X55.812Y85.406
X55.7Y85.543
X55.564Y85.655
X55.408Y85.738
X55.239Y85.79
X55.063Y85.807
