(Created with grbl post processor 2024/11/24 13:46)
G21
(G-code generated with BlenderCAM and NC library)
G17G90
(Tool: D = 3.18 mm  type END flutes 2)
S1000M03
G00 Z1.0

G0X0Y0Z1
X24.66Y104.451
G1Z-0.1F5
X24.687Y104.445F10
X24.714Y104.44
X24.742Y104.435
X24.769Y104.43
X24.797Y104.426
X24.824Y104.422
X24.852Y104.419
X24.88Y104.416
X24.908Y104.414
X24.936Y104.413
X24.963Y104.411
X24.991
X25.019Y104.41
X25.047Y104.411
X25.075
X25.102Y104.413
X25.131Y104.414
X25.158Y104.416
X25.186Y104.419
X25.214Y104.422
X25.241Y104.426
X25.269Y104.43
X25.296Y104.435
X25.324Y104.44
X25.351Y104.445
X25.378Y104.451
X25.405Y104.458
X25.432Y104.465
X25.459Y104.472
X25.486Y104.48
X25.512Y104.488
X25.539Y104.497
X25.565Y104.507
X25.591Y104.516
X25.617Y104.527
X25.643Y104.537
X25.668Y104.548
X25.694Y104.56
X25.719Y104.572
X25.744Y104.584
X25.769Y104.597
X25.793Y104.611
X25.817Y104.624
X25.841Y104.638
X25.865Y104.653
X25.889Y104.668
X25.912Y104.683
X25.935Y104.699
X25.958Y104.715
X25.98Y104.732
X26.002Y104.749
X26.024Y104.766
X26.045Y104.784
X26.067Y104.802
X26.088Y104.821
X26.108Y104.839
X26.128Y104.858
X26.168Y104.898
X26.187Y104.918
X26.206Y104.939
X26.224Y104.959
X26.242Y104.981
X26.26Y105.002
X26.277Y105.024
X26.294Y105.046
X26.311Y105.069
X26.327Y105.091
X26.343Y105.114
X26.358Y105.137
X26.373Y105.161
X26.388Y105.185
X26.402Y105.209
X26.415Y105.233
X26.429Y105.257
X26.442Y105.282
X26.454Y105.307
X26.466Y105.332
X26.478Y105.358
X26.489Y105.383
X26.499Y105.409
X26.51Y105.435
X26.519Y105.461
X26.529Y105.487
X26.538Y105.514
X26.546Y105.54
X26.561Y105.594
X26.568Y105.621
X26.575Y105.648
X26.581Y105.675
X26.586Y105.702
X26.591Y105.73
X26.596Y105.757
X26.6Y105.785
X26.604Y105.812
X26.607Y105.84
X26.61Y105.868
X26.612Y105.896
X26.614Y105.923
X26.615Y105.951
Y105.979
X26.616Y106.007
X26.615Y106.035
Y106.063
X26.614Y106.091
X26.612Y106.118
X26.61Y106.146
X26.607Y106.174
X26.604Y106.202
X26.6Y106.229
X26.596Y106.257
X26.591Y106.284
X26.586Y106.312
X26.581Y106.339
X26.575Y106.366
X26.568Y106.393
X26.561Y106.42
X26.554Y106.447
X26.546Y106.474
X26.538Y106.5
X26.529Y106.527
X26.519Y106.553
X26.51Y106.579
X26.499Y106.605
X26.489Y106.631
X26.478Y106.656
X26.466Y106.682
X26.454Y106.707
X26.442Y106.732
X26.429Y106.757
X26.415Y106.781
X26.402Y106.805
X26.388Y106.829
X26.373Y106.853
X26.358Y106.876
X26.343Y106.9
X26.327Y106.923
X26.311Y106.945
X26.294Y106.968
X26.277Y106.99
X26.26Y107.012
X26.242Y107.033
X26.224Y107.055
X26.206Y107.075
X26.187Y107.096
X26.168Y107.116
X26.148Y107.136
X26.128Y107.156
X26.108Y107.175
X26.087Y107.194
X26.067Y107.212
X26.045Y107.23
X26.024Y107.248
X26.002Y107.265
X25.98Y107.282
X25.958Y107.299
X25.935Y107.315
X25.912Y107.331
X25.889Y107.346
X25.865Y107.361
X25.842Y107.376
X25.817Y107.39
X25.793Y107.404
X25.769Y107.417
X25.744Y107.43
X25.719Y107.442
X25.694Y107.454
X25.668Y107.466
X25.643Y107.477
X25.617Y107.487
X25.591Y107.498
X25.565Y107.507
X25.539Y107.517
X25.512Y107.526
X25.486Y107.534
X25.459Y107.542
X25.432Y107.549
X25.405Y107.556
X25.378Y107.563
X25.351Y107.569
X25.324Y107.574
X25.296Y107.579
X25.269Y107.584
X25.241Y107.588
X25.214Y107.592
X25.186Y107.595
X25.158Y107.598
X25.13Y107.6
X25.103Y107.601
X25.075Y107.603
X25.047
X25.019Y107.604
X24.991Y107.603
X24.963
X24.936Y107.601
X24.908Y107.6
X24.88Y107.598
X24.852Y107.595
X24.824Y107.592
X24.797Y107.588
X24.769Y107.584
X24.742Y107.579
X24.714Y107.574
X24.687Y107.569
X24.66Y107.563
X24.633Y107.556
X24.606Y107.549
X24.579Y107.542
X24.552Y107.534
X24.526Y107.526
X24.499Y107.517
X24.473Y107.507
X24.447Y107.498
X24.421Y107.487
X24.395Y107.477
X24.37Y107.466
X24.344Y107.454
X24.319Y107.442
X24.294Y107.43
X24.269Y107.417
X24.245Y107.404
X24.221Y107.39
X24.197Y107.376
X24.173Y107.361
X24.15Y107.346
X24.126Y107.331
X24.103Y107.315
X24.08Y107.299
X24.058Y107.282
X24.036Y107.265
X24.014Y107.248
X23.993Y107.23
X23.971Y107.212
X23.951Y107.194
X23.93Y107.175
X23.91Y107.155
X23.89Y107.136
X23.871Y107.116
X23.851Y107.096
X23.833Y107.075
X23.814Y107.055
X23.796Y107.033
X23.778Y107.012
X23.761Y106.99
X23.744Y106.968
X23.727Y106.945
X23.711Y106.923
X23.695Y106.9
X23.68Y106.876
X23.665Y106.853
X23.651Y106.829
X23.623Y106.781
X23.609Y106.757
X23.596Y106.731
X23.584Y106.707
X23.572Y106.682
X23.56Y106.656
X23.549Y106.631
X23.539Y106.605
X23.528Y106.579
X23.519Y106.553
X23.509Y106.527
X23.501Y106.5
X23.492Y106.474
X23.484Y106.447
X23.477Y106.42
X23.47Y106.393
X23.463Y106.366
X23.457Y106.339
X23.452Y106.312
X23.447Y106.284
X23.442Y106.257
X23.438Y106.229
X23.434Y106.202
X23.431Y106.174
X23.428Y106.146
X23.426Y106.118
X23.425Y106.091
X23.423Y106.063
X23.422Y106.007
X23.423Y105.979
Y105.951
X23.425Y105.923
X23.426Y105.896
X23.428Y105.868
X23.431Y105.84
X23.438Y105.785
X23.442Y105.757
X23.447Y105.73
X23.452Y105.703
X23.457Y105.675
X23.463Y105.648
X23.47Y105.621
X23.477Y105.594
X23.484Y105.567
X23.492Y105.54
X23.501Y105.514
X23.509Y105.487
X23.519Y105.461
X23.528Y105.435
X23.546Y105.392
X23.561Y105.355
X23.572Y105.332
X23.584Y105.307
X23.596Y105.282
X23.609Y105.257
X23.636Y105.209
X23.65Y105.185
X23.665Y105.161
X23.68Y105.137
X23.695Y105.114
X23.711Y105.091
X23.727Y105.069
X23.741Y105.05
X23.762Y105.023
X23.796Y104.981
X23.814Y104.959
X23.833Y104.939
X23.851Y104.918
X23.871Y104.898
X23.89Y104.878
X23.91Y104.858
X23.93Y104.839
X23.951Y104.821
X23.971Y104.802
X23.993Y104.784
X24.014Y104.766
X24.036Y104.749
X24.058Y104.732
X24.08Y104.715
X24.103Y104.699
X24.126Y104.683
X24.149Y104.668
X24.173Y104.653
X24.197Y104.638
X24.221Y104.624
X24.245Y104.611
X24.294Y104.584
X24.319Y104.572
X24.344Y104.56
X24.37Y104.548
X24.395Y104.537
X24.421Y104.527
X24.473Y104.507
X24.499Y104.497
X24.552Y104.48
X24.606Y104.465
X24.66Y104.451
G0Z1
X38.421Y105.816
G1Z-0.1F5
X38.472Y105.647F10
X38.556Y105.49
X38.667Y105.354
X38.804Y105.242
X38.96Y105.159
X39.129Y105.108
X39.305Y105.09
X39.481Y105.108
X39.65Y105.159
X39.806Y105.242
X39.942Y105.354
X40.054Y105.491
X40.137Y105.647
X40.189Y105.816
X40.206Y105.992
X40.189Y106.167
X40.137Y106.337
X40.054Y106.492
X39.942Y106.629
X39.806Y106.741
X39.65Y106.824
X39.481Y106.876
X39.305Y106.893
X39.129Y106.876
X38.96Y106.824
X38.804Y106.741
X38.667Y106.629
X38.555Y106.492
X38.472Y106.337
X38.421Y106.167
X38.403Y105.992
X38.421Y105.816
G0Z1
X54.307Y105.992
G1Z-0.1F5
X54.325Y105.816F10
X54.376Y105.647
X54.459Y105.491
X54.571Y105.354
X54.708Y105.242
X54.864Y105.159
X55.033Y105.108
X55.209Y105.09
X55.385Y105.108
X55.554Y105.159
X55.709Y105.242
X55.846Y105.354
X55.958Y105.491
X56.041Y105.647
X56.093Y105.816
X56.11Y105.992
X56.093Y106.167
X56.041Y106.337
X55.958Y106.492
X55.846Y106.629
X55.709Y106.741
X55.554Y106.824
X55.385Y106.876
X55.209Y106.893
X55.033Y106.876
X54.864Y106.824
X54.708Y106.741
X54.571Y106.629
X54.459Y106.492
X54.376Y106.337
X54.325Y106.167
X54.307Y105.992
G0Z1
X57.81Y98.066
G1Z-0.1F5
X31.356F10
X30.702Y98.072
X30.048Y98.088
X29.395Y98.116
X28.742Y98.154
X28.089Y98.203
X27.438Y98.263
X26.788Y98.333
X26.139Y98.415
X25.491Y98.507
X24.846Y98.61
X24.201Y98.724
X23.559Y98.848
X23.435Y98.875
X23.311Y98.903
X23.189Y98.934
X23.066Y98.967
X22.945Y99.002
X22.824Y99.039
X22.704Y99.078
X22.584Y99.119
X22.465Y99.162
X22.347Y99.207
X22.229Y99.255
X22.113Y99.304
X21.997Y99.355
X21.882Y99.409
X21.768Y99.464
X21.655Y99.521
X21.544Y99.581
X21.433Y99.642
X21.323Y99.705
X21.214Y99.77
X21.107Y99.837
X21.001Y99.905
X20.896Y99.976
X20.792Y100.048
X20.689Y100.122
X20.588Y100.198
X20.488Y100.276
X20.389Y100.355
X20.292Y100.436
X20.196Y100.519
X20.102Y100.604
X20.009Y100.69
X19.918Y100.777
X19.828Y100.866
X19.739Y100.957
X19.653Y101.049
X19.568Y101.143
X19.484Y101.238
X19.402Y101.335
X19.303Y101.457
X19.205Y101.581
X19.109Y101.706
X19.015Y101.834
X18.924Y101.962
X18.835Y102.093
X18.748Y102.225
X18.663Y102.358
X18.581Y102.493
X18.501Y102.629
X18.423Y102.766
X18.348Y102.905
X18.275Y103.045
X18.204Y103.187
X18.136Y103.329
X18.07Y103.473
X18.007Y103.618
X17.946Y103.763
X17.888Y103.91
X17.833Y104.058
X17.779Y104.207
X17.729Y104.356
X17.681Y104.507
X17.636Y104.658
X17.593Y104.81
X17.553Y104.963
X17.515Y105.116
X17.48Y105.27
X17.448Y105.425
X17.418Y105.58
X17.391Y105.736
X17.367Y105.892
X17.345Y106.048
X17.326Y106.205
X17.31Y106.362
X17.297Y106.52
X17.286Y106.677
X17.278Y106.835
X17.272Y106.993
X17.269Y107.151
Y107.309
X17.272Y107.467
X17.277Y107.624
X17.285Y107.782
X17.296Y107.94
X17.31Y108.097
X17.326Y108.254
X17.345Y108.411
X17.364Y108.554
X17.784Y111.445
X17.797Y111.521
X17.814Y111.597
X17.833Y111.672
X17.855Y111.746
X17.879Y111.819
X17.906Y111.893
X17.935Y111.964
X17.967Y112.035
X18.001Y112.104
X18.038Y112.173
X18.076Y112.239
X18.118Y112.305
X18.161Y112.369
X18.207Y112.432
X18.255Y112.493
X18.304Y112.552
X18.357Y112.609
X18.411Y112.665
X18.466Y112.718
X18.524Y112.77
X18.584Y112.82
X18.644Y112.867
X18.708Y112.913
X18.771Y112.956
X18.838Y112.997
X18.905Y113.035
X18.973Y113.072
X19.043Y113.106
X19.113Y113.137
X19.186Y113.166
X19.258Y113.192
X19.332Y113.216
X19.406Y113.238
X19.482Y113.256
X19.557Y113.272
X19.634Y113.286
X19.711Y113.297
X19.787Y113.305
X19.865Y113.31
X19.942Y113.313
X19.981
X25.032
X25.149Y113.312
X25.265Y113.309
X25.382Y113.304
X25.499Y113.297
X26.754Y113.207
X27.907Y113.142
X29.06Y113.096
X30.215Y113.068
X31.375Y113.059
X34.928
X34.966Y113.062
X35.005Y113.065
X35.043Y113.066
X35.081
X63.081
X63.121
X63.16Y113.064
X63.2Y113.062
X63.24Y113.058
X63.279Y113.054
X63.318Y113.049
X63.358Y113.042
X63.397Y113.035
X63.436Y113.026
X63.475Y113.017
X63.513Y113.007
X63.551Y112.995
X63.589Y112.983
X63.626Y112.97
X63.664Y112.956
X63.7Y112.941
X63.737Y112.925
X63.773Y112.908
X63.808Y112.89
X63.844Y112.872
X63.878Y112.852
X63.913Y112.831
X63.947Y112.81
X63.981Y112.787
X64.014Y112.764
X64.047Y112.74
X64.079Y112.715
X64.11Y112.689
X64.125Y112.676
X64.154Y112.65
X64.176Y112.629
X64.198Y112.608
X64.226Y112.58
X64.254Y112.551
X64.286Y112.515
X64.317Y112.478
X64.338Y112.45
X64.36Y112.422
X64.38Y112.394
X64.401Y112.364
X64.42Y112.335
X64.439Y112.304
X64.456Y112.276
X64.472Y112.248
X64.488Y112.219
X64.507Y112.181
X64.525Y112.144
X64.538Y112.114
X64.551Y112.085
X64.567Y112.044
X64.575Y112.022
X64.589Y111.982
X64.602Y111.941
X64.614Y111.899
X64.626Y111.857
X64.635Y111.814
X64.644Y111.774
X64.651Y111.733
X64.658Y111.682
X64.665Y111.626
X64.668Y111.592
X64.67Y111.559
X64.671Y111.525
X64.672Y111.475
Y111.243
X64.686Y111.158
X64.696Y111.08
X64.704Y111.003
X64.708Y110.926
X64.71Y110.833
Y99.999
Y99.96
X64.708Y99.921
X64.706Y99.881
X64.702Y99.842
X64.698Y99.803
X64.692Y99.764
X64.686Y99.725
X64.679Y99.686
X64.672Y99.653
X64.671Y99.61
X64.668Y99.567
X64.665Y99.524
X64.66Y99.481
X64.654Y99.439
X64.647Y99.396
X64.639Y99.354
X64.63Y99.312
X64.619Y99.27
X64.61Y99.235
X64.6Y99.201
X64.589Y99.167
X64.577Y99.133
X64.564Y99.099
X64.547Y99.058
X64.529Y99.017
X64.51Y98.977
X64.488Y98.933
X64.472Y98.904
X64.455Y98.874
X64.434Y98.838
X64.411Y98.802
X64.389Y98.77
X64.367Y98.739
X64.344Y98.708
X64.32Y98.678
X64.296Y98.648
X64.27Y98.619
X64.244Y98.59
X64.218Y98.562
X64.191Y98.535
X64.163Y98.509
X64.134Y98.483
X64.105Y98.458
X64.075Y98.433
X64.045Y98.409
X64.014Y98.386
X63.982Y98.364
X63.95Y98.343
X63.917Y98.322
X63.884Y98.302
X63.851Y98.283
X63.816Y98.265
X63.782Y98.247
X63.747Y98.231
X63.713Y98.215
X63.677Y98.201
X63.642Y98.187
X63.606Y98.174
X63.57Y98.161
X63.533Y98.15
X63.496Y98.14
X63.459Y98.13
X63.422Y98.121
X63.385Y98.114
X63.347Y98.107
X63.309Y98.101
X63.272Y98.096
X63.234Y98.092
X63.195Y98.089
X63.157Y98.086
X63.119Y98.085
X63.081Y98.084
X59.145
X58.555Y98.071
X57.81Y98.066
G0Z1
X24.66Y104.451
G1Z-0.2F5
X24.687Y104.445F10
X24.714Y104.44
X24.742Y104.435
X24.769Y104.43
X24.797Y104.426
X24.824Y104.422
X24.852Y104.419
X24.88Y104.416
X24.908Y104.414
X24.936Y104.413
X24.963Y104.411
X24.991
X25.019Y104.41
X25.047Y104.411
X25.075
X25.102Y104.413
X25.131Y104.414
X25.158Y104.416
X25.186Y104.419
X25.214Y104.422
X25.241Y104.426
X25.269Y104.43
X25.296Y104.435
X25.324Y104.44
X25.351Y104.445
X25.378Y104.451
X25.405Y104.458
X25.432Y104.465
X25.459Y104.472
X25.486Y104.48
X25.512Y104.488
X25.539Y104.497
X25.565Y104.507
X25.591Y104.516
X25.617Y104.527
X25.643Y104.537
X25.668Y104.548
X25.694Y104.56
X25.719Y104.572
X25.744Y104.584
X25.769Y104.597
X25.793Y104.611
X25.817Y104.624
X25.841Y104.638
X25.865Y104.653
X25.889Y104.668
X25.912Y104.683
X25.935Y104.699
X25.958Y104.715
X25.98Y104.732
X26.002Y104.749
X26.024Y104.766
X26.045Y104.784
X26.067Y104.802
X26.088Y104.821
X26.108Y104.839
X26.128Y104.858
X26.168Y104.898
X26.187Y104.918
X26.206Y104.939
X26.224Y104.959
X26.242Y104.981
X26.26Y105.002
X26.277Y105.024
X26.294Y105.046
X26.311Y105.069
X26.327Y105.091
X26.343Y105.114
X26.358Y105.137
X26.373Y105.161
X26.388Y105.185
X26.402Y105.209
X26.415Y105.233
X26.429Y105.257
X26.442Y105.282
X26.454Y105.307
X26.466Y105.332
X26.478Y105.358
X26.489Y105.383
X26.499Y105.409
X26.51Y105.435
X26.519Y105.461
X26.529Y105.487
X26.538Y105.514
X26.546Y105.54
X26.561Y105.594
X26.568Y105.621
X26.575Y105.648
X26.581Y105.675
X26.586Y105.702
X26.591Y105.73
X26.596Y105.757
X26.6Y105.785
X26.604Y105.812
X26.607Y105.84
X26.61Y105.868
X26.612Y105.896
X26.614Y105.923
X26.615Y105.951
Y105.979
X26.616Y106.007
X26.615Y106.035
Y106.063
X26.614Y106.091
X26.612Y106.118
X26.61Y106.146
X26.607Y106.174
X26.604Y106.202
X26.6Y106.229
X26.596Y106.257
X26.591Y106.284
X26.586Y106.312
X26.581Y106.339
X26.575Y106.366
X26.568Y106.393
X26.561Y106.42
X26.554Y106.447
X26.546Y106.474
X26.538Y106.5
X26.529Y106.527
X26.519Y106.553
X26.51Y106.579
X26.499Y106.605
X26.489Y106.631
X26.478Y106.656
X26.466Y106.682
X26.454Y106.707
X26.442Y106.732
X26.429Y106.757
X26.415Y106.781
X26.402Y106.805
X26.388Y106.829
X26.373Y106.853
X26.358Y106.876
X26.343Y106.9
X26.327Y106.923
X26.311Y106.945
X26.294Y106.968
X26.277Y106.99
X26.26Y107.012
X26.242Y107.033
X26.224Y107.055
X26.206Y107.075
X26.187Y107.096
X26.168Y107.116
X26.148Y107.136
X26.128Y107.156
X26.108Y107.175
X26.087Y107.194
X26.067Y107.212
X26.045Y107.23
X26.024Y107.248
X26.002Y107.265
X25.98Y107.282
X25.958Y107.299
X25.935Y107.315
X25.912Y107.331
X25.889Y107.346
X25.865Y107.361
X25.842Y107.376
X25.817Y107.39
X25.793Y107.404
X25.769Y107.417
X25.744Y107.43
X25.719Y107.442
X25.694Y107.454
X25.668Y107.466
X25.643Y107.477
X25.617Y107.487
X25.591Y107.498
X25.565Y107.507
X25.539Y107.517
X25.512Y107.526
X25.486Y107.534
X25.459Y107.542
X25.432Y107.549
X25.405Y107.556
X25.378Y107.563
X25.351Y107.569
X25.324Y107.574
X25.296Y107.579
X25.269Y107.584
X25.241Y107.588
X25.214Y107.592
X25.186Y107.595
X25.158Y107.598
X25.13Y107.6
X25.103Y107.601
X25.075Y107.603
X25.047
X25.019Y107.604
X24.991Y107.603
X24.963
X24.936Y107.601
X24.908Y107.6
X24.88Y107.598
X24.852Y107.595
X24.824Y107.592
X24.797Y107.588
X24.769Y107.584
X24.742Y107.579
X24.714Y107.574
X24.687Y107.569
X24.66Y107.563
X24.633Y107.556
X24.606Y107.549
X24.579Y107.542
X24.552Y107.534
X24.526Y107.526
X24.499Y107.517
X24.473Y107.507
X24.447Y107.498
X24.421Y107.487
X24.395Y107.477
X24.37Y107.466
X24.344Y107.454
X24.319Y107.442
X24.294Y107.43
X24.269Y107.417
X24.245Y107.404
X24.221Y107.39
X24.197Y107.376
X24.173Y107.361
X24.15Y107.346
X24.126Y107.331
X24.103Y107.315
X24.08Y107.299
X24.058Y107.282
X24.036Y107.265
X24.014Y107.248
X23.993Y107.23
X23.971Y107.212
X23.951Y107.194
X23.93Y107.175
X23.91Y107.155
X23.89Y107.136
X23.871Y107.116
X23.851Y107.096
X23.833Y107.075
X23.814Y107.055
X23.796Y107.033
X23.778Y107.012
X23.761Y106.99
X23.744Y106.968
X23.727Y106.945
X23.711Y106.923
X23.695Y106.9
X23.68Y106.876
X23.665Y106.853
X23.651Y106.829
X23.623Y106.781
X23.609Y106.757
X23.596Y106.731
X23.584Y106.707
X23.572Y106.682
X23.56Y106.656
X23.549Y106.631
X23.539Y106.605
X23.528Y106.579
X23.519Y106.553
X23.509Y106.527
X23.501Y106.5
X23.492Y106.474
X23.484Y106.447
X23.477Y106.42
X23.47Y106.393
X23.463Y106.366
X23.457Y106.339
X23.452Y106.312
X23.447Y106.284
X23.442Y106.257
X23.438Y106.229
X23.434Y106.202
X23.431Y106.174
X23.428Y106.146
X23.426Y106.118
X23.425Y106.091
X23.423Y106.063
X23.422Y106.007
X23.423Y105.979
Y105.951
X23.425Y105.923
X23.426Y105.896
X23.428Y105.868
X23.431Y105.84
X23.438Y105.785
X23.442Y105.757
X23.447Y105.73
X23.452Y105.703
X23.457Y105.675
X23.463Y105.648
X23.47Y105.621
X23.477Y105.594
X23.484Y105.567
X23.492Y105.54
X23.501Y105.514
X23.509Y105.487
X23.519Y105.461
X23.528Y105.435
X23.546Y105.392
X23.561Y105.355
X23.572Y105.332
X23.584Y105.307
X23.596Y105.282
X23.609Y105.257
X23.636Y105.209
X23.65Y105.185
X23.665Y105.161
X23.68Y105.137
X23.695Y105.114
X23.711Y105.091
X23.727Y105.069
X23.741Y105.05
X23.762Y105.023
X23.796Y104.981
X23.814Y104.959
X23.833Y104.939
X23.851Y104.918
X23.871Y104.898
X23.89Y104.878
X23.91Y104.858
X23.93Y104.839
X23.951Y104.821
X23.971Y104.802
X23.993Y104.784
X24.014Y104.766
X24.036Y104.749
X24.058Y104.732
X24.08Y104.715
X24.103Y104.699
X24.126Y104.683
X24.149Y104.668
X24.173Y104.653
X24.197Y104.638
X24.221Y104.624
X24.245Y104.611
X24.294Y104.584
X24.319Y104.572
X24.344Y104.56
X24.37Y104.548
X24.395Y104.537
X24.421Y104.527
X24.473Y104.507
X24.499Y104.497
X24.552Y104.48
X24.606Y104.465
X24.66Y104.451
G0Z1
X38.421Y105.816
G1Z-0.2F5
X38.472Y105.647F10
X38.556Y105.49
X38.667Y105.354
X38.804Y105.242
X38.96Y105.159
X39.129Y105.108
X39.305Y105.09
X39.481Y105.108
X39.65Y105.159
X39.806Y105.242
X39.942Y105.354
X40.054Y105.491
X40.137Y105.647
X40.189Y105.816
X40.206Y105.992
X40.189Y106.167
X40.137Y106.337
X40.054Y106.492
X39.942Y106.629
X39.806Y106.741
X39.65Y106.824
X39.481Y106.876
X39.305Y106.893
X39.129Y106.876
X38.96Y106.824
X38.804Y106.741
X38.667Y106.629
X38.555Y106.492
X38.472Y106.337
X38.421Y106.167
X38.403Y105.992
X38.421Y105.816
G0Z1
X54.307Y105.992
G1Z-0.2F5
X54.325Y105.816F10
X54.376Y105.647
X54.459Y105.491
X54.571Y105.354
X54.708Y105.242
X54.864Y105.159
X55.033Y105.108
X55.209Y105.09
X55.385Y105.108
X55.554Y105.159
X55.709Y105.242
X55.846Y105.354
X55.958Y105.491
X56.041Y105.647
X56.093Y105.816
X56.11Y105.992
X56.093Y106.167
X56.041Y106.337
X55.958Y106.492
X55.846Y106.629
X55.709Y106.741
X55.554Y106.824
X55.385Y106.876
X55.209Y106.893
X55.033Y106.876
X54.864Y106.824
X54.708Y106.741
X54.571Y106.629
X54.459Y106.492
X54.376Y106.337
X54.325Y106.167
X54.307Y105.992
G0Z1
X57.81Y98.066
G1Z-0.2F5
X31.356F10
X30.702Y98.072
X30.048Y98.088
X29.395Y98.116
X28.742Y98.154
X28.089Y98.203
X27.438Y98.263
X26.788Y98.333
X26.139Y98.415
X25.491Y98.507
X24.846Y98.61
X24.201Y98.724
X23.559Y98.848
X23.435Y98.875
X23.311Y98.903
X23.189Y98.934
X23.066Y98.967
X22.945Y99.002
X22.824Y99.039
X22.704Y99.078
X22.584Y99.119
X22.465Y99.162
X22.347Y99.207
X22.229Y99.255
X22.113Y99.304
X21.997Y99.355
X21.882Y99.409
X21.768Y99.464
X21.655Y99.521
X21.544Y99.581
X21.433Y99.642
X21.323Y99.705
X21.214Y99.77
X21.107Y99.837
X21.001Y99.905
X20.896Y99.976
X20.792Y100.048
X20.689Y100.122
X20.588Y100.198
X20.488Y100.276
X20.389Y100.355
X20.292Y100.436
X20.196Y100.519
X20.102Y100.604
X20.009Y100.69
X19.918Y100.777
X19.828Y100.866
X19.739Y100.957
X19.653Y101.049
X19.568Y101.143
X19.484Y101.238
X19.402Y101.335
X19.303Y101.457
X19.205Y101.581
X19.109Y101.706
X19.015Y101.834
X18.924Y101.962
X18.835Y102.093
X18.748Y102.225
X18.663Y102.358
X18.581Y102.493
X18.501Y102.629
X18.423Y102.766
X18.348Y102.905
X18.275Y103.045
X18.204Y103.187
X18.136Y103.329
X18.07Y103.473
X18.007Y103.618
X17.946Y103.763
X17.888Y103.91
X17.833Y104.058
X17.779Y104.207
X17.729Y104.356
X17.681Y104.507
X17.636Y104.658
X17.593Y104.81
X17.553Y104.963
X17.515Y105.116
X17.48Y105.27
X17.448Y105.425
X17.418Y105.58
X17.391Y105.736
X17.367Y105.892
X17.345Y106.048
X17.326Y106.205
X17.31Y106.362
X17.297Y106.52
X17.286Y106.677
X17.278Y106.835
X17.272Y106.993
X17.269Y107.151
Y107.309
X17.272Y107.467
X17.277Y107.624
X17.285Y107.782
X17.296Y107.94
X17.31Y108.097
X17.326Y108.254
X17.345Y108.411
X17.364Y108.554
X17.784Y111.445
X17.797Y111.521
X17.814Y111.597
X17.833Y111.672
X17.855Y111.746
X17.879Y111.819
X17.906Y111.893
X17.935Y111.964
X17.967Y112.035
X18.001Y112.104
X18.038Y112.173
X18.076Y112.239
X18.118Y112.305
X18.161Y112.369
X18.207Y112.432
X18.255Y112.493
X18.304Y112.552
X18.357Y112.609
X18.411Y112.665
X18.466Y112.718
X18.524Y112.77
X18.584Y112.82
X18.644Y112.867
X18.708Y112.913
X18.771Y112.956
X18.838Y112.997
X18.905Y113.035
X18.973Y113.072
X19.043Y113.106
X19.113Y113.137
X19.186Y113.166
X19.258Y113.192
X19.332Y113.216
X19.406Y113.238
X19.482Y113.256
X19.557Y113.272
X19.634Y113.286
X19.711Y113.297
X19.787Y113.305
X19.865Y113.31
X19.942Y113.313
X19.981
X25.032
X25.149Y113.312
X25.265Y113.309
X25.382Y113.304
X25.499Y113.297
X26.754Y113.207
X27.907Y113.142
X29.06Y113.096
X30.215Y113.068
X31.375Y113.059
X34.928
X34.966Y113.062
X35.005Y113.065
X35.043Y113.066
X35.081
X63.081
X63.121
X63.16Y113.064
X63.2Y113.062
X63.24Y113.058
X63.279Y113.054
X63.318Y113.049
X63.358Y113.042
X63.397Y113.035
X63.436Y113.026
X63.475Y113.017
X63.513Y113.007
X63.551Y112.995
X63.589Y112.983
X63.626Y112.97
X63.664Y112.956
X63.7Y112.941
X63.737Y112.925
X63.773Y112.908
X63.808Y112.89
X63.844Y112.872
X63.878Y112.852
X63.913Y112.831
X63.947Y112.81
X63.981Y112.787
X64.014Y112.764
X64.047Y112.74
X64.079Y112.715
X64.11Y112.689
X64.125Y112.676
X64.154Y112.65
X64.176Y112.629
X64.198Y112.608
X64.226Y112.58
X64.254Y112.551
X64.286Y112.515
X64.317Y112.478
X64.338Y112.45
X64.36Y112.422
X64.38Y112.394
X64.401Y112.364
X64.42Y112.335
X64.439Y112.304
X64.456Y112.276
X64.472Y112.248
X64.488Y112.219
X64.507Y112.181
X64.525Y112.144
X64.538Y112.114
X64.551Y112.085
X64.567Y112.044
X64.575Y112.022
X64.589Y111.982
X64.602Y111.941
X64.614Y111.899
X64.626Y111.857
X64.635Y111.814
X64.644Y111.774
X64.651Y111.733
X64.658Y111.682
X64.665Y111.626
X64.668Y111.592
X64.67Y111.559
X64.671Y111.525
X64.672Y111.475
Y111.243
X64.686Y111.158
X64.696Y111.08
X64.704Y111.003
X64.708Y110.926
X64.71Y110.833
Y99.999
Y99.96
X64.708Y99.921
X64.706Y99.881
X64.702Y99.842
X64.698Y99.803
X64.692Y99.764
X64.686Y99.725
X64.679Y99.686
X64.672Y99.653
X64.671Y99.61
X64.668Y99.567
X64.665Y99.524
X64.66Y99.481
X64.654Y99.439
X64.647Y99.396
X64.639Y99.354
X64.63Y99.312
X64.619Y99.27
X64.61Y99.235
X64.6Y99.201
X64.589Y99.167
X64.577Y99.133
X64.564Y99.099
X64.547Y99.058
X64.529Y99.017
X64.51Y98.977
X64.488Y98.933
X64.472Y98.904
X64.455Y98.874
X64.434Y98.838
X64.411Y98.802
X64.389Y98.77
X64.367Y98.739
X64.344Y98.708
X64.32Y98.678
X64.296Y98.648
X64.27Y98.619
X64.244Y98.59
X64.218Y98.562
X64.191Y98.535
X64.163Y98.509
X64.134Y98.483
X64.105Y98.458
X64.075Y98.433
X64.045Y98.409
X64.014Y98.386
X63.982Y98.364
X63.95Y98.343
X63.917Y98.322
X63.884Y98.302
X63.851Y98.283
X63.816Y98.265
X63.782Y98.247
X63.747Y98.231
X63.713Y98.215
X63.677Y98.201
X63.642Y98.187
X63.606Y98.174
X63.57Y98.161
X63.533Y98.15
X63.496Y98.14
X63.459Y98.13
X63.422Y98.121
X63.385Y98.114
X63.347Y98.107
X63.309Y98.101
X63.272Y98.096
X63.234Y98.092
X63.195Y98.089
X63.157Y98.086
X63.119Y98.085
X63.081Y98.084
X59.145
X58.555Y98.071
X57.81Y98.066
G0Z1
X24.66Y104.451
G1Z-0.3F5
X24.687Y104.445F10
X24.714Y104.44
X24.742Y104.435
X24.769Y104.43
X24.797Y104.426
X24.824Y104.422
X24.852Y104.419
X24.88Y104.416
X24.908Y104.414
X24.936Y104.413
X24.963Y104.411
X24.991
X25.019Y104.41
X25.047Y104.411
X25.075
X25.102Y104.413
X25.131Y104.414
X25.158Y104.416
X25.186Y104.419
X25.214Y104.422
X25.241Y104.426
X25.269Y104.43
X25.296Y104.435
X25.324Y104.44
X25.351Y104.445
X25.378Y104.451
X25.405Y104.458
X25.432Y104.465
X25.459Y104.472
X25.486Y104.48
X25.512Y104.488
X25.539Y104.497
X25.565Y104.507
X25.591Y104.516
X25.617Y104.527
X25.643Y104.537
X25.668Y104.548
X25.694Y104.56
X25.719Y104.572
X25.744Y104.584
X25.769Y104.597
X25.793Y104.611
X25.817Y104.624
X25.841Y104.638
X25.865Y104.653
X25.889Y104.668
X25.912Y104.683
X25.935Y104.699
X25.958Y104.715
X25.98Y104.732
X26.002Y104.749
X26.024Y104.766
X26.045Y104.784
X26.067Y104.802
X26.088Y104.821
X26.108Y104.839
X26.128Y104.858
X26.168Y104.898
X26.187Y104.918
X26.206Y104.939
X26.224Y104.959
X26.242Y104.981
X26.26Y105.002
X26.277Y105.024
X26.294Y105.046
X26.311Y105.069
X26.327Y105.091
X26.343Y105.114
X26.358Y105.137
X26.373Y105.161
X26.388Y105.185
X26.402Y105.209
X26.415Y105.233
X26.429Y105.257
X26.442Y105.282
X26.454Y105.307
X26.466Y105.332
X26.478Y105.358
X26.489Y105.383
X26.499Y105.409
X26.51Y105.435
X26.519Y105.461
X26.529Y105.487
X26.538Y105.514
X26.546Y105.54
X26.561Y105.594
X26.568Y105.621
X26.575Y105.648
X26.581Y105.675
X26.586Y105.702
X26.591Y105.73
X26.596Y105.757
X26.6Y105.785
X26.604Y105.812
X26.607Y105.84
X26.61Y105.868
X26.612Y105.896
X26.614Y105.923
X26.615Y105.951
Y105.979
X26.616Y106.007
X26.615Y106.035
Y106.063
X26.614Y106.091
X26.612Y106.118
X26.61Y106.146
X26.607Y106.174
X26.604Y106.202
X26.6Y106.229
X26.596Y106.257
X26.591Y106.284
X26.586Y106.312
X26.581Y106.339
X26.575Y106.366
X26.568Y106.393
X26.561Y106.42
X26.554Y106.447
X26.546Y106.474
X26.538Y106.5
X26.529Y106.527
X26.519Y106.553
X26.51Y106.579
X26.499Y106.605
X26.489Y106.631
X26.478Y106.656
X26.466Y106.682
X26.454Y106.707
X26.442Y106.732
X26.429Y106.757
X26.415Y106.781
X26.402Y106.805
X26.388Y106.829
X26.373Y106.853
X26.358Y106.876
X26.343Y106.9
X26.327Y106.923
X26.311Y106.945
X26.294Y106.968
X26.277Y106.99
X26.26Y107.012
X26.242Y107.033
X26.224Y107.055
X26.206Y107.075
X26.187Y107.096
X26.168Y107.116
X26.148Y107.136
X26.128Y107.156
X26.108Y107.175
X26.087Y107.194
X26.067Y107.212
X26.045Y107.23
X26.024Y107.248
X26.002Y107.265
X25.98Y107.282
X25.958Y107.299
X25.935Y107.315
X25.912Y107.331
X25.889Y107.346
X25.865Y107.361
X25.842Y107.376
X25.817Y107.39
X25.793Y107.404
X25.769Y107.417
X25.744Y107.43
X25.719Y107.442
X25.694Y107.454
X25.668Y107.466
X25.643Y107.477
X25.617Y107.487
X25.591Y107.498
X25.565Y107.507
X25.539Y107.517
X25.512Y107.526
X25.486Y107.534
X25.459Y107.542
X25.432Y107.549
X25.405Y107.556
X25.378Y107.563
X25.351Y107.569
X25.324Y107.574
X25.296Y107.579
X25.269Y107.584
X25.241Y107.588
X25.214Y107.592
X25.186Y107.595
X25.158Y107.598
X25.13Y107.6
X25.103Y107.601
X25.075Y107.603
X25.047
X25.019Y107.604
X24.991Y107.603
X24.963
X24.936Y107.601
X24.908Y107.6
X24.88Y107.598
X24.852Y107.595
X24.824Y107.592
X24.797Y107.588
X24.769Y107.584
X24.742Y107.579
X24.714Y107.574
X24.687Y107.569
X24.66Y107.563
X24.633Y107.556
X24.606Y107.549
X24.579Y107.542
X24.552Y107.534
X24.526Y107.526
X24.499Y107.517
X24.473Y107.507
X24.447Y107.498
X24.421Y107.487
X24.395Y107.477
X24.37Y107.466
X24.344Y107.454
X24.319Y107.442
X24.294Y107.43
X24.269Y107.417
X24.245Y107.404
X24.221Y107.39
X24.197Y107.376
X24.173Y107.361
X24.15Y107.346
X24.126Y107.331
X24.103Y107.315
X24.08Y107.299
X24.058Y107.282
X24.036Y107.265
X24.014Y107.248
X23.993Y107.23
X23.971Y107.212
X23.951Y107.194
X23.93Y107.175
X23.91Y107.155
X23.89Y107.136
X23.871Y107.116
X23.851Y107.096
X23.833Y107.075
X23.814Y107.055
X23.796Y107.033
X23.778Y107.012
X23.761Y106.99
X23.744Y106.968
X23.727Y106.945
X23.711Y106.923
X23.695Y106.9
X23.68Y106.876
X23.665Y106.853
X23.651Y106.829
X23.623Y106.781
X23.609Y106.757
X23.596Y106.731
X23.584Y106.707
X23.572Y106.682
X23.56Y106.656
X23.549Y106.631
X23.539Y106.605
X23.528Y106.579
X23.519Y106.553
X23.509Y106.527
X23.501Y106.5
X23.492Y106.474
X23.484Y106.447
X23.477Y106.42
X23.47Y106.393
X23.463Y106.366
X23.457Y106.339
X23.452Y106.312
X23.447Y106.284
X23.442Y106.257
X23.438Y106.229
X23.434Y106.202
X23.431Y106.174
X23.428Y106.146
X23.426Y106.118
X23.425Y106.091
X23.423Y106.063
X23.422Y106.007
X23.423Y105.979
Y105.951
X23.425Y105.923
X23.426Y105.896
X23.428Y105.868
X23.431Y105.84
X23.438Y105.785
X23.442Y105.757
X23.447Y105.73
X23.452Y105.703
X23.457Y105.675
X23.463Y105.648
X23.47Y105.621
X23.477Y105.594
X23.484Y105.567
X23.492Y105.54
X23.501Y105.514
X23.509Y105.487
X23.519Y105.461
X23.528Y105.435
X23.546Y105.392
X23.561Y105.355
X23.572Y105.332
X23.584Y105.307
X23.596Y105.282
X23.609Y105.257
X23.636Y105.209
X23.65Y105.185
X23.665Y105.161
X23.68Y105.137
X23.695Y105.114
X23.711Y105.091
X23.727Y105.069
X23.741Y105.05
X23.762Y105.023
X23.796Y104.981
X23.814Y104.959
X23.833Y104.939
X23.851Y104.918
X23.871Y104.898
X23.89Y104.878
X23.91Y104.858
X23.93Y104.839
X23.951Y104.821
X23.971Y104.802
X23.993Y104.784
X24.014Y104.766
X24.036Y104.749
X24.058Y104.732
X24.08Y104.715
X24.103Y104.699
X24.126Y104.683
X24.149Y104.668
X24.173Y104.653
X24.197Y104.638
X24.221Y104.624
X24.245Y104.611
X24.294Y104.584
X24.319Y104.572
X24.344Y104.56
X24.37Y104.548
X24.395Y104.537
X24.421Y104.527
X24.473Y104.507
X24.499Y104.497
X24.552Y104.48
X24.606Y104.465
X24.66Y104.451
G0Z1
X38.421Y105.816
G1Z-0.3F5
X38.472Y105.647F10
X38.556Y105.49
X38.667Y105.354
X38.804Y105.242
X38.96Y105.159
X39.129Y105.108
X39.305Y105.09
X39.481Y105.108
X39.65Y105.159
X39.806Y105.242
X39.942Y105.354
X40.054Y105.491
X40.137Y105.647
X40.189Y105.816
X40.206Y105.992
X40.189Y106.167
X40.137Y106.337
X40.054Y106.492
X39.942Y106.629
X39.806Y106.741
X39.65Y106.824
X39.481Y106.876
X39.305Y106.893
X39.129Y106.876
X38.96Y106.824
X38.804Y106.741
X38.667Y106.629
X38.555Y106.492
X38.472Y106.337
X38.421Y106.167
X38.403Y105.992
X38.421Y105.816
G0Z1
X54.307Y105.992
G1Z-0.3F5
X54.325Y105.816F10
X54.376Y105.647
X54.459Y105.491
X54.571Y105.354
X54.708Y105.242
X54.864Y105.159
X55.033Y105.108
X55.209Y105.09
X55.385Y105.108
X55.554Y105.159
X55.709Y105.242
X55.846Y105.354
X55.958Y105.491
X56.041Y105.647
X56.093Y105.816
X56.11Y105.992
X56.093Y106.167
X56.041Y106.337
X55.958Y106.492
X55.846Y106.629
X55.709Y106.741
X55.554Y106.824
X55.385Y106.876
X55.209Y106.893
X55.033Y106.876
X54.864Y106.824
X54.708Y106.741
X54.571Y106.629
X54.459Y106.492
X54.376Y106.337
X54.325Y106.167
X54.307Y105.992
G0Z1
X57.81Y98.066
G1Z-0.3F5
X31.356F10
X30.702Y98.072
X30.048Y98.088
X29.395Y98.116
X28.742Y98.154
X28.089Y98.203
X27.438Y98.263
X26.788Y98.333
X26.139Y98.415
X25.491Y98.507
X24.846Y98.61
X24.201Y98.724
X23.559Y98.848
X23.435Y98.875
X23.311Y98.903
X23.189Y98.934
X23.066Y98.967
X22.945Y99.002
X22.824Y99.039
X22.704Y99.078
X22.584Y99.119
X22.465Y99.162
X22.347Y99.207
X22.229Y99.255
X22.113Y99.304
X21.997Y99.355
X21.882Y99.409
X21.768Y99.464
X21.655Y99.521
X21.544Y99.581
X21.433Y99.642
X21.323Y99.705
X21.214Y99.77
X21.107Y99.837
X21.001Y99.905
X20.896Y99.976
X20.792Y100.048
X20.689Y100.122
X20.588Y100.198
X20.488Y100.276
X20.389Y100.355
X20.292Y100.436
X20.196Y100.519
X20.102Y100.604
X20.009Y100.69
X19.918Y100.777
X19.828Y100.866
X19.739Y100.957
X19.653Y101.049
X19.568Y101.143
X19.484Y101.238
X19.402Y101.335
X19.303Y101.457
X19.205Y101.581
X19.109Y101.706
X19.015Y101.834
X18.924Y101.962
X18.835Y102.093
X18.748Y102.225
X18.663Y102.358
X18.581Y102.493
X18.501Y102.629
X18.423Y102.766
X18.348Y102.905
X18.275Y103.045
X18.204Y103.187
X18.136Y103.329
X18.07Y103.473
X18.007Y103.618
X17.946Y103.763
X17.888Y103.91
X17.833Y104.058
X17.779Y104.207
X17.729Y104.356
X17.681Y104.507
X17.636Y104.658
X17.593Y104.81
X17.553Y104.963
X17.515Y105.116
X17.48Y105.27
X17.448Y105.425
X17.418Y105.58
X17.391Y105.736
X17.367Y105.892
X17.345Y106.048
X17.326Y106.205
X17.31Y106.362
X17.297Y106.52
X17.286Y106.677
X17.278Y106.835
X17.272Y106.993
X17.269Y107.151
Y107.309
X17.272Y107.467
X17.277Y107.624
X17.285Y107.782
X17.296Y107.94
X17.31Y108.097
X17.326Y108.254
X17.345Y108.411
X17.364Y108.554
X17.784Y111.445
X17.797Y111.521
X17.814Y111.597
X17.833Y111.672
X17.855Y111.746
X17.879Y111.819
X17.906Y111.893
X17.935Y111.964
X17.967Y112.035
X18.001Y112.104
X18.038Y112.173
X18.076Y112.239
X18.118Y112.305
X18.161Y112.369
X18.207Y112.432
X18.255Y112.493
X18.304Y112.552
X18.357Y112.609
X18.411Y112.665
X18.466Y112.718
X18.524Y112.77
X18.584Y112.82
X18.644Y112.867
X18.708Y112.913
X18.771Y112.956
X18.838Y112.997
X18.905Y113.035
X18.973Y113.072
X19.043Y113.106
X19.113Y113.137
X19.186Y113.166
X19.258Y113.192
X19.332Y113.216
X19.406Y113.238
X19.482Y113.256
X19.557Y113.272
X19.634Y113.286
X19.711Y113.297
X19.787Y113.305
X19.865Y113.31
X19.942Y113.313
X19.981
X25.032
X25.149Y113.312
X25.265Y113.309
X25.382Y113.304
X25.499Y113.297
X26.754Y113.207
X27.907Y113.142
X29.06Y113.096
X30.215Y113.068
X31.375Y113.059
X34.928
X34.966Y113.062
X35.005Y113.065
X35.043Y113.066
X35.081
X63.081
X63.121
X63.16Y113.064
X63.2Y113.062
X63.24Y113.058
X63.279Y113.054
X63.318Y113.049
X63.358Y113.042
X63.397Y113.035
X63.436Y113.026
X63.475Y113.017
X63.513Y113.007
X63.551Y112.995
X63.589Y112.983
X63.626Y112.97
X63.664Y112.956
X63.7Y112.941
X63.737Y112.925
X63.773Y112.908
X63.808Y112.89
X63.844Y112.872
X63.878Y112.852
X63.913Y112.831
X63.947Y112.81
X63.981Y112.787
X64.014Y112.764
X64.047Y112.74
X64.079Y112.715
X64.11Y112.689
X64.125Y112.676
X64.154Y112.65
X64.176Y112.629
X64.198Y112.608
X64.226Y112.58
X64.254Y112.551
X64.286Y112.515
X64.317Y112.478
X64.338Y112.45
X64.36Y112.422
X64.38Y112.394
X64.401Y112.364
X64.42Y112.335
X64.439Y112.304
X64.456Y112.276
X64.472Y112.248
X64.488Y112.219
X64.507Y112.181
X64.525Y112.144
X64.538Y112.114
X64.551Y112.085
X64.567Y112.044
X64.575Y112.022
X64.589Y111.982
X64.602Y111.941
X64.614Y111.899
X64.626Y111.857
X64.635Y111.814
X64.644Y111.774
X64.651Y111.733
X64.658Y111.682
X64.665Y111.626
X64.668Y111.592
X64.67Y111.559
X64.671Y111.525
X64.672Y111.475
Y111.243
X64.686Y111.158
X64.696Y111.08
X64.704Y111.003
X64.708Y110.926
X64.71Y110.833
Y99.999
Y99.96
X64.708Y99.921
X64.706Y99.881
X64.702Y99.842
X64.698Y99.803
X64.692Y99.764
X64.686Y99.725
X64.679Y99.686
X64.672Y99.653
X64.671Y99.61
X64.668Y99.567
X64.665Y99.524
X64.66Y99.481
X64.654Y99.439
X64.647Y99.396
X64.639Y99.354
X64.63Y99.312
X64.619Y99.27
X64.61Y99.235
X64.6Y99.201
X64.589Y99.167
X64.577Y99.133
X64.564Y99.099
X64.547Y99.058
X64.529Y99.017
X64.51Y98.977
X64.488Y98.933
X64.472Y98.904
X64.455Y98.874
X64.434Y98.838
X64.411Y98.802
X64.389Y98.77
X64.367Y98.739
X64.344Y98.708
X64.32Y98.678
X64.296Y98.648
X64.27Y98.619
X64.244Y98.59
X64.218Y98.562
X64.191Y98.535
X64.163Y98.509
X64.134Y98.483
X64.105Y98.458
X64.075Y98.433
X64.045Y98.409
X64.014Y98.386
X63.982Y98.364
X63.95Y98.343
X63.917Y98.322
X63.884Y98.302
X63.851Y98.283
X63.816Y98.265
X63.782Y98.247
X63.747Y98.231
X63.713Y98.215
X63.677Y98.201
X63.642Y98.187
X63.606Y98.174
X63.57Y98.161
X63.533Y98.15
X63.496Y98.14
X63.459Y98.13
X63.422Y98.121
X63.385Y98.114
X63.347Y98.107
X63.309Y98.101
X63.272Y98.096
X63.234Y98.092
X63.195Y98.089
X63.157Y98.086
X63.119Y98.085
X63.081Y98.084
X59.145
X58.555Y98.071
X57.81Y98.066
G0Z1
X24.66Y104.451
G1Z-0.4F5
X24.687Y104.445F10
X24.714Y104.44
X24.742Y104.435
X24.769Y104.43
X24.797Y104.426
X24.824Y104.422
X24.852Y104.419
X24.88Y104.416
X24.908Y104.414
X24.936Y104.413
X24.963Y104.411
X24.991
X25.019Y104.41
X25.047Y104.411
X25.075
X25.102Y104.413
X25.131Y104.414
X25.158Y104.416
X25.186Y104.419
X25.214Y104.422
X25.241Y104.426
X25.269Y104.43
X25.296Y104.435
X25.324Y104.44
X25.351Y104.445
X25.378Y104.451
X25.405Y104.458
X25.432Y104.465
X25.459Y104.472
X25.486Y104.48
X25.512Y104.488
X25.539Y104.497
X25.565Y104.507
X25.591Y104.516
X25.617Y104.527
X25.643Y104.537
X25.668Y104.548
X25.694Y104.56
X25.719Y104.572
X25.744Y104.584
X25.769Y104.597
X25.793Y104.611
X25.817Y104.624
X25.841Y104.638
X25.865Y104.653
X25.889Y104.668
X25.912Y104.683
X25.935Y104.699
X25.958Y104.715
X25.98Y104.732
X26.002Y104.749
X26.024Y104.766
X26.045Y104.784
X26.067Y104.802
X26.088Y104.821
X26.108Y104.839
X26.128Y104.858
X26.168Y104.898
X26.187Y104.918
X26.206Y104.939
X26.224Y104.959
X26.242Y104.981
X26.26Y105.002
X26.277Y105.024
X26.294Y105.046
X26.311Y105.069
X26.327Y105.091
X26.343Y105.114
X26.358Y105.137
X26.373Y105.161
X26.388Y105.185
X26.402Y105.209
X26.415Y105.233
X26.429Y105.257
X26.442Y105.282
X26.454Y105.307
X26.466Y105.332
X26.478Y105.358
X26.489Y105.383
X26.499Y105.409
X26.51Y105.435
X26.519Y105.461
X26.529Y105.487
X26.538Y105.514
X26.546Y105.54
X26.561Y105.594
X26.568Y105.621
X26.575Y105.648
X26.581Y105.675
X26.586Y105.702
X26.591Y105.73
X26.596Y105.757
X26.6Y105.785
X26.604Y105.812
X26.607Y105.84
X26.61Y105.868
X26.612Y105.896
X26.614Y105.923
X26.615Y105.951
Y105.979
X26.616Y106.007
X26.615Y106.035
Y106.063
X26.614Y106.091
X26.612Y106.118
X26.61Y106.146
X26.607Y106.174
X26.604Y106.202
X26.6Y106.229
X26.596Y106.257
X26.591Y106.284
X26.586Y106.312
X26.581Y106.339
X26.575Y106.366
X26.568Y106.393
X26.561Y106.42
X26.554Y106.447
X26.546Y106.474
X26.538Y106.5
X26.529Y106.527
X26.519Y106.553
X26.51Y106.579
X26.499Y106.605
X26.489Y106.631
X26.478Y106.656
X26.466Y106.682
X26.454Y106.707
X26.442Y106.732
X26.429Y106.757
X26.415Y106.781
X26.402Y106.805
X26.388Y106.829
X26.373Y106.853
X26.358Y106.876
X26.343Y106.9
X26.327Y106.923
X26.311Y106.945
X26.294Y106.968
X26.277Y106.99
X26.26Y107.012
X26.242Y107.033
X26.224Y107.055
X26.206Y107.075
X26.187Y107.096
X26.168Y107.116
X26.148Y107.136
X26.128Y107.156
X26.108Y107.175
X26.087Y107.194
X26.067Y107.212
X26.045Y107.23
X26.024Y107.248
X26.002Y107.265
X25.98Y107.282
X25.958Y107.299
X25.935Y107.315
X25.912Y107.331
X25.889Y107.346
X25.865Y107.361
X25.842Y107.376
X25.817Y107.39
X25.793Y107.404
X25.769Y107.417
X25.744Y107.43
X25.719Y107.442
X25.694Y107.454
X25.668Y107.466
X25.643Y107.477
X25.617Y107.487
X25.591Y107.498
X25.565Y107.507
X25.539Y107.517
X25.512Y107.526
X25.486Y107.534
X25.459Y107.542
X25.432Y107.549
X25.405Y107.556
X25.378Y107.563
X25.351Y107.569
X25.324Y107.574
X25.296Y107.579
X25.269Y107.584
X25.241Y107.588
X25.214Y107.592
X25.186Y107.595
X25.158Y107.598
X25.13Y107.6
X25.103Y107.601
X25.075Y107.603
X25.047
X25.019Y107.604
X24.991Y107.603
X24.963
X24.936Y107.601
X24.908Y107.6
X24.88Y107.598
X24.852Y107.595
X24.824Y107.592
X24.797Y107.588
X24.769Y107.584
X24.742Y107.579
X24.714Y107.574
X24.687Y107.569
X24.66Y107.563
X24.633Y107.556
X24.606Y107.549
X24.579Y107.542
X24.552Y107.534
X24.526Y107.526
X24.499Y107.517
X24.473Y107.507
X24.447Y107.498
X24.421Y107.487
X24.395Y107.477
X24.37Y107.466
X24.344Y107.454
X24.319Y107.442
X24.294Y107.43
X24.269Y107.417
X24.245Y107.404
X24.221Y107.39
X24.197Y107.376
X24.173Y107.361
X24.15Y107.346
X24.126Y107.331
X24.103Y107.315
X24.08Y107.299
X24.058Y107.282
X24.036Y107.265
X24.014Y107.248
X23.993Y107.23
X23.971Y107.212
X23.951Y107.194
X23.93Y107.175
X23.91Y107.155
X23.89Y107.136
X23.871Y107.116
X23.851Y107.096
X23.833Y107.075
X23.814Y107.055
X23.796Y107.033
X23.778Y107.012
X23.761Y106.99
X23.744Y106.968
X23.727Y106.945
X23.711Y106.923
X23.695Y106.9
X23.68Y106.876
X23.665Y106.853
X23.651Y106.829
X23.623Y106.781
X23.609Y106.757
X23.596Y106.731
X23.584Y106.707
X23.572Y106.682
X23.56Y106.656
X23.549Y106.631
X23.539Y106.605
X23.528Y106.579
X23.519Y106.553
X23.509Y106.527
X23.501Y106.5
X23.492Y106.474
X23.484Y106.447
X23.477Y106.42
X23.47Y106.393
X23.463Y106.366
X23.457Y106.339
X23.452Y106.312
X23.447Y106.284
X23.442Y106.257
X23.438Y106.229
X23.434Y106.202
X23.431Y106.174
X23.428Y106.146
X23.426Y106.118
X23.425Y106.091
X23.423Y106.063
X23.422Y106.007
X23.423Y105.979
Y105.951
X23.425Y105.923
X23.426Y105.896
X23.428Y105.868
X23.431Y105.84
X23.438Y105.785
X23.442Y105.757
X23.447Y105.73
X23.452Y105.703
X23.457Y105.675
X23.463Y105.648
X23.47Y105.621
X23.477Y105.594
X23.484Y105.567
X23.492Y105.54
X23.501Y105.514
X23.509Y105.487
X23.519Y105.461
X23.528Y105.435
X23.546Y105.392
X23.561Y105.355
X23.572Y105.332
X23.584Y105.307
X23.596Y105.282
X23.609Y105.257
X23.636Y105.209
X23.65Y105.185
X23.665Y105.161
X23.68Y105.137
X23.695Y105.114
X23.711Y105.091
X23.727Y105.069
X23.741Y105.05
X23.762Y105.023
X23.796Y104.981
X23.814Y104.959
X23.833Y104.939
X23.851Y104.918
X23.871Y104.898
X23.89Y104.878
X23.91Y104.858
X23.93Y104.839
X23.951Y104.821
X23.971Y104.802
X23.993Y104.784
X24.014Y104.766
X24.036Y104.749
X24.058Y104.732
X24.08Y104.715
X24.103Y104.699
X24.126Y104.683
X24.149Y104.668
X24.173Y104.653
X24.197Y104.638
X24.221Y104.624
X24.245Y104.611
X24.294Y104.584
X24.319Y104.572
X24.344Y104.56
X24.37Y104.548
X24.395Y104.537
X24.421Y104.527
X24.473Y104.507
X24.499Y104.497
X24.552Y104.48
X24.606Y104.465
X24.66Y104.451
G0Z1
X38.421Y105.816
G1Z-0.4F5
X38.472Y105.647F10
X38.556Y105.49
X38.667Y105.354
X38.804Y105.242
X38.96Y105.159
X39.129Y105.108
X39.305Y105.09
X39.481Y105.108
X39.65Y105.159
X39.806Y105.242
X39.942Y105.354
X40.054Y105.491
X40.137Y105.647
X40.189Y105.816
X40.206Y105.992
X40.189Y106.167
X40.137Y106.337
X40.054Y106.492
X39.942Y106.629
X39.806Y106.741
X39.65Y106.824
X39.481Y106.876
X39.305Y106.893
X39.129Y106.876
X38.96Y106.824
X38.804Y106.741
X38.667Y106.629
X38.555Y106.492
X38.472Y106.337
X38.421Y106.167
X38.403Y105.992
X38.421Y105.816
G0Z1
X54.307Y105.992
G1Z-0.4F5
X54.325Y105.816F10
X54.376Y105.647
X54.459Y105.491
X54.571Y105.354
X54.708Y105.242
X54.864Y105.159
X55.033Y105.108
X55.209Y105.09
X55.385Y105.108
X55.554Y105.159
X55.709Y105.242
X55.846Y105.354
X55.958Y105.491
X56.041Y105.647
X56.093Y105.816
X56.11Y105.992
X56.093Y106.167
X56.041Y106.337
X55.958Y106.492
X55.846Y106.629
X55.709Y106.741
X55.554Y106.824
X55.385Y106.876
X55.209Y106.893
X55.033Y106.876
X54.864Y106.824
X54.708Y106.741
X54.571Y106.629
X54.459Y106.492
X54.376Y106.337
X54.325Y106.167
X54.307Y105.992
G0Z1
X57.81Y98.066
G1Z-0.4F5
X31.356F10
X30.702Y98.072
X30.048Y98.088
X29.395Y98.116
X28.742Y98.154
X28.089Y98.203
X27.438Y98.263
X26.788Y98.333
X26.139Y98.415
X25.491Y98.507
X24.846Y98.61
X24.201Y98.724
X23.559Y98.848
X23.435Y98.875
X23.311Y98.903
X23.189Y98.934
X23.066Y98.967
X22.945Y99.002
X22.824Y99.039
X22.704Y99.078
X22.584Y99.119
X22.465Y99.162
X22.347Y99.207
X22.229Y99.255
X22.113Y99.304
X21.997Y99.355
X21.882Y99.409
X21.768Y99.464
X21.655Y99.521
X21.544Y99.581
X21.433Y99.642
X21.323Y99.705
X21.214Y99.77
X21.107Y99.837
X21.001Y99.905
X20.896Y99.976
X20.792Y100.048
X20.689Y100.122
X20.588Y100.198
X20.488Y100.276
X20.389Y100.355
X20.292Y100.436
X20.196Y100.519
X20.102Y100.604
X20.009Y100.69
X19.918Y100.777
X19.828Y100.866
X19.739Y100.957
X19.653Y101.049
X19.568Y101.143
X19.484Y101.238
X19.402Y101.335
X19.303Y101.457
X19.205Y101.581
X19.109Y101.706
X19.015Y101.834
X18.924Y101.962
X18.835Y102.093
X18.748Y102.225
X18.663Y102.358
X18.581Y102.493
X18.501Y102.629
X18.423Y102.766
X18.348Y102.905
X18.275Y103.045
X18.204Y103.187
X18.136Y103.329
X18.07Y103.473
X18.007Y103.618
X17.946Y103.763
X17.888Y103.91
X17.833Y104.058
X17.779Y104.207
X17.729Y104.356
X17.681Y104.507
X17.636Y104.658
X17.593Y104.81
X17.553Y104.963
X17.515Y105.116
X17.48Y105.27
X17.448Y105.425
X17.418Y105.58
X17.391Y105.736
X17.367Y105.892
X17.345Y106.048
X17.326Y106.205
X17.31Y106.362
X17.297Y106.52
X17.286Y106.677
X17.278Y106.835
X17.272Y106.993
X17.269Y107.151
Y107.309
X17.272Y107.467
X17.277Y107.624
X17.285Y107.782
X17.296Y107.94
X17.31Y108.097
X17.326Y108.254
X17.345Y108.411
X17.364Y108.554
X17.784Y111.445
X17.797Y111.521
X17.814Y111.597
X17.833Y111.672
X17.855Y111.746
X17.879Y111.819
X17.906Y111.893
X17.935Y111.964
X17.967Y112.035
X18.001Y112.104
X18.038Y112.173
X18.076Y112.239
X18.118Y112.305
X18.161Y112.369
X18.207Y112.432
X18.255Y112.493
X18.304Y112.552
X18.357Y112.609
X18.411Y112.665
X18.466Y112.718
X18.524Y112.77
X18.584Y112.82
X18.644Y112.867
X18.708Y112.913
X18.771Y112.956
X18.838Y112.997
X18.905Y113.035
X18.973Y113.072
X19.043Y113.106
X19.113Y113.137
X19.186Y113.166
X19.258Y113.192
X19.332Y113.216
X19.406Y113.238
X19.482Y113.256
X19.557Y113.272
X19.634Y113.286
X19.711Y113.297
X19.787Y113.305
X19.865Y113.31
X19.942Y113.313
X19.981
X25.032
X25.149Y113.312
X25.265Y113.309
X25.382Y113.304
X25.499Y113.297
X26.754Y113.207
X27.907Y113.142
X29.06Y113.096
X30.215Y113.068
X31.375Y113.059
X34.928
X34.966Y113.062
X35.005Y113.065
X35.043Y113.066
X35.081
X63.081
X63.121
X63.16Y113.064
X63.2Y113.062
X63.24Y113.058
X63.279Y113.054
X63.318Y113.049
X63.358Y113.042
X63.397Y113.035
X63.436Y113.026
X63.475Y113.017
X63.513Y113.007
X63.551Y112.995
X63.589Y112.983
X63.626Y112.97
X63.664Y112.956
X63.7Y112.941
X63.737Y112.925
X63.773Y112.908
X63.808Y112.89
X63.844Y112.872
X63.878Y112.852
X63.913Y112.831
X63.947Y112.81
X63.981Y112.787
X64.014Y112.764
X64.047Y112.74
X64.079Y112.715
X64.11Y112.689
X64.125Y112.676
X64.154Y112.65
X64.176Y112.629
X64.198Y112.608
X64.226Y112.58
X64.254Y112.551
X64.286Y112.515
X64.317Y112.478
X64.338Y112.45
X64.36Y112.422
X64.38Y112.394
X64.401Y112.364
X64.42Y112.335
X64.439Y112.304
X64.456Y112.276
X64.472Y112.248
X64.488Y112.219
X64.507Y112.181
X64.525Y112.144
X64.538Y112.114
X64.551Y112.085
X64.567Y112.044
X64.575Y112.022
X64.589Y111.982
X64.602Y111.941
X64.614Y111.899
X64.626Y111.857
X64.635Y111.814
X64.644Y111.774
X64.651Y111.733
X64.658Y111.682
X64.665Y111.626
X64.668Y111.592
X64.67Y111.559
X64.671Y111.525
X64.672Y111.475
Y111.243
X64.686Y111.158
X64.696Y111.08
X64.704Y111.003
X64.708Y110.926
X64.71Y110.833
Y99.999
Y99.96
X64.708Y99.921
X64.706Y99.881
X64.702Y99.842
X64.698Y99.803
X64.692Y99.764
X64.686Y99.725
X64.679Y99.686
X64.672Y99.653
X64.671Y99.61
X64.668Y99.567
X64.665Y99.524
X64.66Y99.481
X64.654Y99.439
X64.647Y99.396
X64.639Y99.354
X64.63Y99.312
X64.619Y99.27
X64.61Y99.235
X64.6Y99.201
X64.589Y99.167
X64.577Y99.133
X64.564Y99.099
X64.547Y99.058
X64.529Y99.017
X64.51Y98.977
X64.488Y98.933
X64.472Y98.904
X64.455Y98.874
X64.434Y98.838
X64.411Y98.802
X64.389Y98.77
X64.367Y98.739
X64.344Y98.708
X64.32Y98.678
X64.296Y98.648
X64.27Y98.619
X64.244Y98.59
X64.218Y98.562
X64.191Y98.535
X64.163Y98.509
X64.134Y98.483
X64.105Y98.458
X64.075Y98.433
X64.045Y98.409
X64.014Y98.386
X63.982Y98.364
X63.95Y98.343
X63.917Y98.322
X63.884Y98.302
X63.851Y98.283
X63.816Y98.265
X63.782Y98.247
X63.747Y98.231
X63.713Y98.215
X63.677Y98.201
X63.642Y98.187
X63.606Y98.174
X63.57Y98.161
X63.533Y98.15
X63.496Y98.14
X63.459Y98.13
X63.422Y98.121
X63.385Y98.114
X63.347Y98.107
X63.309Y98.101
X63.272Y98.096
X63.234Y98.092
X63.195Y98.089
X63.157Y98.086
X63.119Y98.085
X63.081Y98.084
X59.145
X58.555Y98.071
X57.81Y98.066
G0Z1
X24.66Y104.451
G1Z-0.5F5
X24.687Y104.445F10
X24.714Y104.44
X24.742Y104.435
X24.769Y104.43
X24.797Y104.426
X24.824Y104.422
X24.852Y104.419
X24.88Y104.416
X24.908Y104.414
X24.936Y104.413
X24.963Y104.411
X24.991
X25.019Y104.41
X25.047Y104.411
X25.075
X25.102Y104.413
X25.131Y104.414
X25.158Y104.416
X25.186Y104.419
X25.214Y104.422
X25.241Y104.426
X25.269Y104.43
X25.296Y104.435
X25.324Y104.44
X25.351Y104.445
X25.378Y104.451
X25.405Y104.458
X25.432Y104.465
X25.459Y104.472
X25.486Y104.48
X25.512Y104.488
X25.539Y104.497
X25.565Y104.507
X25.591Y104.516
X25.617Y104.527
X25.643Y104.537
X25.668Y104.548
X25.694Y104.56
X25.719Y104.572
X25.744Y104.584
X25.769Y104.597
X25.793Y104.611
X25.817Y104.624
X25.841Y104.638
X25.865Y104.653
X25.889Y104.668
X25.912Y104.683
X25.935Y104.699
X25.958Y104.715
X25.98Y104.732
X26.002Y104.749
X26.024Y104.766
X26.045Y104.784
X26.067Y104.802
X26.088Y104.821
X26.108Y104.839
X26.128Y104.858
X26.168Y104.898
X26.187Y104.918
X26.206Y104.939
X26.224Y104.959
X26.242Y104.981
X26.26Y105.002
X26.277Y105.024
X26.294Y105.046
X26.311Y105.069
X26.327Y105.091
X26.343Y105.114
X26.358Y105.137
X26.373Y105.161
X26.388Y105.185
X26.402Y105.209
X26.415Y105.233
X26.429Y105.257
X26.442Y105.282
X26.454Y105.307
X26.466Y105.332
X26.478Y105.358
X26.489Y105.383
X26.499Y105.409
X26.51Y105.435
X26.519Y105.461
X26.529Y105.487
X26.538Y105.514
X26.546Y105.54
X26.561Y105.594
X26.568Y105.621
X26.575Y105.648
X26.581Y105.675
X26.586Y105.702
X26.591Y105.73
X26.596Y105.757
X26.6Y105.785
X26.604Y105.812
X26.607Y105.84
X26.61Y105.868
X26.612Y105.896
X26.614Y105.923
X26.615Y105.951
Y105.979
X26.616Y106.007
X26.615Y106.035
Y106.063
X26.614Y106.091
X26.612Y106.118
X26.61Y106.146
X26.607Y106.174
X26.604Y106.202
X26.6Y106.229
X26.596Y106.257
X26.591Y106.284
X26.586Y106.312
X26.581Y106.339
X26.575Y106.366
X26.568Y106.393
X26.561Y106.42
X26.554Y106.447
X26.546Y106.474
X26.538Y106.5
X26.529Y106.527
X26.519Y106.553
X26.51Y106.579
X26.499Y106.605
X26.489Y106.631
X26.478Y106.656
X26.466Y106.682
X26.454Y106.707
X26.442Y106.732
X26.429Y106.757
X26.415Y106.781
X26.402Y106.805
X26.388Y106.829
X26.373Y106.853
X26.358Y106.876
X26.343Y106.9
X26.327Y106.923
X26.311Y106.945
X26.294Y106.968
X26.277Y106.99
X26.26Y107.012
X26.242Y107.033
X26.224Y107.055
X26.206Y107.075
X26.187Y107.096
X26.168Y107.116
X26.148Y107.136
X26.128Y107.156
X26.108Y107.175
X26.087Y107.194
X26.067Y107.212
X26.045Y107.23
X26.024Y107.248
X26.002Y107.265
X25.98Y107.282
X25.958Y107.299
X25.935Y107.315
X25.912Y107.331
X25.889Y107.346
X25.865Y107.361
X25.842Y107.376
X25.817Y107.39
X25.793Y107.404
X25.769Y107.417
X25.744Y107.43
X25.719Y107.442
X25.694Y107.454
X25.668Y107.466
X25.643Y107.477
X25.617Y107.487
X25.591Y107.498
X25.565Y107.507
X25.539Y107.517
X25.512Y107.526
X25.486Y107.534
X25.459Y107.542
X25.432Y107.549
X25.405Y107.556
X25.378Y107.563
X25.351Y107.569
X25.324Y107.574
X25.296Y107.579
X25.269Y107.584
X25.241Y107.588
X25.214Y107.592
X25.186Y107.595
X25.158Y107.598
X25.13Y107.6
X25.103Y107.601
X25.075Y107.603
X25.047
X25.019Y107.604
X24.991Y107.603
X24.963
X24.936Y107.601
X24.908Y107.6
X24.88Y107.598
X24.852Y107.595
X24.824Y107.592
X24.797Y107.588
X24.769Y107.584
X24.742Y107.579
X24.714Y107.574
X24.687Y107.569
X24.66Y107.563
X24.633Y107.556
X24.606Y107.549
X24.579Y107.542
X24.552Y107.534
X24.526Y107.526
X24.499Y107.517
X24.473Y107.507
X24.447Y107.498
X24.421Y107.487
X24.395Y107.477
X24.37Y107.466
X24.344Y107.454
X24.319Y107.442
X24.294Y107.43
X24.269Y107.417
X24.245Y107.404
X24.221Y107.39
X24.197Y107.376
X24.173Y107.361
X24.15Y107.346
X24.126Y107.331
X24.103Y107.315
X24.08Y107.299
X24.058Y107.282
X24.036Y107.265
X24.014Y107.248
X23.993Y107.23
X23.971Y107.212
X23.951Y107.194
X23.93Y107.175
X23.91Y107.155
X23.89Y107.136
X23.871Y107.116
X23.851Y107.096
X23.833Y107.075
X23.814Y107.055
X23.796Y107.033
X23.778Y107.012
X23.761Y106.99
X23.744Y106.968
X23.727Y106.945
X23.711Y106.923
X23.695Y106.9
X23.68Y106.876
X23.665Y106.853
X23.651Y106.829
X23.623Y106.781
X23.609Y106.757
X23.596Y106.731
X23.584Y106.707
X23.572Y106.682
X23.56Y106.656
X23.549Y106.631
X23.539Y106.605
X23.528Y106.579
X23.519Y106.553
X23.509Y106.527
X23.501Y106.5
X23.492Y106.474
X23.484Y106.447
X23.477Y106.42
X23.47Y106.393
X23.463Y106.366
X23.457Y106.339
X23.452Y106.312
X23.447Y106.284
X23.442Y106.257
X23.438Y106.229
X23.434Y106.202
X23.431Y106.174
X23.428Y106.146
X23.426Y106.118
X23.425Y106.091
X23.423Y106.063
X23.422Y106.007
X23.423Y105.979
Y105.951
X23.425Y105.923
X23.426Y105.896
X23.428Y105.868
X23.431Y105.84
X23.438Y105.785
X23.442Y105.757
X23.447Y105.73
X23.452Y105.703
X23.457Y105.675
X23.463Y105.648
X23.47Y105.621
X23.477Y105.594
X23.484Y105.567
X23.492Y105.54
X23.501Y105.514
X23.509Y105.487
X23.519Y105.461
X23.528Y105.435
X23.546Y105.392
X23.561Y105.355
X23.572Y105.332
X23.584Y105.307
X23.596Y105.282
X23.609Y105.257
X23.636Y105.209
X23.65Y105.185
X23.665Y105.161
X23.68Y105.137
X23.695Y105.114
X23.711Y105.091
X23.727Y105.069
X23.741Y105.05
X23.762Y105.023
X23.796Y104.981
X23.814Y104.959
X23.833Y104.939
X23.851Y104.918
X23.871Y104.898
X23.89Y104.878
X23.91Y104.858
X23.93Y104.839
X23.951Y104.821
X23.971Y104.802
X23.993Y104.784
X24.014Y104.766
X24.036Y104.749
X24.058Y104.732
X24.08Y104.715
X24.103Y104.699
X24.126Y104.683
X24.149Y104.668
X24.173Y104.653
X24.197Y104.638
X24.221Y104.624
X24.245Y104.611
X24.294Y104.584
X24.319Y104.572
X24.344Y104.56
X24.37Y104.548
X24.395Y104.537
X24.421Y104.527
X24.473Y104.507
X24.499Y104.497
X24.552Y104.48
X24.606Y104.465
X24.66Y104.451
G0Z1
X38.421Y105.816
G1Z-0.5F5
X38.472Y105.647F10
X38.556Y105.49
X38.667Y105.354
X38.804Y105.242
X38.96Y105.159
X39.129Y105.108
X39.305Y105.09
X39.481Y105.108
X39.65Y105.159
X39.806Y105.242
X39.942Y105.354
X40.054Y105.491
X40.137Y105.647
X40.189Y105.816
X40.206Y105.992
X40.189Y106.167
X40.137Y106.337
X40.054Y106.492
X39.942Y106.629
X39.806Y106.741
X39.65Y106.824
X39.481Y106.876
X39.305Y106.893
X39.129Y106.876
X38.96Y106.824
X38.804Y106.741
X38.667Y106.629
X38.555Y106.492
X38.472Y106.337
X38.421Y106.167
X38.403Y105.992
X38.421Y105.816
G0Z1
X54.307Y105.992
G1Z-0.5F5
X54.325Y105.816F10
X54.376Y105.647
X54.459Y105.491
X54.571Y105.354
X54.708Y105.242
X54.864Y105.159
X55.033Y105.108
X55.209Y105.09
X55.385Y105.108
X55.554Y105.159
X55.709Y105.242
X55.846Y105.354
X55.958Y105.491
X56.041Y105.647
X56.093Y105.816
X56.11Y105.992
X56.093Y106.167
X56.041Y106.337
X55.958Y106.492
X55.846Y106.629
X55.709Y106.741
X55.554Y106.824
X55.385Y106.876
X55.209Y106.893
X55.033Y106.876
X54.864Y106.824
X54.708Y106.741
X54.571Y106.629
X54.459Y106.492
X54.376Y106.337
X54.325Y106.167
X54.307Y105.992
G0Z1
X57.81Y98.066
G1Z-0.5F5
X31.356F10
X30.702Y98.072
X30.048Y98.088
X29.395Y98.116
X28.742Y98.154
X28.089Y98.203
X27.438Y98.263
X26.788Y98.333
X26.139Y98.415
X25.491Y98.507
X24.846Y98.61
X24.201Y98.724
X23.559Y98.848
X23.435Y98.875
X23.311Y98.903
X23.189Y98.934
X23.066Y98.967
X22.945Y99.002
X22.824Y99.039
X22.704Y99.078
X22.584Y99.119
X22.465Y99.162
X22.347Y99.207
X22.229Y99.255
X22.113Y99.304
X21.997Y99.355
X21.882Y99.409
X21.768Y99.464
X21.655Y99.521
X21.544Y99.581
X21.433Y99.642
X21.323Y99.705
X21.214Y99.77
X21.107Y99.837
X21.001Y99.905
X20.896Y99.976
X20.792Y100.048
X20.689Y100.122
X20.588Y100.198
X20.488Y100.276
X20.389Y100.355
X20.292Y100.436
X20.196Y100.519
X20.102Y100.604
X20.009Y100.69
X19.918Y100.777
X19.828Y100.866
X19.739Y100.957
X19.653Y101.049
X19.568Y101.143
X19.484Y101.238
X19.402Y101.335
X19.303Y101.457
X19.205Y101.581
X19.109Y101.706
X19.015Y101.834
X18.924Y101.962
X18.835Y102.093
X18.748Y102.225
X18.663Y102.358
X18.581Y102.493
X18.501Y102.629
X18.423Y102.766
X18.348Y102.905
X18.275Y103.045
X18.204Y103.187
X18.136Y103.329
X18.07Y103.473
X18.007Y103.618
X17.946Y103.763
X17.888Y103.91
X17.833Y104.058
X17.779Y104.207
X17.729Y104.356
X17.681Y104.507
X17.636Y104.658
X17.593Y104.81
X17.553Y104.963
X17.515Y105.116
X17.48Y105.27
X17.448Y105.425
X17.418Y105.58
X17.391Y105.736
X17.367Y105.892
X17.345Y106.048
X17.326Y106.205
X17.31Y106.362
X17.297Y106.52
X17.286Y106.677
X17.278Y106.835
X17.272Y106.993
X17.269Y107.151
Y107.309
X17.272Y107.467
X17.277Y107.624
X17.285Y107.782
X17.296Y107.94
X17.31Y108.097
X17.326Y108.254
X17.345Y108.411
X17.364Y108.554
X17.784Y111.445
X17.797Y111.521
X17.814Y111.597
X17.833Y111.672
X17.855Y111.746
X17.879Y111.819
X17.906Y111.893
X17.935Y111.964
X17.967Y112.035
X18.001Y112.104
X18.038Y112.173
X18.076Y112.239
X18.118Y112.305
X18.161Y112.369
X18.207Y112.432
X18.255Y112.493
X18.304Y112.552
X18.357Y112.609
X18.411Y112.665
X18.466Y112.718
X18.524Y112.77
X18.584Y112.82
X18.644Y112.867
X18.708Y112.913
X18.771Y112.956
X18.838Y112.997
X18.905Y113.035
X18.973Y113.072
X19.043Y113.106
X19.113Y113.137
X19.186Y113.166
X19.258Y113.192
X19.332Y113.216
X19.406Y113.238
X19.482Y113.256
X19.557Y113.272
X19.634Y113.286
X19.711Y113.297
X19.787Y113.305
X19.865Y113.31
X19.942Y113.313
X19.981
X25.032
X25.149Y113.312
X25.265Y113.309
X25.382Y113.304
X25.499Y113.297
X26.754Y113.207
X27.907Y113.142
X29.06Y113.096
X30.215Y113.068
X31.375Y113.059
X34.928
X34.966Y113.062
X35.005Y113.065
X35.043Y113.066
X35.081
X63.081
X63.121
X63.16Y113.064
X63.2Y113.062
X63.24Y113.058
X63.279Y113.054
X63.318Y113.049
X63.358Y113.042
X63.397Y113.035
X63.436Y113.026
X63.475Y113.017
X63.513Y113.007
X63.551Y112.995
X63.589Y112.983
X63.626Y112.97
X63.664Y112.956
X63.7Y112.941
X63.737Y112.925
X63.773Y112.908
X63.808Y112.89
X63.844Y112.872
X63.878Y112.852
X63.913Y112.831
X63.947Y112.81
X63.981Y112.787
X64.014Y112.764
X64.047Y112.74
X64.079Y112.715
X64.11Y112.689
X64.125Y112.676
X64.154Y112.65
X64.176Y112.629
X64.198Y112.608
X64.226Y112.58
X64.254Y112.551
X64.286Y112.515
X64.317Y112.478
X64.338Y112.45
X64.36Y112.422
X64.38Y112.394
X64.401Y112.364
X64.42Y112.335
X64.439Y112.304
X64.456Y112.276
X64.472Y112.248
X64.488Y112.219
X64.507Y112.181
X64.525Y112.144
X64.538Y112.114
X64.551Y112.085
X64.567Y112.044
X64.575Y112.022
X64.589Y111.982
X64.602Y111.941
X64.614Y111.899
X64.626Y111.857
X64.635Y111.814
X64.644Y111.774
X64.651Y111.733
X64.658Y111.682
X64.665Y111.626
X64.668Y111.592
X64.67Y111.559
X64.671Y111.525
X64.672Y111.475
Y111.243
X64.686Y111.158
X64.696Y111.08
X64.704Y111.003
X64.708Y110.926
X64.71Y110.833
Y99.999
Y99.96
X64.708Y99.921
X64.706Y99.881
X64.702Y99.842
X64.698Y99.803
X64.692Y99.764
X64.686Y99.725
X64.679Y99.686
X64.672Y99.653
X64.671Y99.61
X64.668Y99.567
X64.665Y99.524
X64.66Y99.481
X64.654Y99.439
X64.647Y99.396
X64.639Y99.354
X64.63Y99.312
X64.619Y99.27
X64.61Y99.235
X64.6Y99.201
X64.589Y99.167
X64.577Y99.133
X64.564Y99.099
X64.547Y99.058
X64.529Y99.017
X64.51Y98.977
X64.488Y98.933
X64.472Y98.904
X64.455Y98.874
X64.434Y98.838
X64.411Y98.802
X64.389Y98.77
X64.367Y98.739
X64.344Y98.708
X64.32Y98.678
X64.296Y98.648
X64.27Y98.619
X64.244Y98.59
X64.218Y98.562
X64.191Y98.535
X64.163Y98.509
X64.134Y98.483
X64.105Y98.458
X64.075Y98.433
X64.045Y98.409
X64.014Y98.386
X63.982Y98.364
X63.95Y98.343
X63.917Y98.322
X63.884Y98.302
X63.851Y98.283
X63.816Y98.265
X63.782Y98.247
X63.747Y98.231
X63.713Y98.215
X63.677Y98.201
X63.642Y98.187
X63.606Y98.174
X63.57Y98.161
X63.533Y98.15
X63.496Y98.14
X63.459Y98.13
X63.422Y98.121
X63.385Y98.114
X63.347Y98.107
X63.309Y98.101
X63.272Y98.096
X63.234Y98.092
X63.195Y98.089
X63.157Y98.086
X63.119Y98.085
X63.081Y98.084
X59.145
X58.555Y98.071
X57.81Y98.066
G0Z1
X24.66Y104.451
G1Z-0.6F5
X24.687Y104.445F10
X24.714Y104.44
X24.742Y104.435
X24.769Y104.43
X24.797Y104.426
X24.824Y104.422
X24.852Y104.419
X24.88Y104.416
X24.908Y104.414
X24.936Y104.413
X24.963Y104.411
X24.991
X25.019Y104.41
X25.047Y104.411
X25.075
X25.102Y104.413
X25.131Y104.414
X25.158Y104.416
X25.186Y104.419
X25.214Y104.422
X25.241Y104.426
X25.269Y104.43
X25.296Y104.435
X25.324Y104.44
X25.351Y104.445
X25.378Y104.451
X25.405Y104.458
X25.432Y104.465
X25.459Y104.472
X25.486Y104.48
X25.512Y104.488
X25.539Y104.497
X25.565Y104.507
X25.591Y104.516
X25.617Y104.527
X25.643Y104.537
X25.668Y104.548
X25.694Y104.56
X25.719Y104.572
X25.744Y104.584
X25.769Y104.597
X25.793Y104.611
X25.817Y104.624
X25.841Y104.638
X25.865Y104.653
X25.889Y104.668
X25.912Y104.683
X25.935Y104.699
X25.958Y104.715
X25.98Y104.732
X26.002Y104.749
X26.024Y104.766
X26.045Y104.784
X26.067Y104.802
X26.088Y104.821
X26.108Y104.839
X26.128Y104.858
X26.168Y104.898
X26.187Y104.918
X26.206Y104.939
X26.224Y104.959
X26.242Y104.981
X26.26Y105.002
X26.277Y105.024
X26.294Y105.046
X26.311Y105.069
X26.327Y105.091
X26.343Y105.114
X26.358Y105.137
X26.373Y105.161
X26.388Y105.185
X26.402Y105.209
X26.415Y105.233
X26.429Y105.257
X26.442Y105.282
X26.454Y105.307
X26.466Y105.332
X26.478Y105.358
X26.489Y105.383
X26.499Y105.409
X26.51Y105.435
X26.519Y105.461
X26.529Y105.487
X26.538Y105.514
X26.546Y105.54
X26.561Y105.594
X26.568Y105.621
X26.575Y105.648
X26.581Y105.675
X26.586Y105.702
X26.591Y105.73
X26.596Y105.757
X26.6Y105.785
X26.604Y105.812
X26.607Y105.84
X26.61Y105.868
X26.612Y105.896
X26.614Y105.923
X26.615Y105.951
Y105.979
X26.616Y106.007
X26.615Y106.035
Y106.063
X26.614Y106.091
X26.612Y106.118
X26.61Y106.146
X26.607Y106.174
X26.604Y106.202
X26.6Y106.229
X26.596Y106.257
X26.591Y106.284
X26.586Y106.312
X26.581Y106.339
X26.575Y106.366
X26.568Y106.393
X26.561Y106.42
X26.554Y106.447
X26.546Y106.474
X26.538Y106.5
X26.529Y106.527
X26.519Y106.553
X26.51Y106.579
X26.499Y106.605
X26.489Y106.631
X26.478Y106.656
X26.466Y106.682
X26.454Y106.707
X26.442Y106.732
X26.429Y106.757
X26.415Y106.781
X26.402Y106.805
X26.388Y106.829
X26.373Y106.853
X26.358Y106.876
X26.343Y106.9
X26.327Y106.923
X26.311Y106.945
X26.294Y106.968
X26.277Y106.99
X26.26Y107.012
X26.242Y107.033
X26.224Y107.055
X26.206Y107.075
X26.187Y107.096
X26.168Y107.116
X26.148Y107.136
X26.128Y107.156
X26.108Y107.175
X26.087Y107.194
X26.067Y107.212
X26.045Y107.23
X26.024Y107.248
X26.002Y107.265
X25.98Y107.282
X25.958Y107.299
X25.935Y107.315
X25.912Y107.331
X25.889Y107.346
X25.865Y107.361
X25.842Y107.376
X25.817Y107.39
X25.793Y107.404
X25.769Y107.417
X25.744Y107.43
X25.719Y107.442
X25.694Y107.454
X25.668Y107.466
X25.643Y107.477
X25.617Y107.487
X25.591Y107.498
X25.565Y107.507
X25.539Y107.517
X25.512Y107.526
X25.486Y107.534
X25.459Y107.542
X25.432Y107.549
X25.405Y107.556
X25.378Y107.563
X25.351Y107.569
X25.324Y107.574
X25.296Y107.579
X25.269Y107.584
X25.241Y107.588
X25.214Y107.592
X25.186Y107.595
X25.158Y107.598
X25.13Y107.6
X25.103Y107.601
X25.075Y107.603
X25.047
X25.019Y107.604
X24.991Y107.603
X24.963
X24.936Y107.601
X24.908Y107.6
X24.88Y107.598
X24.852Y107.595
X24.824Y107.592
X24.797Y107.588
X24.769Y107.584
X24.742Y107.579
X24.714Y107.574
X24.687Y107.569
X24.66Y107.563
X24.633Y107.556
X24.606Y107.549
X24.579Y107.542
X24.552Y107.534
X24.526Y107.526
X24.499Y107.517
X24.473Y107.507
X24.447Y107.498
X24.421Y107.487
X24.395Y107.477
X24.37Y107.466
X24.344Y107.454
X24.319Y107.442
X24.294Y107.43
X24.269Y107.417
X24.245Y107.404
X24.221Y107.39
X24.197Y107.376
X24.173Y107.361
X24.15Y107.346
X24.126Y107.331
X24.103Y107.315
X24.08Y107.299
X24.058Y107.282
X24.036Y107.265
X24.014Y107.248
X23.993Y107.23
X23.971Y107.212
X23.951Y107.194
X23.93Y107.175
X23.91Y107.155
X23.89Y107.136
X23.871Y107.116
X23.851Y107.096
X23.833Y107.075
X23.814Y107.055
X23.796Y107.033
X23.778Y107.012
X23.761Y106.99
X23.744Y106.968
X23.727Y106.945
X23.711Y106.923
X23.695Y106.9
X23.68Y106.876
X23.665Y106.853
X23.651Y106.829
X23.623Y106.781
X23.609Y106.757
X23.596Y106.731
X23.584Y106.707
X23.572Y106.682
X23.56Y106.656
X23.549Y106.631
X23.539Y106.605
X23.528Y106.579
X23.519Y106.553
X23.509Y106.527
X23.501Y106.5
X23.492Y106.474
X23.484Y106.447
X23.477Y106.42
X23.47Y106.393
X23.463Y106.366
X23.457Y106.339
X23.452Y106.312
X23.447Y106.284
X23.442Y106.257
X23.438Y106.229
X23.434Y106.202
X23.431Y106.174
X23.428Y106.146
X23.426Y106.118
X23.425Y106.091
X23.423Y106.063
X23.422Y106.007
X23.423Y105.979
Y105.951
X23.425Y105.923
X23.426Y105.896
X23.428Y105.868
X23.431Y105.84
X23.438Y105.785
X23.442Y105.757
X23.447Y105.73
X23.452Y105.703
X23.457Y105.675
X23.463Y105.648
X23.47Y105.621
X23.477Y105.594
X23.484Y105.567
X23.492Y105.54
X23.501Y105.514
X23.509Y105.487
X23.519Y105.461
X23.528Y105.435
X23.546Y105.392
X23.561Y105.355
X23.572Y105.332
X23.584Y105.307
X23.596Y105.282
X23.609Y105.257
X23.636Y105.209
X23.65Y105.185
X23.665Y105.161
X23.68Y105.137
X23.695Y105.114
X23.711Y105.091
X23.727Y105.069
X23.741Y105.05
X23.762Y105.023
X23.796Y104.981
X23.814Y104.959
X23.833Y104.939
X23.851Y104.918
X23.871Y104.898
X23.89Y104.878
X23.91Y104.858
X23.93Y104.839
X23.951Y104.821
X23.971Y104.802
X23.993Y104.784
X24.014Y104.766
X24.036Y104.749
X24.058Y104.732
X24.08Y104.715
X24.103Y104.699
X24.126Y104.683
X24.149Y104.668
X24.173Y104.653
X24.197Y104.638
X24.221Y104.624
X24.245Y104.611
X24.294Y104.584
X24.319Y104.572
X24.344Y104.56
X24.37Y104.548
X24.395Y104.537
X24.421Y104.527
X24.473Y104.507
X24.499Y104.497
X24.552Y104.48
X24.606Y104.465
X24.66Y104.451
G0Z1
X38.421Y105.816
G1Z-0.6F5
X38.472Y105.647F10
X38.556Y105.49
X38.667Y105.354
X38.804Y105.242
X38.96Y105.159
X39.129Y105.108
X39.305Y105.09
X39.481Y105.108
X39.65Y105.159
X39.806Y105.242
X39.942Y105.354
X40.054Y105.491
X40.137Y105.647
X40.189Y105.816
X40.206Y105.992
X40.189Y106.167
X40.137Y106.337
X40.054Y106.492
X39.942Y106.629
X39.806Y106.741
X39.65Y106.824
X39.481Y106.876
X39.305Y106.893
X39.129Y106.876
X38.96Y106.824
X38.804Y106.741
X38.667Y106.629
X38.555Y106.492
X38.472Y106.337
X38.421Y106.167
X38.403Y105.992
X38.421Y105.816
G0Z1
X54.307Y105.992
G1Z-0.6F5
X54.325Y105.816F10
X54.376Y105.647
X54.459Y105.491
X54.571Y105.354
X54.708Y105.242
X54.864Y105.159
X55.033Y105.108
X55.209Y105.09
X55.385Y105.108
X55.554Y105.159
X55.709Y105.242
X55.846Y105.354
X55.958Y105.491
X56.041Y105.647
X56.093Y105.816
X56.11Y105.992
X56.093Y106.167
X56.041Y106.337
X55.958Y106.492
X55.846Y106.629
X55.709Y106.741
X55.554Y106.824
X55.385Y106.876
X55.209Y106.893
X55.033Y106.876
X54.864Y106.824
X54.708Y106.741
X54.571Y106.629
X54.459Y106.492
X54.376Y106.337
X54.325Y106.167
X54.307Y105.992
G0Z1
X57.81Y98.066
G1Z-0.6F5
X31.356F10
X30.702Y98.072
X30.048Y98.088
X29.395Y98.116
X28.742Y98.154
X28.089Y98.203
X27.438Y98.263
X26.788Y98.333
X26.139Y98.415
X25.491Y98.507
X24.846Y98.61
X24.201Y98.724
X23.559Y98.848
X23.435Y98.875
X23.311Y98.903
X23.189Y98.934
X23.066Y98.967
X22.945Y99.002
X22.824Y99.039
X22.704Y99.078
X22.584Y99.119
X22.465Y99.162
X22.347Y99.207
X22.229Y99.255
X22.113Y99.304
X21.997Y99.355
X21.882Y99.409
X21.768Y99.464
X21.655Y99.521
X21.544Y99.581
X21.433Y99.642
X21.323Y99.705
X21.214Y99.77
X21.107Y99.837
X21.001Y99.905
X20.896Y99.976
X20.792Y100.048
X20.689Y100.122
X20.588Y100.198
X20.488Y100.276
X20.389Y100.355
X20.292Y100.436
X20.196Y100.519
X20.102Y100.604
X20.009Y100.69
X19.918Y100.777
X19.828Y100.866
X19.739Y100.957
X19.653Y101.049
X19.568Y101.143
X19.484Y101.238
X19.402Y101.335
X19.303Y101.457
X19.205Y101.581
X19.109Y101.706
X19.015Y101.834
X18.924Y101.962
X18.835Y102.093
X18.748Y102.225
X18.663Y102.358
X18.581Y102.493
X18.501Y102.629
X18.423Y102.766
X18.348Y102.905
X18.275Y103.045
X18.204Y103.187
X18.136Y103.329
X18.07Y103.473
X18.007Y103.618
X17.946Y103.763
X17.888Y103.91
X17.833Y104.058
X17.779Y104.207
X17.729Y104.356
X17.681Y104.507
X17.636Y104.658
X17.593Y104.81
X17.553Y104.963
X17.515Y105.116
X17.48Y105.27
X17.448Y105.425
X17.418Y105.58
X17.391Y105.736
X17.367Y105.892
X17.345Y106.048
X17.326Y106.205
X17.31Y106.362
X17.297Y106.52
X17.286Y106.677
X17.278Y106.835
X17.272Y106.993
X17.269Y107.151
Y107.309
X17.272Y107.467
X17.277Y107.624
X17.285Y107.782
X17.296Y107.94
X17.31Y108.097
X17.326Y108.254
X17.345Y108.411
X17.364Y108.554
X17.784Y111.445
X17.797Y111.521
X17.814Y111.597
X17.833Y111.672
X17.855Y111.746
X17.879Y111.819
X17.906Y111.893
X17.935Y111.964
X17.967Y112.035
X18.001Y112.104
X18.038Y112.173
X18.076Y112.239
X18.118Y112.305
X18.161Y112.369
X18.207Y112.432
X18.255Y112.493
X18.304Y112.552
X18.357Y112.609
X18.411Y112.665
X18.466Y112.718
X18.524Y112.77
X18.584Y112.82
X18.644Y112.867
X18.708Y112.913
X18.771Y112.956
X18.838Y112.997
X18.905Y113.035
X18.973Y113.072
X19.043Y113.106
X19.113Y113.137
X19.186Y113.166
X19.258Y113.192
X19.332Y113.216
X19.406Y113.238
X19.482Y113.256
X19.557Y113.272
X19.634Y113.286
X19.711Y113.297
X19.787Y113.305
X19.865Y113.31
X19.942Y113.313
X19.981
X25.032
X25.149Y113.312
X25.265Y113.309
X25.382Y113.304
X25.499Y113.297
X26.754Y113.207
X27.907Y113.142
X29.06Y113.096
X30.215Y113.068
X31.375Y113.059
X34.928
X34.966Y113.062
X35.005Y113.065
X35.043Y113.066
X35.081
X63.081
X63.121
X63.16Y113.064
X63.2Y113.062
X63.24Y113.058
X63.279Y113.054
X63.318Y113.049
X63.358Y113.042
X63.397Y113.035
X63.436Y113.026
X63.475Y113.017
X63.513Y113.007
X63.551Y112.995
X63.589Y112.983
X63.626Y112.97
X63.664Y112.956
X63.7Y112.941
X63.737Y112.925
X63.773Y112.908
X63.808Y112.89
X63.844Y112.872
X63.878Y112.852
X63.913Y112.831
X63.947Y112.81
X63.981Y112.787
X64.014Y112.764
X64.047Y112.74
X64.079Y112.715
X64.11Y112.689
X64.125Y112.676
X64.154Y112.65
X64.176Y112.629
X64.198Y112.608
X64.226Y112.58
X64.254Y112.551
X64.286Y112.515
X64.317Y112.478
X64.338Y112.45
X64.36Y112.422
X64.38Y112.394
X64.401Y112.364
X64.42Y112.335
X64.439Y112.304
X64.456Y112.276
X64.472Y112.248
X64.488Y112.219
X64.507Y112.181
X64.525Y112.144
X64.538Y112.114
X64.551Y112.085
X64.567Y112.044
X64.575Y112.022
X64.589Y111.982
X64.602Y111.941
X64.614Y111.899
X64.626Y111.857
X64.635Y111.814
X64.644Y111.774
X64.651Y111.733
X64.658Y111.682
X64.665Y111.626
X64.668Y111.592
X64.67Y111.559
X64.671Y111.525
X64.672Y111.475
Y111.243
X64.686Y111.158
X64.696Y111.08
X64.704Y111.003
X64.708Y110.926
X64.71Y110.833
Y99.999
Y99.96
X64.708Y99.921
X64.706Y99.881
X64.702Y99.842
X64.698Y99.803
X64.692Y99.764
X64.686Y99.725
X64.679Y99.686
X64.672Y99.653
X64.671Y99.61
X64.668Y99.567
X64.665Y99.524
X64.66Y99.481
X64.654Y99.439
X64.647Y99.396
X64.639Y99.354
X64.63Y99.312
X64.619Y99.27
X64.61Y99.235
X64.6Y99.201
X64.589Y99.167
X64.577Y99.133
X64.564Y99.099
X64.547Y99.058
X64.529Y99.017
X64.51Y98.977
X64.488Y98.933
X64.472Y98.904
X64.455Y98.874
X64.434Y98.838
X64.411Y98.802
X64.389Y98.77
X64.367Y98.739
X64.344Y98.708
X64.32Y98.678
X64.296Y98.648
X64.27Y98.619
X64.244Y98.59
X64.218Y98.562
X64.191Y98.535
X64.163Y98.509
X64.134Y98.483
X64.105Y98.458
X64.075Y98.433
X64.045Y98.409
X64.014Y98.386
X63.982Y98.364
X63.95Y98.343
X63.917Y98.322
X63.884Y98.302
X63.851Y98.283
X63.816Y98.265
X63.782Y98.247
X63.747Y98.231
X63.713Y98.215
X63.677Y98.201
X63.642Y98.187
X63.606Y98.174
X63.57Y98.161
X63.533Y98.15
X63.496Y98.14
X63.459Y98.13
X63.422Y98.121
X63.385Y98.114
X63.347Y98.107
X63.309Y98.101
X63.272Y98.096
X63.234Y98.092
X63.195Y98.089
X63.157Y98.086
X63.119Y98.085
X63.081Y98.084
X59.145
X58.555Y98.071
X57.81Y98.066
G0Z1
X24.66Y104.451
G1Z-0.7F5
X24.687Y104.445F10
X24.714Y104.44
X24.742Y104.435
X24.769Y104.43
X24.797Y104.426
X24.824Y104.422
X24.852Y104.419
X24.88Y104.416
X24.908Y104.414
X24.936Y104.413
X24.963Y104.411
X24.991
X25.019Y104.41
X25.047Y104.411
X25.075
X25.102Y104.413
X25.131Y104.414
X25.158Y104.416
X25.186Y104.419
X25.214Y104.422
X25.241Y104.426
X25.269Y104.43
X25.296Y104.435
X25.324Y104.44
X25.351Y104.445
X25.378Y104.451
X25.405Y104.458
X25.432Y104.465
X25.459Y104.472
X25.486Y104.48
X25.512Y104.488
X25.539Y104.497
X25.565Y104.507
X25.591Y104.516
X25.617Y104.527
X25.643Y104.537
X25.668Y104.548
X25.694Y104.56
X25.719Y104.572
X25.744Y104.584
X25.769Y104.597
X25.793Y104.611
X25.817Y104.624
X25.841Y104.638
X25.865Y104.653
X25.889Y104.668
X25.912Y104.683
X25.935Y104.699
X25.958Y104.715
X25.98Y104.732
X26.002Y104.749
X26.024Y104.766
X26.045Y104.784
X26.067Y104.802
X26.088Y104.821
X26.108Y104.839
X26.128Y104.858
X26.168Y104.898
X26.187Y104.918
X26.206Y104.939
X26.224Y104.959
X26.242Y104.981
X26.26Y105.002
X26.277Y105.024
X26.294Y105.046
X26.311Y105.069
X26.327Y105.091
X26.343Y105.114
X26.358Y105.137
X26.373Y105.161
X26.388Y105.185
X26.402Y105.209
X26.415Y105.233
X26.429Y105.257
X26.442Y105.282
X26.454Y105.307
X26.466Y105.332
X26.478Y105.358
X26.489Y105.383
X26.499Y105.409
X26.51Y105.435
X26.519Y105.461
X26.529Y105.487
X26.538Y105.514
X26.546Y105.54
X26.561Y105.594
X26.568Y105.621
X26.575Y105.648
X26.581Y105.675
X26.586Y105.702
X26.591Y105.73
X26.596Y105.757
X26.6Y105.785
X26.604Y105.812
X26.607Y105.84
X26.61Y105.868
X26.612Y105.896
X26.614Y105.923
X26.615Y105.951
Y105.979
X26.616Y106.007
X26.615Y106.035
Y106.063
X26.614Y106.091
X26.612Y106.118
X26.61Y106.146
X26.607Y106.174
X26.604Y106.202
X26.6Y106.229
X26.596Y106.257
X26.591Y106.284
X26.586Y106.312
X26.581Y106.339
X26.575Y106.366
X26.568Y106.393
X26.561Y106.42
X26.554Y106.447
X26.546Y106.474
X26.538Y106.5
X26.529Y106.527
X26.519Y106.553
X26.51Y106.579
X26.499Y106.605
X26.489Y106.631
X26.478Y106.656
X26.466Y106.682
X26.454Y106.707
X26.442Y106.732
X26.429Y106.757
X26.415Y106.781
X26.402Y106.805
X26.388Y106.829
X26.373Y106.853
X26.358Y106.876
X26.343Y106.9
X26.327Y106.923
X26.311Y106.945
X26.294Y106.968
X26.277Y106.99
X26.26Y107.012
X26.242Y107.033
X26.224Y107.055
X26.206Y107.075
X26.187Y107.096
X26.168Y107.116
X26.148Y107.136
X26.128Y107.156
X26.108Y107.175
X26.087Y107.194
X26.067Y107.212
X26.045Y107.23
X26.024Y107.248
X26.002Y107.265
X25.98Y107.282
X25.958Y107.299
X25.935Y107.315
X25.912Y107.331
X25.889Y107.346
X25.865Y107.361
X25.842Y107.376
X25.817Y107.39
X25.793Y107.404
X25.769Y107.417
X25.744Y107.43
X25.719Y107.442
X25.694Y107.454
X25.668Y107.466
X25.643Y107.477
X25.617Y107.487
X25.591Y107.498
X25.565Y107.507
X25.539Y107.517
X25.512Y107.526
X25.486Y107.534
X25.459Y107.542
X25.432Y107.549
X25.405Y107.556
X25.378Y107.563
X25.351Y107.569
X25.324Y107.574
X25.296Y107.579
X25.269Y107.584
X25.241Y107.588
X25.214Y107.592
X25.186Y107.595
X25.158Y107.598
X25.13Y107.6
X25.103Y107.601
X25.075Y107.603
X25.047
X25.019Y107.604
X24.991Y107.603
X24.963
X24.936Y107.601
X24.908Y107.6
X24.88Y107.598
X24.852Y107.595
X24.824Y107.592
X24.797Y107.588
X24.769Y107.584
X24.742Y107.579
X24.714Y107.574
X24.687Y107.569
X24.66Y107.563
X24.633Y107.556
X24.606Y107.549
X24.579Y107.542
X24.552Y107.534
X24.526Y107.526
X24.499Y107.517
X24.473Y107.507
X24.447Y107.498
X24.421Y107.487
X24.395Y107.477
X24.37Y107.466
X24.344Y107.454
X24.319Y107.442
X24.294Y107.43
X24.269Y107.417
X24.245Y107.404
X24.221Y107.39
X24.197Y107.376
X24.173Y107.361
X24.15Y107.346
X24.126Y107.331
X24.103Y107.315
X24.08Y107.299
X24.058Y107.282
X24.036Y107.265
X24.014Y107.248
X23.993Y107.23
X23.971Y107.212
X23.951Y107.194
X23.93Y107.175
X23.91Y107.155
X23.89Y107.136
X23.871Y107.116
X23.851Y107.096
X23.833Y107.075
X23.814Y107.055
X23.796Y107.033
X23.778Y107.012
X23.761Y106.99
X23.744Y106.968
X23.727Y106.945
X23.711Y106.923
X23.695Y106.9
X23.68Y106.876
X23.665Y106.853
X23.651Y106.829
X23.623Y106.781
X23.609Y106.757
X23.596Y106.731
X23.584Y106.707
X23.572Y106.682
X23.56Y106.656
X23.549Y106.631
X23.539Y106.605
X23.528Y106.579
X23.519Y106.553
X23.509Y106.527
X23.501Y106.5
X23.492Y106.474
X23.484Y106.447
X23.477Y106.42
X23.47Y106.393
X23.463Y106.366
X23.457Y106.339
X23.452Y106.312
X23.447Y106.284
X23.442Y106.257
X23.438Y106.229
X23.434Y106.202
X23.431Y106.174
X23.428Y106.146
X23.426Y106.118
X23.425Y106.091
X23.423Y106.063
X23.422Y106.007
X23.423Y105.979
Y105.951
X23.425Y105.923
X23.426Y105.896
X23.428Y105.868
X23.431Y105.84
X23.438Y105.785
X23.442Y105.757
X23.447Y105.73
X23.452Y105.703
X23.457Y105.675
X23.463Y105.648
X23.47Y105.621
X23.477Y105.594
X23.484Y105.567
X23.492Y105.54
X23.501Y105.514
X23.509Y105.487
X23.519Y105.461
X23.528Y105.435
X23.546Y105.392
X23.561Y105.355
X23.572Y105.332
X23.584Y105.307
X23.596Y105.282
X23.609Y105.257
X23.636Y105.209
X23.65Y105.185
X23.665Y105.161
X23.68Y105.137
X23.695Y105.114
X23.711Y105.091
X23.727Y105.069
X23.741Y105.05
X23.762Y105.023
X23.796Y104.981
X23.814Y104.959
X23.833Y104.939
X23.851Y104.918
X23.871Y104.898
X23.89Y104.878
X23.91Y104.858
X23.93Y104.839
X23.951Y104.821
X23.971Y104.802
X23.993Y104.784
X24.014Y104.766
X24.036Y104.749
X24.058Y104.732
X24.08Y104.715
X24.103Y104.699
X24.126Y104.683
X24.149Y104.668
X24.173Y104.653
X24.197Y104.638
X24.221Y104.624
X24.245Y104.611
X24.294Y104.584
X24.319Y104.572
X24.344Y104.56
X24.37Y104.548
X24.395Y104.537
X24.421Y104.527
X24.473Y104.507
X24.499Y104.497
X24.552Y104.48
X24.606Y104.465
X24.66Y104.451
G0Z1
X38.421Y105.816
G1Z-0.7F5
X38.472Y105.647F10
X38.556Y105.49
X38.667Y105.354
X38.804Y105.242
X38.96Y105.159
X39.129Y105.108
X39.305Y105.09
X39.481Y105.108
X39.65Y105.159
X39.806Y105.242
X39.942Y105.354
X40.054Y105.491
X40.137Y105.647
X40.189Y105.816
X40.206Y105.992
X40.189Y106.167
X40.137Y106.337
X40.054Y106.492
X39.942Y106.629
X39.806Y106.741
X39.65Y106.824
X39.481Y106.876
X39.305Y106.893
X39.129Y106.876
X38.96Y106.824
X38.804Y106.741
X38.667Y106.629
X38.555Y106.492
X38.472Y106.337
X38.421Y106.167
X38.403Y105.992
X38.421Y105.816
G0Z1
X54.307Y105.992
G1Z-0.7F5
X54.325Y105.816F10
X54.376Y105.647
X54.459Y105.491
X54.571Y105.354
X54.708Y105.242
X54.864Y105.159
X55.033Y105.108
X55.209Y105.09
X55.385Y105.108
X55.554Y105.159
X55.709Y105.242
X55.846Y105.354
X55.958Y105.491
X56.041Y105.647
X56.093Y105.816
X56.11Y105.992
X56.093Y106.167
X56.041Y106.337
X55.958Y106.492
X55.846Y106.629
X55.709Y106.741
X55.554Y106.824
X55.385Y106.876
X55.209Y106.893
X55.033Y106.876
X54.864Y106.824
X54.708Y106.741
X54.571Y106.629
X54.459Y106.492
X54.376Y106.337
X54.325Y106.167
X54.307Y105.992
G0Z1
X57.81Y98.066
G1Z-0.7F5
X31.356F10
X30.702Y98.072
X30.048Y98.088
X29.395Y98.116
X28.742Y98.154
X28.089Y98.203
X27.438Y98.263
X26.788Y98.333
X26.139Y98.415
X25.491Y98.507
X24.846Y98.61
X24.201Y98.724
X23.559Y98.848
X23.435Y98.875
X23.311Y98.903
X23.189Y98.934
X23.066Y98.967
X22.945Y99.002
X22.824Y99.039
X22.704Y99.078
X22.584Y99.119
X22.465Y99.162
X22.347Y99.207
X22.229Y99.255
X22.113Y99.304
X21.997Y99.355
X21.882Y99.409
X21.768Y99.464
X21.655Y99.521
X21.544Y99.581
X21.433Y99.642
X21.323Y99.705
X21.214Y99.77
X21.107Y99.837
X21.001Y99.905
X20.896Y99.976
X20.792Y100.048
X20.689Y100.122
X20.588Y100.198
X20.488Y100.276
X20.389Y100.355
X20.292Y100.436
X20.196Y100.519
X20.102Y100.604
X20.009Y100.69
X19.918Y100.777
X19.828Y100.866
X19.739Y100.957
X19.653Y101.049
X19.568Y101.143
X19.484Y101.238
X19.402Y101.335
X19.303Y101.457
X19.205Y101.581
X19.109Y101.706
X19.015Y101.834
X18.924Y101.962
X18.835Y102.093
X18.748Y102.225
X18.663Y102.358
X18.581Y102.493
X18.501Y102.629
X18.423Y102.766
X18.348Y102.905
X18.275Y103.045
X18.204Y103.187
X18.136Y103.329
X18.07Y103.473
X18.007Y103.618
X17.946Y103.763
X17.888Y103.91
X17.833Y104.058
X17.779Y104.207
X17.729Y104.356
X17.681Y104.507
X17.636Y104.658
X17.593Y104.81
X17.553Y104.963
X17.515Y105.116
X17.48Y105.27
X17.448Y105.425
X17.418Y105.58
X17.391Y105.736
X17.367Y105.892
X17.345Y106.048
X17.326Y106.205
X17.31Y106.362
X17.297Y106.52
X17.286Y106.677
X17.278Y106.835
X17.272Y106.993
X17.269Y107.151
Y107.309
X17.272Y107.467
X17.277Y107.624
X17.285Y107.782
X17.296Y107.94
X17.31Y108.097
X17.326Y108.254
X17.345Y108.411
X17.364Y108.554
X17.784Y111.445
X17.797Y111.521
X17.814Y111.597
X17.833Y111.672
X17.855Y111.746
X17.879Y111.819
X17.906Y111.893
X17.935Y111.964
X17.967Y112.035
X18.001Y112.104
X18.038Y112.173
X18.076Y112.239
X18.118Y112.305
X18.161Y112.369
X18.207Y112.432
X18.255Y112.493
X18.304Y112.552
X18.357Y112.609
X18.411Y112.665
X18.466Y112.718
X18.524Y112.77
X18.584Y112.82
X18.644Y112.867
X18.708Y112.913
X18.771Y112.956
X18.838Y112.997
X18.905Y113.035
X18.973Y113.072
X19.043Y113.106
X19.113Y113.137
X19.186Y113.166
X19.258Y113.192
X19.332Y113.216
X19.406Y113.238
X19.482Y113.256
X19.557Y113.272
X19.634Y113.286
X19.711Y113.297
X19.787Y113.305
X19.865Y113.31
X19.942Y113.313
X19.981
X25.032
X25.149Y113.312
X25.265Y113.309
X25.382Y113.304
X25.499Y113.297
X26.754Y113.207
X27.907Y113.142
X29.06Y113.096
X30.215Y113.068
X31.375Y113.059
X34.928
X34.966Y113.062
X35.005Y113.065
X35.043Y113.066
X35.081
X63.081
X63.121
X63.16Y113.064
X63.2Y113.062
X63.24Y113.058
X63.279Y113.054
X63.318Y113.049
X63.358Y113.042
X63.397Y113.035
X63.436Y113.026
X63.475Y113.017
X63.513Y113.007
X63.551Y112.995
X63.589Y112.983
X63.626Y112.97
X63.664Y112.956
X63.7Y112.941
X63.737Y112.925
X63.773Y112.908
X63.808Y112.89
X63.844Y112.872
X63.878Y112.852
X63.913Y112.831
X63.947Y112.81
X63.981Y112.787
X64.014Y112.764
X64.047Y112.74
X64.079Y112.715
X64.11Y112.689
X64.125Y112.676
X64.154Y112.65
X64.176Y112.629
X64.198Y112.608
X64.226Y112.58
X64.254Y112.551
X64.286Y112.515
X64.317Y112.478
X64.338Y112.45
X64.36Y112.422
X64.38Y112.394
X64.401Y112.364
X64.42Y112.335
X64.439Y112.304
X64.456Y112.276
X64.472Y112.248
X64.488Y112.219
X64.507Y112.181
X64.525Y112.144
X64.538Y112.114
X64.551Y112.085
X64.567Y112.044
X64.575Y112.022
X64.589Y111.982
X64.602Y111.941
X64.614Y111.899
X64.626Y111.857
X64.635Y111.814
X64.644Y111.774
X64.651Y111.733
X64.658Y111.682
X64.665Y111.626
X64.668Y111.592
X64.67Y111.559
X64.671Y111.525
X64.672Y111.475
Y111.243
X64.686Y111.158
X64.696Y111.08
X64.704Y111.003
X64.708Y110.926
X64.71Y110.833
Y99.999
Y99.96
X64.708Y99.921
X64.706Y99.881
X64.702Y99.842
X64.698Y99.803
X64.692Y99.764
X64.686Y99.725
X64.679Y99.686
X64.672Y99.653
X64.671Y99.61
X64.668Y99.567
X64.665Y99.524
X64.66Y99.481
X64.654Y99.439
X64.647Y99.396
X64.639Y99.354
X64.63Y99.312
X64.619Y99.27
X64.61Y99.235
X64.6Y99.201
X64.589Y99.167
X64.577Y99.133
X64.564Y99.099
X64.547Y99.058
X64.529Y99.017
X64.51Y98.977
X64.488Y98.933
X64.472Y98.904
X64.455Y98.874
X64.434Y98.838
X64.411Y98.802
X64.389Y98.77
X64.367Y98.739
X64.344Y98.708
X64.32Y98.678
X64.296Y98.648
X64.27Y98.619
X64.244Y98.59
X64.218Y98.562
X64.191Y98.535
X64.163Y98.509
X64.134Y98.483
X64.105Y98.458
X64.075Y98.433
X64.045Y98.409
X64.014Y98.386
X63.982Y98.364
X63.95Y98.343
X63.917Y98.322
X63.884Y98.302
X63.851Y98.283
X63.816Y98.265
X63.782Y98.247
X63.747Y98.231
X63.713Y98.215
X63.677Y98.201
X63.642Y98.187
X63.606Y98.174
X63.57Y98.161
X63.533Y98.15
X63.496Y98.14
X63.459Y98.13
X63.422Y98.121
X63.385Y98.114
X63.347Y98.107
X63.309Y98.101
X63.272Y98.096
X63.234Y98.092
X63.195Y98.089
X63.157Y98.086
X63.119Y98.085
X63.081Y98.084
X59.145
X58.555Y98.071
X57.81Y98.066
G0Z1
X24.66Y104.451
G1Z-0.8F5
X24.687Y104.445F10
X24.714Y104.44
X24.742Y104.435
X24.769Y104.43
X24.797Y104.426
X24.824Y104.422
X24.852Y104.419
X24.88Y104.416
X24.908Y104.414
X24.936Y104.413
X24.963Y104.411
X24.991
X25.019Y104.41
X25.047Y104.411
X25.075
X25.102Y104.413
X25.131Y104.414
X25.158Y104.416
X25.186Y104.419
X25.214Y104.422
X25.241Y104.426
X25.269Y104.43
X25.296Y104.435
X25.324Y104.44
X25.351Y104.445
X25.378Y104.451
X25.405Y104.458
X25.432Y104.465
X25.459Y104.472
X25.486Y104.48
X25.512Y104.488
X25.539Y104.497
X25.565Y104.507
X25.591Y104.516
X25.617Y104.527
X25.643Y104.537
X25.668Y104.548
X25.694Y104.56
X25.719Y104.572
X25.744Y104.584
X25.769Y104.597
X25.793Y104.611
X25.817Y104.624
X25.841Y104.638
X25.865Y104.653
X25.889Y104.668
X25.912Y104.683
X25.935Y104.699
X25.958Y104.715
X25.98Y104.732
X26.002Y104.749
X26.024Y104.766
X26.045Y104.784
X26.067Y104.802
X26.088Y104.821
X26.108Y104.839
X26.128Y104.858
X26.168Y104.898
X26.187Y104.918
X26.206Y104.939
X26.224Y104.959
X26.242Y104.981
X26.26Y105.002
X26.277Y105.024
X26.294Y105.046
X26.311Y105.069
X26.327Y105.091
X26.343Y105.114
X26.358Y105.137
X26.373Y105.161
X26.388Y105.185
X26.402Y105.209
X26.415Y105.233
X26.429Y105.257
X26.442Y105.282
X26.454Y105.307
X26.466Y105.332
X26.478Y105.358
X26.489Y105.383
X26.499Y105.409
X26.51Y105.435
X26.519Y105.461
X26.529Y105.487
X26.538Y105.514
X26.546Y105.54
X26.561Y105.594
X26.568Y105.621
X26.575Y105.648
X26.581Y105.675
X26.586Y105.702
X26.591Y105.73
X26.596Y105.757
X26.6Y105.785
X26.604Y105.812
X26.607Y105.84
X26.61Y105.868
X26.612Y105.896
X26.614Y105.923
X26.615Y105.951
Y105.979
X26.616Y106.007
X26.615Y106.035
Y106.063
X26.614Y106.091
X26.612Y106.118
X26.61Y106.146
X26.607Y106.174
X26.604Y106.202
X26.6Y106.229
X26.596Y106.257
X26.591Y106.284
X26.586Y106.312
X26.581Y106.339
X26.575Y106.366
X26.568Y106.393
X26.561Y106.42
X26.554Y106.447
X26.546Y106.474
X26.538Y106.5
X26.529Y106.527
X26.519Y106.553
X26.51Y106.579
X26.499Y106.605
X26.489Y106.631
X26.478Y106.656
X26.466Y106.682
X26.454Y106.707
X26.442Y106.732
X26.429Y106.757
X26.415Y106.781
X26.402Y106.805
X26.388Y106.829
X26.373Y106.853
X26.358Y106.876
X26.343Y106.9
X26.327Y106.923
X26.311Y106.945
X26.294Y106.968
X26.277Y106.99
X26.26Y107.012
X26.242Y107.033
X26.224Y107.055
X26.206Y107.075
X26.187Y107.096
X26.168Y107.116
X26.148Y107.136
X26.128Y107.156
X26.108Y107.175
X26.087Y107.194
X26.067Y107.212
X26.045Y107.23
X26.024Y107.248
X26.002Y107.265
X25.98Y107.282
X25.958Y107.299
X25.935Y107.315
X25.912Y107.331
X25.889Y107.346
X25.865Y107.361
X25.842Y107.376
X25.817Y107.39
X25.793Y107.404
X25.769Y107.417
X25.744Y107.43
X25.719Y107.442
X25.694Y107.454
X25.668Y107.466
X25.643Y107.477
X25.617Y107.487
X25.591Y107.498
X25.565Y107.507
X25.539Y107.517
X25.512Y107.526
X25.486Y107.534
X25.459Y107.542
X25.432Y107.549
X25.405Y107.556
X25.378Y107.563
X25.351Y107.569
X25.324Y107.574
X25.296Y107.579
X25.269Y107.584
X25.241Y107.588
X25.214Y107.592
X25.186Y107.595
X25.158Y107.598
X25.13Y107.6
X25.103Y107.601
X25.075Y107.603
X25.047
X25.019Y107.604
X24.991Y107.603
X24.963
X24.936Y107.601
X24.908Y107.6
X24.88Y107.598
X24.852Y107.595
X24.824Y107.592
X24.797Y107.588
X24.769Y107.584
X24.742Y107.579
X24.714Y107.574
X24.687Y107.569
X24.66Y107.563
X24.633Y107.556
X24.606Y107.549
X24.579Y107.542
X24.552Y107.534
X24.526Y107.526
X24.499Y107.517
X24.473Y107.507
X24.447Y107.498
X24.421Y107.487
X24.395Y107.477
X24.37Y107.466
X24.344Y107.454
X24.319Y107.442
X24.294Y107.43
X24.269Y107.417
X24.245Y107.404
X24.221Y107.39
X24.197Y107.376
X24.173Y107.361
X24.15Y107.346
X24.126Y107.331
X24.103Y107.315
X24.08Y107.299
X24.058Y107.282
X24.036Y107.265
X24.014Y107.248
X23.993Y107.23
X23.971Y107.212
X23.951Y107.194
X23.93Y107.175
X23.91Y107.155
X23.89Y107.136
X23.871Y107.116
X23.851Y107.096
X23.833Y107.075
X23.814Y107.055
X23.796Y107.033
X23.778Y107.012
X23.761Y106.99
X23.744Y106.968
X23.727Y106.945
X23.711Y106.923
X23.695Y106.9
X23.68Y106.876
X23.665Y106.853
X23.651Y106.829
X23.623Y106.781
X23.609Y106.757
X23.596Y106.731
X23.584Y106.707
X23.572Y106.682
X23.56Y106.656
X23.549Y106.631
X23.539Y106.605
X23.528Y106.579
X23.519Y106.553
X23.509Y106.527
X23.501Y106.5
X23.492Y106.474
X23.484Y106.447
X23.477Y106.42
X23.47Y106.393
X23.463Y106.366
X23.457Y106.339
X23.452Y106.312
X23.447Y106.284
X23.442Y106.257
X23.438Y106.229
X23.434Y106.202
X23.431Y106.174
X23.428Y106.146
X23.426Y106.118
X23.425Y106.091
X23.423Y106.063
X23.422Y106.007
X23.423Y105.979
Y105.951
X23.425Y105.923
X23.426Y105.896
X23.428Y105.868
X23.431Y105.84
X23.438Y105.785
X23.442Y105.757
X23.447Y105.73
X23.452Y105.703
X23.457Y105.675
X23.463Y105.648
X23.47Y105.621
X23.477Y105.594
X23.484Y105.567
X23.492Y105.54
X23.501Y105.514
X23.509Y105.487
X23.519Y105.461
X23.528Y105.435
X23.546Y105.392
X23.561Y105.355
X23.572Y105.332
X23.584Y105.307
X23.596Y105.282
X23.609Y105.257
X23.636Y105.209
X23.65Y105.185
X23.665Y105.161
X23.68Y105.137
X23.695Y105.114
X23.711Y105.091
X23.727Y105.069
X23.741Y105.05
X23.762Y105.023
X23.796Y104.981
X23.814Y104.959
X23.833Y104.939
X23.851Y104.918
X23.871Y104.898
X23.89Y104.878
X23.91Y104.858
X23.93Y104.839
X23.951Y104.821
X23.971Y104.802
X23.993Y104.784
X24.014Y104.766
X24.036Y104.749
X24.058Y104.732
X24.08Y104.715
X24.103Y104.699
X24.126Y104.683
X24.149Y104.668
X24.173Y104.653
X24.197Y104.638
X24.221Y104.624
X24.245Y104.611
X24.294Y104.584
X24.319Y104.572
X24.344Y104.56
X24.37Y104.548
X24.395Y104.537
X24.421Y104.527
X24.473Y104.507
X24.499Y104.497
X24.552Y104.48
X24.606Y104.465
X24.66Y104.451
G0Z1
X38.421Y105.816
G1Z-0.8F5
X38.472Y105.647F10
X38.556Y105.49
X38.667Y105.354
X38.804Y105.242
X38.96Y105.159
X39.129Y105.108
X39.305Y105.09
X39.481Y105.108
X39.65Y105.159
X39.806Y105.242
X39.942Y105.354
X40.054Y105.491
X40.137Y105.647
X40.189Y105.816
X40.206Y105.992
X40.189Y106.167
X40.137Y106.337
X40.054Y106.492
X39.942Y106.629
X39.806Y106.741
X39.65Y106.824
X39.481Y106.876
X39.305Y106.893
X39.129Y106.876
X38.96Y106.824
X38.804Y106.741
X38.667Y106.629
X38.555Y106.492
X38.472Y106.337
X38.421Y106.167
X38.403Y105.992
X38.421Y105.816
G0Z1
X54.307Y105.992
G1Z-0.8F5
X54.325Y105.816F10
X54.376Y105.647
X54.459Y105.491
X54.571Y105.354
X54.708Y105.242
X54.864Y105.159
X55.033Y105.108
X55.209Y105.09
X55.385Y105.108
X55.554Y105.159
X55.709Y105.242
X55.846Y105.354
X55.958Y105.491
X56.041Y105.647
X56.093Y105.816
X56.11Y105.992
X56.093Y106.167
X56.041Y106.337
X55.958Y106.492
X55.846Y106.629
X55.709Y106.741
X55.554Y106.824
X55.385Y106.876
X55.209Y106.893
X55.033Y106.876
X54.864Y106.824
X54.708Y106.741
X54.571Y106.629
X54.459Y106.492
X54.376Y106.337
X54.325Y106.167
X54.307Y105.992
G0Z1
X57.81Y98.066
G1Z-0.8F5
X31.356F10
X30.702Y98.072
X30.048Y98.088
X29.395Y98.116
X28.742Y98.154
X28.089Y98.203
X27.438Y98.263
X26.788Y98.333
X26.139Y98.415
X25.491Y98.507
X24.846Y98.61
X24.201Y98.724
X23.559Y98.848
X23.435Y98.875
X23.311Y98.903
X23.189Y98.934
X23.066Y98.967
X22.945Y99.002
X22.824Y99.039
X22.704Y99.078
X22.584Y99.119
X22.465Y99.162
X22.347Y99.207
X22.229Y99.255
X22.113Y99.304
X21.997Y99.355
X21.882Y99.409
X21.768Y99.464
X21.655Y99.521
X21.544Y99.581
X21.433Y99.642
X21.323Y99.705
X21.214Y99.77
X21.107Y99.837
X21.001Y99.905
X20.896Y99.976
X20.792Y100.048
X20.689Y100.122
X20.588Y100.198
X20.488Y100.276
X20.389Y100.355
X20.292Y100.436
X20.196Y100.519
X20.102Y100.604
X20.009Y100.69
X19.918Y100.777
X19.828Y100.866
X19.739Y100.957
X19.653Y101.049
X19.568Y101.143
X19.484Y101.238
X19.402Y101.335
X19.303Y101.457
X19.205Y101.581
X19.109Y101.706
X19.015Y101.834
X18.924Y101.962
X18.835Y102.093
X18.748Y102.225
X18.663Y102.358
X18.581Y102.493
X18.501Y102.629
X18.423Y102.766
X18.348Y102.905
X18.275Y103.045
X18.204Y103.187
X18.136Y103.329
X18.07Y103.473
X18.007Y103.618
X17.946Y103.763
X17.888Y103.91
X17.833Y104.058
X17.779Y104.207
X17.729Y104.356
X17.681Y104.507
X17.636Y104.658
X17.593Y104.81
X17.553Y104.963
X17.515Y105.116
X17.48Y105.27
X17.448Y105.425
X17.418Y105.58
X17.391Y105.736
X17.367Y105.892
X17.345Y106.048
X17.326Y106.205
X17.31Y106.362
X17.297Y106.52
X17.286Y106.677
X17.278Y106.835
X17.272Y106.993
X17.269Y107.151
Y107.309
X17.272Y107.467
X17.277Y107.624
X17.285Y107.782
X17.296Y107.94
X17.31Y108.097
X17.326Y108.254
X17.345Y108.411
X17.364Y108.554
X17.784Y111.445
X17.797Y111.521
X17.814Y111.597
X17.833Y111.672
X17.855Y111.746
X17.879Y111.819
X17.906Y111.893
X17.935Y111.964
X17.967Y112.035
X18.001Y112.104
X18.038Y112.173
X18.076Y112.239
X18.118Y112.305
X18.161Y112.369
X18.207Y112.432
X18.255Y112.493
X18.304Y112.552
X18.357Y112.609
X18.411Y112.665
X18.466Y112.718
X18.524Y112.77
X18.584Y112.82
X18.644Y112.867
X18.708Y112.913
X18.771Y112.956
X18.838Y112.997
X18.905Y113.035
X18.973Y113.072
X19.043Y113.106
X19.113Y113.137
X19.186Y113.166
X19.258Y113.192
X19.332Y113.216
X19.406Y113.238
X19.482Y113.256
X19.557Y113.272
X19.634Y113.286
X19.711Y113.297
X19.787Y113.305
X19.865Y113.31
X19.942Y113.313
X19.981
X25.032
X25.149Y113.312
X25.265Y113.309
X25.382Y113.304
X25.499Y113.297
X26.754Y113.207
X27.907Y113.142
X29.06Y113.096
X30.215Y113.068
X31.375Y113.059
X34.928
X34.966Y113.062
X35.005Y113.065
X35.043Y113.066
X35.081
X63.081
X63.121
X63.16Y113.064
X63.2Y113.062
X63.24Y113.058
X63.279Y113.054
X63.318Y113.049
X63.358Y113.042
X63.397Y113.035
X63.436Y113.026
X63.475Y113.017
X63.513Y113.007
X63.551Y112.995
X63.589Y112.983
X63.626Y112.97
X63.664Y112.956
X63.7Y112.941
X63.737Y112.925
X63.773Y112.908
X63.808Y112.89
X63.844Y112.872
X63.878Y112.852
X63.913Y112.831
X63.947Y112.81
X63.981Y112.787
X64.014Y112.764
X64.047Y112.74
X64.079Y112.715
X64.11Y112.689
X64.125Y112.676
X64.154Y112.65
X64.176Y112.629
X64.198Y112.608
X64.226Y112.58
X64.254Y112.551
X64.286Y112.515
X64.317Y112.478
X64.338Y112.45
X64.36Y112.422
X64.38Y112.394
X64.401Y112.364
X64.42Y112.335
X64.439Y112.304
X64.456Y112.276
X64.472Y112.248
X64.488Y112.219
X64.507Y112.181
X64.525Y112.144
X64.538Y112.114
X64.551Y112.085
X64.567Y112.044
X64.575Y112.022
X64.589Y111.982
X64.602Y111.941
X64.614Y111.899
X64.626Y111.857
X64.635Y111.814
X64.644Y111.774
X64.651Y111.733
X64.658Y111.682
X64.665Y111.626
X64.668Y111.592
X64.67Y111.559
X64.671Y111.525
X64.672Y111.475
Y111.243
X64.686Y111.158
X64.696Y111.08
X64.704Y111.003
X64.708Y110.926
X64.71Y110.833
Y99.999
Y99.96
X64.708Y99.921
X64.706Y99.881
X64.702Y99.842
X64.698Y99.803
X64.692Y99.764
X64.686Y99.725
X64.679Y99.686
X64.672Y99.653
X64.671Y99.61
X64.668Y99.567
X64.665Y99.524
X64.66Y99.481
X64.654Y99.439
X64.647Y99.396
X64.639Y99.354
X64.63Y99.312
X64.619Y99.27
X64.61Y99.235
X64.6Y99.201
X64.589Y99.167
X64.577Y99.133
X64.564Y99.099
X64.547Y99.058
X64.529Y99.017
X64.51Y98.977
X64.488Y98.933
X64.472Y98.904
X64.455Y98.874
X64.434Y98.838
X64.411Y98.802
X64.389Y98.77
X64.367Y98.739
X64.344Y98.708
X64.32Y98.678
X64.296Y98.648
X64.27Y98.619
X64.244Y98.59
X64.218Y98.562
X64.191Y98.535
X64.163Y98.509
X64.134Y98.483
X64.105Y98.458
X64.075Y98.433
X64.045Y98.409
X64.014Y98.386
X63.982Y98.364
X63.95Y98.343
X63.917Y98.322
X63.884Y98.302
X63.851Y98.283
X63.816Y98.265
X63.782Y98.247
X63.747Y98.231
X63.713Y98.215
X63.677Y98.201
X63.642Y98.187
X63.606Y98.174
X63.57Y98.161
X63.533Y98.15
X63.496Y98.14
X63.459Y98.13
X63.422Y98.121
X63.385Y98.114
X63.347Y98.107
X63.309Y98.101
X63.272Y98.096
X63.234Y98.092
X63.195Y98.089
X63.157Y98.086
X63.119Y98.085
X63.081Y98.084
X59.145
X58.555Y98.071
X57.81Y98.066
G0Z1
X24.66Y104.451
G1Z-0.9F5
X24.687Y104.445F10
X24.714Y104.44
X24.742Y104.435
X24.769Y104.43
X24.797Y104.426
X24.824Y104.422
X24.852Y104.419
X24.88Y104.416
X24.908Y104.414
X24.936Y104.413
X24.963Y104.411
X24.991
X25.019Y104.41
X25.047Y104.411
X25.075
X25.102Y104.413
X25.131Y104.414
X25.158Y104.416
X25.186Y104.419
X25.214Y104.422
X25.241Y104.426
X25.269Y104.43
X25.296Y104.435
X25.324Y104.44
X25.351Y104.445
X25.378Y104.451
X25.405Y104.458
X25.432Y104.465
X25.459Y104.472
X25.486Y104.48
X25.512Y104.488
X25.539Y104.497
X25.565Y104.507
X25.591Y104.516
X25.617Y104.527
X25.643Y104.537
X25.668Y104.548
X25.694Y104.56
X25.719Y104.572
X25.744Y104.584
X25.769Y104.597
X25.793Y104.611
X25.817Y104.624
X25.841Y104.638
X25.865Y104.653
X25.889Y104.668
X25.912Y104.683
X25.935Y104.699
X25.958Y104.715
X25.98Y104.732
X26.002Y104.749
X26.024Y104.766
X26.045Y104.784
X26.067Y104.802
X26.088Y104.821
X26.108Y104.839
X26.128Y104.858
X26.168Y104.898
X26.187Y104.918
X26.206Y104.939
X26.224Y104.959
X26.242Y104.981
X26.26Y105.002
X26.277Y105.024
X26.294Y105.046
X26.311Y105.069
X26.327Y105.091
X26.343Y105.114
X26.358Y105.137
X26.373Y105.161
X26.388Y105.185
X26.402Y105.209
X26.415Y105.233
X26.429Y105.257
X26.442Y105.282
X26.454Y105.307
X26.466Y105.332
X26.478Y105.358
X26.489Y105.383
X26.499Y105.409
X26.51Y105.435
X26.519Y105.461
X26.529Y105.487
X26.538Y105.514
X26.546Y105.54
X26.561Y105.594
X26.568Y105.621
X26.575Y105.648
X26.581Y105.675
X26.586Y105.702
X26.591Y105.73
X26.596Y105.757
X26.6Y105.785
X26.604Y105.812
X26.607Y105.84
X26.61Y105.868
X26.612Y105.896
X26.614Y105.923
X26.615Y105.951
Y105.979
X26.616Y106.007
X26.615Y106.035
Y106.063
X26.614Y106.091
X26.612Y106.118
X26.61Y106.146
X26.607Y106.174
X26.604Y106.202
X26.6Y106.229
X26.596Y106.257
X26.591Y106.284
X26.586Y106.312
X26.581Y106.339
X26.575Y106.366
X26.568Y106.393
X26.561Y106.42
X26.554Y106.447
X26.546Y106.474
X26.538Y106.5
X26.529Y106.527
X26.519Y106.553
X26.51Y106.579
X26.499Y106.605
X26.489Y106.631
X26.478Y106.656
X26.466Y106.682
X26.454Y106.707
X26.442Y106.732
X26.429Y106.757
X26.415Y106.781
X26.402Y106.805
X26.388Y106.829
X26.373Y106.853
X26.358Y106.876
X26.343Y106.9
X26.327Y106.923
X26.311Y106.945
X26.294Y106.968
X26.277Y106.99
X26.26Y107.012
X26.242Y107.033
X26.224Y107.055
X26.206Y107.075
X26.187Y107.096
X26.168Y107.116
X26.148Y107.136
X26.128Y107.156
X26.108Y107.175
X26.087Y107.194
X26.067Y107.212
X26.045Y107.23
X26.024Y107.248
X26.002Y107.265
X25.98Y107.282
X25.958Y107.299
X25.935Y107.315
X25.912Y107.331
X25.889Y107.346
X25.865Y107.361
X25.842Y107.376
X25.817Y107.39
X25.793Y107.404
X25.769Y107.417
X25.744Y107.43
X25.719Y107.442
X25.694Y107.454
X25.668Y107.466
X25.643Y107.477
X25.617Y107.487
X25.591Y107.498
X25.565Y107.507
X25.539Y107.517
X25.512Y107.526
X25.486Y107.534
X25.459Y107.542
X25.432Y107.549
X25.405Y107.556
X25.378Y107.563
X25.351Y107.569
X25.324Y107.574
X25.296Y107.579
X25.269Y107.584
X25.241Y107.588
X25.214Y107.592
X25.186Y107.595
X25.158Y107.598
X25.13Y107.6
X25.103Y107.601
X25.075Y107.603
X25.047
X25.019Y107.604
X24.991Y107.603
X24.963
X24.936Y107.601
X24.908Y107.6
X24.88Y107.598
X24.852Y107.595
X24.824Y107.592
X24.797Y107.588
X24.769Y107.584
X24.742Y107.579
X24.714Y107.574
X24.687Y107.569
X24.66Y107.563
X24.633Y107.556
X24.606Y107.549
X24.579Y107.542
X24.552Y107.534
X24.526Y107.526
X24.499Y107.517
X24.473Y107.507
X24.447Y107.498
X24.421Y107.487
X24.395Y107.477
X24.37Y107.466
X24.344Y107.454
X24.319Y107.442
X24.294Y107.43
X24.269Y107.417
X24.245Y107.404
X24.221Y107.39
X24.197Y107.376
X24.173Y107.361
X24.15Y107.346
X24.126Y107.331
X24.103Y107.315
X24.08Y107.299
X24.058Y107.282
X24.036Y107.265
X24.014Y107.248
X23.993Y107.23
X23.971Y107.212
X23.951Y107.194
X23.93Y107.175
X23.91Y107.155
X23.89Y107.136
X23.871Y107.116
X23.851Y107.096
X23.833Y107.075
X23.814Y107.055
X23.796Y107.033
X23.778Y107.012
X23.761Y106.99
X23.744Y106.968
X23.727Y106.945
X23.711Y106.923
X23.695Y106.9
X23.68Y106.876
X23.665Y106.853
X23.651Y106.829
X23.623Y106.781
X23.609Y106.757
X23.596Y106.731
X23.584Y106.707
X23.572Y106.682
X23.56Y106.656
X23.549Y106.631
X23.539Y106.605
X23.528Y106.579
X23.519Y106.553
X23.509Y106.527
X23.501Y106.5
X23.492Y106.474
X23.484Y106.447
X23.477Y106.42
X23.47Y106.393
X23.463Y106.366
X23.457Y106.339
X23.452Y106.312
X23.447Y106.284
X23.442Y106.257
X23.438Y106.229
X23.434Y106.202
X23.431Y106.174
X23.428Y106.146
X23.426Y106.118
X23.425Y106.091
X23.423Y106.063
X23.422Y106.007
X23.423Y105.979
Y105.951
X23.425Y105.923
X23.426Y105.896
X23.428Y105.868
X23.431Y105.84
X23.438Y105.785
X23.442Y105.757
X23.447Y105.73
X23.452Y105.703
X23.457Y105.675
X23.463Y105.648
X23.47Y105.621
X23.477Y105.594
X23.484Y105.567
X23.492Y105.54
X23.501Y105.514
X23.509Y105.487
X23.519Y105.461
X23.528Y105.435
X23.546Y105.392
X23.561Y105.355
X23.572Y105.332
X23.584Y105.307
X23.596Y105.282
X23.609Y105.257
X23.636Y105.209
X23.65Y105.185
X23.665Y105.161
X23.68Y105.137
X23.695Y105.114
X23.711Y105.091
X23.727Y105.069
X23.741Y105.05
X23.762Y105.023
X23.796Y104.981
X23.814Y104.959
X23.833Y104.939
X23.851Y104.918
X23.871Y104.898
X23.89Y104.878
X23.91Y104.858
X23.93Y104.839
X23.951Y104.821
X23.971Y104.802
X23.993Y104.784
X24.014Y104.766
X24.036Y104.749
X24.058Y104.732
X24.08Y104.715
X24.103Y104.699
X24.126Y104.683
X24.149Y104.668
X24.173Y104.653
X24.197Y104.638
X24.221Y104.624
X24.245Y104.611
X24.294Y104.584
X24.319Y104.572
X24.344Y104.56
X24.37Y104.548
X24.395Y104.537
X24.421Y104.527
X24.473Y104.507
X24.499Y104.497
X24.552Y104.48
X24.606Y104.465
X24.66Y104.451
G0Z1
X38.421Y105.816
G1Z-0.9F5
X38.472Y105.647F10
X38.556Y105.49
X38.667Y105.354
X38.804Y105.242
X38.96Y105.159
X39.129Y105.108
X39.305Y105.09
X39.481Y105.108
X39.65Y105.159
X39.806Y105.242
X39.942Y105.354
X40.054Y105.491
X40.137Y105.647
X40.189Y105.816
X40.206Y105.992
X40.189Y106.167
X40.137Y106.337
X40.054Y106.492
X39.942Y106.629
X39.806Y106.741
X39.65Y106.824
X39.481Y106.876
X39.305Y106.893
X39.129Y106.876
X38.96Y106.824
X38.804Y106.741
X38.667Y106.629
X38.555Y106.492
X38.472Y106.337
X38.421Y106.167
X38.403Y105.992
X38.421Y105.816
G0Z1
X54.307Y105.992
G1Z-0.9F5
X54.325Y105.816F10
X54.376Y105.647
X54.459Y105.491
X54.571Y105.354
X54.708Y105.242
X54.864Y105.159
X55.033Y105.108
X55.209Y105.09
X55.385Y105.108
X55.554Y105.159
X55.709Y105.242
X55.846Y105.354
X55.958Y105.491
X56.041Y105.647
X56.093Y105.816
X56.11Y105.992
X56.093Y106.167
X56.041Y106.337
X55.958Y106.492
X55.846Y106.629
X55.709Y106.741
X55.554Y106.824
X55.385Y106.876
X55.209Y106.893
X55.033Y106.876
X54.864Y106.824
X54.708Y106.741
X54.571Y106.629
X54.459Y106.492
X54.376Y106.337
X54.325Y106.167
X54.307Y105.992
G0Z1
X57.81Y98.066
G1Z-0.9F5
X31.356F10
X30.702Y98.072
X30.048Y98.088
X29.395Y98.116
X28.742Y98.154
X28.089Y98.203
X27.438Y98.263
X26.788Y98.333
X26.139Y98.415
X25.491Y98.507
X24.846Y98.61
X24.201Y98.724
X23.559Y98.848
X23.435Y98.875
X23.311Y98.903
X23.189Y98.934
X23.066Y98.967
X22.945Y99.002
X22.824Y99.039
X22.704Y99.078
X22.584Y99.119
X22.465Y99.162
X22.347Y99.207
X22.229Y99.255
X22.113Y99.304
X21.997Y99.355
X21.882Y99.409
X21.768Y99.464
X21.655Y99.521
X21.544Y99.581
X21.433Y99.642
X21.323Y99.705
X21.214Y99.77
X21.107Y99.837
X21.001Y99.905
X20.896Y99.976
X20.792Y100.048
X20.689Y100.122
X20.588Y100.198
X20.488Y100.276
X20.389Y100.355
X20.292Y100.436
X20.196Y100.519
X20.102Y100.604
X20.009Y100.69
X19.918Y100.777
X19.828Y100.866
X19.739Y100.957
X19.653Y101.049
X19.568Y101.143
X19.484Y101.238
X19.402Y101.335
X19.303Y101.457
X19.205Y101.581
X19.109Y101.706
X19.015Y101.834
X18.924Y101.962
X18.835Y102.093
X18.748Y102.225
X18.663Y102.358
X18.581Y102.493
X18.501Y102.629
X18.423Y102.766
X18.348Y102.905
X18.275Y103.045
X18.204Y103.187
X18.136Y103.329
X18.07Y103.473
X18.007Y103.618
X17.946Y103.763
X17.888Y103.91
X17.833Y104.058
X17.779Y104.207
X17.729Y104.356
X17.681Y104.507
X17.636Y104.658
X17.593Y104.81
X17.553Y104.963
X17.515Y105.116
X17.48Y105.27
X17.448Y105.425
X17.418Y105.58
X17.391Y105.736
X17.367Y105.892
X17.345Y106.048
X17.326Y106.205
X17.31Y106.362
X17.297Y106.52
X17.286Y106.677
X17.278Y106.835
X17.272Y106.993
X17.269Y107.151
Y107.309
X17.272Y107.467
X17.277Y107.624
X17.285Y107.782
X17.296Y107.94
X17.31Y108.097
X17.326Y108.254
X17.345Y108.411
X17.364Y108.554
X17.784Y111.445
X17.797Y111.521
X17.814Y111.597
X17.833Y111.672
X17.855Y111.746
X17.879Y111.819
X17.906Y111.893
X17.935Y111.964
X17.967Y112.035
X18.001Y112.104
X18.038Y112.173
X18.076Y112.239
X18.118Y112.305
X18.161Y112.369
X18.207Y112.432
X18.255Y112.493
X18.304Y112.552
X18.357Y112.609
X18.411Y112.665
X18.466Y112.718
X18.524Y112.77
X18.584Y112.82
X18.644Y112.867
X18.708Y112.913
X18.771Y112.956
X18.838Y112.997
X18.905Y113.035
X18.973Y113.072
X19.043Y113.106
X19.113Y113.137
X19.186Y113.166
X19.258Y113.192
X19.332Y113.216
X19.406Y113.238
X19.482Y113.256
X19.557Y113.272
X19.634Y113.286
X19.711Y113.297
X19.787Y113.305
X19.865Y113.31
X19.942Y113.313
X19.981
X25.032
X25.149Y113.312
X25.265Y113.309
X25.382Y113.304
X25.499Y113.297
X26.754Y113.207
X27.907Y113.142
X29.06Y113.096
X30.215Y113.068
X31.375Y113.059
X34.928
X34.966Y113.062
X35.005Y113.065
X35.043Y113.066
X35.081
X63.081
X63.121
X63.16Y113.064
X63.2Y113.062
X63.24Y113.058
X63.279Y113.054
X63.318Y113.049
X63.358Y113.042
X63.397Y113.035
X63.436Y113.026
X63.475Y113.017
X63.513Y113.007
X63.551Y112.995
X63.589Y112.983
X63.626Y112.97
X63.664Y112.956
X63.7Y112.941
X63.737Y112.925
X63.773Y112.908
X63.808Y112.89
X63.844Y112.872
X63.878Y112.852
X63.913Y112.831
X63.947Y112.81
X63.981Y112.787
X64.014Y112.764
X64.047Y112.74
X64.079Y112.715
X64.11Y112.689
X64.125Y112.676
X64.154Y112.65
X64.176Y112.629
X64.198Y112.608
X64.226Y112.58
X64.254Y112.551
X64.286Y112.515
X64.317Y112.478
X64.338Y112.45
X64.36Y112.422
X64.38Y112.394
X64.401Y112.364
X64.42Y112.335
X64.439Y112.304
X64.456Y112.276
X64.472Y112.248
X64.488Y112.219
X64.507Y112.181
X64.525Y112.144
X64.538Y112.114
X64.551Y112.085
X64.567Y112.044
X64.575Y112.022
X64.589Y111.982
X64.602Y111.941
X64.614Y111.899
X64.626Y111.857
X64.635Y111.814
X64.644Y111.774
X64.651Y111.733
X64.658Y111.682
X64.665Y111.626
X64.668Y111.592
X64.67Y111.559
X64.671Y111.525
X64.672Y111.475
Y111.243
X64.686Y111.158
X64.696Y111.08
X64.704Y111.003
X64.708Y110.926
X64.71Y110.833
Y99.999
Y99.96
X64.708Y99.921
X64.706Y99.881
X64.702Y99.842
X64.698Y99.803
X64.692Y99.764
X64.686Y99.725
X64.679Y99.686
X64.672Y99.653
