(Created with grbl post processor 2025/01/01 01:17)
G21
(G-code generated with BlenderCAM and NC library)
G17G90
(Tool: D = 3.18 mm  type END flutes 2)
S1000M03
G00 Z1.0

G0X0Y0Z1
X241.562Y73.276
G1Z-0.1F15
X241.926Y72.074F30
X242.518Y70.967
X243.314Y69.997
X244.285Y69.201
X245.392Y68.609
X246.593Y68.245
X247.842Y68.122
X249.091Y68.245
X250.293Y68.609
X251.4Y69.201
X252.37Y69.997
X253.166Y70.967
X253.758Y72.075
X254.122Y73.276
X254.245Y74.525
X254.122Y75.774
X253.758Y76.975
X253.166Y78.082
X252.37Y79.053
X251.399Y79.849
X250.292Y80.441
X249.091Y80.805
X247.842Y80.928
X246.593Y80.805
X245.392Y80.441
X244.285Y79.849
X243.314Y79.053
X242.518Y78.082
X241.926Y76.975
X241.562Y75.774
X241.439Y74.525
X241.562Y73.276
Z-0.2F15
X241.926Y72.074F30
X242.518Y70.967
X243.314Y69.997
X244.285Y69.201
X245.392Y68.609
X246.593Y68.245
X247.842Y68.122
X249.091Y68.245
X250.293Y68.609
X251.4Y69.201
X252.37Y69.997
X253.166Y70.967
X253.758Y72.075
X254.122Y73.276
X254.245Y74.525
X254.122Y75.774
X253.758Y76.975
X253.166Y78.082
X252.37Y79.053
X251.399Y79.849
X250.292Y80.441
X249.091Y80.805
X247.842Y80.928
X246.593Y80.805
X245.392Y80.441
X244.285Y79.849
X243.314Y79.053
X242.518Y78.082
X241.926Y76.975
X241.562Y75.774
X241.439Y74.525
X241.562Y73.276
Z-0.3F15
X241.926Y72.074F30
X242.518Y70.967
X243.314Y69.997
X244.285Y69.201
X245.392Y68.609
X246.593Y68.245
X247.842Y68.122
X249.091Y68.245
X250.293Y68.609
X251.4Y69.201
X252.37Y69.997
X253.166Y70.967
X253.758Y72.075
X254.122Y73.276
X254.245Y74.525
X254.122Y75.774
X253.758Y76.975
X253.166Y78.082
X252.37Y79.053
X251.399Y79.849
X250.292Y80.441
X249.091Y80.805
X247.842Y80.928
X246.593Y80.805
X245.392Y80.441
X244.285Y79.849
X243.314Y79.053
X242.518Y78.082
X241.926Y76.975
X241.562Y75.774
X241.439Y74.525
X241.562Y73.276
Z-0.4F15
X241.926Y72.074F30
X242.518Y70.967
X243.314Y69.997
X244.285Y69.201
X245.392Y68.609
X246.593Y68.245
X247.842Y68.122
X249.091Y68.245
X250.293Y68.609
X251.4Y69.201
X252.37Y69.997
X253.166Y70.967
X253.758Y72.075
X254.122Y73.276
X254.245Y74.525
X254.122Y75.774
X253.758Y76.975
X253.166Y78.082
X252.37Y79.053
X251.399Y79.849
X250.292Y80.441
X249.091Y80.805
X247.842Y80.928
X246.593Y80.805
X245.392Y80.441
X244.285Y79.849
X243.314Y79.053
X242.518Y78.082
X241.926Y76.975
X241.562Y75.774
X241.439Y74.525
X241.562Y73.276
Z-0.5F15
X241.926Y72.074F30
X242.518Y70.967
X243.314Y69.997
X244.285Y69.201
X245.392Y68.609
X246.593Y68.245
X247.842Y68.122
X249.091Y68.245
X250.293Y68.609
X251.4Y69.201
X252.37Y69.997
X253.166Y70.967
X253.758Y72.075
X254.122Y73.276
X254.245Y74.525
X254.122Y75.774
X253.758Y76.975
X253.166Y78.082
X252.37Y79.053
X251.399Y79.849
X250.292Y80.441
X249.091Y80.805
X247.842Y80.928
X246.593Y80.805
X245.392Y80.441
X244.285Y79.849
X243.314Y79.053
X242.518Y78.082
X241.926Y76.975
X241.562Y75.774
X241.439Y74.525
X241.562Y73.276
Z-0.6F15
X241.926Y72.074F30
X242.518Y70.967
X243.314Y69.997
X244.285Y69.201
X245.392Y68.609
X246.593Y68.245
X247.842Y68.122
X249.091Y68.245
X250.293Y68.609
X251.4Y69.201
X252.37Y69.997
X253.166Y70.967
X253.758Y72.075
X254.122Y73.276
X254.245Y74.525
X254.122Y75.774
X253.758Y76.975
X253.166Y78.082
X252.37Y79.053
X251.399Y79.849
X250.292Y80.441
X249.091Y80.805
X247.842Y80.928
X246.593Y80.805
X245.392Y80.441
X244.285Y79.849
X243.314Y79.053
X242.518Y78.082
X241.926Y76.975
X241.562Y75.774
X241.439Y74.525
X241.562Y73.276
Z-0.7F15
X241.926Y72.074F30
X242.518Y70.967
X243.314Y69.997
X244.285Y69.201
X245.392Y68.609
X246.593Y68.245
X247.842Y68.122
X249.091Y68.245
X250.293Y68.609
X251.4Y69.201
X252.37Y69.997
X253.166Y70.967
X253.758Y72.075
X254.122Y73.276
X254.245Y74.525
X254.122Y75.774
X253.758Y76.975
X253.166Y78.082
X252.37Y79.053
X251.399Y79.849
X250.292Y80.441
X249.091Y80.805
X247.842Y80.928
X246.593Y80.805
X245.392Y80.441
X244.285Y79.849
X243.314Y79.053
X242.518Y78.082
X241.926Y76.975
X241.562Y75.774
X241.439Y74.525
X241.562Y73.276
Z-0.8F15
X241.926Y72.074F30
X242.518Y70.967
X243.314Y69.997
X244.285Y69.201
X245.392Y68.609
X246.593Y68.245
X247.842Y68.122
X249.091Y68.245
X250.293Y68.609
X251.4Y69.201
X252.37Y69.997
X253.166Y70.967
X253.758Y72.075
X254.122Y73.276
X254.245Y74.525
X254.122Y75.774
X253.758Y76.975
X253.166Y78.082
X252.37Y79.053
X251.399Y79.849
X250.292Y80.441
X249.091Y80.805
X247.842Y80.928
X246.593Y80.805
X245.392Y80.441
X244.285Y79.849
X243.314Y79.053
X242.518Y78.082
X241.926Y76.975
X241.562Y75.774
X241.439Y74.525
X241.562Y73.276
Z-0.9F15
X241.926Y72.074F30
X242.518Y70.967
X243.314Y69.997
X244.285Y69.201
X245.392Y68.609
X246.593Y68.245
X247.842Y68.122
X249.091Y68.245
X250.293Y68.609
X251.4Y69.201
X252.37Y69.997
X253.166Y70.967
X253.758Y72.075
X254.122Y73.276
X254.245Y74.525
X254.122Y75.774
X253.758Y76.975
X253.166Y78.082
X252.37Y79.053
X251.399Y79.849
X250.292Y80.441
X249.091Y80.805
X247.842Y80.928
X246.593Y80.805
X245.392Y80.441
X244.285Y79.849
X243.314Y79.053
X242.518Y78.082
X241.926Y76.975
X241.562Y75.774
X241.439Y74.525
X241.562Y73.276
Z-1F15
X241.926Y72.074F30
X242.518Y70.967
X243.314Y69.997
X244.285Y69.201
X245.392Y68.609
X246.593Y68.245
X247.842Y68.122
X249.091Y68.245
X250.293Y68.609
X251.4Y69.201
X252.37Y69.997
X253.166Y70.967
X253.758Y72.075
X254.122Y73.276
X254.245Y74.525
X254.122Y75.774
X253.758Y76.975
X253.166Y78.082
X252.37Y79.053
X251.399Y79.849
X250.292Y80.441
X249.091Y80.805
X247.842Y80.928
X246.593Y80.805
X245.392Y80.441
X244.285Y79.849
X243.314Y79.053
X242.518Y78.082
X241.926Y76.975
X241.562Y75.774
X241.439Y74.525
X241.562Y73.276
Z-1.1F15
X241.926Y72.074F30
X242.518Y70.967
X243.314Y69.997
X244.285Y69.201
X245.392Y68.609
X246.593Y68.245
X247.842Y68.122
X249.091Y68.245
X250.293Y68.609
X251.4Y69.201
X252.37Y69.997
X253.166Y70.967
X253.758Y72.075
X254.122Y73.276
X254.245Y74.525
X254.122Y75.774
X253.758Y76.975
X253.166Y78.082
X252.37Y79.053
X251.399Y79.849
X250.292Y80.441
X249.091Y80.805
X247.842Y80.928
X246.593Y80.805
X245.392Y80.441
X244.285Y79.849
X243.314Y79.053
X242.518Y78.082
X241.926Y76.975
X241.562Y75.774
X241.439Y74.525
X241.562Y73.276
Z-1.2F15
X241.926Y72.074F30
X242.518Y70.967
X243.314Y69.997
X244.285Y69.201
X245.392Y68.609
X246.593Y68.245
X247.842Y68.122
X249.091Y68.245
X250.293Y68.609
X251.4Y69.201
X252.37Y69.997
X253.166Y70.967
X253.758Y72.075
X254.122Y73.276
X254.245Y74.525
X254.122Y75.774
X253.758Y76.975
X253.166Y78.082
X252.37Y79.053
X251.399Y79.849
X250.292Y80.441
X249.091Y80.805
X247.842Y80.928
X246.593Y80.805
X245.392Y80.441
X244.285Y79.849
X243.314Y79.053
X242.518Y78.082
X241.926Y76.975
X241.562Y75.774
X241.439Y74.525
X241.562Y73.276
Z-1.3F15
X241.926Y72.074F30
X242.518Y70.967
X243.314Y69.997
X244.285Y69.201
X245.392Y68.609
X246.593Y68.245
X247.842Y68.122
X249.091Y68.245
X250.293Y68.609
X251.4Y69.201
X252.37Y69.997
X253.166Y70.967
X253.758Y72.075
X254.122Y73.276
X254.245Y74.525
X254.122Y75.774
X253.758Y76.975
X253.166Y78.082
X252.37Y79.053
X251.399Y79.849
X250.292Y80.441
X249.091Y80.805
X247.842Y80.928
X246.593Y80.805
X245.392Y80.441
X244.285Y79.849
X243.314Y79.053
X242.518Y78.082
X241.926Y76.975
X241.562Y75.774
X241.439Y74.525
X241.562Y73.276
Z-1.4F15
X241.926Y72.074F30
X242.518Y70.967
X243.314Y69.997
X244.285Y69.201
X245.392Y68.609
X246.593Y68.245
X247.842Y68.122
X249.091Y68.245
X250.293Y68.609
X251.4Y69.201
X252.37Y69.997
X253.166Y70.967
X253.758Y72.075
X254.122Y73.276
X254.245Y74.525
X254.122Y75.774
X253.758Y76.975
X253.166Y78.082
X252.37Y79.053
X251.399Y79.849
X250.292Y80.441
X249.091Y80.805
X247.842Y80.928
X246.593Y80.805
X245.392Y80.441
X244.285Y79.849
X243.314Y79.053
X242.518Y78.082
X241.926Y76.975
X241.562Y75.774
X241.439Y74.525
X241.562Y73.276
Z-1.5F15
X241.926Y72.074F30
X242.518Y70.967
X243.314Y69.997
X244.285Y69.201
X245.392Y68.609
X246.593Y68.245
X247.842Y68.122
X249.091Y68.245
X250.293Y68.609
X251.4Y69.201
X252.37Y69.997
X253.166Y70.967
X253.758Y72.075
X254.122Y73.276
X254.245Y74.525
X254.122Y75.774
X253.758Y76.975
X253.166Y78.082
X252.37Y79.053
X251.399Y79.849
X250.292Y80.441
X249.091Y80.805
X247.842Y80.928
X246.593Y80.805
X245.392Y80.441
X244.285Y79.849
X243.314Y79.053
X242.518Y78.082
X241.926Y76.975
X241.562Y75.774
X241.439Y74.525
X241.562Y73.276
Z-1.6F15
X241.926Y72.074F30
X242.518Y70.967
X243.314Y69.997
X244.285Y69.201
X245.392Y68.609
X246.593Y68.245
X247.842Y68.122
X249.091Y68.245
X250.293Y68.609
X251.4Y69.201
X252.37Y69.997
X253.166Y70.967
X253.758Y72.075
X254.122Y73.276
X254.245Y74.525
X254.122Y75.774
X253.758Y76.975
X253.166Y78.082
X252.37Y79.053
X251.399Y79.849
X250.292Y80.441
X249.091Y80.805
X247.842Y80.928
X246.593Y80.805
X245.392Y80.441
X244.285Y79.849
X243.314Y79.053
X242.518Y78.082
X241.926Y76.975
X241.562Y75.774
X241.439Y74.525
X241.562Y73.276
Z-1.7F15
X241.926Y72.074F30
X242.518Y70.967
X243.314Y69.997
X244.285Y69.201
X245.392Y68.609
X246.593Y68.245
X247.842Y68.122
X249.091Y68.245
X250.293Y68.609
X251.4Y69.201
X252.37Y69.997
X253.166Y70.967
X253.758Y72.075
X254.122Y73.276
X254.245Y74.525
X254.122Y75.774
X253.758Y76.975
X253.166Y78.082
X252.37Y79.053
X251.399Y79.849
X250.292Y80.441
X249.091Y80.805
X247.842Y80.928
X246.593Y80.805
X245.392Y80.441
X244.285Y79.849
X243.314Y79.053
X242.518Y78.082
X241.926Y76.975
X241.562Y75.774
X241.439Y74.525
X241.562Y73.276
Z-1.8F15
X241.926Y72.074F30
X242.518Y70.967
X243.314Y69.997
X244.285Y69.201
X245.392Y68.609
X246.593Y68.245
X247.842Y68.122
X249.091Y68.245
X250.293Y68.609
X251.4Y69.201
X252.37Y69.997
X253.166Y70.967
X253.758Y72.075
X254.122Y73.276
X254.245Y74.525
X254.122Y75.774
X253.758Y76.975
X253.166Y78.082
X252.37Y79.053
X251.399Y79.849
X250.292Y80.441
X249.091Y80.805
X247.842Y80.928
X246.593Y80.805
X245.392Y80.441
X244.285Y79.849
X243.314Y79.053
X242.518Y78.082
X241.926Y76.975
X241.562Y75.774
X241.439Y74.525
X241.562Y73.276
Z-1.9F15
X241.926Y72.074F30
X242.518Y70.967
X243.314Y69.997
X244.285Y69.201
X245.392Y68.609
X246.593Y68.245
X247.842Y68.122
X249.091Y68.245
X250.293Y68.609
X251.4Y69.201
X252.37Y69.997
X253.166Y70.967
X253.758Y72.075
X254.122Y73.276
X254.245Y74.525
X254.122Y75.774
X253.758Y76.975
X253.166Y78.082
X252.37Y79.053
X251.399Y79.849
X250.292Y80.441
X249.091Y80.805
X247.842Y80.928
X246.593Y80.805
X245.392Y80.441
X244.285Y79.849
X243.314Y79.053
X242.518Y78.082
X241.926Y76.975
X241.562Y75.774
X241.439Y74.525
X241.562Y73.276
Z-2F15
X241.926Y72.074F30
X242.518Y70.967
X243.314Y69.997
X244.285Y69.201
X245.392Y68.609
X246.593Y68.245
X247.842Y68.122
X249.091Y68.245
X250.293Y68.609
X251.4Y69.201
X252.37Y69.997
X253.166Y70.967
X253.758Y72.075
X254.122Y73.276
X254.245Y74.525
X254.122Y75.774
X253.758Y76.975
X253.166Y78.082
X252.37Y79.053
X251.399Y79.849
X250.292Y80.441
X249.091Y80.805
X247.842Y80.928
X246.593Y80.805
X245.392Y80.441
X244.285Y79.849
X243.314Y79.053
X242.518Y78.082
X241.926Y76.975
X241.562Y75.774
X241.439Y74.525
X241.562Y73.276
Z-2.1F15
X241.926Y72.074F30
X242.518Y70.967
X243.314Y69.997
X244.285Y69.201
X245.392Y68.609
X246.593Y68.245
X247.842Y68.122
X249.091Y68.245
X250.293Y68.609
X251.4Y69.201
X252.37Y69.997
X253.166Y70.967
X253.758Y72.075
X254.122Y73.276
X254.245Y74.525
X254.122Y75.774
X253.758Y76.975
X253.166Y78.082
X252.37Y79.053
X251.399Y79.849
X250.292Y80.441
X249.091Y80.805
X247.842Y80.928
X246.593Y80.805
X245.392Y80.441
X244.285Y79.849
X243.314Y79.053
X242.518Y78.082
X241.926Y76.975
X241.562Y75.774
X241.439Y74.525
X241.562Y73.276
Z-2.2F15
X241.926Y72.074F30
X242.518Y70.967
X243.314Y69.997
X244.285Y69.201
X245.392Y68.609
X246.593Y68.245
X247.842Y68.122
X249.091Y68.245
X250.293Y68.609
X251.4Y69.201
X252.37Y69.997
X253.166Y70.967
X253.758Y72.075
X254.122Y73.276
X254.245Y74.525
X254.122Y75.774
X253.758Y76.975
X253.166Y78.082
X252.37Y79.053
X251.399Y79.849
X250.292Y80.441
X249.091Y80.805
X247.842Y80.928
X246.593Y80.805
X245.392Y80.441
X244.285Y79.849
X243.314Y79.053
X242.518Y78.082
X241.926Y76.975
X241.562Y75.774
X241.439Y74.525
X241.562Y73.276
Z-2.3F15
X241.926Y72.074F30
X242.518Y70.967
X243.314Y69.997
X244.285Y69.201
X245.392Y68.609
X246.593Y68.245
X247.842Y68.122
X249.091Y68.245
X250.293Y68.609
X251.4Y69.201
X252.37Y69.997
X253.166Y70.967
X253.758Y72.075
X254.122Y73.276
X254.245Y74.525
X254.122Y75.774
X253.758Y76.975
X253.166Y78.082
X252.37Y79.053
X251.399Y79.849
X250.292Y80.441
X249.091Y80.805
X247.842Y80.928
X246.593Y80.805
X245.392Y80.441
X244.285Y79.849
X243.314Y79.053
X242.518Y78.082
X241.926Y76.975
X241.562Y75.774
X241.439Y74.525
X241.562Y73.276
Z-2.4F15
X241.926Y72.074F30
X242.518Y70.967
X243.314Y69.997
X244.285Y69.201
X245.392Y68.609
X246.593Y68.245
X247.842Y68.122
X249.091Y68.245
X250.293Y68.609
X251.4Y69.201
X252.37Y69.997
X253.166Y70.967
X253.758Y72.075
X254.122Y73.276
X254.245Y74.525
X254.122Y75.774
X253.758Y76.975
X253.166Y78.082
X252.37Y79.053
X251.399Y79.849
X250.292Y80.441
X249.091Y80.805
X247.842Y80.928
X246.593Y80.805
X245.392Y80.441
X244.285Y79.849
X243.314Y79.053
X242.518Y78.082
X241.926Y76.975
X241.562Y75.774
X241.439Y74.525
X241.562Y73.276
Z-2.5F15
X241.926Y72.074F30
X242.518Y70.967
X243.314Y69.997
X244.285Y69.201
X245.392Y68.609
X246.593Y68.245
X247.842Y68.122
X249.091Y68.245
X250.293Y68.609
X251.4Y69.201
X252.37Y69.997
X253.166Y70.967
X253.758Y72.075
X254.122Y73.276
X254.245Y74.525
X254.122Y75.774
X253.758Y76.975
X253.166Y78.082
X252.37Y79.053
X251.399Y79.849
X250.292Y80.441
X249.091Y80.805
X247.842Y80.928
X246.593Y80.805
X245.392Y80.441
X244.285Y79.849
X243.314Y79.053
X242.518Y78.082
X241.926Y76.975
X241.562Y75.774
X241.439Y74.525
X241.562Y73.276
Z-2.6F15
X241.926Y72.074F30
X242.518Y70.967
X243.314Y69.997
X244.285Y69.201
X245.392Y68.609
X246.593Y68.245
X247.842Y68.122
X249.091Y68.245
X250.293Y68.609
X251.4Y69.201
X252.37Y69.997
X253.166Y70.967
X253.758Y72.075
X254.122Y73.276
X254.245Y74.525
X254.122Y75.774
X253.758Y76.975
X253.166Y78.082
X252.37Y79.053
X251.399Y79.849
X250.292Y80.441
X249.091Y80.805
X247.842Y80.928
X246.593Y80.805
X245.392Y80.441
X244.285Y79.849
X243.314Y79.053
X242.518Y78.082
X241.926Y76.975
X241.562Y75.774
X241.439Y74.525
X241.562Y73.276
Z-2.7F15
X241.926Y72.074F30
X242.518Y70.967
X243.314Y69.997
X244.285Y69.201
X245.392Y68.609
X246.593Y68.245
X247.842Y68.122
X249.091Y68.245
X250.293Y68.609
X251.4Y69.201
X252.37Y69.997
X253.166Y70.967
X253.758Y72.075
X254.122Y73.276
X254.245Y74.525
X254.122Y75.774
X253.758Y76.975
X253.166Y78.082
X252.37Y79.053
X251.399Y79.849
X250.292Y80.441
X249.091Y80.805
X247.842Y80.928
X246.593Y80.805
X245.392Y80.441
X244.285Y79.849
X243.314Y79.053
X242.518Y78.082
X241.926Y76.975
X241.562Y75.774
X241.439Y74.525
X241.562Y73.276
Z-2.8F15
X241.926Y72.074F30
X242.518Y70.967
X243.314Y69.997
X244.285Y69.201
X245.392Y68.609
X246.593Y68.245
X247.842Y68.122
X249.091Y68.245
X250.293Y68.609
X251.4Y69.201
X252.37Y69.997
X253.166Y70.967
X253.758Y72.075
X254.122Y73.276
X254.245Y74.525
X254.122Y75.774
X253.758Y76.975
X253.166Y78.082
X252.37Y79.053
X251.399Y79.849
X250.292Y80.441
X249.091Y80.805
X247.842Y80.928
X246.593Y80.805
X245.392Y80.441
X244.285Y79.849
X243.314Y79.053
X242.518Y78.082
X241.926Y76.975
X241.562Y75.774
X241.439Y74.525
X241.562Y73.276
Z-2.9F15
X241.926Y72.074F30
X242.518Y70.967
X243.314Y69.997
X244.285Y69.201
X245.392Y68.609
X246.593Y68.245
X247.842Y68.122
X249.091Y68.245
X250.293Y68.609
X251.4Y69.201
X252.37Y69.997
X253.166Y70.967
X253.758Y72.075
X254.122Y73.276
X254.245Y74.525
X254.122Y75.774
X253.758Y76.975
X253.166Y78.082
X252.37Y79.053
X251.399Y79.849
X250.292Y80.441
X249.091Y80.805
X247.842Y80.928
X246.593Y80.805
X245.392Y80.441
X244.285Y79.849
X243.314Y79.053
X242.518Y78.082
X241.926Y76.975
X241.562Y75.774
X241.439Y74.525
X241.562Y73.276
Z-3F15
X241.926Y72.074F30
X242.518Y70.967
X243.314Y69.997
X244.285Y69.201
X245.392Y68.609
X246.593Y68.245
X247.842Y68.122
X249.091Y68.245
X250.293Y68.609
X251.4Y69.201
X252.37Y69.997
X253.166Y70.967
X253.758Y72.075
X254.122Y73.276
X254.245Y74.525
X254.122Y75.774
X253.758Y76.975
X253.166Y78.082
X252.37Y79.053
X251.399Y79.849
X250.292Y80.441
X249.091Y80.805
X247.842Y80.928
X246.593Y80.805
X245.392Y80.441
X244.285Y79.849
X243.314Y79.053
X242.518Y78.082
X241.926Y76.975
X241.562Y75.774
X241.439Y74.525
X241.562Y73.276
Z-3.1F15
X241.926Y72.074F30
X242.518Y70.967
X243.314Y69.997
X244.285Y69.201
X245.392Y68.609
X246.593Y68.245
X247.842Y68.122
X249.091Y68.245
X250.293Y68.609
X251.4Y69.201
X252.37Y69.997
X253.166Y70.967
X253.758Y72.075
X254.122Y73.276
X254.245Y74.525
X254.122Y75.774
X253.758Y76.975
X253.166Y78.082
X252.37Y79.053
X251.399Y79.849
X250.292Y80.441
X249.091Y80.805
X247.842Y80.928
X246.593Y80.805
X245.392Y80.441
X244.285Y79.849
X243.314Y79.053
X242.518Y78.082
X241.926Y76.975
X241.562Y75.774
X241.439Y74.525
X241.562Y73.276
Z-3.2F15
X241.926Y72.074F30
X242.518Y70.967
X243.314Y69.997
X244.285Y69.201
X245.392Y68.609
X246.593Y68.245
X247.842Y68.122
X249.091Y68.245
X250.293Y68.609
X251.4Y69.201
X252.37Y69.997
X253.166Y70.967
X253.758Y72.075
X254.122Y73.276
X254.245Y74.525
X254.122Y75.774
X253.758Y76.975
X253.166Y78.082
X252.37Y79.053
X251.399Y79.849
X250.292Y80.441
X249.091Y80.805
X247.842Y80.928
X246.593Y80.805
X245.392Y80.441
X244.285Y79.849
X243.314Y79.053
X242.518Y78.082
X241.926Y76.975
X241.562Y75.774
X241.439Y74.525
X241.562Y73.276
Z-3.3F15
X241.926Y72.074F30
X242.518Y70.967
X243.314Y69.997
X244.285Y69.201
X245.392Y68.609
X246.593Y68.245
X247.842Y68.122
X249.091Y68.245
X250.293Y68.609
X251.4Y69.201
X252.37Y69.997
X253.166Y70.967
X253.758Y72.075
X254.122Y73.276
X254.245Y74.525
X254.122Y75.774
X253.758Y76.975
X253.166Y78.082
X252.37Y79.053
X251.399Y79.849
X250.292Y80.441
X249.091Y80.805
X247.842Y80.928
X246.593Y80.805
X245.392Y80.441
X244.285Y79.849
X243.314Y79.053
X242.518Y78.082
X241.926Y76.975
X241.562Y75.774
X241.439Y74.525
X241.562Y73.276
Z-3.4F15
X241.926Y72.074F30
X242.518Y70.967
X243.314Y69.997
X244.285Y69.201
X245.392Y68.609
X246.593Y68.245
X247.842Y68.122
X249.091Y68.245
X250.293Y68.609
X251.4Y69.201
X252.37Y69.997
X253.166Y70.967
X253.758Y72.075
X254.122Y73.276
X254.245Y74.525
X254.122Y75.774
X253.758Y76.975
X253.166Y78.082
X252.37Y79.053
X251.399Y79.849
X250.292Y80.441
X249.091Y80.805
X247.842Y80.928
X246.593Y80.805
X245.392Y80.441
X244.285Y79.849
X243.314Y79.053
X242.518Y78.082
X241.926Y76.975
X241.562Y75.774
X241.439Y74.525
X241.562Y73.276
Z-3.5F15
X241.926Y72.074F30
X242.518Y70.967
X243.314Y69.997
X244.285Y69.201
X245.392Y68.609
X246.593Y68.245
X247.842Y68.122
X249.091Y68.245
X250.293Y68.609
X251.4Y69.201
X252.37Y69.997
X253.166Y70.967
X253.758Y72.075
X254.122Y73.276
X254.245Y74.525
X254.122Y75.774
X253.758Y76.975
X253.166Y78.082
X252.37Y79.053
X251.399Y79.849
X250.292Y80.441
X249.091Y80.805
X247.842Y80.928
X246.593Y80.805
X245.392Y80.441
X244.285Y79.849
X243.314Y79.053
X242.518Y78.082
X241.926Y76.975
X241.562Y75.774
X241.439Y74.525
X241.562Y73.276
Z-3.6F15
X241.926Y72.074F30
X242.518Y70.967
X243.314Y69.997
X244.285Y69.201
X245.392Y68.609
X246.593Y68.245
X247.842Y68.122
X249.091Y68.245
X250.293Y68.609
X251.4Y69.201
X252.37Y69.997
X253.166Y70.967
X253.758Y72.075
X254.122Y73.276
X254.245Y74.525
X254.122Y75.774
X253.758Y76.975
X253.166Y78.082
X252.37Y79.053
X251.399Y79.849
X250.292Y80.441
X249.091Y80.805
X247.842Y80.928
X246.593Y80.805
X245.392Y80.441
X244.285Y79.849
X243.314Y79.053
X242.518Y78.082
X241.926Y76.975
X241.562Y75.774
X241.439Y74.525
X241.562Y73.276
Z-3.7F15
X241.926Y72.074F30
X242.518Y70.967
X243.314Y69.997
X244.285Y69.201
X245.392Y68.609
X246.593Y68.245
X247.842Y68.122
X249.091Y68.245
X250.293Y68.609
X251.4Y69.201
X252.37Y69.997
X253.166Y70.967
X253.758Y72.075
X254.122Y73.276
X254.245Y74.525
X254.122Y75.774
X253.758Y76.975
X253.166Y78.082
X252.37Y79.053
X251.399Y79.849
X250.292Y80.441
X249.091Y80.805
X247.842Y80.928
X246.593Y80.805
X245.392Y80.441
X244.285Y79.849
X243.314Y79.053
X242.518Y78.082
X241.926Y76.975
X241.562Y75.774
X241.439Y74.525
X241.562Y73.276
Z-3.8F15
X241.926Y72.074F30
X242.518Y70.967
X243.314Y69.997
X244.285Y69.201
X245.392Y68.609
X246.593Y68.245
X247.842Y68.122
X249.091Y68.245
X250.293Y68.609
X251.4Y69.201
X252.37Y69.997
X253.166Y70.967
X253.758Y72.075
X254.122Y73.276
X254.245Y74.525
X254.122Y75.774
X253.758Y76.975
X253.166Y78.082
X252.37Y79.053
X251.399Y79.849
X250.292Y80.441
X249.091Y80.805
X247.842Y80.928
X246.593Y80.805
X245.392Y80.441
X244.285Y79.849
X243.314Y79.053
X242.518Y78.082
X241.926Y76.975
X241.562Y75.774
X241.439Y74.525
X241.562Y73.276
Z-3.9F15
X241.926Y72.074F30
X242.518Y70.967
X243.314Y69.997
X244.285Y69.201
X245.392Y68.609
X246.593Y68.245
X247.842Y68.122
X249.091Y68.245
X250.293Y68.609
X251.4Y69.201
X252.37Y69.997
X253.166Y70.967
X253.758Y72.075
X254.122Y73.276
X254.245Y74.525
X254.122Y75.774
X253.758Y76.975
X253.166Y78.082
X252.37Y79.053
X251.399Y79.849
X250.292Y80.441
X249.091Y80.805
X247.842Y80.928
X246.593Y80.805
X245.392Y80.441
X244.285Y79.849
X243.314Y79.053
X242.518Y78.082
X241.926Y76.975
X241.562Y75.774
X241.439Y74.525
X241.562Y73.276
Z-4F15
X241.926Y72.074F30
X242.518Y70.967
X243.314Y69.997
X244.285Y69.201
X245.392Y68.609
X246.593Y68.245
X247.842Y68.122
X249.091Y68.245
X250.293Y68.609
X251.4Y69.201
X252.37Y69.997
X253.166Y70.967
X253.758Y72.075
X254.122Y73.276
X254.245Y74.525
X254.122Y75.774
X253.758Y76.975
X253.166Y78.082
X252.37Y79.053
X251.399Y79.849
X250.292Y80.441
X249.091Y80.805
X247.842Y80.928
X246.593Y80.805
X245.392Y80.441
X244.285Y79.849
X243.314Y79.053
X242.518Y78.082
X241.926Y76.975
X241.562Y75.774
X241.439Y74.525
X241.562Y73.276
Z-4.1F15
X241.926Y72.074F30
X242.518Y70.967
X243.314Y69.997
X244.285Y69.201
X245.392Y68.609
X246.593Y68.245
X247.842Y68.122
X249.091Y68.245
X250.293Y68.609
X251.4Y69.201
X252.37Y69.997
X253.166Y70.967
X253.758Y72.075
X254.122Y73.276
X254.245Y74.525
X254.122Y75.774
X253.758Y76.975
X253.166Y78.082
X252.37Y79.053
X251.399Y79.849
X250.292Y80.441
X249.091Y80.805
X247.842Y80.928
X246.593Y80.805
X245.392Y80.441
X244.285Y79.849
X243.314Y79.053
X242.518Y78.082
X241.926Y76.975
X241.562Y75.774
X241.439Y74.525
X241.562Y73.276
Z-4.2F15
X241.926Y72.074F30
X242.518Y70.967
X243.314Y69.997
X244.285Y69.201
X245.392Y68.609
X246.593Y68.245
X247.842Y68.122
X249.091Y68.245
X250.293Y68.609
X251.4Y69.201
X252.37Y69.997
X253.166Y70.967
X253.758Y72.075
X254.122Y73.276
X254.245Y74.525
X254.122Y75.774
X253.758Y76.975
X253.166Y78.082
X252.37Y79.053
X251.399Y79.849
X250.292Y80.441
X249.091Y80.805
X247.842Y80.928
X246.593Y80.805
X245.392Y80.441
X244.285Y79.849
X243.314Y79.053
X242.518Y78.082
X241.926Y76.975
X241.562Y75.774
X241.439Y74.525
X241.562Y73.276
Z-4.3F15
X241.926Y72.074F30
X242.518Y70.967
X243.314Y69.997
X244.285Y69.201
X245.392Y68.609
X246.593Y68.245
X247.842Y68.122
X249.091Y68.245
X250.293Y68.609
X251.4Y69.201
X252.37Y69.997
X253.166Y70.967
X253.758Y72.075
X254.122Y73.276
X254.245Y74.525
X254.122Y75.774
X253.758Y76.975
X253.166Y78.082
X252.37Y79.053
X251.399Y79.849
X250.292Y80.441
X249.091Y80.805
X247.842Y80.928
X246.593Y80.805
X245.392Y80.441
X244.285Y79.849
X243.314Y79.053
X242.518Y78.082
X241.926Y76.975
X241.562Y75.774
X241.439Y74.525
X241.562Y73.276
Z-4.4F15
X241.926Y72.074F30
X242.518Y70.967
X243.314Y69.997
X244.285Y69.201
X245.392Y68.609
X246.593Y68.245
X247.842Y68.122
X249.091Y68.245
X250.293Y68.609
X251.4Y69.201
X252.37Y69.997
X253.166Y70.967
X253.758Y72.075
X254.122Y73.276
X254.245Y74.525
X254.122Y75.774
X253.758Y76.975
X253.166Y78.082
X252.37Y79.053
X251.399Y79.849
X250.292Y80.441
X249.091Y80.805
X247.842Y80.928
X246.593Y80.805
X245.392Y80.441
X244.285Y79.849
X243.314Y79.053
X242.518Y78.082
X241.926Y76.975
X241.562Y75.774
X241.439Y74.525
X241.562Y73.276
Z-4.5F15
X241.926Y72.074F30
X242.518Y70.967
X243.314Y69.997
X244.285Y69.201
X245.392Y68.609
X246.593Y68.245
X247.842Y68.122
X249.091Y68.245
X250.293Y68.609
X251.4Y69.201
X252.37Y69.997
X253.166Y70.967
X253.758Y72.075
X254.122Y73.276
X254.245Y74.525
X254.122Y75.774
X253.758Y76.975
X253.166Y78.082
X252.37Y79.053
X251.399Y79.849
X250.292Y80.441
X249.091Y80.805
X247.842Y80.928
X246.593Y80.805
X245.392Y80.441
X244.285Y79.849
X243.314Y79.053
X242.518Y78.082
X241.926Y76.975
X241.562Y75.774
X241.439Y74.525
X241.562Y73.276
Z-4.6F15
X241.926Y72.074F30
X242.518Y70.967
X243.314Y69.997
X244.285Y69.201
X245.392Y68.609
X246.593Y68.245
X247.842Y68.122
X249.091Y68.245
X250.293Y68.609
X251.4Y69.201
X252.37Y69.997
X253.166Y70.967
X253.758Y72.075
X254.122Y73.276
X254.245Y74.525
X254.122Y75.774
X253.758Y76.975
X253.166Y78.082
X252.37Y79.053
X251.399Y79.849
X250.292Y80.441
X249.091Y80.805
X247.842Y80.928
X246.593Y80.805
X245.392Y80.441
X244.285Y79.849
X243.314Y79.053
X242.518Y78.082
X241.926Y76.975
X241.562Y75.774
X241.439Y74.525
X241.562Y73.276
Z-4.7F15
X241.926Y72.074F30
X242.518Y70.967
X243.314Y69.997
X244.285Y69.201
X245.392Y68.609
X246.593Y68.245
X247.842Y68.122
X249.091Y68.245
X250.293Y68.609
X251.4Y69.201
X252.37Y69.997
X253.166Y70.967
X253.758Y72.075
X254.122Y73.276
X254.245Y74.525
X254.122Y75.774
X253.758Y76.975
X253.166Y78.082
X252.37Y79.053
X251.399Y79.849
X250.292Y80.441
X249.091Y80.805
X247.842Y80.928
X246.593Y80.805
X245.392Y80.441
X244.285Y79.849
X243.314Y79.053
X242.518Y78.082
X241.926Y76.975
X241.562Y75.774
X241.439Y74.525
X241.562Y73.276
Z-4.8F15
X241.926Y72.074F30
X242.518Y70.967
X243.314Y69.997
X244.285Y69.201
X245.392Y68.609
X246.593Y68.245
X247.842Y68.122
X249.091Y68.245
X250.293Y68.609
X251.4Y69.201
X252.37Y69.997
X253.166Y70.967
X253.758Y72.075
X254.122Y73.276
X254.245Y74.525
X254.122Y75.774
X253.758Y76.975
X253.166Y78.082
X252.37Y79.053
X251.399Y79.849
X250.292Y80.441
X249.091Y80.805
X247.842Y80.928
X246.593Y80.805
X245.392Y80.441
X244.285Y79.849
X243.314Y79.053
X242.518Y78.082
X241.926Y76.975
X241.562Y75.774
X241.439Y74.525
X241.562Y73.276
Z-4.9F15
X241.926Y72.074F30
X242.518Y70.967
X243.314Y69.997
X244.285Y69.201
X245.392Y68.609
X246.593Y68.245
X247.842Y68.122
X249.091Y68.245
X250.293Y68.609
X251.4Y69.201
X252.37Y69.997
X253.166Y70.967
X253.758Y72.075
X254.122Y73.276
X254.245Y74.525
X254.122Y75.774
X253.758Y76.975
X253.166Y78.082
X252.37Y79.053
X251.399Y79.849
X250.292Y80.441
X249.091Y80.805
X247.842Y80.928
X246.593Y80.805
X245.392Y80.441
X244.285Y79.849
X243.314Y79.053
X242.518Y78.082
X241.926Y76.975
X241.562Y75.774
X241.439Y74.525
X241.562Y73.276
Z-5F15
X241.926Y72.074F30
X242.518Y70.967
X243.314Y69.997
X244.285Y69.201
X245.392Y68.609
X246.593Y68.245
X247.842Y68.122
X249.091Y68.245
X250.293Y68.609
X251.4Y69.201
X252.37Y69.997
X253.166Y70.967
X253.758Y72.075
X254.122Y73.276
X254.245Y74.525
X254.122Y75.774
X253.758Y76.975
X253.166Y78.082
X252.37Y79.053
X251.399Y79.849
X250.292Y80.441
X249.091Y80.805
X247.842Y80.928
X246.593Y80.805
X245.392Y80.441
X244.285Y79.849
X243.314Y79.053
X242.518Y78.082
X241.926Y76.975
X241.562Y75.774
X241.439Y74.525
X241.562Y73.276
Z-5.1F15
X241.926Y72.074F30
X242.518Y70.967
X243.314Y69.997
X244.285Y69.201
X245.392Y68.609
X246.593Y68.245
X247.842Y68.122
X249.091Y68.245
X250.293Y68.609
X251.4Y69.201
X252.37Y69.997
X253.166Y70.967
X253.758Y72.075
X254.122Y73.276
X254.245Y74.525
X254.122Y75.774
X253.758Y76.975
X253.166Y78.082
X252.37Y79.053
X251.399Y79.849
X250.292Y80.441
X249.091Y80.805
X247.842Y80.928
X246.593Y80.805
X245.392Y80.441
X244.285Y79.849
X243.314Y79.053
X242.518Y78.082
X241.926Y76.975
X241.562Y75.774
X241.439Y74.525
X241.562Y73.276
Z-5.2F15
X241.926Y72.074F30
X242.518Y70.967
X243.314Y69.997
X244.285Y69.201
X245.392Y68.609
X246.593Y68.245
X247.842Y68.122
X249.091Y68.245
X250.293Y68.609
X251.4Y69.201
X252.37Y69.997
X253.166Y70.967
X253.758Y72.075
X254.122Y73.276
X254.245Y74.525
X254.122Y75.774
X253.758Y76.975
X253.166Y78.082
X252.37Y79.053
X251.399Y79.849
X250.292Y80.441
X249.091Y80.805
X247.842Y80.928
X246.593Y80.805
X245.392Y80.441
X244.285Y79.849
X243.314Y79.053
X242.518Y78.082
X241.926Y76.975
X241.562Y75.774
X241.439Y74.525
X241.562Y73.276
Z-5.3F15
X241.926Y72.074F30
X242.518Y70.967
X243.314Y69.997
X244.285Y69.201
X245.392Y68.609
X246.593Y68.245
X247.842Y68.122
X249.091Y68.245
X250.293Y68.609
X251.4Y69.201
X252.37Y69.997
X253.166Y70.967
X253.758Y72.075
X254.122Y73.276
X254.245Y74.525
X254.122Y75.774
X253.758Y76.975
X253.166Y78.082
X252.37Y79.053
X251.399Y79.849
X250.292Y80.441
X249.091Y80.805
X247.842Y80.928
X246.593Y80.805
X245.392Y80.441
X244.285Y79.849
X243.314Y79.053
X242.518Y78.082
X241.926Y76.975
X241.562Y75.774
X241.439Y74.525
X241.562Y73.276
Z-5.4F15
X241.926Y72.074F30
X242.518Y70.967
X243.314Y69.997
X244.285Y69.201
X245.392Y68.609
X246.593Y68.245
X247.842Y68.122
X249.091Y68.245
X250.293Y68.609
X251.4Y69.201
X252.37Y69.997
X253.166Y70.967
X253.758Y72.075
X254.122Y73.276
X254.245Y74.525
X254.122Y75.774
X253.758Y76.975
X253.166Y78.082
X252.37Y79.053
X251.399Y79.849
X250.292Y80.441
X249.091Y80.805
X247.842Y80.928
X246.593Y80.805
X245.392Y80.441
X244.285Y79.849
X243.314Y79.053
X242.518Y78.082
X241.926Y76.975
X241.562Y75.774
X241.439Y74.525
X241.562Y73.276
Z-5.5F15
X241.926Y72.074F30
X242.518Y70.967
X243.314Y69.997
X244.285Y69.201
X245.392Y68.609
X246.593Y68.245
X247.842Y68.122
X249.091Y68.245
X250.293Y68.609
X251.4Y69.201
X252.37Y69.997
X253.166Y70.967
X253.758Y72.075
X254.122Y73.276
X254.245Y74.525
X254.122Y75.774
X253.758Y76.975
X253.166Y78.082
X252.37Y79.053
X251.399Y79.849
X250.292Y80.441
X249.091Y80.805
X247.842Y80.928
X246.593Y80.805
X245.392Y80.441
X244.285Y79.849
X243.314Y79.053
X242.518Y78.082
X241.926Y76.975
X241.562Y75.774
X241.439Y74.525
X241.562Y73.276
Z-5.6F15
X241.926Y72.074F30
X242.518Y70.967
X243.314Y69.997
X244.285Y69.201
X245.392Y68.609
X246.593Y68.245
X247.842Y68.122
X249.091Y68.245
X250.293Y68.609
X251.4Y69.201
X252.37Y69.997
X253.166Y70.967
X253.758Y72.075
X254.122Y73.276
X254.245Y74.525
X254.122Y75.774
X253.758Y76.975
X253.166Y78.082
X252.37Y79.053
X251.399Y79.849
X250.292Y80.441
X249.091Y80.805
X247.842Y80.928
X246.593Y80.805
X245.392Y80.441
X244.285Y79.849
X243.314Y79.053
X242.518Y78.082
X241.926Y76.975
X241.562Y75.774
X241.439Y74.525
X241.562Y73.276
Z-5.7F15
X241.926Y72.074F30
X242.518Y70.967
X243.314Y69.997
X244.285Y69.201
X245.392Y68.609
X246.593Y68.245
X247.842Y68.122
X249.091Y68.245
X250.293Y68.609
X251.4Y69.201
X252.37Y69.997
X253.166Y70.967
X253.758Y72.075
X254.122Y73.276
X254.245Y74.525
X254.122Y75.774
X253.758Y76.975
X253.166Y78.082
X252.37Y79.053
X251.399Y79.849
X250.292Y80.441
X249.091Y80.805
X247.842Y80.928
X246.593Y80.805
X245.392Y80.441
X244.285Y79.849
X243.314Y79.053
X242.518Y78.082
X241.926Y76.975
X241.562Y75.774
X241.439Y74.525
X241.562Y73.276
Z-5.8F15
X241.926Y72.074F30
X242.518Y70.967
X243.314Y69.997
X244.285Y69.201
X245.392Y68.609
X246.593Y68.245
X247.842Y68.122
X249.091Y68.245
X250.293Y68.609
X251.4Y69.201
X252.37Y69.997
X253.166Y70.967
X253.758Y72.075
X254.122Y73.276
X254.245Y74.525
X254.122Y75.774
X253.758Y76.975
X253.166Y78.082
X252.37Y79.053
X251.399Y79.849
X250.292Y80.441
X249.091Y80.805
X247.842Y80.928
X246.593Y80.805
X245.392Y80.441
X244.285Y79.849
X243.314Y79.053
X242.518Y78.082
X241.926Y76.975
X241.562Y75.774
X241.439Y74.525
X241.562Y73.276
Z-5.9F15
X241.926Y72.074F30
X242.518Y70.967
X243.314Y69.997
X244.285Y69.201
X245.392Y68.609
X246.593Y68.245
X247.842Y68.122
X249.091Y68.245
X250.293Y68.609
X251.4Y69.201
X252.37Y69.997
X253.166Y70.967
X253.758Y72.075
X254.122Y73.276
X254.245Y74.525
X254.122Y75.774
X253.758Y76.975
X253.166Y78.082
X252.37Y79.053
X251.399Y79.849
X250.292Y80.441
X249.091Y80.805
X247.842Y80.928
X246.593Y80.805
X245.392Y80.441
X244.285Y79.849
X243.314Y79.053
X242.518Y78.082
X241.926Y76.975
X241.562Y75.774
X241.439Y74.525
X241.562Y73.276
Z-6F15
X241.926Y72.074F30
X242.518Y70.967
X243.314Y69.997
X244.285Y69.201
X245.392Y68.609
X246.593Y68.245
X247.842Y68.122
X249.091Y68.245
X250.293Y68.609
X251.4Y69.201
X252.37Y69.997
X253.166Y70.967
X253.758Y72.075
X254.122Y73.276
X254.245Y74.525
X254.122Y75.774
X253.758Y76.975
X253.166Y78.082
X252.37Y79.053
X251.399Y79.849
X250.292Y80.441
X249.091Y80.805
X247.842Y80.928
X246.593Y80.805
X245.392Y80.441
X244.285Y79.849
X243.314Y79.053
X242.518Y78.082
X241.926Y76.975
X241.562Y75.774
X241.439Y74.525
X241.562Y73.276
Z-6.1F15
X241.926Y72.074F30
X242.518Y70.967
X243.314Y69.997
X244.285Y69.201
X245.392Y68.609
X246.593Y68.245
X247.842Y68.122
X249.091Y68.245
X250.293Y68.609
X251.4Y69.201
X252.37Y69.997
X253.166Y70.967
X253.758Y72.075
X254.122Y73.276
X254.245Y74.525
X254.122Y75.774
X253.758Y76.975
X253.166Y78.082
X252.37Y79.053
X251.399Y79.849
X250.292Y80.441
X249.091Y80.805
X247.842Y80.928
X246.593Y80.805
X245.392Y80.441
X244.285Y79.849
X243.314Y79.053
X242.518Y78.082
X241.926Y76.975
X241.562Y75.774
X241.439Y74.525
X241.562Y73.276
Z-6.2F15
X241.926Y72.074F30
X242.518Y70.967
X243.314Y69.997
X244.285Y69.201
X245.392Y68.609
X246.593Y68.245
X247.842Y68.122
X249.091Y68.245
X250.293Y68.609
X251.4Y69.201
X252.37Y69.997
X253.166Y70.967
X253.758Y72.075
X254.122Y73.276
X254.245Y74.525
X254.122Y75.774
X253.758Y76.975
X253.166Y78.082
X252.37Y79.053
X251.399Y79.849
X250.292Y80.441
X249.091Y80.805
X247.842Y80.928
X246.593Y80.805
X245.392Y80.441
X244.285Y79.849
X243.314Y79.053
X242.518Y78.082
X241.926Y76.975
X241.562Y75.774
X241.439Y74.525
X241.562Y73.276
Z-6.3F15
X241.926Y72.074F30
X242.518Y70.967
X243.314Y69.997
X244.285Y69.201
X245.392Y68.609
X246.593Y68.245
X247.842Y68.122
X249.091Y68.245
X250.293Y68.609
X251.4Y69.201
X252.37Y69.997
X253.166Y70.967
X253.758Y72.075
X254.122Y73.276
X254.245Y74.525
X254.122Y75.774
X253.758Y76.975
X253.166Y78.082
X252.37Y79.053
X251.399Y79.849
X250.292Y80.441
X249.091Y80.805
X247.842Y80.928
X246.593Y80.805
X245.392Y80.441
X244.285Y79.849
X243.314Y79.053
X242.518Y78.082
X241.926Y76.975
X241.562Y75.774
X241.439Y74.525
X241.562Y73.276
Z-6.4F15
X241.926Y72.074F30
X242.518Y70.967
X243.314Y69.997
X244.285Y69.201
X245.392Y68.609
X246.593Y68.245
X247.842Y68.122
X249.091Y68.245
X250.293Y68.609
X251.4Y69.201
X252.37Y69.997
X253.166Y70.967
X253.758Y72.075
X254.122Y73.276
X254.245Y74.525
X254.122Y75.774
X253.758Y76.975
X253.166Y78.082
X252.37Y79.053
X251.399Y79.849
X250.292Y80.441
X249.091Y80.805
X247.842Y80.928
X246.593Y80.805
X245.392Y80.441
X244.285Y79.849
X243.314Y79.053
X242.518Y78.082
X241.926Y76.975
X241.562Y75.774
X241.439Y74.525
X241.562Y73.276
Z-6.5F15
X241.926Y72.074F30
X242.518Y70.967
X243.314Y69.997
X244.285Y69.201
X245.392Y68.609
X246.593Y68.245
X247.842Y68.122
X249.091Y68.245
X250.293Y68.609
X251.4Y69.201
X252.37Y69.997
X253.166Y70.967
X253.758Y72.075
X254.122Y73.276
X254.245Y74.525
X254.122Y75.774
X253.758Y76.975
X253.166Y78.082
X252.37Y79.053
X251.399Y79.849
X250.292Y80.441
X249.091Y80.805
X247.842Y80.928
X246.593Y80.805
X245.392Y80.441
X244.285Y79.849
X243.314Y79.053
X242.518Y78.082
X241.926Y76.975
X241.562Y75.774
X241.439Y74.525
X241.562Y73.276
Z-6.6F15
X241.926Y72.074F30
X242.518Y70.967
X243.314Y69.997
X244.285Y69.201
X245.392Y68.609
X246.593Y68.245
X247.842Y68.122
X249.091Y68.245
X250.293Y68.609
X251.4Y69.201
X252.37Y69.997
X253.166Y70.967
X253.758Y72.075
X254.122Y73.276
X254.245Y74.525
X254.122Y75.774
X253.758Y76.975
X253.166Y78.082
X252.37Y79.053
X251.399Y79.849
X250.292Y80.441
X249.091Y80.805
X247.842Y80.928
X246.593Y80.805
X245.392Y80.441
X244.285Y79.849
X243.314Y79.053
X242.518Y78.082
X241.926Y76.975
X241.562Y75.774
X241.439Y74.525
X241.562Y73.276
Z-6.7F15
X241.926Y72.074F30
X242.518Y70.967
X243.314Y69.997
X244.285Y69.201
X245.392Y68.609
X246.593Y68.245
X247.842Y68.122
X249.091Y68.245
X250.293Y68.609
X251.4Y69.201
X252.37Y69.997
X253.166Y70.967
X253.758Y72.075
X254.122Y73.276
X254.245Y74.525
X254.122Y75.774
X253.758Y76.975
X253.166Y78.082
X252.37Y79.053
X251.399Y79.849
X250.292Y80.441
X249.091Y80.805
X247.842Y80.928
X246.593Y80.805
X245.392Y80.441
X244.285Y79.849
X243.314Y79.053
X242.518Y78.082
X241.926Y76.975
X241.562Y75.774
X241.439Y74.525
X241.562Y73.276
Z-6.8F15
X241.926Y72.074F30
X242.518Y70.967
X243.314Y69.997
X244.285Y69.201
X245.392Y68.609
X246.593Y68.245
X247.842Y68.122
X249.091Y68.245
X250.293Y68.609
X251.4Y69.201
X252.37Y69.997
X253.166Y70.967
X253.758Y72.075
X254.122Y73.276
X254.245Y74.525
X254.122Y75.774
X253.758Y76.975
X253.166Y78.082
X252.37Y79.053
X251.399Y79.849
X250.292Y80.441
X249.091Y80.805
X247.842Y80.928
X246.593Y80.805
X245.392Y80.441
X244.285Y79.849
X243.314Y79.053
X242.518Y78.082
X241.926Y76.975
X241.562Y75.774
X241.439Y74.525
X241.562Y73.276
Z-6.9F15
X241.926Y72.074F30
X242.518Y70.967
X243.314Y69.997
X244.285Y69.201
X245.392Y68.609
X246.593Y68.245
X247.842Y68.122
X249.091Y68.245
X250.293Y68.609
X251.4Y69.201
X252.37Y69.997
X253.166Y70.967
X253.758Y72.075
X254.122Y73.276
X254.245Y74.525
X254.122Y75.774
X253.758Y76.975
X253.166Y78.082
X252.37Y79.053
X251.399Y79.849
X250.292Y80.441
X249.091Y80.805
X247.842Y80.928
X246.593Y80.805
X245.392Y80.441
X244.285Y79.849
X243.314Y79.053
X242.518Y78.082
X241.926Y76.975
X241.562Y75.774
X241.439Y74.525
X241.562Y73.276
Z-7F15
X241.926Y72.074F30
X242.518Y70.967
X243.314Y69.997
X244.285Y69.201
X245.392Y68.609
X246.593Y68.245
X247.842Y68.122
X249.091Y68.245
X250.293Y68.609
X251.4Y69.201
X252.37Y69.997
X253.166Y70.967
X253.758Y72.075
X254.122Y73.276
X254.245Y74.525
X254.122Y75.774
X253.758Y76.975
X253.166Y78.082
X252.37Y79.053
X251.399Y79.849
X250.292Y80.441
X249.091Y80.805
X247.842Y80.928
X246.593Y80.805
X245.392Y80.441
X244.285Y79.849
X243.314Y79.053
X242.518Y78.082
X241.926Y76.975
X241.562Y75.774
X241.439Y74.525
X241.562Y73.276
Z-7.1F15
X241.926Y72.074F30
X242.518Y70.967
X243.314Y69.997
X244.285Y69.201
X245.392Y68.609
X246.593Y68.245
X247.842Y68.122
X249.091Y68.245
X250.293Y68.609
X251.4Y69.201
X252.37Y69.997
X253.166Y70.967
X253.758Y72.075
X254.122Y73.276
X254.245Y74.525
X254.122Y75.774
X253.758Y76.975
X253.166Y78.082
X252.37Y79.053
X251.399Y79.849
X250.292Y80.441
X249.091Y80.805
X247.842Y80.928
X246.593Y80.805
X245.392Y80.441
X244.285Y79.849
X243.314Y79.053
X242.518Y78.082
X241.926Y76.975
X241.562Y75.774
X241.439Y74.525
X241.562Y73.276
Z-7.2F15
X241.926Y72.074F30
X242.518Y70.967
X243.314Y69.997
X244.285Y69.201
X245.392Y68.609
X246.593Y68.245
X247.842Y68.122
X249.091Y68.245
X250.293Y68.609
X251.4Y69.201
X252.37Y69.997
X253.166Y70.967
X253.758Y72.075
X254.122Y73.276
X254.245Y74.525
X254.122Y75.774
X253.758Y76.975
X253.166Y78.082
X252.37Y79.053
X251.399Y79.849
X250.292Y80.441
X249.091Y80.805
X247.842Y80.928
X246.593Y80.805
X245.392Y80.441
X244.285Y79.849
X243.314Y79.053
X242.518Y78.082
X241.926Y76.975
X241.562Y75.774
X241.439Y74.525
X241.562Y73.276
Z-7.3F15
X241.926Y72.074F30
X242.518Y70.967
X243.314Y69.997
X244.285Y69.201
X245.392Y68.609
X246.593Y68.245
X247.842Y68.122
X249.091Y68.245
X250.293Y68.609
X251.4Y69.201
X252.37Y69.997
X253.166Y70.967
X253.758Y72.075
X254.122Y73.276
X254.245Y74.525
X254.122Y75.774
X253.758Y76.975
X253.166Y78.082
X252.37Y79.053
X251.399Y79.849
X250.292Y80.441
X249.091Y80.805
X247.842Y80.928
X246.593Y80.805
X245.392Y80.441
X244.285Y79.849
X243.314Y79.053
X242.518Y78.082
X241.926Y76.975
X241.562Y75.774
X241.439Y74.525
X241.562Y73.276
Z-7.4F15
X241.926Y72.074F30
X242.518Y70.967
X243.314Y69.997
X244.285Y69.201
X245.392Y68.609
X246.593Y68.245
X247.842Y68.122
X249.091Y68.245
X250.293Y68.609
X251.4Y69.201
X252.37Y69.997
X253.166Y70.967
X253.758Y72.075
X254.122Y73.276
X254.245Y74.525
X254.122Y75.774
X253.758Y76.975
X253.166Y78.082
X252.37Y79.053
X251.399Y79.849
X250.292Y80.441
X249.091Y80.805
X247.842Y80.928
X246.593Y80.805
X245.392Y80.441
X244.285Y79.849
X243.314Y79.053
X242.518Y78.082
X241.926Y76.975
X241.562Y75.774
X241.439Y74.525
X241.562Y73.276
Z-7.5F15
X241.926Y72.074F30
X242.518Y70.967
X243.314Y69.997
X244.285Y69.201
X245.392Y68.609
X246.593Y68.245
X247.842Y68.122
X249.091Y68.245
X250.293Y68.609
X251.4Y69.201
X252.37Y69.997
X253.166Y70.967
X253.758Y72.075
X254.122Y73.276
X254.245Y74.525
X254.122Y75.774
X253.758Y76.975
X253.166Y78.082
X252.37Y79.053
X251.399Y79.849
X250.292Y80.441
X249.091Y80.805
X247.842Y80.928
X246.593Y80.805
X245.392Y80.441
X244.285Y79.849
X243.314Y79.053
X242.518Y78.082
X241.926Y76.975
X241.562Y75.774
X241.439Y74.525
X241.562Y73.276
Z-7.6F15
X241.926Y72.074F30
X242.518Y70.967
X243.314Y69.997
X244.285Y69.201
X245.392Y68.609
X246.593Y68.245
X247.842Y68.122
X249.091Y68.245
X250.293Y68.609
X251.4Y69.201
X252.37Y69.997
X253.166Y70.967
X253.758Y72.075
X254.122Y73.276
X254.245Y74.525
X254.122Y75.774
X253.758Y76.975
X253.166Y78.082
X252.37Y79.053
X251.399Y79.849
X250.292Y80.441
X249.091Y80.805
X247.842Y80.928
X246.593Y80.805
X245.392Y80.441
X244.285Y79.849
X243.314Y79.053
X242.518Y78.082
X241.926Y76.975
X241.562Y75.774
X241.439Y74.525
X241.562Y73.276
Z-7.7F15
X241.926Y72.074F30
X242.518Y70.967
X243.314Y69.997
X244.285Y69.201
X245.392Y68.609
X246.593Y68.245
X247.842Y68.122
X249.091Y68.245
X250.293Y68.609
X251.4Y69.201
X252.37Y69.997
X253.166Y70.967
X253.758Y72.075
X254.122Y73.276
X254.245Y74.525
X254.122Y75.774
X253.758Y76.975
X253.166Y78.082
X252.37Y79.053
X251.399Y79.849
X250.292Y80.441
X249.091Y80.805
X247.842Y80.928
X246.593Y80.805
X245.392Y80.441
X244.285Y79.849
X243.314Y79.053
X242.518Y78.082
X241.926Y76.975
X241.562Y75.774
X241.439Y74.525
X241.562Y73.276
Z-7.8F15
X241.926Y72.074F30
X242.518Y70.967
X243.314Y69.997
X244.285Y69.201
X245.392Y68.609
X246.593Y68.245
X247.842Y68.122
X249.091Y68.245
X250.293Y68.609
X251.4Y69.201
X252.37Y69.997
X253.166Y70.967
X253.758Y72.075
X254.122Y73.276
X254.245Y74.525
X254.122Y75.774
X253.758Y76.975
X253.166Y78.082
X252.37Y79.053
X251.399Y79.849
X250.292Y80.441
X249.091Y80.805
X247.842Y80.928
X246.593Y80.805
X245.392Y80.441
X244.285Y79.849
X243.314Y79.053
X242.518Y78.082
X241.926Y76.975
X241.562Y75.774
X241.439Y74.525
X241.562Y73.276
Z-7.9F15
X241.926Y72.074F30
X242.518Y70.967
X243.314Y69.997
X244.285Y69.201
X245.392Y68.609
X246.593Y68.245
X247.842Y68.122
X249.091Y68.245
X250.293Y68.609
X251.4Y69.201
X252.37Y69.997
X253.166Y70.967
X253.758Y72.075
X254.122Y73.276
X254.245Y74.525
X254.122Y75.774
X253.758Y76.975
X253.166Y78.082
X252.37Y79.053
X251.399Y79.849
X250.292Y80.441
X249.091Y80.805
X247.842Y80.928
X246.593Y80.805
X245.392Y80.441
X244.285Y79.849
X243.314Y79.053
X242.518Y78.082
X241.926Y76.975
X241.562Y75.774
X241.439Y74.525
X241.562Y73.276
Z-8F15
X241.926Y72.074F30
X242.518Y70.967
X243.314Y69.997
X244.285Y69.201
X245.392Y68.609
X246.593Y68.245
X247.842Y68.122
X249.091Y68.245
X250.293Y68.609
X251.4Y69.201
X252.37Y69.997
X253.166Y70.967
X253.758Y72.075
X254.122Y73.276
X254.245Y74.525
X254.122Y75.774
X253.758Y76.975
X253.166Y78.082
X252.37Y79.053
X251.399Y79.849
X250.292Y80.441
X249.091Y80.805
X247.842Y80.928
X246.593Y80.805
X245.392Y80.441
X244.285Y79.849
X243.314Y79.053
X242.518Y78.082
X241.926Y76.975
X241.562Y75.774
X241.439Y74.525
X241.562Y73.276
Z-8.1F15
X241.926Y72.074F30
X242.518Y70.967
X243.314Y69.997
X244.285Y69.201
X245.392Y68.609
X246.593Y68.245
X247.842Y68.122
X249.091Y68.245
X250.293Y68.609
X251.4Y69.201
X252.37Y69.997
X253.166Y70.967
X253.758Y72.075
X254.122Y73.276
X254.245Y74.525
X254.122Y75.774
X253.758Y76.975
X253.166Y78.082
X252.37Y79.053
X251.399Y79.849
X250.292Y80.441
X249.091Y80.805
X247.842Y80.928
X246.593Y80.805
X245.392Y80.441
X244.285Y79.849
X243.314Y79.053
X242.518Y78.082
X241.926Y76.975
X241.562Y75.774
X241.439Y74.525
X241.562Y73.276
Z-8.2F15
X241.926Y72.074F30
X242.518Y70.967
X243.314Y69.997
X244.285Y69.201
X245.392Y68.609
X246.593Y68.245
X247.842Y68.122
X249.091Y68.245
X250.293Y68.609
X251.4Y69.201
X252.37Y69.997
X253.166Y70.967
X253.758Y72.075
X254.122Y73.276
X254.245Y74.525
X254.122Y75.774
X253.758Y76.975
X253.166Y78.082
X252.37Y79.053
X251.399Y79.849
X250.292Y80.441
X249.091Y80.805
X247.842Y80.928
X246.593Y80.805
X245.392Y80.441
X244.285Y79.849
X243.314Y79.053
X242.518Y78.082
X241.926Y76.975
X241.562Y75.774
X241.439Y74.525
X241.562Y73.276
Z-8.3F15
X241.926Y72.074F30
X242.518Y70.967
X243.314Y69.997
X244.285Y69.201
X245.392Y68.609
X246.593Y68.245
X247.842Y68.122
X249.091Y68.245
X250.293Y68.609
X251.4Y69.201
X252.37Y69.997
X253.166Y70.967
X253.758Y72.075
X254.122Y73.276
X254.245Y74.525
X254.122Y75.774
X253.758Y76.975
X253.166Y78.082
X252.37Y79.053
X251.399Y79.849
X250.292Y80.441
X249.091Y80.805
X247.842Y80.928
X246.593Y80.805
X245.392Y80.441
X244.285Y79.849
X243.314Y79.053
X242.518Y78.082
X241.926Y76.975
X241.562Y75.774
X241.439Y74.525
X241.562Y73.276
Z-8.4F15
X241.926Y72.074F30
X242.518Y70.967
X243.314Y69.997
X244.285Y69.201
X245.392Y68.609
X246.593Y68.245
X247.842Y68.122
X249.091Y68.245
X250.293Y68.609
X251.4Y69.201
X252.37Y69.997
X253.166Y70.967
X253.758Y72.075
X254.122Y73.276
X254.245Y74.525
X254.122Y75.774
X253.758Y76.975
X253.166Y78.082
X252.37Y79.053
X251.399Y79.849
X250.292Y80.441
X249.091Y80.805
X247.842Y80.928
X246.593Y80.805
X245.392Y80.441
X244.285Y79.849
X243.314Y79.053
X242.518Y78.082
X241.926Y76.975
X241.562Y75.774
X241.439Y74.525
X241.562Y73.276
Z-8.5F15
X241.926Y72.074F30
X242.518Y70.967
X243.314Y69.997
X244.285Y69.201
X245.392Y68.609
X246.593Y68.245
X247.842Y68.122
X249.091Y68.245
X250.293Y68.609
X251.4Y69.201
X252.37Y69.997
X253.166Y70.967
X253.758Y72.075
X254.122Y73.276
X254.245Y74.525
X254.122Y75.774
X253.758Y76.975
X253.166Y78.082
X252.37Y79.053
X251.399Y79.849
X250.292Y80.441
X249.091Y80.805
X247.842Y80.928
X246.593Y80.805
X245.392Y80.441
X244.285Y79.849
X243.314Y79.053
X242.518Y78.082
X241.926Y76.975
X241.562Y75.774
X241.439Y74.525
X241.562Y73.276
Z-8.6F15
X241.926Y72.074F30
X242.518Y70.967
X243.314Y69.997
X244.285Y69.201
X245.392Y68.609
X246.593Y68.245
X247.842Y68.122
X249.091Y68.245
X250.293Y68.609
X251.4Y69.201
X252.37Y69.997
X253.166Y70.967
X253.758Y72.075
X254.122Y73.276
X254.245Y74.525
X254.122Y75.774
X253.758Y76.975
X253.166Y78.082
X252.37Y79.053
X251.399Y79.849
X250.292Y80.441
X249.091Y80.805
X247.842Y80.928
X246.593Y80.805
X245.392Y80.441
X244.285Y79.849
X243.314Y79.053
X242.518Y78.082
X241.926Y76.975
X241.562Y75.774
X241.439Y74.525
X241.562Y73.276
Z-8.7F15
X241.926Y72.074F30
X242.518Y70.967
X243.314Y69.997
X244.285Y69.201
X245.392Y68.609
X246.593Y68.245
X247.842Y68.122
X249.091Y68.245
X250.293Y68.609
X251.4Y69.201
X252.37Y69.997
X253.166Y70.967
X253.758Y72.075
X254.122Y73.276
X254.245Y74.525
X254.122Y75.774
X253.758Y76.975
X253.166Y78.082
X252.37Y79.053
X251.399Y79.849
X250.292Y80.441
X249.091Y80.805
X247.842Y80.928
X246.593Y80.805
X245.392Y80.441
X244.285Y79.849
X243.314Y79.053
X242.518Y78.082
X241.926Y76.975
X241.562Y75.774
X241.439Y74.525
X241.562Y73.276
Z-8.8F15
X241.926Y72.074F30
X242.518Y70.967
X243.314Y69.997
X244.285Y69.201
X245.392Y68.609
X246.593Y68.245
X247.842Y68.122
X249.091Y68.245
X250.293Y68.609
X251.4Y69.201
X252.37Y69.997
X253.166Y70.967
X253.758Y72.075
X254.122Y73.276
X254.245Y74.525
X254.122Y75.774
X253.758Y76.975
X253.166Y78.082
X252.37Y79.053
X251.399Y79.849
X250.292Y80.441
X249.091Y80.805
X247.842Y80.928
X246.593Y80.805
X245.392Y80.441
X244.285Y79.849
X243.314Y79.053
X242.518Y78.082
X241.926Y76.975
X241.562Y75.774
X241.439Y74.525
X241.562Y73.276
Z-8.9F15
X241.926Y72.074F30
X242.518Y70.967
X243.314Y69.997
X244.285Y69.201
X245.392Y68.609
X246.593Y68.245
X247.842Y68.122
X249.091Y68.245
X250.293Y68.609
X251.4Y69.201
X252.37Y69.997
X253.166Y70.967
X253.758Y72.075
X254.122Y73.276
X254.245Y74.525
X254.122Y75.774
X253.758Y76.975
X253.166Y78.082
X252.37Y79.053
X251.399Y79.849
X250.292Y80.441
X249.091Y80.805
X247.842Y80.928
X246.593Y80.805
X245.392Y80.441
X244.285Y79.849
X243.314Y79.053
X242.518Y78.082
X241.926Y76.975
X241.562Y75.774
X241.439Y74.525
X241.562Y73.276
Z-9F15
X241.926Y72.074F30
X242.518Y70.967
X243.314Y69.997
X244.285Y69.201
X245.392Y68.609
X246.593Y68.245
X247.842Y68.122
X249.091Y68.245
X250.293Y68.609
X251.4Y69.201
X252.37Y69.997
X253.166Y70.967
X253.758Y72.075
X254.122Y73.276
X254.245Y74.525
X254.122Y75.774
X253.758Y76.975
X253.166Y78.082
X252.37Y79.053
X251.399Y79.849
X250.292Y80.441
X249.091Y80.805
X247.842Y80.928
X246.593Y80.805
X245.392Y80.441
X244.285Y79.849
X243.314Y79.053
X242.518Y78.082
X241.926Y76.975
X241.562Y75.774
X241.439Y74.525
X241.562Y73.276
Z-9.1F15
X241.926Y72.074F30
X242.518Y70.967
X243.314Y69.997
X244.285Y69.201
X245.392Y68.609
X246.593Y68.245
X247.842Y68.122
X249.091Y68.245
X250.293Y68.609
X251.4Y69.201
X252.37Y69.997
X253.166Y70.967
X253.758Y72.075
X254.122Y73.276
X254.245Y74.525
X254.122Y75.774
X253.758Y76.975
X253.166Y78.082
X252.37Y79.053
X251.399Y79.849
X250.292Y80.441
X249.091Y80.805
X247.842Y80.928
X246.593Y80.805
X245.392Y80.441
X244.285Y79.849
X243.314Y79.053
X242.518Y78.082
X241.926Y76.975
X241.562Y75.774
X241.439Y74.525
X241.562Y73.276
Z-9.2F15
X241.926Y72.074F30
X242.518Y70.967
X243.314Y69.997
X244.285Y69.201
X245.392Y68.609
X246.593Y68.245
X247.842Y68.122
X249.091Y68.245
X250.293Y68.609
X251.4Y69.201
X252.37Y69.997
X253.166Y70.967
X253.758Y72.075
X254.122Y73.276
X254.245Y74.525
X254.122Y75.774
X253.758Y76.975
X253.166Y78.082
X252.37Y79.053
X251.399Y79.849
X250.292Y80.441
X249.091Y80.805
X247.842Y80.928
X246.593Y80.805
X245.392Y80.441
X244.285Y79.849
X243.314Y79.053
X242.518Y78.082
X241.926Y76.975
X241.562Y75.774
X241.439Y74.525
X241.562Y73.276
Z-9.3F15
X241.926Y72.074F30
X242.518Y70.967
X243.314Y69.997
X244.285Y69.201
X245.392Y68.609
X246.593Y68.245
X247.842Y68.122
X249.091Y68.245
X250.293Y68.609
X251.4Y69.201
X252.37Y69.997
X253.166Y70.967
X253.758Y72.075
X254.122Y73.276
X254.245Y74.525
X254.122Y75.774
X253.758Y76.975
X253.166Y78.082
X252.37Y79.053
X251.399Y79.849
X250.292Y80.441
X249.091Y80.805
X247.842Y80.928
X246.593Y80.805
X245.392Y80.441
X244.285Y79.849
X243.314Y79.053
X242.518Y78.082
X241.926Y76.975
X241.562Y75.774
X241.439Y74.525
X241.562Y73.276
Z-9.4F15
X241.926Y72.074F30
X242.518Y70.967
X243.314Y69.997
X244.285Y69.201
X245.392Y68.609
X246.593Y68.245
X247.842Y68.122
X249.091Y68.245
X250.293Y68.609
X251.4Y69.201
X252.37Y69.997
X253.166Y70.967
X253.758Y72.075
X254.122Y73.276
X254.245Y74.525
X254.122Y75.774
X253.758Y76.975
X253.166Y78.082
X252.37Y79.053
X251.399Y79.849
X250.292Y80.441
X249.091Y80.805
X247.842Y80.928
X246.593Y80.805
X245.392Y80.441
X244.285Y79.849
X243.314Y79.053
X242.518Y78.082
X241.926Y76.975
X241.562Y75.774
X241.439Y74.525
X241.562Y73.276
Z-9.5F15
X241.926Y72.074F30
X242.518Y70.967
X243.314Y69.997
X244.285Y69.201
X245.392Y68.609
X246.593Y68.245
X247.842Y68.122
X249.091Y68.245
X250.293Y68.609
X251.4Y69.201
X252.37Y69.997
X253.166Y70.967
X253.758Y72.075
X254.122Y73.276
X254.245Y74.525
X254.122Y75.774
X253.758Y76.975
X253.166Y78.082
X252.37Y79.053
X251.399Y79.849
X250.292Y80.441
X249.091Y80.805
X247.842Y80.928
X246.593Y80.805
X245.392Y80.441
X244.285Y79.849
X243.314Y79.053
X242.518Y78.082
X241.926Y76.975
X241.562Y75.774
X241.439Y74.525
X241.562Y73.276
Z-9.6F15
X241.926Y72.074F30
X242.518Y70.967
X243.314Y69.997
X244.285Y69.201
X245.392Y68.609
X246.593Y68.245
X247.842Y68.122
X249.091Y68.245
X250.293Y68.609
X251.4Y69.201
X252.37Y69.997
X253.166Y70.967
X253.758Y72.075
X254.122Y73.276
X254.245Y74.525
X254.122Y75.774
X253.758Y76.975
X253.166Y78.082
X252.37Y79.053
X251.399Y79.849
X250.292Y80.441
X249.091Y80.805
X247.842Y80.928
X246.593Y80.805
X245.392Y80.441
X244.285Y79.849
X243.314Y79.053
X242.518Y78.082
X241.926Y76.975
X241.562Y75.774
X241.439Y74.525
X241.562Y73.276
Z-9.7F15
X241.926Y72.074F30
X242.518Y70.967
X243.314Y69.997
X244.285Y69.201
X245.392Y68.609
X246.593Y68.245
X247.842Y68.122
X249.091Y68.245
X250.293Y68.609
X251.4Y69.201
X252.37Y69.997
X253.166Y70.967
X253.758Y72.075
X254.122Y73.276
X254.245Y74.525
X254.122Y75.774
X253.758Y76.975
X253.166Y78.082
X252.37Y79.053
X251.399Y79.849
X250.292Y80.441
X249.091Y80.805
X247.842Y80.928
X246.593Y80.805
X245.392Y80.441
X244.285Y79.849
X243.314Y79.053
X242.518Y78.082
X241.926Y76.975
X241.562Y75.774
X241.439Y74.525
X241.562Y73.276
Z-9.8F15
X241.926Y72.074F30
X242.518Y70.967
X243.314Y69.997
X244.285Y69.201
X245.392Y68.609
X246.593Y68.245
X247.842Y68.122
X249.091Y68.245
X250.293Y68.609
X251.4Y69.201
X252.37Y69.997
X253.166Y70.967
X253.758Y72.075
X254.122Y73.276
X254.245Y74.525
X254.122Y75.774
X253.758Y76.975
X253.166Y78.082
X252.37Y79.053
X251.399Y79.849
X250.292Y80.441
X249.091Y80.805
X247.842Y80.928
X246.593Y80.805
X245.392Y80.441
X244.285Y79.849
X243.314Y79.053
X242.518Y78.082
X241.926Y76.975
X241.562Y75.774
X241.439Y74.525
X241.562Y73.276
Z-9.9F15
X241.926Y72.074F30
X242.518Y70.967
X243.314Y69.997
X244.285Y69.201
X245.392Y68.609
X246.593Y68.245
X247.842Y68.122
X249.091Y68.245
X250.293Y68.609
X251.4Y69.201
X252.37Y69.997
X253.166Y70.967
X253.758Y72.075
X254.122Y73.276
X254.245Y74.525
X254.122Y75.774
X253.758Y76.975
X253.166Y78.082
X252.37Y79.053
X251.399Y79.849
X250.292Y80.441
X249.091Y80.805
X247.842Y80.928
X246.593Y80.805
X245.392Y80.441
X244.285Y79.849
X243.314Y79.053
X242.518Y78.082
X241.926Y76.975
X241.562Y75.774
X241.439Y74.525
X241.562Y73.276
Z-10F15
X241.926Y72.074F30
X242.518Y70.967
X243.314Y69.997
X244.285Y69.201
X245.392Y68.609
X246.593Y68.245
X247.842Y68.122
X249.091Y68.245
X250.293Y68.609
X251.4Y69.201
X252.37Y69.997
X253.166Y70.967
X253.758Y72.075
X254.122Y73.276
X254.245Y74.525
X254.122Y75.774
X253.758Y76.975
X253.166Y78.082
X252.37Y79.053
X251.399Y79.849
X250.292Y80.441
X249.091Y80.805
X247.842Y80.928
X246.593Y80.805
X245.392Y80.441
X244.285Y79.849
X243.314Y79.053
X242.518Y78.082
X241.926Y76.975
X241.562Y75.774
X241.439Y74.525
X241.562Y73.276
Z-10.1F15
X241.926Y72.074F30
X242.518Y70.967
X243.314Y69.997
X244.285Y69.201
X245.392Y68.609
X246.593Y68.245
X247.842Y68.122
X249.091Y68.245
X250.293Y68.609
X251.4Y69.201
X252.37Y69.997
X253.166Y70.967
X253.758Y72.075
X254.122Y73.276
X254.245Y74.525
X254.122Y75.774
X253.758Y76.975
X253.166Y78.082
X252.37Y79.053
X251.399Y79.849
X250.292Y80.441
X249.091Y80.805
X247.842Y80.928
X246.593Y80.805
X245.392Y80.441
X244.285Y79.849
X243.314Y79.053
X242.518Y78.082
X241.926Y76.975
X241.562Y75.774
X241.439Y74.525
X241.562Y73.276
Z-10.2F15
X241.926Y72.074F30
X242.518Y70.967
X243.314Y69.997
X244.285Y69.201
X245.392Y68.609
X246.593Y68.245
X247.842Y68.122
X249.091Y68.245
X250.293Y68.609
X251.4Y69.201
X252.37Y69.997
X253.166Y70.967
X253.758Y72.075
X254.122Y73.276
X254.245Y74.525
X254.122Y75.774
X253.758Y76.975
X253.166Y78.082
X252.37Y79.053
X251.399Y79.849
X250.292Y80.441
X249.091Y80.805
X247.842Y80.928
X246.593Y80.805
X245.392Y80.441
X244.285Y79.849
X243.314Y79.053
X242.518Y78.082
X241.926Y76.975
X241.562Y75.774
X241.439Y74.525
X241.562Y73.276
Z-10.3F15
X241.926Y72.074F30
X242.518Y70.967
X243.314Y69.997
X244.285Y69.201
X245.392Y68.609
X246.593Y68.245
X247.842Y68.122
X249.091Y68.245
X250.293Y68.609
X251.4Y69.201
X252.37Y69.997
X253.166Y70.967
X253.758Y72.075
X254.122Y73.276
X254.245Y74.525
X254.122Y75.774
X253.758Y76.975
X253.166Y78.082
X252.37Y79.053
X251.399Y79.849
X250.292Y80.441
X249.091Y80.805
X247.842Y80.928
X246.593Y80.805
X245.392Y80.441
X244.285Y79.849
X243.314Y79.053
X242.518Y78.082
X241.926Y76.975
X241.562Y75.774
X241.439Y74.525
X241.562Y73.276
Z-10.4F15
X241.926Y72.074F30
X242.518Y70.967
X243.314Y69.997
X244.285Y69.201
X245.392Y68.609
X246.593Y68.245
X247.842Y68.122
X249.091Y68.245
X250.293Y68.609
X251.4Y69.201
X252.37Y69.997
X253.166Y70.967
X253.758Y72.075
X254.122Y73.276
X254.245Y74.525
X254.122Y75.774
X253.758Y76.975
X253.166Y78.082
X252.37Y79.053
X251.399Y79.849
X250.292Y80.441
X249.091Y80.805
X247.842Y80.928
X246.593Y80.805
X245.392Y80.441
X244.285Y79.849
X243.314Y79.053
X242.518Y78.082
X241.926Y76.975
X241.562Y75.774
X241.439Y74.525
X241.562Y73.276
Z-10.5F15
X241.926Y72.074F30
X242.518Y70.967
X243.314Y69.997
X244.285Y69.201
X245.392Y68.609
X246.593Y68.245
X247.842Y68.122
X249.091Y68.245
X250.293Y68.609
X251.4Y69.201
X252.37Y69.997
X253.166Y70.967
X253.758Y72.075
X254.122Y73.276
X254.245Y74.525
X254.122Y75.774
X253.758Y76.975
X253.166Y78.082
X252.37Y79.053
X251.399Y79.849
X250.292Y80.441
X249.091Y80.805
X247.842Y80.928
X246.593Y80.805
X245.392Y80.441
X244.285Y79.849
X243.314Y79.053
X242.518Y78.082
X241.926Y76.975
X241.562Y75.774
X241.439Y74.525
X241.562Y73.276
Z-10.6F15
X241.926Y72.074F30
X242.518Y70.967
X243.314Y69.997
X244.285Y69.201
X245.392Y68.609
X246.593Y68.245
X247.842Y68.122
X249.091Y68.245
X250.293Y68.609
X251.4Y69.201
X252.37Y69.997
X253.166Y70.967
X253.758Y72.075
X254.122Y73.276
X254.245Y74.525
X254.122Y75.774
X253.758Y76.975
X253.166Y78.082
X252.37Y79.053
X251.399Y79.849
X250.292Y80.441
X249.091Y80.805
X247.842Y80.928
X246.593Y80.805
X245.392Y80.441
X244.285Y79.849
X243.314Y79.053
X242.518Y78.082
X241.926Y76.975
X241.562Y75.774
X241.439Y74.525
X241.562Y73.276
Z-10.7F15
X241.926Y72.074F30
X242.518Y70.967
X243.314Y69.997
X244.285Y69.201
X245.392Y68.609
X246.593Y68.245
X247.842Y68.122
X249.091Y68.245
X250.293Y68.609
X251.4Y69.201
X252.37Y69.997
X253.166Y70.967
X253.758Y72.075
X254.122Y73.276
X254.245Y74.525
X254.122Y75.774
X253.758Y76.975
X253.166Y78.082
X252.37Y79.053
X251.399Y79.849
X250.292Y80.441
X249.091Y80.805
X247.842Y80.928
X246.593Y80.805
X245.392Y80.441
X244.285Y79.849
X243.314Y79.053
X242.518Y78.082
X241.926Y76.975
X241.562Y75.774
X241.439Y74.525
X241.562Y73.276
Z-10.8F15
X241.926Y72.074F30
X242.518Y70.967
X243.314Y69.997
X244.285Y69.201
X245.392Y68.609
X246.593Y68.245
X247.842Y68.122
X249.091Y68.245
X250.293Y68.609
X251.4Y69.201
X252.37Y69.997
X253.166Y70.967
X253.758Y72.075
X254.122Y73.276
X254.245Y74.525
X254.122Y75.774
X253.758Y76.975
X253.166Y78.082
X252.37Y79.053
X251.399Y79.849
X250.292Y80.441
X249.091Y80.805
X247.842Y80.928
X246.593Y80.805
X245.392Y80.441
X244.285Y79.849
X243.314Y79.053
X242.518Y78.082
X241.926Y76.975
X241.562Y75.774
X241.439Y74.525
X241.562Y73.276
Z-10.9F15
X241.926Y72.074F30
X242.518Y70.967
X243.314Y69.997
X244.285Y69.201
X245.392Y68.609
X246.593Y68.245
X247.842Y68.122
X249.091Y68.245
X250.293Y68.609
X251.4Y69.201
X252.37Y69.997
X253.166Y70.967
X253.758Y72.075
X254.122Y73.276
X254.245Y74.525
X254.122Y75.774
X253.758Y76.975
X253.166Y78.082
X252.37Y79.053
X251.399Y79.849
X250.292Y80.441
X249.091Y80.805
X247.842Y80.928
X246.593Y80.805
X245.392Y80.441
X244.285Y79.849
X243.314Y79.053
X242.518Y78.082
X241.926Y76.975
X241.562Y75.774
X241.439Y74.525
X241.562Y73.276
Z-11F15
X241.926Y72.074F30
X242.518Y70.967
X243.314Y69.997
X244.285Y69.201
X245.392Y68.609
X246.593Y68.245
X247.842Y68.122
X249.091Y68.245
X250.293Y68.609
X251.4Y69.201
X252.37Y69.997
X253.166Y70.967
X253.758Y72.075
X254.122Y73.276
X254.245Y74.525
X254.122Y75.774
X253.758Y76.975
X253.166Y78.082
X252.37Y79.053
X251.399Y79.849
X250.292Y80.441
X249.091Y80.805
X247.842Y80.928
X246.593Y80.805
X245.392Y80.441
X244.285Y79.849
X243.314Y79.053
X242.518Y78.082
X241.926Y76.975
X241.562Y75.774
X241.439Y74.525
X241.562Y73.276
Z-11.1F15
X241.926Y72.074F30
X242.518Y70.967
X243.314Y69.997
X244.285Y69.201
X245.392Y68.609
X246.593Y68.245
X247.842Y68.122
X249.091Y68.245
X250.293Y68.609
X251.4Y69.201
X252.37Y69.997
X253.166Y70.967
X253.758Y72.075
X254.122Y73.276
X254.245Y74.525
X254.122Y75.774
X253.758Y76.975
X253.166Y78.082
X252.37Y79.053
X251.399Y79.849
X250.292Y80.441
X249.091Y80.805
X247.842Y80.928
X246.593Y80.805
X245.392Y80.441
X244.285Y79.849
X243.314Y79.053
X242.518Y78.082
X241.926Y76.975
X241.562Y75.774
X241.439Y74.525
X241.562Y73.276
Z-11.2F15
X241.926Y72.074F30
X242.518Y70.967
X243.314Y69.997
X244.285Y69.201
X245.392Y68.609
X246.593Y68.245
X247.842Y68.122
X249.091Y68.245
X250.293Y68.609
X251.4Y69.201
X252.37Y69.997
X253.166Y70.967
X253.758Y72.075
X254.122Y73.276
X254.245Y74.525
X254.122Y75.774
X253.758Y76.975
X253.166Y78.082
X252.37Y79.053
X251.399Y79.849
X250.292Y80.441
X249.091Y80.805
X247.842Y80.928
X246.593Y80.805
X245.392Y80.441
X244.285Y79.849
X243.314Y79.053
X242.518Y78.082
X241.926Y76.975
X241.562Y75.774
X241.439Y74.525
X241.562Y73.276
Z-11.3F15
X241.926Y72.074F30
X242.518Y70.967
X243.314Y69.997
X244.285Y69.201
X245.392Y68.609
X246.593Y68.245
X247.842Y68.122
X249.091Y68.245
X250.293Y68.609
X251.4Y69.201
X252.37Y69.997
X253.166Y70.967
X253.758Y72.075
X254.122Y73.276
X254.245Y74.525
X254.122Y75.774
X253.758Y76.975
X253.166Y78.082
X252.37Y79.053
X251.399Y79.849
X250.292Y80.441
X249.091Y80.805
X247.842Y80.928
X246.593Y80.805
X245.392Y80.441
X244.285Y79.849
X243.314Y79.053
X242.518Y78.082
X241.926Y76.975
X241.562Y75.774
X241.439Y74.525
X241.562Y73.276
Z-11.4F15
X241.926Y72.074F30
X242.518Y70.967
X243.314Y69.997
X244.285Y69.201
X245.392Y68.609
X246.593Y68.245
X247.842Y68.122
X249.091Y68.245
X250.293Y68.609
X251.4Y69.201
X252.37Y69.997
X253.166Y70.967
X253.758Y72.075
X254.122Y73.276
X254.245Y74.525
X254.122Y75.774
X253.758Y76.975
X253.166Y78.082
X252.37Y79.053
X251.399Y79.849
X250.292Y80.441
X249.091Y80.805
X247.842Y80.928
X246.593Y80.805
X245.392Y80.441
X244.285Y79.849
X243.314Y79.053
X242.518Y78.082
X241.926Y76.975
X241.562Y75.774
X241.439Y74.525
X241.562Y73.276
Z-11.5F15
X241.926Y72.074F30
X242.518Y70.967
X243.314Y69.997
X244.285Y69.201
X245.392Y68.609
X246.593Y68.245
X247.842Y68.122
X249.091Y68.245
X250.293Y68.609
X251.4Y69.201
X252.37Y69.997
X253.166Y70.967
X253.758Y72.075
X254.122Y73.276
X254.245Y74.525
X254.122Y75.774
X253.758Y76.975
X253.166Y78.082
X252.37Y79.053
X251.399Y79.849
X250.292Y80.441
X249.091Y80.805
X247.842Y80.928
X246.593Y80.805
X245.392Y80.441
X244.285Y79.849
X243.314Y79.053
X242.518Y78.082
X241.926Y76.975
X241.562Y75.774
X241.439Y74.525
X241.562Y73.276
Z-11.6F15
X241.926Y72.074F30
X242.518Y70.967
X243.314Y69.997
X244.285Y69.201
X245.392Y68.609
X246.593Y68.245
X247.842Y68.122
X249.091Y68.245
X250.293Y68.609
X251.4Y69.201
X252.37Y69.997
X253.166Y70.967
X253.758Y72.075
X254.122Y73.276
X254.245Y74.525
X254.122Y75.774
X253.758Y76.975
X253.166Y78.082
X252.37Y79.053
X251.399Y79.849
X250.292Y80.441
X249.091Y80.805
X247.842Y80.928
X246.593Y80.805
X245.392Y80.441
X244.285Y79.849
X243.314Y79.053
X242.518Y78.082
X241.926Y76.975
X241.562Y75.774
X241.439Y74.525
X241.562Y73.276
Z-11.7F15
X241.926Y72.074F30
X242.518Y70.967
X243.314Y69.997
X244.285Y69.201
X245.392Y68.609
X246.593Y68.245
X247.842Y68.122
X249.091Y68.245
X250.293Y68.609
X251.4Y69.201
X252.37Y69.997
X253.166Y70.967
X253.758Y72.075
X254.122Y73.276
X254.245Y74.525
X254.122Y75.774
X253.758Y76.975
X253.166Y78.082
X252.37Y79.053
X251.399Y79.849
X250.292Y80.441
X249.091Y80.805
X247.842Y80.928
X246.593Y80.805
X245.392Y80.441
X244.285Y79.849
X243.314Y79.053
X242.518Y78.082
X241.926Y76.975
X241.562Y75.774
X241.439Y74.525
X241.562Y73.276
Z-11.8F15
X241.926Y72.074F30
X242.518Y70.967
X243.314Y69.997
X244.285Y69.201
X245.392Y68.609
X246.593Y68.245
X247.842Y68.122
X249.091Y68.245
X250.293Y68.609
X251.4Y69.201
X252.37Y69.997
X253.166Y70.967
X253.758Y72.075
X254.122Y73.276
X254.245Y74.525
X254.122Y75.774
X253.758Y76.975
X253.166Y78.082
X252.37Y79.053
X251.399Y79.849
X250.292Y80.441
X249.091Y80.805
X247.842Y80.928
X246.593Y80.805
X245.392Y80.441
X244.285Y79.849
X243.314Y79.053
X242.518Y78.082
X241.926Y76.975
X241.562Y75.774
X241.439Y74.525
X241.562Y73.276
Z-11.9F15
X241.926Y72.074F30
X242.518Y70.967
X243.314Y69.997
X244.285Y69.201
X245.392Y68.609
X246.593Y68.245
X247.842Y68.122
X249.091Y68.245
X250.293Y68.609
X251.4Y69.201
X252.37Y69.997
X253.166Y70.967
X253.758Y72.075
X254.122Y73.276
X254.245Y74.525
X254.122Y75.774
X253.758Y76.975
X253.166Y78.082
X252.37Y79.053
X251.399Y79.849
X250.292Y80.441
X249.091Y80.805
X247.842Y80.928
X246.593Y80.805
X245.392Y80.441
X244.285Y79.849
X243.314Y79.053
X242.518Y78.082
X241.926Y76.975
X241.562Y75.774
X241.439Y74.525
X241.562Y73.276
Z-12F15
X241.926Y72.074F30
X242.518Y70.967
X243.314Y69.997
X244.285Y69.201
X245.392Y68.609
X246.593Y68.245
X247.842Y68.122
X249.091Y68.245
X250.293Y68.609
X251.4Y69.201
X252.37Y69.997
X253.166Y70.967
X253.758Y72.075
X254.122Y73.276
X254.245Y74.525
X254.122Y75.774
X253.758Y76.975
X253.166Y78.082
X252.37Y79.053
X251.399Y79.849
X250.292Y80.441
X249.091Y80.805
X247.842Y80.928
X246.593Y80.805
X245.392Y80.441
X244.285Y79.849
X243.314Y79.053
X242.518Y78.082
X241.926Y76.975
X241.562Y75.774
X241.439Y74.525
X241.562Y73.276
Z-12.1F15
X241.926Y72.074F30
X242.518Y70.967
X243.314Y69.997
X244.285Y69.201
X245.392Y68.609
X246.593Y68.245
X247.842Y68.122
X249.091Y68.245
X250.293Y68.609
X251.4Y69.201
X252.37Y69.997
X253.166Y70.967
X253.758Y72.075
X254.122Y73.276
X254.245Y74.525
X254.122Y75.774
X253.758Y76.975
X253.166Y78.082
X252.37Y79.053
X251.399Y79.849
X250.292Y80.441
X249.091Y80.805
X247.842Y80.928
X246.593Y80.805
X245.392Y80.441
X244.285Y79.849
X243.314Y79.053
X242.518Y78.082
X241.926Y76.975
X241.562Y75.774
X241.439Y74.525
X241.562Y73.276
Z-12.2F15
X241.926Y72.074F30
X242.518Y70.967
X243.314Y69.997
X244.285Y69.201
X245.392Y68.609
X246.593Y68.245
X247.842Y68.122
X249.091Y68.245
X250.293Y68.609
X251.4Y69.201
X252.37Y69.997
X253.166Y70.967
X253.758Y72.075
X254.122Y73.276
X254.245Y74.525
X254.122Y75.774
X253.758Y76.975
X253.166Y78.082
X252.37Y79.053
X251.399Y79.849
X250.292Y80.441
X249.091Y80.805
X247.842Y80.928
X246.593Y80.805
X245.392Y80.441
X244.285Y79.849
X243.314Y79.053
X242.518Y78.082
X241.926Y76.975
X241.562Y75.774
X241.439Y74.525
X241.562Y73.276
Z-12.3F15
X241.926Y72.074F30
X242.518Y70.967
X243.314Y69.997
X244.285Y69.201
X245.392Y68.609
X246.593Y68.245
X247.842Y68.122
X249.091Y68.245
X250.293Y68.609
X251.4Y69.201
X252.37Y69.997
X253.166Y70.967
X253.758Y72.075
X254.122Y73.276
X254.245Y74.525
X254.122Y75.774
X253.758Y76.975
X253.166Y78.082
X252.37Y79.053
X251.399Y79.849
X250.292Y80.441
X249.091Y80.805
X247.842Y80.928
X246.593Y80.805
X245.392Y80.441
X244.285Y79.849
X243.314Y79.053
X242.518Y78.082
X241.926Y76.975
X241.562Y75.774
X241.439Y74.525
X241.562Y73.276
Z-12.4F15
X241.926Y72.074F30
X242.518Y70.967
X243.314Y69.997
X244.285Y69.201
X245.392Y68.609
X246.593Y68.245
X247.842Y68.122
X249.091Y68.245
X250.293Y68.609
X251.4Y69.201
X252.37Y69.997
X253.166Y70.967
X253.758Y72.075
X254.122Y73.276
X254.245Y74.525
X254.122Y75.774
X253.758Y76.975
X253.166Y78.082
X252.37Y79.053
X251.399Y79.849
X250.292Y80.441
X249.091Y80.805
X247.842Y80.928
X246.593Y80.805
X245.392Y80.441
X244.285Y79.849
X243.314Y79.053
X242.518Y78.082
X241.926Y76.975
X241.562Y75.774
X241.439Y74.525
X241.562Y73.276
Z-12.5F15
X241.926Y72.074F30
X242.518Y70.967
X243.314Y69.997
X244.285Y69.201
X245.392Y68.609
X246.593Y68.245
X247.842Y68.122
X249.091Y68.245
X250.293Y68.609
X251.4Y69.201
X252.37Y69.997
X253.166Y70.967
X253.758Y72.075
X254.122Y73.276
X254.245Y74.525
X254.122Y75.774
X253.758Y76.975
X253.166Y78.082
X252.37Y79.053
X251.399Y79.849
X250.292Y80.441
X249.091Y80.805
X247.842Y80.928
X246.593Y80.805
X245.392Y80.441
X244.285Y79.849
X243.314Y79.053
X242.518Y78.082
X241.926Y76.975
X241.562Y75.774
X241.439Y74.525
X241.562Y73.276
Z-12.6F15
X241.926Y72.074F30
X242.518Y70.967
X243.314Y69.997
X244.285Y69.201
X245.392Y68.609
X246.593Y68.245
X247.842Y68.122
X249.091Y68.245
X250.293Y68.609
X251.4Y69.201
X252.37Y69.997
X253.166Y70.967
X253.758Y72.075
X254.122Y73.276
X254.245Y74.525
X254.122Y75.774
X253.758Y76.975
X253.166Y78.082
X252.37Y79.053
X251.399Y79.849
X250.292Y80.441
X249.091Y80.805
X247.842Y80.928
X246.593Y80.805
X245.392Y80.441
X244.285Y79.849
X243.314Y79.053
X242.518Y78.082
X241.926Y76.975
X241.562Y75.774
X241.439Y74.525
X241.562Y73.276
Z-12.7F15
X241.926Y72.074F30
X242.518Y70.967
X243.314Y69.997
X244.285Y69.201
X245.392Y68.609
X246.593Y68.245
X247.842Y68.122
X249.091Y68.245
X250.293Y68.609
X251.4Y69.201
X252.37Y69.997
X253.166Y70.967
X253.758Y72.075
X254.122Y73.276
X254.245Y74.525
X254.122Y75.774
X253.758Y76.975
X253.166Y78.082
X252.37Y79.053
X251.399Y79.849
X250.292Y80.441
X249.091Y80.805
X247.842Y80.928
X246.593Y80.805
X245.392Y80.441
X244.285Y79.849
X243.314Y79.053
X242.518Y78.082
X241.926Y76.975
X241.562Y75.774
X241.439Y74.525
X241.562Y73.276
Z-12.8F15
X241.926Y72.074F30
X242.518Y70.967
X243.314Y69.997
X244.285Y69.201
X245.392Y68.609
X246.593Y68.245
X247.842Y68.122
X249.091Y68.245
X250.293Y68.609
X251.4Y69.201
X252.37Y69.997
X253.166Y70.967
X253.758Y72.075
X254.122Y73.276
X254.245Y74.525
X254.122Y75.774
X253.758Y76.975
X253.166Y78.082
X252.37Y79.053
X251.399Y79.849
X250.292Y80.441
X249.091Y80.805
X247.842Y80.928
X246.593Y80.805
X245.392Y80.441
X244.285Y79.849
X243.314Y79.053
X242.518Y78.082
X241.926Y76.975
X241.562Y75.774
X241.439Y74.525
X241.562Y73.276
Z-12.9F15
X241.926Y72.074F30
X242.518Y70.967
X243.314Y69.997
X244.285Y69.201
X245.392Y68.609
X246.593Y68.245
X247.842Y68.122
X249.091Y68.245
X250.293Y68.609
X251.4Y69.201
X252.37Y69.997
X253.166Y70.967
X253.758Y72.075
X254.122Y73.276
X254.245Y74.525
X254.122Y75.774
X253.758Y76.975
X253.166Y78.082
X252.37Y79.053
X251.399Y79.849
X250.292Y80.441
X249.091Y80.805
X247.842Y80.928
X246.593Y80.805
X245.392Y80.441
X244.285Y79.849
X243.314Y79.053
X242.518Y78.082
X241.926Y76.975
X241.562Y75.774
X241.439Y74.525
X241.562Y73.276
Z-13F15
X241.926Y72.074F30
X242.518Y70.967
X243.314Y69.997
X244.285Y69.201
X245.392Y68.609
X246.593Y68.245
X247.842Y68.122
X249.091Y68.245
X250.293Y68.609
X251.4Y69.201
X252.37Y69.997
X253.166Y70.967
X253.758Y72.075
X254.122Y73.276
X254.245Y74.525
X254.122Y75.774
X253.758Y76.975
X253.166Y78.082
X252.37Y79.053
X251.399Y79.849
X250.292Y80.441
X249.091Y80.805
X247.842Y80.928
X246.593Y80.805
X245.392Y80.441
X244.285Y79.849
X243.314Y79.053
X242.518Y78.082
X241.926Y76.975
X241.562Y75.774
X241.439Y74.525
X241.562Y73.276
Z-13.1F15
X241.926Y72.074F30
X242.518Y70.967
X243.314Y69.997
X244.285Y69.201
X245.392Y68.609
X246.593Y68.245
X247.842Y68.122
X249.091Y68.245
X250.293Y68.609
X251.4Y69.201
X252.37Y69.997
X253.166Y70.967
X253.758Y72.075
X254.122Y73.276
X254.245Y74.525
X254.122Y75.774
X253.758Y76.975
X253.166Y78.082
X252.37Y79.053
X251.399Y79.849
X250.292Y80.441
X249.091Y80.805
X247.842Y80.928
X246.593Y80.805
X245.392Y80.441
X244.285Y79.849
X243.314Y79.053
X242.518Y78.082
X241.926Y76.975
X241.562Y75.774
X241.439Y74.525
X241.562Y73.276
Z-13.2F15
X241.926Y72.074F30
X242.518Y70.967
X243.314Y69.997
X244.285Y69.201
X245.392Y68.609
X246.593Y68.245
X247.842Y68.122
X249.091Y68.245
X250.293Y68.609
X251.4Y69.201
X252.37Y69.997
X253.166Y70.967
X253.758Y72.075
X254.122Y73.276
X254.245Y74.525
X254.122Y75.774
X253.758Y76.975
X253.166Y78.082
X252.37Y79.053
X251.399Y79.849
X250.292Y80.441
X249.091Y80.805
X247.842Y80.928
X246.593Y80.805
X245.392Y80.441
X244.285Y79.849
X243.314Y79.053
X242.518Y78.082
X241.926Y76.975
X241.562Y75.774
X241.439Y74.525
X241.562Y73.276
Z-13.3F15
X241.926Y72.074F30
X242.518Y70.967
X243.314Y69.997
X244.285Y69.201
X245.392Y68.609
X246.593Y68.245
X247.842Y68.122
X249.091Y68.245
X250.293Y68.609
X251.4Y69.201
X252.37Y69.997
X253.166Y70.967
X253.758Y72.075
X254.122Y73.276
X254.245Y74.525
X254.122Y75.774
X253.758Y76.975
X253.166Y78.082
X252.37Y79.053
X251.399Y79.849
X250.292Y80.441
X249.091Y80.805
X247.842Y80.928
X246.593Y80.805
X245.392Y80.441
X244.285Y79.849
X243.314Y79.053
X242.518Y78.082
X241.926Y76.975
X241.562Y75.774
X241.439Y74.525
X241.562Y73.276
Z-13.4F15
X241.926Y72.074F30
X242.518Y70.967
X243.314Y69.997
X244.285Y69.201
X245.392Y68.609
X246.593Y68.245
X247.842Y68.122
X249.091Y68.245
X250.293Y68.609
X251.4Y69.201
X252.37Y69.997
X253.166Y70.967
X253.758Y72.075
X254.122Y73.276
X254.245Y74.525
X254.122Y75.774
X253.758Y76.975
X253.166Y78.082
X252.37Y79.053
X251.399Y79.849
X250.292Y80.441
X249.091Y80.805
X247.842Y80.928
X246.593Y80.805
X245.392Y80.441
X244.285Y79.849
X243.314Y79.053
X242.518Y78.082
X241.926Y76.975
X241.562Y75.774
X241.439Y74.525
X241.562Y73.276
Z-13.5F15
X241.926Y72.074F30
X242.518Y70.967
X243.314Y69.997
X244.285Y69.201
X245.392Y68.609
X246.593Y68.245
X247.842Y68.122
X249.091Y68.245
X250.293Y68.609
X251.4Y69.201
X252.37Y69.997
X253.166Y70.967
X253.758Y72.075
X254.122Y73.276
X254.245Y74.525
X254.122Y75.774
X253.758Y76.975
X253.166Y78.082
X252.37Y79.053
X251.399Y79.849
X250.292Y80.441
X249.091Y80.805
X247.842Y80.928
X246.593Y80.805
X245.392Y80.441
X244.285Y79.849
X243.314Y79.053
X242.518Y78.082
X241.926Y76.975
X241.562Y75.774
X241.439Y74.525
X241.562Y73.276
Z-13.6F15
X241.926Y72.074F30
X242.518Y70.967
X243.314Y69.997
X244.285Y69.201
X245.392Y68.609
X246.593Y68.245
X247.842Y68.122
X249.091Y68.245
X250.293Y68.609
X251.4Y69.201
X252.37Y69.997
X253.166Y70.967
X253.758Y72.075
X254.122Y73.276
X254.245Y74.525
X254.122Y75.774
X253.758Y76.975
X253.166Y78.082
X252.37Y79.053
X251.399Y79.849
X250.292Y80.441
X249.091Y80.805
X247.842Y80.928
X246.593Y80.805
X245.392Y80.441
X244.285Y79.849
X243.314Y79.053
X242.518Y78.082
X241.926Y76.975
X241.562Y75.774
X241.439Y74.525
X241.562Y73.276
Z-13.7F15
X241.926Y72.074F30
X242.518Y70.967
X243.314Y69.997
X244.285Y69.201
X245.392Y68.609
X246.593Y68.245
X247.842Y68.122
X249.091Y68.245
X250.293Y68.609
X251.4Y69.201
X252.37Y69.997
X253.166Y70.967
X253.758Y72.075
X254.122Y73.276
X254.245Y74.525
X254.122Y75.774
X253.758Y76.975
X253.166Y78.082
X252.37Y79.053
X251.399Y79.849
X250.292Y80.441
X249.091Y80.805
X247.842Y80.928
X246.593Y80.805
X245.392Y80.441
X244.285Y79.849
X243.314Y79.053
X242.518Y78.082
X241.926Y76.975
X241.562Y75.774
X241.439Y74.525
X241.562Y73.276
Z-13.8F15
X241.926Y72.074F30
X242.518Y70.967
X243.314Y69.997
X244.285Y69.201
X245.392Y68.609
X246.593Y68.245
X247.842Y68.122
X249.091Y68.245
X250.293Y68.609
X251.4Y69.201
X252.37Y69.997
X253.166Y70.967
X253.758Y72.075
X254.122Y73.276
X254.245Y74.525
X254.122Y75.774
X253.758Y76.975
X253.166Y78.082
X252.37Y79.053
X251.399Y79.849
X250.292Y80.441
X249.091Y80.805
X247.842Y80.928
X246.593Y80.805
X245.392Y80.441
X244.285Y79.849
X243.314Y79.053
X242.518Y78.082
X241.926Y76.975
X241.562Y75.774
X241.439Y74.525
X241.562Y73.276
Z-13.9F15
X241.926Y72.074F30
X242.518Y70.967
X243.314Y69.997
X244.285Y69.201
X245.392Y68.609
X246.593Y68.245
X247.842Y68.122
X249.091Y68.245
X250.293Y68.609
X251.4Y69.201
X252.37Y69.997
X253.166Y70.967
X253.758Y72.075
X254.122Y73.276
X254.245Y74.525
X254.122Y75.774
X253.758Y76.975
X253.166Y78.082
X252.37Y79.053
X251.399Y79.849
X250.292Y80.441
X249.091Y80.805
X247.842Y80.928
X246.593Y80.805
X245.392Y80.441
X244.285Y79.849
X243.314Y79.053
X242.518Y78.082
X241.926Y76.975
X241.562Y75.774
X241.439Y74.525
X241.562Y73.276
Z-14F15
X241.926Y72.074F30
X242.518Y70.967
X243.314Y69.997
X244.285Y69.201
X245.392Y68.609
X246.593Y68.245
X247.842Y68.122
X249.091Y68.245
X250.293Y68.609
X251.4Y69.201
X252.37Y69.997
X253.166Y70.967
X253.758Y72.075
X254.122Y73.276
X254.245Y74.525
X254.122Y75.774
X253.758Y76.975
X253.166Y78.082
X252.37Y79.053
X251.399Y79.849
X250.292Y80.441
X249.091Y80.805
X247.842Y80.928
X246.593Y80.805
X245.392Y80.441
X244.285Y79.849
X243.314Y79.053
X242.518Y78.082
X241.926Y76.975
X241.562Y75.774
X241.439Y74.525
X241.562Y73.276
G0Z1
 
