(Created with grbl post processor 2025/02/04 15:31)
G21
(G-code generated with BlenderCAM and NC library)
G17G90
(Tool: D = 3.18 mm  type END flutes 2)
S1000M03
G00 Z1.0

G0X0Y0Z1
X122.882Y113.73
G1Z-0.05F50
X122.901Y113.71F100
X122.92Y113.69
X122.94Y113.67
X122.96Y113.651
X122.981Y113.632
X123.002Y113.614
X123.023Y113.596
X123.045Y113.578
X123.066Y113.561
X123.088Y113.544
X123.111Y113.527
X123.133Y113.511
X123.157Y113.495
X123.18Y113.48
X123.203Y113.465
X123.227Y113.45
X123.251Y113.436
X123.275Y113.422
X123.3Y113.409
X123.324Y113.396
X123.349Y113.384
X123.39Y113.364
X123.428Y113.348
X123.477Y113.328
X123.503Y113.318
X123.53Y113.309
X123.582Y113.292
X123.609Y113.284
X123.636Y113.277
X123.663Y113.27
X123.69Y113.263
X123.717Y113.257
X123.744Y113.251
X123.77Y113.247
X123.8Y113.242
X123.827Y113.238
X123.855Y113.234
X123.882Y113.231
X123.91Y113.228
X123.938Y113.226
X123.966Y113.224
X123.994Y113.223
X124.021Y113.222
X124.049
X124.077
X124.105Y113.223
X124.133Y113.224
X124.161Y113.226
X124.189Y113.228
X124.216Y113.231
X124.244Y113.234
X124.271Y113.238
X124.299Y113.242
X124.327Y113.246
X124.354Y113.251
X124.398Y113.261
X124.438Y113.27
X124.489Y113.284
X124.516Y113.292
X124.543Y113.3
X124.569Y113.309
X124.595Y113.318
X124.622Y113.328
X124.648Y113.338
X124.673Y113.349
X124.699Y113.36
X124.724Y113.372
X124.749Y113.384
X124.774Y113.396
X124.799Y113.409
X124.823Y113.422
X124.848Y113.436
X124.872Y113.45
X124.895Y113.465
X124.919Y113.48
X124.942Y113.495
X124.965Y113.511
X124.988Y113.527
X125.01Y113.544
X125.032Y113.561
X125.054Y113.578
X125.076Y113.596
X125.097Y113.614
X125.118Y113.632
X125.138Y113.651
X125.158Y113.67
X125.178Y113.69
X125.198Y113.71
X125.217Y113.73
X125.236Y113.751
X125.254Y113.771
X125.272Y113.792
X125.307Y113.836
X125.324Y113.858
X125.341Y113.88
X125.357Y113.903
X125.373Y113.926
X125.388Y113.949
X125.403Y113.973
X125.418Y113.997
X125.446Y114.045
X125.459Y114.069
X125.472Y114.094
X125.484Y114.119
X125.496Y114.144
X125.508Y114.169
X125.519Y114.195
X125.53Y114.221
X125.54Y114.247
X125.55Y114.273
X125.559Y114.299
X125.568Y114.325
X125.576Y114.352
X125.584Y114.379
X125.591Y114.405
X125.598Y114.432
X125.605Y114.46
X125.611Y114.487
X125.622Y114.542
X125.626Y114.569
X125.63Y114.597
X125.634Y114.624
X125.637Y114.652
X125.64Y114.68
X125.642Y114.707
X125.644Y114.735
X125.645Y114.763
X125.646Y114.791
Y114.819
Y114.847
X125.645Y114.874
X125.644Y114.902
X125.642Y114.93
X125.64Y114.958
X125.637Y114.986
X125.634Y115.013
X125.63Y115.041
X125.626Y115.069
X125.622Y115.096
X125.617Y115.123
X125.611Y115.151
X125.605Y115.178
X125.598Y115.205
X125.591Y115.232
X125.584Y115.259
X125.576Y115.286
X125.568Y115.312
X125.559Y115.339
X125.55Y115.365
X125.54Y115.391
X125.53Y115.417
X125.519Y115.443
X125.508Y115.468
X125.496Y115.494
X125.484Y115.519
X125.472Y115.544
X125.459Y115.568
X125.446Y115.593
X125.432Y115.617
X125.418Y115.641
X125.403Y115.665
X125.388Y115.688
X125.373Y115.711
X125.357Y115.735
X125.341Y115.757
X125.324Y115.78
X125.307Y115.802
X125.29Y115.823
X125.272Y115.845
X125.254Y115.866
X125.236Y115.887
X125.217Y115.908
X125.198Y115.928
X125.178Y115.948
X125.158Y115.967
X125.138Y115.987
X125.118Y116.005
X125.097Y116.024
X125.076Y116.042
X125.054Y116.06
X125.032Y116.077
X125.01Y116.094
X124.988Y116.11
X124.965Y116.127
X124.942Y116.142
X124.919Y116.158
X124.895Y116.173
X124.872Y116.187
X124.848Y116.201
X124.823Y116.215
X124.799Y116.229
X124.774Y116.241
X124.749Y116.254
X124.724Y116.266
X124.699Y116.277
X124.673Y116.288
X124.647Y116.299
X124.621Y116.309
X124.595Y116.319
X124.569Y116.328
X124.543Y116.337
X124.516Y116.346
X124.489Y116.354
X124.463Y116.361
X124.435Y116.368
X124.408Y116.375
X124.381Y116.38
X124.354Y116.386
X124.326Y116.391
X124.299Y116.396
X124.271Y116.4
X124.244Y116.404
X124.216Y116.407
X124.188Y116.409
X124.161Y116.412
X124.133Y116.413
X124.105Y116.414
X124.077Y116.415
X124.031
X123.991Y116.414
X123.968Y116.413
X123.937Y116.411
X123.91Y116.409
X123.882Y116.407
X123.855Y116.404
X123.799Y116.396
X123.772Y116.391
X123.717Y116.38
X123.69Y116.374
X123.663Y116.368
X123.636Y116.361
X123.609Y116.354
X123.582Y116.346
X123.556Y116.337
X123.529Y116.328
X123.503Y116.319
X123.477Y116.309
X123.425Y116.288
X123.4Y116.277
X123.374Y116.266
X123.353Y116.255
X123.323Y116.241
X123.3Y116.229
X123.275Y116.215
X123.251Y116.201
X123.227Y116.187
X123.203Y116.173
X123.18Y116.158
X123.156Y116.142
X123.133Y116.127
X123.111Y116.11
X123.066Y116.077
X123.045Y116.06
X123.023Y116.042
X123.002Y116.024
X122.981Y116.005
X122.96Y115.987
X122.94Y115.967
X122.92Y115.948
X122.901Y115.928
X122.881Y115.908
X122.863Y115.887
X122.826Y115.845
X122.808Y115.823
X122.791Y115.802
X122.774Y115.78
X122.758Y115.757
X122.741Y115.735
X122.726Y115.712
X122.71Y115.688
X122.695Y115.665
X122.681Y115.641
X122.653Y115.593
X122.639Y115.568
X122.618Y115.527
X122.601Y115.491
X122.591Y115.468
X122.58Y115.443
X122.569Y115.417
X122.559Y115.391
X122.549Y115.365
X122.54Y115.339
X122.531Y115.312
X122.522Y115.286
X122.514Y115.259
X122.507Y115.232
X122.5Y115.205
X122.494Y115.178
X122.488Y115.151
X122.482Y115.123
X122.477Y115.096
X122.472Y115.069
X122.468Y115.041
X122.463Y114.997
X122.458Y114.955
X122.456Y114.93
X122.455Y114.902
X122.453Y114.871
Y114.819
Y114.791
X122.454Y114.744
X122.457Y114.705
X122.459Y114.676
X122.461Y114.652
X122.465Y114.624
X122.468Y114.597
X122.472Y114.569
X122.477Y114.541
X122.482Y114.514
X122.494Y114.46
X122.5Y114.433
X122.507Y114.405
X122.514Y114.379
X122.531Y114.325
X122.54Y114.299
X122.549Y114.273
X122.559Y114.247
X122.58Y114.195
X122.591Y114.169
X122.602Y114.144
X122.614Y114.119
X122.627Y114.094
X122.639Y114.069
X122.653Y114.045
X122.667Y114.02
X122.681Y113.996
X122.695Y113.974
X122.71Y113.949
X122.726Y113.926
X122.741Y113.903
X122.758Y113.88
X122.774Y113.858
X122.791Y113.836
X122.826Y113.792
X122.844Y113.771
X122.863Y113.75
X122.882Y113.73
G0Z1
X137.434Y114.803
G1Z-0.05F50
X137.451Y114.628F100
X137.502Y114.458
X137.586Y114.303
X137.698Y114.166
X137.834Y114.054
X137.99Y113.971
X138.159Y113.919
X138.335Y113.902
X138.511Y113.919
X138.68Y113.971
X138.836Y114.054
X138.972Y114.166
X139.084Y114.303
X139.168Y114.458
X139.219Y114.627
X139.236Y114.803
X139.219Y114.979
X139.168Y115.148
X139.084Y115.304
X138.972Y115.441
X138.836Y115.553
X138.68Y115.636
X138.511Y115.687
X138.335Y115.705
X138.159Y115.687
X137.99Y115.636
X137.834Y115.553
X137.698Y115.441
X137.586Y115.304
X137.502Y115.148
X137.451Y114.979
X137.434Y114.803
G0Z1
X153.338
G1Z-0.05F50
X153.355Y114.628F100
X153.406Y114.458
X153.49Y114.303
X153.602Y114.166
X153.738Y114.054
X153.894Y113.971
X154.063Y113.919
X154.239Y113.902
X154.415Y113.919
X154.584Y113.971
X154.74Y114.054
X154.876Y114.166
X154.988Y114.303
X155.072Y114.458
X155.123Y114.628
X155.14Y114.803
X155.123Y114.979
X155.072Y115.148
X154.988Y115.304
X154.876Y115.441
X154.74Y115.553
X154.584Y115.636
X154.415Y115.687
X154.239Y115.705
X154.063Y115.687
X153.894Y115.636
X153.738Y115.553
X153.602Y115.441
X153.49Y115.304
X153.406Y115.148
X153.355Y114.979
X153.338Y114.803
G0Z1
X156.841Y106.878
G1Z-0.05F50
X130.386F100
X129.732Y106.883
X129.078Y106.9
X128.425Y106.927
X127.772Y106.966
X127.12Y107.015
X126.468Y107.075
X125.818Y107.145
X125.169Y107.227
X124.522Y107.319
X123.876Y107.422
X123.232Y107.536
X122.589Y107.66
X122.465Y107.687
X122.342Y107.715
X122.219Y107.746
X122.097Y107.779
X121.975Y107.813
X121.854Y107.85
X121.734Y107.889
X121.614Y107.931
X121.495Y107.974
X121.377Y108.019
X121.26Y108.066
X121.143Y108.116
X121.027Y108.167
X120.912Y108.221
X120.799Y108.276
X120.686Y108.333
X120.574Y108.392
X120.463Y108.453
X120.353Y108.517
X120.245Y108.582
X120.137Y108.649
X120.031Y108.717
X119.926Y108.788
X119.822Y108.86
X119.719Y108.934
X119.618Y109.01
X119.518Y109.088
X119.42Y109.167
X119.322Y109.248
X119.227Y109.331
X119.132Y109.415
X119.039Y109.501
X118.948Y109.589
X118.858Y109.678
X118.77Y109.769
X118.683Y109.861
X118.598Y109.955
X118.515Y110.05
X118.433Y110.146
X118.333Y110.268
X118.235Y110.392
X118.14Y110.517
X118.045Y110.645
X117.954Y110.774
X117.865Y110.904
X117.778Y111.036
X117.693Y111.17
X117.611Y111.304
X117.531Y111.441
X117.453Y111.578
X117.378Y111.717
X117.305Y111.857
X117.234Y111.998
X117.166Y112.141
X117.101Y112.285
X117.037Y112.429
X116.977Y112.575
X116.919Y112.722
X116.863Y112.87
X116.81Y113.019
X116.759Y113.168
X116.711Y113.319
X116.666Y113.47
X116.623Y113.622
X116.583Y113.775
X116.545Y113.928
X116.51Y114.082
X116.478Y114.237
X116.448Y114.392
X116.421Y114.548
X116.397Y114.704
X116.375Y114.86
X116.357Y115.017
X116.34Y115.174
X116.327Y115.331
X116.316Y115.489
X116.308Y115.647
X116.302Y115.805
X116.3Y115.963
Y116.12
X116.302Y116.278
X116.308Y116.436
X116.316Y116.594
X116.326Y116.752
X116.34Y116.909
X116.356Y117.066
X116.375Y117.223
X116.395Y117.366
X116.814Y120.257
X116.828Y120.332
X116.844Y120.409
X116.863Y120.484
X116.885Y120.558
X116.909Y120.631
X116.936Y120.704
X116.965Y120.776
X116.997Y120.846
X117.031Y120.916
X117.068Y120.984
X117.106Y121.051
X117.148Y121.117
X117.191Y121.181
X117.237Y121.243
X117.285Y121.305
X117.335Y121.363
X117.387Y121.421
X117.441Y121.477
X117.496Y121.53
X117.554Y121.582
X117.614Y121.631
X117.675Y121.679
X117.738Y121.725
X117.801Y121.767
X117.868Y121.809
X117.935Y121.847
X118.003Y121.883
X118.074Y121.918
X118.143Y121.949
X118.216Y121.978
X118.288Y122.004
X118.362Y122.028
X118.436Y122.049
X118.512Y122.068
X118.587Y122.084
X118.664Y122.098
X118.741Y122.108
X118.817Y122.116
X118.895Y122.122
X118.972Y122.124
X119.011Y122.125
X124.062
X124.179Y122.124
X124.296Y122.121
X124.412Y122.116
X124.529Y122.109
X125.784Y122.018
X126.937Y121.954
X128.091Y121.908
X129.245Y121.88
X130.406Y121.871
X133.958
X133.997Y121.874
X134.035Y121.876
X134.073Y121.878
X134.111
X162.111
X162.151
X162.191Y121.876
X162.23Y121.874
X162.27Y121.87
X162.309Y121.866
X162.349Y121.86
X162.388Y121.854
X162.427Y121.846
X162.466Y121.838
X162.505Y121.829
X162.543Y121.818
X162.581Y121.807
X162.619Y121.795
X162.657Y121.782
X162.694Y121.768
X162.731Y121.753
X162.767Y121.737
X162.803Y121.72
X162.839Y121.702
X162.874Y121.684
X162.909Y121.664
X162.943Y121.643
X162.978Y121.622
X163.011Y121.599
X163.044Y121.576
X163.077Y121.552
X163.109Y121.527
X163.14Y121.501
X163.155Y121.488
X163.184Y121.462
X163.206Y121.441
X163.228Y121.42
X163.256Y121.392
X163.284Y121.362
X163.316Y121.326
X163.347Y121.29
X163.369Y121.262
X163.39Y121.234
X163.411Y121.205
X163.431Y121.176
X163.45Y121.146
X163.469Y121.116
X163.486Y121.088
X163.502Y121.059
X163.518Y121.03
X163.537Y120.993
X163.555Y120.955
X163.568Y120.926
X163.581Y120.896
X163.597Y120.856
X163.605Y120.834
X163.619Y120.794
X163.632Y120.753
X163.645Y120.711
X163.656Y120.669
X163.666Y120.626
X163.674Y120.586
X163.681Y120.545
X163.689Y120.494
X163.695Y120.438
X163.698Y120.404
X163.7Y120.371
X163.701Y120.337
X163.702Y120.287
Y120.055
X163.713Y119.993
X163.724Y119.916
X163.732Y119.839
X163.737Y119.761
X163.74Y119.683
Y119.645
Y108.811
Y108.772
X163.738Y108.732
X163.736Y108.693
X163.732Y108.654
X163.728Y108.614
X163.723Y108.575
X163.716Y108.536
X163.709Y108.498
X163.702Y108.464
X163.701Y108.422
X163.698Y108.379
X163.695Y108.336
X163.69Y108.293
X163.684Y108.25
X163.677Y108.208
X163.669Y108.166
X163.66Y108.124
X163.65Y108.082
X163.64Y108.047
X163.63Y108.013
X163.619Y107.979
X163.607Y107.945
X163.594Y107.911
X163.578Y107.87
X163.56Y107.829
X163.541Y107.789
X163.519Y107.745
X163.502Y107.715
X163.486Y107.686
X163.464Y107.65
X163.441Y107.614
X163.42Y107.582
X163.397Y107.551
X163.374Y107.52
X163.35Y107.49
X163.326Y107.46
X163.301Y107.431
X163.275Y107.402
X163.248Y107.374
X163.221Y107.347
X163.193Y107.32
X163.164Y107.295
X163.135Y107.269
X163.105Y107.245
X163.075Y107.221
X163.044Y107.198
X163.012Y107.176
X162.98Y107.155
X162.948Y107.134
X162.915Y107.114
X162.881Y107.095
X162.846Y107.076
X162.812Y107.059
X162.778Y107.043
X162.743Y107.027
X162.708Y107.012
X162.672Y106.998
X162.636Y106.985
X162.6Y106.973
X162.563Y106.962
X162.527Y106.951
X162.49Y106.942
X162.452Y106.933
X162.415Y106.925
X162.377Y106.919
X162.34Y106.913
X162.302Y106.908
X162.264Y106.904
X162.226Y106.9
X162.188Y106.898
X162.149Y106.897
X162.111Y106.896
X158.175
X157.585Y106.883
X156.841Y106.878
G0Z1
X122.882Y113.73
G1Z-0.1F50
X122.901Y113.71F100
X122.92Y113.69
X122.94Y113.67
X122.96Y113.651
X122.981Y113.632
X123.002Y113.614
X123.023Y113.596
X123.045Y113.578
X123.066Y113.561
X123.088Y113.544
X123.111Y113.527
X123.133Y113.511
X123.157Y113.495
X123.18Y113.48
X123.203Y113.465
X123.227Y113.45
X123.251Y113.436
X123.275Y113.422
X123.3Y113.409
X123.324Y113.396
X123.349Y113.384
X123.39Y113.364
X123.428Y113.348
X123.477Y113.328
X123.503Y113.318
X123.53Y113.309
X123.582Y113.292
X123.609Y113.284
X123.636Y113.277
X123.663Y113.27
X123.69Y113.263
X123.717Y113.257
X123.744Y113.251
X123.77Y113.247
X123.8Y113.242
X123.827Y113.238
X123.855Y113.234
X123.882Y113.231
X123.91Y113.228
X123.938Y113.226
X123.966Y113.224
X123.994Y113.223
X124.021Y113.222
X124.049
X124.077
X124.105Y113.223
X124.133Y113.224
X124.161Y113.226
X124.189Y113.228
X124.216Y113.231
X124.244Y113.234
X124.271Y113.238
X124.299Y113.242
X124.327Y113.246
X124.354Y113.251
X124.398Y113.261
X124.438Y113.27
X124.489Y113.284
X124.516Y113.292
X124.543Y113.3
X124.569Y113.309
X124.595Y113.318
X124.622Y113.328
X124.648Y113.338
X124.673Y113.349
X124.699Y113.36
X124.724Y113.372
X124.749Y113.384
X124.774Y113.396
X124.799Y113.409
X124.823Y113.422
X124.848Y113.436
X124.872Y113.45
X124.895Y113.465
X124.919Y113.48
X124.942Y113.495
X124.965Y113.511
X124.988Y113.527
X125.01Y113.544
X125.032Y113.561
X125.054Y113.578
X125.076Y113.596
X125.097Y113.614
X125.118Y113.632
X125.138Y113.651
X125.158Y113.67
X125.178Y113.69
X125.198Y113.71
X125.217Y113.73
X125.236Y113.751
X125.254Y113.771
X125.272Y113.792
X125.307Y113.836
X125.324Y113.858
X125.341Y113.88
X125.357Y113.903
X125.373Y113.926
X125.388Y113.949
X125.403Y113.973
X125.418Y113.997
X125.446Y114.045
X125.459Y114.069
X125.472Y114.094
X125.484Y114.119
X125.496Y114.144
X125.508Y114.169
X125.519Y114.195
X125.53Y114.221
X125.54Y114.247
X125.55Y114.273
X125.559Y114.299
X125.568Y114.325
X125.576Y114.352
X125.584Y114.379
X125.591Y114.405
X125.598Y114.432
X125.605Y114.46
X125.611Y114.487
X125.622Y114.542
X125.626Y114.569
X125.63Y114.597
X125.634Y114.624
X125.637Y114.652
X125.64Y114.68
X125.642Y114.707
X125.644Y114.735
X125.645Y114.763
X125.646Y114.791
Y114.819
Y114.847
X125.645Y114.874
X125.644Y114.902
X125.642Y114.93
X125.64Y114.958
X125.637Y114.986
X125.634Y115.013
X125.63Y115.041
X125.626Y115.069
X125.622Y115.096
X125.617Y115.123
X125.611Y115.151
X125.605Y115.178
X125.598Y115.205
X125.591Y115.232
X125.584Y115.259
X125.576Y115.286
X125.568Y115.312
X125.559Y115.339
X125.55Y115.365
X125.54Y115.391
X125.53Y115.417
X125.519Y115.443
X125.508Y115.468
X125.496Y115.494
X125.484Y115.519
X125.472Y115.544
X125.459Y115.568
X125.446Y115.593
X125.432Y115.617
X125.418Y115.641
X125.403Y115.665
X125.388Y115.688
X125.373Y115.711
X125.357Y115.735
X125.341Y115.757
X125.324Y115.78
X125.307Y115.802
X125.29Y115.823
X125.272Y115.845
X125.254Y115.866
X125.236Y115.887
X125.217Y115.908
X125.198Y115.928
X125.178Y115.948
X125.158Y115.967
X125.138Y115.987
X125.118Y116.005
X125.097Y116.024
X125.076Y116.042
X125.054Y116.06
X125.032Y116.077
X125.01Y116.094
X124.988Y116.11
X124.965Y116.127
X124.942Y116.142
X124.919Y116.158
X124.895Y116.173
X124.872Y116.187
X124.848Y116.201
X124.823Y116.215
X124.799Y116.229
X124.774Y116.241
X124.749Y116.254
X124.724Y116.266
X124.699Y116.277
X124.673Y116.288
X124.647Y116.299
X124.621Y116.309
X124.595Y116.319
X124.569Y116.328
X124.543Y116.337
X124.516Y116.346
X124.489Y116.354
X124.463Y116.361
X124.435Y116.368
X124.408Y116.375
X124.381Y116.38
X124.354Y116.386
X124.326Y116.391
X124.299Y116.396
X124.271Y116.4
X124.244Y116.404
X124.216Y116.407
X124.188Y116.409
X124.161Y116.412
X124.133Y116.413
X124.105Y116.414
X124.077Y116.415
X124.031
X123.991Y116.414
X123.968Y116.413
X123.937Y116.411
X123.91Y116.409
X123.882Y116.407
X123.855Y116.404
X123.799Y116.396
X123.772Y116.391
X123.717Y116.38
X123.69Y116.374
X123.663Y116.368
X123.636Y116.361
X123.609Y116.354
X123.582Y116.346
X123.556Y116.337
X123.529Y116.328
X123.503Y116.319
X123.477Y116.309
X123.425Y116.288
X123.4Y116.277
X123.374Y116.266
X123.353Y116.255
X123.323Y116.241
X123.3Y116.229
X123.275Y116.215
X123.251Y116.201
X123.227Y116.187
X123.203Y116.173
X123.18Y116.158
X123.156Y116.142
X123.133Y116.127
X123.111Y116.11
X123.066Y116.077
X123.045Y116.06
X123.023Y116.042
X123.002Y116.024
X122.981Y116.005
X122.96Y115.987
X122.94Y115.967
X122.92Y115.948
X122.901Y115.928
X122.881Y115.908
X122.863Y115.887
X122.826Y115.845
X122.808Y115.823
X122.791Y115.802
X122.774Y115.78
X122.758Y115.757
X122.741Y115.735
X122.726Y115.712
X122.71Y115.688
X122.695Y115.665
X122.681Y115.641
X122.653Y115.593
X122.639Y115.568
X122.618Y115.527
X122.601Y115.491
X122.591Y115.468
X122.58Y115.443
X122.569Y115.417
X122.559Y115.391
X122.549Y115.365
X122.54Y115.339
X122.531Y115.312
X122.522Y115.286
X122.514Y115.259
X122.507Y115.232
X122.5Y115.205
X122.494Y115.178
X122.488Y115.151
X122.482Y115.123
X122.477Y115.096
X122.472Y115.069
X122.468Y115.041
X122.463Y114.997
X122.458Y114.955
X122.456Y114.93
X122.455Y114.902
X122.453Y114.871
Y114.819
Y114.791
X122.454Y114.744
X122.457Y114.705
X122.459Y114.676
X122.461Y114.652
X122.465Y114.624
X122.468Y114.597
X122.472Y114.569
X122.477Y114.541
X122.482Y114.514
X122.494Y114.46
X122.5Y114.433
X122.507Y114.405
X122.514Y114.379
X122.531Y114.325
X122.54Y114.299
X122.549Y114.273
X122.559Y114.247
X122.58Y114.195
X122.591Y114.169
X122.602Y114.144
X122.614Y114.119
X122.627Y114.094
X122.639Y114.069
X122.653Y114.045
X122.667Y114.02
X122.681Y113.996
X122.695Y113.974
X122.71Y113.949
X122.726Y113.926
X122.741Y113.903
X122.758Y113.88
X122.774Y113.858
X122.791Y113.836
X122.826Y113.792
X122.844Y113.771
X122.863Y113.75
X122.882Y113.73
G0Z1
X137.434Y114.803
G1Z-0.1F50
X137.451Y114.628F100
X137.502Y114.458
X137.586Y114.303
X137.698Y114.166
X137.834Y114.054
X137.99Y113.971
X138.159Y113.919
X138.335Y113.902
X138.511Y113.919
X138.68Y113.971
X138.836Y114.054
X138.972Y114.166
X139.084Y114.303
X139.168Y114.458
X139.219Y114.627
X139.236Y114.803
X139.219Y114.979
X139.168Y115.148
X139.084Y115.304
X138.972Y115.441
X138.836Y115.553
X138.68Y115.636
X138.511Y115.687
X138.335Y115.705
X138.159Y115.687
X137.99Y115.636
X137.834Y115.553
X137.698Y115.441
X137.586Y115.304
X137.502Y115.148
X137.451Y114.979
X137.434Y114.803
G0Z1
X153.338
G1Z-0.1F50
X153.355Y114.628F100
X153.406Y114.458
X153.49Y114.303
X153.602Y114.166
X153.738Y114.054
X153.894Y113.971
X154.063Y113.919
X154.239Y113.902
X154.415Y113.919
X154.584Y113.971
X154.74Y114.054
X154.876Y114.166
X154.988Y114.303
X155.072Y114.458
X155.123Y114.628
X155.14Y114.803
X155.123Y114.979
X155.072Y115.148
X154.988Y115.304
X154.876Y115.441
X154.74Y115.553
X154.584Y115.636
X154.415Y115.687
X154.239Y115.705
X154.063Y115.687
X153.894Y115.636
X153.738Y115.553
X153.602Y115.441
X153.49Y115.304
X153.406Y115.148
X153.355Y114.979
X153.338Y114.803
G0Z1
X156.841Y106.878
G1Z-0.1F50
X130.386F100
X129.732Y106.883
X129.078Y106.9
X128.425Y106.927
X127.772Y106.966
X127.12Y107.015
X126.468Y107.075
X125.818Y107.145
X125.169Y107.227
X124.522Y107.319
X123.876Y107.422
X123.232Y107.536
X122.589Y107.66
X122.465Y107.687
X122.342Y107.715
X122.219Y107.746
X122.097Y107.779
X121.975Y107.813
X121.854Y107.85
X121.734Y107.889
X121.614Y107.931
X121.495Y107.974
X121.377Y108.019
X121.26Y108.066
X121.143Y108.116
X121.027Y108.167
X120.912Y108.221
X120.799Y108.276
X120.686Y108.333
X120.574Y108.392
X120.463Y108.453
X120.353Y108.517
X120.245Y108.582
X120.137Y108.649
X120.031Y108.717
X119.926Y108.788
X119.822Y108.86
X119.719Y108.934
X119.618Y109.01
X119.518Y109.088
X119.42Y109.167
X119.322Y109.248
X119.227Y109.331
X119.132Y109.415
X119.039Y109.501
X118.948Y109.589
X118.858Y109.678
X118.77Y109.769
X118.683Y109.861
X118.598Y109.955
X118.515Y110.05
X118.433Y110.146
X118.333Y110.268
X118.235Y110.392
X118.14Y110.517
X118.045Y110.645
X117.954Y110.774
X117.865Y110.904
X117.778Y111.036
X117.693Y111.17
X117.611Y111.304
X117.531Y111.441
X117.453Y111.578
X117.378Y111.717
X117.305Y111.857
X117.234Y111.998
X117.166Y112.141
X117.101Y112.285
X117.037Y112.429
X116.977Y112.575
X116.919Y112.722
X116.863Y112.87
X116.81Y113.019
X116.759Y113.168
X116.711Y113.319
X116.666Y113.47
X116.623Y113.622
X116.583Y113.775
X116.545Y113.928
X116.51Y114.082
X116.478Y114.237
X116.448Y114.392
X116.421Y114.548
X116.397Y114.704
X116.375Y114.86
X116.357Y115.017
X116.34Y115.174
X116.327Y115.331
X116.316Y115.489
X116.308Y115.647
X116.302Y115.805
X116.3Y115.963
Y116.12
X116.302Y116.278
X116.308Y116.436
X116.316Y116.594
X116.326Y116.752
X116.34Y116.909
X116.356Y117.066
X116.375Y117.223
X116.395Y117.366
X116.814Y120.257
X116.828Y120.332
X116.844Y120.409
X116.863Y120.484
X116.885Y120.558
X116.909Y120.631
X116.936Y120.704
X116.965Y120.776
X116.997Y120.846
X117.031Y120.916
X117.068Y120.984
X117.106Y121.051
X117.148Y121.117
X117.191Y121.181
X117.237Y121.243
X117.285Y121.305
X117.335Y121.363
X117.387Y121.421
X117.441Y121.477
X117.496Y121.53
X117.554Y121.582
X117.614Y121.631
X117.675Y121.679
X117.738Y121.725
X117.801Y121.767
X117.868Y121.809
X117.935Y121.847
X118.003Y121.883
X118.074Y121.918
X118.143Y121.949
X118.216Y121.978
X118.288Y122.004
X118.362Y122.028
X118.436Y122.049
X118.512Y122.068
X118.587Y122.084
X118.664Y122.098
X118.741Y122.108
X118.817Y122.116
X118.895Y122.122
X118.972Y122.124
X119.011Y122.125
X124.062
X124.179Y122.124
X124.296Y122.121
X124.412Y122.116
X124.529Y122.109
X125.784Y122.018
X126.937Y121.954
X128.091Y121.908
X129.245Y121.88
X130.406Y121.871
X133.958
X133.997Y121.874
X134.035Y121.876
X134.073Y121.878
X134.111
X162.111
X162.151
X162.191Y121.876
X162.23Y121.874
X162.27Y121.87
X162.309Y121.866
X162.349Y121.86
X162.388Y121.854
X162.427Y121.846
X162.466Y121.838
X162.505Y121.829
X162.543Y121.818
X162.581Y121.807
X162.619Y121.795
X162.657Y121.782
X162.694Y121.768
X162.731Y121.753
X162.767Y121.737
X162.803Y121.72
X162.839Y121.702
X162.874Y121.684
X162.909Y121.664
X162.943Y121.643
X162.978Y121.622
X163.011Y121.599
X163.044Y121.576
X163.077Y121.552
X163.109Y121.527
X163.14Y121.501
X163.155Y121.488
X163.184Y121.462
X163.206Y121.441
X163.228Y121.42
X163.256Y121.392
X163.284Y121.362
X163.316Y121.326
X163.347Y121.29
X163.369Y121.262
X163.39Y121.234
X163.411Y121.205
X163.431Y121.176
X163.45Y121.146
X163.469Y121.116
X163.486Y121.088
X163.502Y121.059
X163.518Y121.03
X163.537Y120.993
X163.555Y120.955
X163.568Y120.926
X163.581Y120.896
X163.597Y120.856
X163.605Y120.834
X163.619Y120.794
X163.632Y120.753
X163.645Y120.711
X163.656Y120.669
X163.666Y120.626
X163.674Y120.586
X163.681Y120.545
X163.689Y120.494
X163.695Y120.438
X163.698Y120.404
X163.7Y120.371
X163.701Y120.337
X163.702Y120.287
Y120.055
X163.713Y119.993
X163.724Y119.916
X163.732Y119.839
X163.737Y119.761
X163.74Y119.683
Y119.645
Y108.811
Y108.772
X163.738Y108.732
X163.736Y108.693
X163.732Y108.654
X163.728Y108.614
X163.723Y108.575
X163.716Y108.536
X163.709Y108.498
X163.702Y108.464
X163.701Y108.422
X163.698Y108.379
X163.695Y108.336
X163.69Y108.293
X163.684Y108.25
X163.677Y108.208
X163.669Y108.166
X163.66Y108.124
X163.65Y108.082
X163.64Y108.047
X163.63Y108.013
X163.619Y107.979
X163.607Y107.945
X163.594Y107.911
X163.578Y107.87
X163.56Y107.829
X163.541Y107.789
X163.519Y107.745
X163.502Y107.715
X163.486Y107.686
X163.464Y107.65
X163.441Y107.614
X163.42Y107.582
X163.397Y107.551
X163.374Y107.52
X163.35Y107.49
X163.326Y107.46
X163.301Y107.431
X163.275Y107.402
X163.248Y107.374
X163.221Y107.347
X163.193Y107.32
X163.164Y107.295
X163.135Y107.269
X163.105Y107.245
X163.075Y107.221
X163.044Y107.198
X163.012Y107.176
X162.98Y107.155
X162.948Y107.134
X162.915Y107.114
X162.881Y107.095
X162.846Y107.076
X162.812Y107.059
X162.778Y107.043
X162.743Y107.027
X162.708Y107.012
X162.672Y106.998
X162.636Y106.985
X162.6Y106.973
X162.563Y106.962
X162.527Y106.951
X162.49Y106.942
X162.452Y106.933
X162.415Y106.925
X162.377Y106.919
X162.34Y106.913
X162.302Y106.908
X162.264Y106.904
X162.226Y106.9
X162.188Y106.898
X162.149Y106.897
X162.111Y106.896
X158.175
X157.585Y106.883
X156.841Y106.878
G0Z1
X122.882Y113.73
G1Z-0.15F50
X122.901Y113.71F100
X122.92Y113.69
X122.94Y113.67
X122.96Y113.651
X122.981Y113.632
X123.002Y113.614
X123.023Y113.596
X123.045Y113.578
X123.066Y113.561
X123.088Y113.544
X123.111Y113.527
X123.133Y113.511
X123.157Y113.495
X123.18Y113.48
X123.203Y113.465
X123.227Y113.45
X123.251Y113.436
X123.275Y113.422
X123.3Y113.409
X123.324Y113.396
X123.349Y113.384
X123.39Y113.364
X123.428Y113.348
X123.477Y113.328
X123.503Y113.318
X123.53Y113.309
X123.582Y113.292
X123.609Y113.284
X123.636Y113.277
X123.663Y113.27
X123.69Y113.263
X123.717Y113.257
X123.744Y113.251
X123.77Y113.247
X123.8Y113.242
X123.827Y113.238
X123.855Y113.234
X123.882Y113.231
X123.91Y113.228
X123.938Y113.226
X123.966Y113.224
X123.994Y113.223
X124.021Y113.222
X124.049
X124.077
X124.105Y113.223
X124.133Y113.224
X124.161Y113.226
X124.189Y113.228
X124.216Y113.231
X124.244Y113.234
X124.271Y113.238
X124.299Y113.242
X124.327Y113.246
X124.354Y113.251
X124.398Y113.261
X124.438Y113.27
X124.489Y113.284
X124.516Y113.292
X124.543Y113.3
X124.569Y113.309
X124.595Y113.318
X124.622Y113.328
X124.648Y113.338
X124.673Y113.349
X124.699Y113.36
X124.724Y113.372
X124.749Y113.384
X124.774Y113.396
X124.799Y113.409
X124.823Y113.422
X124.848Y113.436
X124.872Y113.45
X124.895Y113.465
X124.919Y113.48
X124.942Y113.495
X124.965Y113.511
X124.988Y113.527
X125.01Y113.544
X125.032Y113.561
X125.054Y113.578
X125.076Y113.596
X125.097Y113.614
X125.118Y113.632
X125.138Y113.651
X125.158Y113.67
X125.178Y113.69
X125.198Y113.71
X125.217Y113.73
X125.236Y113.751
X125.254Y113.771
X125.272Y113.792
X125.307Y113.836
X125.324Y113.858
X125.341Y113.88
X125.357Y113.903
X125.373Y113.926
X125.388Y113.949
X125.403Y113.973
X125.418Y113.997
X125.446Y114.045
X125.459Y114.069
X125.472Y114.094
X125.484Y114.119
X125.496Y114.144
X125.508Y114.169
X125.519Y114.195
X125.53Y114.221
X125.54Y114.247
X125.55Y114.273
X125.559Y114.299
X125.568Y114.325
X125.576Y114.352
X125.584Y114.379
X125.591Y114.405
X125.598Y114.432
X125.605Y114.46
X125.611Y114.487
X125.622Y114.542
X125.626Y114.569
X125.63Y114.597
X125.634Y114.624
X125.637Y114.652
X125.64Y114.68
X125.642Y114.707
X125.644Y114.735
X125.645Y114.763
X125.646Y114.791
Y114.819
Y114.847
X125.645Y114.874
X125.644Y114.902
X125.642Y114.93
X125.64Y114.958
X125.637Y114.986
X125.634Y115.013
X125.63Y115.041
X125.626Y115.069
X125.622Y115.096
X125.617Y115.123
X125.611Y115.151
X125.605Y115.178
X125.598Y115.205
X125.591Y115.232
X125.584Y115.259
X125.576Y115.286
X125.568Y115.312
X125.559Y115.339
X125.55Y115.365
X125.54Y115.391
X125.53Y115.417
X125.519Y115.443
X125.508Y115.468
X125.496Y115.494
X125.484Y115.519
X125.472Y115.544
X125.459Y115.568
X125.446Y115.593
X125.432Y115.617
X125.418Y115.641
X125.403Y115.665
X125.388Y115.688
X125.373Y115.711
X125.357Y115.735
X125.341Y115.757
X125.324Y115.78
X125.307Y115.802
X125.29Y115.823
X125.272Y115.845
X125.254Y115.866
X125.236Y115.887
X125.217Y115.908
X125.198Y115.928
X125.178Y115.948
X125.158Y115.967
X125.138Y115.987
X125.118Y116.005
X125.097Y116.024
X125.076Y116.042
X125.054Y116.06
X125.032Y116.077
X125.01Y116.094
X124.988Y116.11
X124.965Y116.127
X124.942Y116.142
X124.919Y116.158
X124.895Y116.173
X124.872Y116.187
X124.848Y116.201
X124.823Y116.215
X124.799Y116.229
X124.774Y116.241
X124.749Y116.254
X124.724Y116.266
X124.699Y116.277
X124.673Y116.288
X124.647Y116.299
X124.621Y116.309
X124.595Y116.319
X124.569Y116.328
X124.543Y116.337
X124.516Y116.346
X124.489Y116.354
X124.463Y116.361
X124.435Y116.368
X124.408Y116.375
X124.381Y116.38
X124.354Y116.386
X124.326Y116.391
X124.299Y116.396
X124.271Y116.4
X124.244Y116.404
X124.216Y116.407
X124.188Y116.409
X124.161Y116.412
X124.133Y116.413
X124.105Y116.414
X124.077Y116.415
X124.031
X123.991Y116.414
X123.968Y116.413
X123.937Y116.411
X123.91Y116.409
X123.882Y116.407
X123.855Y116.404
X123.799Y116.396
X123.772Y116.391
X123.717Y116.38
X123.69Y116.374
X123.663Y116.368
X123.636Y116.361
X123.609Y116.354
X123.582Y116.346
X123.556Y116.337
X123.529Y116.328
X123.503Y116.319
X123.477Y116.309
X123.425Y116.288
X123.4Y116.277
X123.374Y116.266
X123.353Y116.255
X123.323Y116.241
X123.3Y116.229
X123.275Y116.215
X123.251Y116.201
X123.227Y116.187
X123.203Y116.173
X123.18Y116.158
X123.156Y116.142
X123.133Y116.127
X123.111Y116.11
X123.066Y116.077
X123.045Y116.06
X123.023Y116.042
X123.002Y116.024
X122.981Y116.005
X122.96Y115.987
X122.94Y115.967
X122.92Y115.948
X122.901Y115.928
X122.881Y115.908
X122.863Y115.887
X122.826Y115.845
X122.808Y115.823
X122.791Y115.802
X122.774Y115.78
X122.758Y115.757
X122.741Y115.735
X122.726Y115.712
X122.71Y115.688
X122.695Y115.665
X122.681Y115.641
X122.653Y115.593
X122.639Y115.568
X122.618Y115.527
X122.601Y115.491
X122.591Y115.468
X122.58Y115.443
X122.569Y115.417
X122.559Y115.391
X122.549Y115.365
X122.54Y115.339
X122.531Y115.312
X122.522Y115.286
X122.514Y115.259
X122.507Y115.232
X122.5Y115.205
X122.494Y115.178
X122.488Y115.151
X122.482Y115.123
X122.477Y115.096
X122.472Y115.069
X122.468Y115.041
X122.463Y114.997
X122.458Y114.955
X122.456Y114.93
X122.455Y114.902
X122.453Y114.871
Y114.819
Y114.791
X122.454Y114.744
X122.457Y114.705
X122.459Y114.676
X122.461Y114.652
X122.465Y114.624
X122.468Y114.597
X122.472Y114.569
X122.477Y114.541
X122.482Y114.514
X122.494Y114.46
X122.5Y114.433
X122.507Y114.405
X122.514Y114.379
X122.531Y114.325
X122.54Y114.299
X122.549Y114.273
X122.559Y114.247
X122.58Y114.195
X122.591Y114.169
X122.602Y114.144
X122.614Y114.119
X122.627Y114.094
X122.639Y114.069
X122.653Y114.045
X122.667Y114.02
X122.681Y113.996
X122.695Y113.974
X122.71Y113.949
X122.726Y113.926
X122.741Y113.903
X122.758Y113.88
X122.774Y113.858
X122.791Y113.836
X122.826Y113.792
X122.844Y113.771
X122.863Y113.75
X122.882Y113.73
G0Z1
X137.434Y114.803
G1Z-0.15F50
X137.451Y114.628F100
X137.502Y114.458
X137.586Y114.303
X137.698Y114.166
X137.834Y114.054
X137.99Y113.971
X138.159Y113.919
X138.335Y113.902
X138.511Y113.919
X138.68Y113.971
X138.836Y114.054
X138.972Y114.166
X139.084Y114.303
X139.168Y114.458
X139.219Y114.627
X139.236Y114.803
X139.219Y114.979
X139.168Y115.148
X139.084Y115.304
X138.972Y115.441
X138.836Y115.553
X138.68Y115.636
X138.511Y115.687
X138.335Y115.705
X138.159Y115.687
X137.99Y115.636
X137.834Y115.553
X137.698Y115.441
X137.586Y115.304
X137.502Y115.148
X137.451Y114.979
X137.434Y114.803
G0Z1
X153.338
G1Z-0.15F50
X153.355Y114.628F100
X153.406Y114.458
X153.49Y114.303
X153.602Y114.166
X153.738Y114.054
X153.894Y113.971
X154.063Y113.919
X154.239Y113.902
X154.415Y113.919
X154.584Y113.971
X154.74Y114.054
X154.876Y114.166
X154.988Y114.303
X155.072Y114.458
X155.123Y114.628
X155.14Y114.803
X155.123Y114.979
X155.072Y115.148
X154.988Y115.304
X154.876Y115.441
X154.74Y115.553
X154.584Y115.636
X154.415Y115.687
X154.239Y115.705
X154.063Y115.687
X153.894Y115.636
X153.738Y115.553
X153.602Y115.441
X153.49Y115.304
X153.406Y115.148
X153.355Y114.979
X153.338Y114.803
G0Z1
X156.841Y106.878
G1Z-0.15F50
X130.386F100
X129.732Y106.883
X129.078Y106.9
X128.425Y106.927
X127.772Y106.966
X127.12Y107.015
X126.468Y107.075
X125.818Y107.145
X125.169Y107.227
X124.522Y107.319
X123.876Y107.422
X123.232Y107.536
X122.589Y107.66
X122.465Y107.687
X122.342Y107.715
X122.219Y107.746
X122.097Y107.779
X121.975Y107.813
X121.854Y107.85
X121.734Y107.889
X121.614Y107.931
X121.495Y107.974
X121.377Y108.019
X121.26Y108.066
X121.143Y108.116
X121.027Y108.167
X120.912Y108.221
X120.799Y108.276
X120.686Y108.333
X120.574Y108.392
X120.463Y108.453
X120.353Y108.517
X120.245Y108.582
X120.137Y108.649
X120.031Y108.717
X119.926Y108.788
X119.822Y108.86
X119.719Y108.934
X119.618Y109.01
X119.518Y109.088
X119.42Y109.167
X119.322Y109.248
X119.227Y109.331
X119.132Y109.415
X119.039Y109.501
X118.948Y109.589
X118.858Y109.678
X118.77Y109.769
X118.683Y109.861
X118.598Y109.955
X118.515Y110.05
X118.433Y110.146
X118.333Y110.268
X118.235Y110.392
X118.14Y110.517
X118.045Y110.645
X117.954Y110.774
X117.865Y110.904
X117.778Y111.036
X117.693Y111.17
X117.611Y111.304
X117.531Y111.441
X117.453Y111.578
X117.378Y111.717
X117.305Y111.857
X117.234Y111.998
X117.166Y112.141
X117.101Y112.285
X117.037Y112.429
X116.977Y112.575
X116.919Y112.722
X116.863Y112.87
X116.81Y113.019
X116.759Y113.168
X116.711Y113.319
X116.666Y113.47
X116.623Y113.622
X116.583Y113.775
X116.545Y113.928
X116.51Y114.082
X116.478Y114.237
X116.448Y114.392
X116.421Y114.548
X116.397Y114.704
X116.375Y114.86
X116.357Y115.017
X116.34Y115.174
X116.327Y115.331
X116.316Y115.489
X116.308Y115.647
X116.302Y115.805
X116.3Y115.963
Y116.12
X116.302Y116.278
X116.308Y116.436
X116.316Y116.594
X116.326Y116.752
X116.34Y116.909
X116.356Y117.066
X116.375Y117.223
X116.395Y117.366
X116.814Y120.257
X116.828Y120.332
X116.844Y120.409
X116.863Y120.484
X116.885Y120.558
X116.909Y120.631
X116.936Y120.704
X116.965Y120.776
X116.997Y120.846
X117.031Y120.916
X117.068Y120.984
X117.106Y121.051
X117.148Y121.117
X117.191Y121.181
X117.237Y121.243
X117.285Y121.305
X117.335Y121.363
X117.387Y121.421
X117.441Y121.477
X117.496Y121.53
X117.554Y121.582
X117.614Y121.631
X117.675Y121.679
X117.738Y121.725
X117.801Y121.767
X117.868Y121.809
X117.935Y121.847
X118.003Y121.883
X118.074Y121.918
X118.143Y121.949
X118.216Y121.978
X118.288Y122.004
X118.362Y122.028
X118.436Y122.049
X118.512Y122.068
X118.587Y122.084
X118.664Y122.098
X118.741Y122.108
X118.817Y122.116
X118.895Y122.122
X118.972Y122.124
X119.011Y122.125
X124.062
X124.179Y122.124
X124.296Y122.121
X124.412Y122.116
X124.529Y122.109
X125.784Y122.018
X126.937Y121.954
X128.091Y121.908
X129.245Y121.88
X130.406Y121.871
X133.958
X133.997Y121.874
X134.035Y121.876
X134.073Y121.878
X134.111
X162.111
X162.151
X162.191Y121.876
X162.23Y121.874
X162.27Y121.87
X162.309Y121.866
X162.349Y121.86
X162.388Y121.854
X162.427Y121.846
X162.466Y121.838
X162.505Y121.829
X162.543Y121.818
X162.581Y121.807
X162.619Y121.795
X162.657Y121.782
X162.694Y121.768
X162.731Y121.753
X162.767Y121.737
X162.803Y121.72
X162.839Y121.702
X162.874Y121.684
X162.909Y121.664
X162.943Y121.643
X162.978Y121.622
X163.011Y121.599
X163.044Y121.576
X163.077Y121.552
X163.109Y121.527
X163.14Y121.501
X163.155Y121.488
X163.184Y121.462
X163.206Y121.441
X163.228Y121.42
X163.256Y121.392
X163.284Y121.362
X163.316Y121.326
X163.347Y121.29
X163.369Y121.262
X163.39Y121.234
X163.411Y121.205
X163.431Y121.176
X163.45Y121.146
X163.469Y121.116
X163.486Y121.088
X163.502Y121.059
X163.518Y121.03
X163.537Y120.993
X163.555Y120.955
X163.568Y120.926
X163.581Y120.896
X163.597Y120.856
X163.605Y120.834
X163.619Y120.794
X163.632Y120.753
X163.645Y120.711
X163.656Y120.669
X163.666Y120.626
X163.674Y120.586
X163.681Y120.545
X163.689Y120.494
X163.695Y120.438
X163.698Y120.404
X163.7Y120.371
X163.701Y120.337
X163.702Y120.287
Y120.055
X163.713Y119.993
X163.724Y119.916
X163.732Y119.839
X163.737Y119.761
X163.74Y119.683
Y119.645
Y108.811
Y108.772
X163.738Y108.732
X163.736Y108.693
X163.732Y108.654
X163.728Y108.614
X163.723Y108.575
X163.716Y108.536
X163.709Y108.498
X163.702Y108.464
X163.701Y108.422
X163.698Y108.379
X163.695Y108.336
X163.69Y108.293
X163.684Y108.25
X163.677Y108.208
X163.669Y108.166
X163.66Y108.124
X163.65Y108.082
X163.64Y108.047
X163.63Y108.013
X163.619Y107.979
X163.607Y107.945
X163.594Y107.911
X163.578Y107.87
X163.56Y107.829
X163.541Y107.789
X163.519Y107.745
X163.502Y107.715
X163.486Y107.686
X163.464Y107.65
X163.441Y107.614
X163.42Y107.582
X163.397Y107.551
X163.374Y107.52
X163.35Y107.49
X163.326Y107.46
X163.301Y107.431
X163.275Y107.402
X163.248Y107.374
X163.221Y107.347
X163.193Y107.32
X163.164Y107.295
X163.135Y107.269
X163.105Y107.245
X163.075Y107.221
X163.044Y107.198
X163.012Y107.176
X162.98Y107.155
X162.948Y107.134
X162.915Y107.114
X162.881Y107.095
X162.846Y107.076
X162.812Y107.059
X162.778Y107.043
X162.743Y107.027
X162.708Y107.012
X162.672Y106.998
X162.636Y106.985
X162.6Y106.973
X162.563Y106.962
X162.527Y106.951
X162.49Y106.942
X162.452Y106.933
X162.415Y106.925
X162.377Y106.919
X162.34Y106.913
X162.302Y106.908
X162.264Y106.904
X162.226Y106.9
X162.188Y106.898
X162.149Y106.897
X162.111Y106.896
X158.175
X157.585Y106.883
X156.841Y106.878
G0Z1
X122.882Y113.73
G1Z-0.2F50
X122.901Y113.71F100
X122.92Y113.69
X122.94Y113.67
X122.96Y113.651
X122.981Y113.632
X123.002Y113.614
X123.023Y113.596
X123.045Y113.578
X123.066Y113.561
X123.088Y113.544
X123.111Y113.527
X123.133Y113.511
X123.157Y113.495
X123.18Y113.48
X123.203Y113.465
X123.227Y113.45
X123.251Y113.436
X123.275Y113.422
X123.3Y113.409
X123.324Y113.396
X123.349Y113.384
X123.39Y113.364
X123.428Y113.348
X123.477Y113.328
X123.503Y113.318
X123.53Y113.309
X123.582Y113.292
X123.609Y113.284
X123.636Y113.277
X123.663Y113.27
X123.69Y113.263
X123.717Y113.257
X123.744Y113.251
X123.77Y113.247
X123.8Y113.242
X123.827Y113.238
X123.855Y113.234
X123.882Y113.231
X123.91Y113.228
X123.938Y113.226
X123.966Y113.224
X123.994Y113.223
X124.021Y113.222
X124.049
X124.077
X124.105Y113.223
X124.133Y113.224
X124.161Y113.226
X124.189Y113.228
X124.216Y113.231
X124.244Y113.234
X124.271Y113.238
X124.299Y113.242
X124.327Y113.246
X124.354Y113.251
X124.398Y113.261
X124.438Y113.27
X124.489Y113.284
X124.516Y113.292
X124.543Y113.3
X124.569Y113.309
X124.595Y113.318
X124.622Y113.328
X124.648Y113.338
X124.673Y113.349
X124.699Y113.36
X124.724Y113.372
X124.749Y113.384
X124.774Y113.396
X124.799Y113.409
X124.823Y113.422
X124.848Y113.436
X124.872Y113.45
X124.895Y113.465
X124.919Y113.48
X124.942Y113.495
X124.965Y113.511
X124.988Y113.527
X125.01Y113.544
X125.032Y113.561
X125.054Y113.578
X125.076Y113.596
X125.097Y113.614
X125.118Y113.632
X125.138Y113.651
X125.158Y113.67
X125.178Y113.69
X125.198Y113.71
X125.217Y113.73
X125.236Y113.751
X125.254Y113.771
X125.272Y113.792
X125.307Y113.836
X125.324Y113.858
X125.341Y113.88
X125.357Y113.903
X125.373Y113.926
X125.388Y113.949
X125.403Y113.973
X125.418Y113.997
X125.446Y114.045
X125.459Y114.069
X125.472Y114.094
X125.484Y114.119
X125.496Y114.144
X125.508Y114.169
X125.519Y114.195
X125.53Y114.221
X125.54Y114.247
X125.55Y114.273
X125.559Y114.299
X125.568Y114.325
X125.576Y114.352
X125.584Y114.379
X125.591Y114.405
X125.598Y114.432
X125.605Y114.46
X125.611Y114.487
X125.622Y114.542
X125.626Y114.569
X125.63Y114.597
X125.634Y114.624
X125.637Y114.652
X125.64Y114.68
X125.642Y114.707
X125.644Y114.735
X125.645Y114.763
X125.646Y114.791
Y114.819
Y114.847
X125.645Y114.874
X125.644Y114.902
X125.642Y114.93
X125.64Y114.958
X125.637Y114.986
X125.634Y115.013
X125.63Y115.041
X125.626Y115.069
X125.622Y115.096
X125.617Y115.123
X125.611Y115.151
X125.605Y115.178
X125.598Y115.205
X125.591Y115.232
X125.584Y115.259
X125.576Y115.286
X125.568Y115.312
X125.559Y115.339
X125.55Y115.365
X125.54Y115.391
X125.53Y115.417
X125.519Y115.443
X125.508Y115.468
X125.496Y115.494
X125.484Y115.519
X125.472Y115.544
X125.459Y115.568
X125.446Y115.593
X125.432Y115.617
X125.418Y115.641
X125.403Y115.665
X125.388Y115.688
X125.373Y115.711
X125.357Y115.735
X125.341Y115.757
X125.324Y115.78
X125.307Y115.802
X125.29Y115.823
X125.272Y115.845
X125.254Y115.866
X125.236Y115.887
X125.217Y115.908
X125.198Y115.928
X125.178Y115.948
X125.158Y115.967
X125.138Y115.987
X125.118Y116.005
X125.097Y116.024
X125.076Y116.042
X125.054Y116.06
X125.032Y116.077
X125.01Y116.094
X124.988Y116.11
X124.965Y116.127
X124.942Y116.142
X124.919Y116.158
X124.895Y116.173
X124.872Y116.187
X124.848Y116.201
X124.823Y116.215
X124.799Y116.229
X124.774Y116.241
X124.749Y116.254
X124.724Y116.266
X124.699Y116.277
X124.673Y116.288
X124.647Y116.299
X124.621Y116.309
X124.595Y116.319
X124.569Y116.328
X124.543Y116.337
X124.516Y116.346
X124.489Y116.354
X124.463Y116.361
X124.435Y116.368
X124.408Y116.375
X124.381Y116.38
X124.354Y116.386
X124.326Y116.391
X124.299Y116.396
X124.271Y116.4
X124.244Y116.404
X124.216Y116.407
X124.188Y116.409
X124.161Y116.412
X124.133Y116.413
X124.105Y116.414
X124.077Y116.415
X124.031
X123.991Y116.414
X123.968Y116.413
X123.937Y116.411
X123.91Y116.409
X123.882Y116.407
X123.855Y116.404
X123.799Y116.396
X123.772Y116.391
X123.717Y116.38
X123.69Y116.374
X123.663Y116.368
X123.636Y116.361
X123.609Y116.354
X123.582Y116.346
X123.556Y116.337
X123.529Y116.328
X123.503Y116.319
X123.477Y116.309
X123.425Y116.288
X123.4Y116.277
X123.374Y116.266
X123.353Y116.255
X123.323Y116.241
X123.3Y116.229
X123.275Y116.215
X123.251Y116.201
X123.227Y116.187
X123.203Y116.173
X123.18Y116.158
X123.156Y116.142
X123.133Y116.127
X123.111Y116.11
X123.066Y116.077
X123.045Y116.06
X123.023Y116.042
X123.002Y116.024
X122.981Y116.005
X122.96Y115.987
X122.94Y115.967
X122.92Y115.948
X122.901Y115.928
X122.881Y115.908
X122.863Y115.887
X122.826Y115.845
X122.808Y115.823
X122.791Y115.802
X122.774Y115.78
X122.758Y115.757
X122.741Y115.735
X122.726Y115.712
X122.71Y115.688
X122.695Y115.665
X122.681Y115.641
X122.653Y115.593
X122.639Y115.568
X122.618Y115.527
X122.601Y115.491
X122.591Y115.468
X122.58Y115.443
X122.569Y115.417
X122.559Y115.391
X122.549Y115.365
X122.54Y115.339
X122.531Y115.312
X122.522Y115.286
X122.514Y115.259
X122.507Y115.232
X122.5Y115.205
X122.494Y115.178
X122.488Y115.151
X122.482Y115.123
X122.477Y115.096
X122.472Y115.069
X122.468Y115.041
X122.463Y114.997
X122.458Y114.955
X122.456Y114.93
X122.455Y114.902
X122.453Y114.871
Y114.819
Y114.791
X122.454Y114.744
X122.457Y114.705
X122.459Y114.676
X122.461Y114.652
X122.465Y114.624
X122.468Y114.597
X122.472Y114.569
X122.477Y114.541
X122.482Y114.514
X122.494Y114.46
X122.5Y114.433
X122.507Y114.405
X122.514Y114.379
X122.531Y114.325
X122.54Y114.299
X122.549Y114.273
X122.559Y114.247
X122.58Y114.195
X122.591Y114.169
X122.602Y114.144
X122.614Y114.119
X122.627Y114.094
X122.639Y114.069
X122.653Y114.045
X122.667Y114.02
X122.681Y113.996
X122.695Y113.974
X122.71Y113.949
X122.726Y113.926
X122.741Y113.903
X122.758Y113.88
X122.774Y113.858
X122.791Y113.836
X122.826Y113.792
X122.844Y113.771
X122.863Y113.75
X122.882Y113.73
G0Z1
X137.434Y114.803
G1Z-0.2F50
X137.451Y114.628F100
X137.502Y114.458
X137.586Y114.303
X137.698Y114.166
X137.834Y114.054
X137.99Y113.971
X138.159Y113.919
X138.335Y113.902
X138.511Y113.919
X138.68Y113.971
X138.836Y114.054
X138.972Y114.166
X139.084Y114.303
X139.168Y114.458
X139.219Y114.627
X139.236Y114.803
X139.219Y114.979
X139.168Y115.148
X139.084Y115.304
X138.972Y115.441
X138.836Y115.553
X138.68Y115.636
X138.511Y115.687
X138.335Y115.705
X138.159Y115.687
X137.99Y115.636
X137.834Y115.553
X137.698Y115.441
X137.586Y115.304
X137.502Y115.148
X137.451Y114.979
X137.434Y114.803
G0Z1
X153.338
G1Z-0.2F50
X153.355Y114.628F100
X153.406Y114.458
X153.49Y114.303
X153.602Y114.166
X153.738Y114.054
X153.894Y113.971
X154.063Y113.919
X154.239Y113.902
X154.415Y113.919
X154.584Y113.971
X154.74Y114.054
X154.876Y114.166
X154.988Y114.303
X155.072Y114.458
X155.123Y114.628
X155.14Y114.803
X155.123Y114.979
X155.072Y115.148
X154.988Y115.304
X154.876Y115.441
X154.74Y115.553
X154.584Y115.636
X154.415Y115.687
X154.239Y115.705
X154.063Y115.687
X153.894Y115.636
X153.738Y115.553
X153.602Y115.441
X153.49Y115.304
X153.406Y115.148
X153.355Y114.979
X153.338Y114.803
G0Z1
X156.841Y106.878
G1Z-0.2F50
X130.386F100
X129.732Y106.883
X129.078Y106.9
X128.425Y106.927
X127.772Y106.966
X127.12Y107.015
X126.468Y107.075
X125.818Y107.145
X125.169Y107.227
X124.522Y107.319
X123.876Y107.422
X123.232Y107.536
X122.589Y107.66
X122.465Y107.687
X122.342Y107.715
X122.219Y107.746
X122.097Y107.779
X121.975Y107.813
X121.854Y107.85
X121.734Y107.889
X121.614Y107.931
X121.495Y107.974
X121.377Y108.019
X121.26Y108.066
X121.143Y108.116
X121.027Y108.167
X120.912Y108.221
X120.799Y108.276
X120.686Y108.333
X120.574Y108.392
X120.463Y108.453
X120.353Y108.517
X120.245Y108.582
X120.137Y108.649
X120.031Y108.717
X119.926Y108.788
X119.822Y108.86
X119.719Y108.934
X119.618Y109.01
X119.518Y109.088
X119.42Y109.167
X119.322Y109.248
X119.227Y109.331
X119.132Y109.415
X119.039Y109.501
X118.948Y109.589
X118.858Y109.678
X118.77Y109.769
X118.683Y109.861
X118.598Y109.955
X118.515Y110.05
X118.433Y110.146
X118.333Y110.268
X118.235Y110.392
X118.14Y110.517
X118.045Y110.645
X117.954Y110.774
X117.865Y110.904
X117.778Y111.036
X117.693Y111.17
X117.611Y111.304
X117.531Y111.441
X117.453Y111.578
X117.378Y111.717
X117.305Y111.857
X117.234Y111.998
X117.166Y112.141
X117.101Y112.285
X117.037Y112.429
X116.977Y112.575
X116.919Y112.722
X116.863Y112.87
X116.81Y113.019
X116.759Y113.168
X116.711Y113.319
X116.666Y113.47
X116.623Y113.622
X116.583Y113.775
X116.545Y113.928
X116.51Y114.082
X116.478Y114.237
X116.448Y114.392
X116.421Y114.548
X116.397Y114.704
X116.375Y114.86
X116.357Y115.017
X116.34Y115.174
X116.327Y115.331
X116.316Y115.489
X116.308Y115.647
X116.302Y115.805
X116.3Y115.963
Y116.12
X116.302Y116.278
X116.308Y116.436
X116.316Y116.594
X116.326Y116.752
X116.34Y116.909
X116.356Y117.066
X116.375Y117.223
X116.395Y117.366
X116.814Y120.257
X116.828Y120.332
X116.844Y120.409
X116.863Y120.484
X116.885Y120.558
X116.909Y120.631
X116.936Y120.704
X116.965Y120.776
X116.997Y120.846
X117.031Y120.916
X117.068Y120.984
X117.106Y121.051
X117.148Y121.117
X117.191Y121.181
X117.237Y121.243
X117.285Y121.305
X117.335Y121.363
X117.387Y121.421
X117.441Y121.477
X117.496Y121.53
X117.554Y121.582
X117.614Y121.631
X117.675Y121.679
X117.738Y121.725
X117.801Y121.767
X117.868Y121.809
X117.935Y121.847
X118.003Y121.883
X118.074Y121.918
X118.143Y121.949
X118.216Y121.978
X118.288Y122.004
X118.362Y122.028
X118.436Y122.049
X118.512Y122.068
X118.587Y122.084
X118.664Y122.098
X118.741Y122.108
X118.817Y122.116
X118.895Y122.122
X118.972Y122.124
X119.011Y122.125
X124.062
X124.179Y122.124
X124.296Y122.121
X124.412Y122.116
X124.529Y122.109
X125.784Y122.018
X126.937Y121.954
X128.091Y121.908
X129.245Y121.88
X130.406Y121.871
X133.958
X133.997Y121.874
X134.035Y121.876
X134.073Y121.878
X134.111
X162.111
X162.151
X162.191Y121.876
X162.23Y121.874
X162.27Y121.87
X162.309Y121.866
X162.349Y121.86
X162.388Y121.854
X162.427Y121.846
X162.466Y121.838
X162.505Y121.829
X162.543Y121.818
X162.581Y121.807
X162.619Y121.795
X162.657Y121.782
X162.694Y121.768
X162.731Y121.753
X162.767Y121.737
X162.803Y121.72
X162.839Y121.702
X162.874Y121.684
X162.909Y121.664
X162.943Y121.643
X162.978Y121.622
X163.011Y121.599
X163.044Y121.576
X163.077Y121.552
X163.109Y121.527
X163.14Y121.501
X163.155Y121.488
X163.184Y121.462
X163.206Y121.441
X163.228Y121.42
X163.256Y121.392
X163.284Y121.362
X163.316Y121.326
X163.347Y121.29
X163.369Y121.262
X163.39Y121.234
X163.411Y121.205
X163.431Y121.176
X163.45Y121.146
X163.469Y121.116
X163.486Y121.088
X163.502Y121.059
X163.518Y121.03
X163.537Y120.993
X163.555Y120.955
X163.568Y120.926
X163.581Y120.896
X163.597Y120.856
X163.605Y120.834
X163.619Y120.794
X163.632Y120.753
X163.645Y120.711
X163.656Y120.669
X163.666Y120.626
X163.674Y120.586
X163.681Y120.545
X163.689Y120.494
X163.695Y120.438
X163.698Y120.404
X163.7Y120.371
X163.701Y120.337
X163.702Y120.287
Y120.055
X163.713Y119.993
X163.724Y119.916
X163.732Y119.839
X163.737Y119.761
X163.74Y119.683
Y119.645
Y108.811
Y108.772
X163.738Y108.732
X163.736Y108.693
X163.732Y108.654
X163.728Y108.614
X163.723Y108.575
X163.716Y108.536
X163.709Y108.498
X163.702Y108.464
X163.701Y108.422
X163.698Y108.379
X163.695Y108.336
X163.69Y108.293
X163.684Y108.25
X163.677Y108.208
X163.669Y108.166
X163.66Y108.124
X163.65Y108.082
X163.64Y108.047
X163.63Y108.013
X163.619Y107.979
X163.607Y107.945
X163.594Y107.911
X163.578Y107.87
X163.56Y107.829
X163.541Y107.789
X163.519Y107.745
X163.502Y107.715
X163.486Y107.686
X163.464Y107.65
X163.441Y107.614
X163.42Y107.582
X163.397Y107.551
X163.374Y107.52
X163.35Y107.49
X163.326Y107.46
X163.301Y107.431
X163.275Y107.402
X163.248Y107.374
X163.221Y107.347
X163.193Y107.32
X163.164Y107.295
X163.135Y107.269
X163.105Y107.245
X163.075Y107.221
X163.044Y107.198
X163.012Y107.176
X162.98Y107.155
X162.948Y107.134
X162.915Y107.114
X162.881Y107.095
X162.846Y107.076
X162.812Y107.059
X162.778Y107.043
X162.743Y107.027
X162.708Y107.012
X162.672Y106.998
X162.636Y106.985
X162.6Y106.973
X162.563Y106.962
X162.527Y106.951
X162.49Y106.942
X162.452Y106.933
X162.415Y106.925
X162.377Y106.919
X162.34Y106.913
X162.302Y106.908
X162.264Y106.904
X162.226Y106.9
X162.188Y106.898
X162.149Y106.897
X162.111Y106.896
X158.175
X157.585Y106.883
X156.841Y106.878
G0Z1
X122.882Y113.73
G1Z-0.25F50
X122.901Y113.71F100
X122.92Y113.69
X122.94Y113.67
X122.96Y113.651
X122.981Y113.632
X123.002Y113.614
X123.023Y113.596
X123.045Y113.578
X123.066Y113.561
X123.088Y113.544
X123.111Y113.527
X123.133Y113.511
X123.157Y113.495
X123.18Y113.48
X123.203Y113.465
X123.227Y113.45
X123.251Y113.436
X123.275Y113.422
X123.3Y113.409
X123.324Y113.396
X123.349Y113.384
X123.39Y113.364
X123.428Y113.348
X123.477Y113.328
X123.503Y113.318
X123.53Y113.309
X123.582Y113.292
X123.609Y113.284
X123.636Y113.277
X123.663Y113.27
X123.69Y113.263
X123.717Y113.257
X123.744Y113.251
X123.77Y113.247
X123.8Y113.242
X123.827Y113.238
X123.855Y113.234
X123.882Y113.231
X123.91Y113.228
X123.938Y113.226
X123.966Y113.224
X123.994Y113.223
X124.021Y113.222
X124.049
X124.077
X124.105Y113.223
X124.133Y113.224
X124.161Y113.226
X124.189Y113.228
X124.216Y113.231
X124.244Y113.234
X124.271Y113.238
X124.299Y113.242
X124.327Y113.246
X124.354Y113.251
X124.398Y113.261
X124.438Y113.27
X124.489Y113.284
X124.516Y113.292
X124.543Y113.3
X124.569Y113.309
X124.595Y113.318
X124.622Y113.328
X124.648Y113.338
X124.673Y113.349
X124.699Y113.36
X124.724Y113.372
X124.749Y113.384
X124.774Y113.396
X124.799Y113.409
X124.823Y113.422
X124.848Y113.436
X124.872Y113.45
X124.895Y113.465
X124.919Y113.48
X124.942Y113.495
X124.965Y113.511
X124.988Y113.527
X125.01Y113.544
X125.032Y113.561
X125.054Y113.578
X125.076Y113.596
X125.097Y113.614
X125.118Y113.632
X125.138Y113.651
X125.158Y113.67
X125.178Y113.69
X125.198Y113.71
X125.217Y113.73
X125.236Y113.751
X125.254Y113.771
X125.272Y113.792
X125.307Y113.836
X125.324Y113.858
X125.341Y113.88
X125.357Y113.903
X125.373Y113.926
X125.388Y113.949
X125.403Y113.973
X125.418Y113.997
X125.446Y114.045
X125.459Y114.069
X125.472Y114.094
X125.484Y114.119
X125.496Y114.144
X125.508Y114.169
X125.519Y114.195
X125.53Y114.221
X125.54Y114.247
X125.55Y114.273
X125.559Y114.299
X125.568Y114.325
X125.576Y114.352
X125.584Y114.379
X125.591Y114.405
X125.598Y114.432
X125.605Y114.46
X125.611Y114.487
X125.622Y114.542
X125.626Y114.569
X125.63Y114.597
X125.634Y114.624
X125.637Y114.652
X125.64Y114.68
X125.642Y114.707
X125.644Y114.735
X125.645Y114.763
X125.646Y114.791
Y114.819
Y114.847
X125.645Y114.874
X125.644Y114.902
X125.642Y114.93
X125.64Y114.958
X125.637Y114.986
X125.634Y115.013
X125.63Y115.041
X125.626Y115.069
X125.622Y115.096
X125.617Y115.123
X125.611Y115.151
X125.605Y115.178
X125.598Y115.205
X125.591Y115.232
X125.584Y115.259
X125.576Y115.286
X125.568Y115.312
X125.559Y115.339
X125.55Y115.365
X125.54Y115.391
X125.53Y115.417
X125.519Y115.443
X125.508Y115.468
X125.496Y115.494
X125.484Y115.519
X125.472Y115.544
X125.459Y115.568
X125.446Y115.593
X125.432Y115.617
X125.418Y115.641
X125.403Y115.665
X125.388Y115.688
X125.373Y115.711
X125.357Y115.735
X125.341Y115.757
X125.324Y115.78
X125.307Y115.802
X125.29Y115.823
X125.272Y115.845
X125.254Y115.866
X125.236Y115.887
X125.217Y115.908
X125.198Y115.928
X125.178Y115.948
X125.158Y115.967
X125.138Y115.987
X125.118Y116.005
X125.097Y116.024
X125.076Y116.042
X125.054Y116.06
X125.032Y116.077
X125.01Y116.094
X124.988Y116.11
X124.965Y116.127
X124.942Y116.142
X124.919Y116.158
X124.895Y116.173
X124.872Y116.187
X124.848Y116.201
X124.823Y116.215
X124.799Y116.229
X124.774Y116.241
X124.749Y116.254
X124.724Y116.266
X124.699Y116.277
X124.673Y116.288
X124.647Y116.299
X124.621Y116.309
X124.595Y116.319
X124.569Y116.328
X124.543Y116.337
X124.516Y116.346
X124.489Y116.354
X124.463Y116.361
X124.435Y116.368
X124.408Y116.375
X124.381Y116.38
X124.354Y116.386
X124.326Y116.391
X124.299Y116.396
X124.271Y116.4
X124.244Y116.404
X124.216Y116.407
X124.188Y116.409
X124.161Y116.412
X124.133Y116.413
X124.105Y116.414
X124.077Y116.415
X124.031
X123.991Y116.414
X123.968Y116.413
X123.937Y116.411
X123.91Y116.409
X123.882Y116.407
X123.855Y116.404
X123.799Y116.396
X123.772Y116.391
X123.717Y116.38
X123.69Y116.374
X123.663Y116.368
X123.636Y116.361
X123.609Y116.354
X123.582Y116.346
X123.556Y116.337
X123.529Y116.328
X123.503Y116.319
X123.477Y116.309
X123.425Y116.288
X123.4Y116.277
X123.374Y116.266
X123.353Y116.255
X123.323Y116.241
X123.3Y116.229
X123.275Y116.215
X123.251Y116.201
X123.227Y116.187
X123.203Y116.173
X123.18Y116.158
X123.156Y116.142
X123.133Y116.127
X123.111Y116.11
X123.066Y116.077
X123.045Y116.06
X123.023Y116.042
X123.002Y116.024
X122.981Y116.005
X122.96Y115.987
X122.94Y115.967
X122.92Y115.948
X122.901Y115.928
X122.881Y115.908
X122.863Y115.887
X122.826Y115.845
X122.808Y115.823
X122.791Y115.802
X122.774Y115.78
X122.758Y115.757
X122.741Y115.735
X122.726Y115.712
X122.71Y115.688
X122.695Y115.665
X122.681Y115.641
X122.653Y115.593
X122.639Y115.568
X122.618Y115.527
X122.601Y115.491
X122.591Y115.468
X122.58Y115.443
X122.569Y115.417
X122.559Y115.391
X122.549Y115.365
X122.54Y115.339
X122.531Y115.312
X122.522Y115.286
X122.514Y115.259
X122.507Y115.232
X122.5Y115.205
X122.494Y115.178
X122.488Y115.151
X122.482Y115.123
X122.477Y115.096
X122.472Y115.069
X122.468Y115.041
X122.463Y114.997
X122.458Y114.955
X122.456Y114.93
X122.455Y114.902
X122.453Y114.871
Y114.819
Y114.791
X122.454Y114.744
X122.457Y114.705
X122.459Y114.676
X122.461Y114.652
X122.465Y114.624
X122.468Y114.597
X122.472Y114.569
X122.477Y114.541
X122.482Y114.514
X122.494Y114.46
X122.5Y114.433
X122.507Y114.405
X122.514Y114.379
X122.531Y114.325
X122.54Y114.299
X122.549Y114.273
X122.559Y114.247
X122.58Y114.195
X122.591Y114.169
X122.602Y114.144
X122.614Y114.119
X122.627Y114.094
X122.639Y114.069
X122.653Y114.045
X122.667Y114.02
X122.681Y113.996
X122.695Y113.974
X122.71Y113.949
X122.726Y113.926
X122.741Y113.903
X122.758Y113.88
X122.774Y113.858
X122.791Y113.836
X122.826Y113.792
X122.844Y113.771
X122.863Y113.75
X122.882Y113.73
G0Z1
X137.434Y114.803
G1Z-0.25F50
X137.451Y114.628F100
X137.502Y114.458
X137.586Y114.303
X137.698Y114.166
X137.834Y114.054
X137.99Y113.971
X138.159Y113.919
X138.335Y113.902
X138.511Y113.919
X138.68Y113.971
X138.836Y114.054
X138.972Y114.166
X139.084Y114.303
X139.168Y114.458
X139.219Y114.627
X139.236Y114.803
X139.219Y114.979
X139.168Y115.148
X139.084Y115.304
X138.972Y115.441
X138.836Y115.553
X138.68Y115.636
X138.511Y115.687
X138.335Y115.705
X138.159Y115.687
X137.99Y115.636
X137.834Y115.553
X137.698Y115.441
X137.586Y115.304
X137.502Y115.148
X137.451Y114.979
X137.434Y114.803
G0Z1
X153.338
G1Z-0.25F50
X153.355Y114.628F100
X153.406Y114.458
X153.49Y114.303
X153.602Y114.166
X153.738Y114.054
X153.894Y113.971
X154.063Y113.919
X154.239Y113.902
X154.415Y113.919
X154.584Y113.971
X154.74Y114.054
X154.876Y114.166
X154.988Y114.303
X155.072Y114.458
X155.123Y114.628
X155.14Y114.803
X155.123Y114.979
X155.072Y115.148
X154.988Y115.304
X154.876Y115.441
X154.74Y115.553
X154.584Y115.636
X154.415Y115.687
X154.239Y115.705
X154.063Y115.687
X153.894Y115.636
X153.738Y115.553
X153.602Y115.441
X153.49Y115.304
X153.406Y115.148
X153.355Y114.979
X153.338Y114.803
G0Z1
X156.841Y106.878
G1Z-0.25F50
X130.386F100
X129.732Y106.883
X129.078Y106.9
X128.425Y106.927
X127.772Y106.966
X127.12Y107.015
X126.468Y107.075
X125.818Y107.145
X125.169Y107.227
X124.522Y107.319
X123.876Y107.422
X123.232Y107.536
X122.589Y107.66
X122.465Y107.687
X122.342Y107.715
X122.219Y107.746
X122.097Y107.779
X121.975Y107.813
X121.854Y107.85
X121.734Y107.889
X121.614Y107.931
X121.495Y107.974
X121.377Y108.019
X121.26Y108.066
X121.143Y108.116
X121.027Y108.167
X120.912Y108.221
X120.799Y108.276
X120.686Y108.333
X120.574Y108.392
X120.463Y108.453
X120.353Y108.517
X120.245Y108.582
X120.137Y108.649
X120.031Y108.717
X119.926Y108.788
X119.822Y108.86
X119.719Y108.934
X119.618Y109.01
X119.518Y109.088
X119.42Y109.167
X119.322Y109.248
X119.227Y109.331
X119.132Y109.415
X119.039Y109.501
X118.948Y109.589
X118.858Y109.678
X118.77Y109.769
X118.683Y109.861
X118.598Y109.955
X118.515Y110.05
X118.433Y110.146
X118.333Y110.268
X118.235Y110.392
X118.14Y110.517
X118.045Y110.645
X117.954Y110.774
X117.865Y110.904
X117.778Y111.036
X117.693Y111.17
X117.611Y111.304
X117.531Y111.441
X117.453Y111.578
X117.378Y111.717
X117.305Y111.857
X117.234Y111.998
X117.166Y112.141
X117.101Y112.285
X117.037Y112.429
X116.977Y112.575
X116.919Y112.722
X116.863Y112.87
X116.81Y113.019
X116.759Y113.168
X116.711Y113.319
X116.666Y113.47
X116.623Y113.622
X116.583Y113.775
X116.545Y113.928
X116.51Y114.082
X116.478Y114.237
X116.448Y114.392
X116.421Y114.548
X116.397Y114.704
X116.375Y114.86
X116.357Y115.017
X116.34Y115.174
X116.327Y115.331
X116.316Y115.489
X116.308Y115.647
X116.302Y115.805
X116.3Y115.963
Y116.12
X116.302Y116.278
X116.308Y116.436
X116.316Y116.594
X116.326Y116.752
X116.34Y116.909
X116.356Y117.066
X116.375Y117.223
X116.395Y117.366
X116.814Y120.257
X116.828Y120.332
X116.844Y120.409
X116.863Y120.484
X116.885Y120.558
X116.909Y120.631
X116.936Y120.704
X116.965Y120.776
X116.997Y120.846
X117.031Y120.916
X117.068Y120.984
X117.106Y121.051
X117.148Y121.117
X117.191Y121.181
X117.237Y121.243
X117.285Y121.305
X117.335Y121.363
X117.387Y121.421
X117.441Y121.477
X117.496Y121.53
X117.554Y121.582
X117.614Y121.631
X117.675Y121.679
X117.738Y121.725
X117.801Y121.767
X117.868Y121.809
X117.935Y121.847
X118.003Y121.883
X118.074Y121.918
X118.143Y121.949
X118.216Y121.978
X118.288Y122.004
X118.362Y122.028
X118.436Y122.049
X118.512Y122.068
X118.587Y122.084
X118.664Y122.098
X118.741Y122.108
X118.817Y122.116
X118.895Y122.122
X118.972Y122.124
X119.011Y122.125
X124.062
X124.179Y122.124
X124.296Y122.121
X124.412Y122.116
X124.529Y122.109
X125.784Y122.018
X126.937Y121.954
X128.091Y121.908
X129.245Y121.88
X130.406Y121.871
X133.958
X133.997Y121.874
X134.035Y121.876
X134.073Y121.878
X134.111
X162.111
X162.151
X162.191Y121.876
X162.23Y121.874
X162.27Y121.87
X162.309Y121.866
X162.349Y121.86
X162.388Y121.854
X162.427Y121.846
X162.466Y121.838
X162.505Y121.829
X162.543Y121.818
X162.581Y121.807
X162.619Y121.795
X162.657Y121.782
X162.694Y121.768
X162.731Y121.753
X162.767Y121.737
X162.803Y121.72
X162.839Y121.702
X162.874Y121.684
X162.909Y121.664
X162.943Y121.643
X162.978Y121.622
X163.011Y121.599
X163.044Y121.576
X163.077Y121.552
X163.109Y121.527
X163.14Y121.501
X163.155Y121.488
X163.184Y121.462
X163.206Y121.441
X163.228Y121.42
X163.256Y121.392
X163.284Y121.362
X163.316Y121.326
X163.347Y121.29
X163.369Y121.262
X163.39Y121.234
X163.411Y121.205
X163.431Y121.176
X163.45Y121.146
X163.469Y121.116
X163.486Y121.088
X163.502Y121.059
X163.518Y121.03
X163.537Y120.993
X163.555Y120.955
X163.568Y120.926
X163.581Y120.896
X163.597Y120.856
X163.605Y120.834
X163.619Y120.794
X163.632Y120.753
X163.645Y120.711
X163.656Y120.669
X163.666Y120.626
X163.674Y120.586
X163.681Y120.545
X163.689Y120.494
X163.695Y120.438
X163.698Y120.404
X163.7Y120.371
X163.701Y120.337
X163.702Y120.287
Y120.055
X163.713Y119.993
X163.724Y119.916
X163.732Y119.839
X163.737Y119.761
X163.74Y119.683
Y119.645
Y108.811
Y108.772
X163.738Y108.732
X163.736Y108.693
X163.732Y108.654
X163.728Y108.614
X163.723Y108.575
X163.716Y108.536
X163.709Y108.498
X163.702Y108.464
X163.701Y108.422
X163.698Y108.379
X163.695Y108.336
X163.69Y108.293
X163.684Y108.25
X163.677Y108.208
X163.669Y108.166
X163.66Y108.124
X163.65Y108.082
X163.64Y108.047
X163.63Y108.013
X163.619Y107.979
X163.607Y107.945
X163.594Y107.911
X163.578Y107.87
X163.56Y107.829
X163.541Y107.789
X163.519Y107.745
X163.502Y107.715
X163.486Y107.686
X163.464Y107.65
X163.441Y107.614
X163.42Y107.582
X163.397Y107.551
X163.374Y107.52
X163.35Y107.49
X163.326Y107.46
X163.301Y107.431
X163.275Y107.402
X163.248Y107.374
X163.221Y107.347
X163.193Y107.32
X163.164Y107.295
X163.135Y107.269
X163.105Y107.245
X163.075Y107.221
X163.044Y107.198
X163.012Y107.176
X162.98Y107.155
X162.948Y107.134
X162.915Y107.114
X162.881Y107.095
X162.846Y107.076
X162.812Y107.059
X162.778Y107.043
X162.743Y107.027
X162.708Y107.012
X162.672Y106.998
X162.636Y106.985
X162.6Y106.973
X162.563Y106.962
X162.527Y106.951
X162.49Y106.942
X162.452Y106.933
X162.415Y106.925
X162.377Y106.919
X162.34Y106.913
X162.302Y106.908
X162.264Y106.904
X162.226Y106.9
X162.188Y106.898
X162.149Y106.897
X162.111Y106.896
X158.175
X157.585Y106.883
X156.841Y106.878
G0Z1
X122.882Y113.73
G1Z-0.3F50
X122.901Y113.71F100
X122.92Y113.69
X122.94Y113.67
X122.96Y113.651
X122.981Y113.632
X123.002Y113.614
X123.023Y113.596
X123.045Y113.578
X123.066Y113.561
X123.088Y113.544
X123.111Y113.527
X123.133Y113.511
X123.157Y113.495
X123.18Y113.48
X123.203Y113.465
X123.227Y113.45
X123.251Y113.436
X123.275Y113.422
X123.3Y113.409
X123.324Y113.396
X123.349Y113.384
X123.39Y113.364
X123.428Y113.348
X123.477Y113.328
X123.503Y113.318
X123.53Y113.309
X123.582Y113.292
X123.609Y113.284
X123.636Y113.277
X123.663Y113.27
X123.69Y113.263
X123.717Y113.257
X123.744Y113.251
X123.77Y113.247
X123.8Y113.242
X123.827Y113.238
X123.855Y113.234
X123.882Y113.231
X123.91Y113.228
X123.938Y113.226
X123.966Y113.224
X123.994Y113.223
X124.021Y113.222
X124.049
X124.077
X124.105Y113.223
X124.133Y113.224
X124.161Y113.226
X124.189Y113.228
X124.216Y113.231
X124.244Y113.234
X124.271Y113.238
X124.299Y113.242
X124.327Y113.246
X124.354Y113.251
X124.398Y113.261
X124.438Y113.27
X124.489Y113.284
X124.516Y113.292
X124.543Y113.3
X124.569Y113.309
X124.595Y113.318
X124.622Y113.328
X124.648Y113.338
X124.673Y113.349
X124.699Y113.36
X124.724Y113.372
X124.749Y113.384
X124.774Y113.396
X124.799Y113.409
X124.823Y113.422
X124.848Y113.436
X124.872Y113.45
X124.895Y113.465
X124.919Y113.48
X124.942Y113.495
X124.965Y113.511
X124.988Y113.527
X125.01Y113.544
X125.032Y113.561
X125.054Y113.578
X125.076Y113.596
X125.097Y113.614
X125.118Y113.632
X125.138Y113.651
X125.158Y113.67
X125.178Y113.69
X125.198Y113.71
X125.217Y113.73
X125.236Y113.751
X125.254Y113.771
X125.272Y113.792
X125.307Y113.836
X125.324Y113.858
X125.341Y113.88
X125.357Y113.903
X125.373Y113.926
X125.388Y113.949
X125.403Y113.973
X125.418Y113.997
X125.446Y114.045
X125.459Y114.069
X125.472Y114.094
X125.484Y114.119
X125.496Y114.144
X125.508Y114.169
X125.519Y114.195
X125.53Y114.221
X125.54Y114.247
X125.55Y114.273
X125.559Y114.299
X125.568Y114.325
X125.576Y114.352
X125.584Y114.379
X125.591Y114.405
X125.598Y114.432
X125.605Y114.46
X125.611Y114.487
X125.622Y114.542
X125.626Y114.569
X125.63Y114.597
X125.634Y114.624
X125.637Y114.652
X125.64Y114.68
X125.642Y114.707
X125.644Y114.735
X125.645Y114.763
X125.646Y114.791
Y114.819
Y114.847
X125.645Y114.874
X125.644Y114.902
X125.642Y114.93
X125.64Y114.958
X125.637Y114.986
X125.634Y115.013
X125.63Y115.041
X125.626Y115.069
X125.622Y115.096
X125.617Y115.123
X125.611Y115.151
X125.605Y115.178
X125.598Y115.205
X125.591Y115.232
X125.584Y115.259
X125.576Y115.286
X125.568Y115.312
X125.559Y115.339
X125.55Y115.365
X125.54Y115.391
X125.53Y115.417
X125.519Y115.443
X125.508Y115.468
X125.496Y115.494
X125.484Y115.519
X125.472Y115.544
X125.459Y115.568
X125.446Y115.593
X125.432Y115.617
X125.418Y115.641
X125.403Y115.665
X125.388Y115.688
X125.373Y115.711
X125.357Y115.735
X125.341Y115.757
X125.324Y115.78
X125.307Y115.802
X125.29Y115.823
X125.272Y115.845
X125.254Y115.866
X125.236Y115.887
X125.217Y115.908
X125.198Y115.928
X125.178Y115.948
X125.158Y115.967
X125.138Y115.987
X125.118Y116.005
X125.097Y116.024
X125.076Y116.042
X125.054Y116.06
X125.032Y116.077
X125.01Y116.094
X124.988Y116.11
X124.965Y116.127
X124.942Y116.142
X124.919Y116.158
X124.895Y116.173
X124.872Y116.187
X124.848Y116.201
X124.823Y116.215
X124.799Y116.229
X124.774Y116.241
X124.749Y116.254
X124.724Y116.266
X124.699Y116.277
X124.673Y116.288
X124.647Y116.299
X124.621Y116.309
X124.595Y116.319
X124.569Y116.328
X124.543Y116.337
X124.516Y116.346
X124.489Y116.354
X124.463Y116.361
X124.435Y116.368
X124.408Y116.375
X124.381Y116.38
X124.354Y116.386
X124.326Y116.391
X124.299Y116.396
X124.271Y116.4
X124.244Y116.404
X124.216Y116.407
X124.188Y116.409
X124.161Y116.412
X124.133Y116.413
X124.105Y116.414
X124.077Y116.415
X124.031
X123.991Y116.414
X123.968Y116.413
X123.937Y116.411
X123.91Y116.409
X123.882Y116.407
X123.855Y116.404
X123.799Y116.396
X123.772Y116.391
X123.717Y116.38
X123.69Y116.374
X123.663Y116.368
X123.636Y116.361
X123.609Y116.354
X123.582Y116.346
X123.556Y116.337
X123.529Y116.328
X123.503Y116.319
X123.477Y116.309
X123.425Y116.288
X123.4Y116.277
X123.374Y116.266
X123.353Y116.255
X123.323Y116.241
X123.3Y116.229
X123.275Y116.215
X123.251Y116.201
X123.227Y116.187
X123.203Y116.173
X123.18Y116.158
X123.156Y116.142
X123.133Y116.127
X123.111Y116.11
X123.066Y116.077
X123.045Y116.06
X123.023Y116.042
X123.002Y116.024
X122.981Y116.005
X122.96Y115.987
X122.94Y115.967
X122.92Y115.948
X122.901Y115.928
X122.881Y115.908
X122.863Y115.887
X122.826Y115.845
X122.808Y115.823
X122.791Y115.802
X122.774Y115.78
X122.758Y115.757
X122.741Y115.735
X122.726Y115.712
X122.71Y115.688
X122.695Y115.665
X122.681Y115.641
X122.653Y115.593
X122.639Y115.568
X122.618Y115.527
X122.601Y115.491
X122.591Y115.468
X122.58Y115.443
X122.569Y115.417
X122.559Y115.391
X122.549Y115.365
X122.54Y115.339
X122.531Y115.312
X122.522Y115.286
X122.514Y115.259
X122.507Y115.232
X122.5Y115.205
X122.494Y115.178
X122.488Y115.151
X122.482Y115.123
X122.477Y115.096
X122.472Y115.069
X122.468Y115.041
X122.463Y114.997
X122.458Y114.955
X122.456Y114.93
X122.455Y114.902
X122.453Y114.871
Y114.819
Y114.791
X122.454Y114.744
X122.457Y114.705
X122.459Y114.676
X122.461Y114.652
X122.465Y114.624
X122.468Y114.597
X122.472Y114.569
X122.477Y114.541
X122.482Y114.514
X122.494Y114.46
X122.5Y114.433
X122.507Y114.405
X122.514Y114.379
X122.531Y114.325
X122.54Y114.299
X122.549Y114.273
X122.559Y114.247
X122.58Y114.195
X122.591Y114.169
X122.602Y114.144
X122.614Y114.119
X122.627Y114.094
X122.639Y114.069
X122.653Y114.045
X122.667Y114.02
X122.681Y113.996
X122.695Y113.974
X122.71Y113.949
X122.726Y113.926
X122.741Y113.903
X122.758Y113.88
X122.774Y113.858
X122.791Y113.836
X122.826Y113.792
X122.844Y113.771
X122.863Y113.75
X122.882Y113.73
G0Z1
X137.434Y114.803
G1Z-0.3F50
X137.451Y114.628F100
X137.502Y114.458
X137.586Y114.303
X137.698Y114.166
X137.834Y114.054
X137.99Y113.971
X138.159Y113.919
X138.335Y113.902
X138.511Y113.919
X138.68Y113.971
X138.836Y114.054
X138.972Y114.166
X139.084Y114.303
X139.168Y114.458
X139.219Y114.627
X139.236Y114.803
X139.219Y114.979
X139.168Y115.148
X139.084Y115.304
X138.972Y115.441
X138.836Y115.553
X138.68Y115.636
X138.511Y115.687
X138.335Y115.705
X138.159Y115.687
X137.99Y115.636
X137.834Y115.553
X137.698Y115.441
X137.586Y115.304
X137.502Y115.148
X137.451Y114.979
X137.434Y114.803
G0Z1
X153.338
G1Z-0.3F50
X153.355Y114.628F100
X153.406Y114.458
X153.49Y114.303
X153.602Y114.166
X153.738Y114.054
X153.894Y113.971
X154.063Y113.919
X154.239Y113.902
X154.415Y113.919
X154.584Y113.971
X154.74Y114.054
X154.876Y114.166
X154.988Y114.303
X155.072Y114.458
X155.123Y114.628
X155.14Y114.803
X155.123Y114.979
X155.072Y115.148
X154.988Y115.304
X154.876Y115.441
X154.74Y115.553
X154.584Y115.636
X154.415Y115.687
X154.239Y115.705
X154.063Y115.687
X153.894Y115.636
X153.738Y115.553
X153.602Y115.441
X153.49Y115.304
X153.406Y115.148
X153.355Y114.979
X153.338Y114.803
G0Z1
X156.841Y106.878
G1Z-0.3F50
X130.386F100
X129.732Y106.883
X129.078Y106.9
X128.425Y106.927
X127.772Y106.966
X127.12Y107.015
X126.468Y107.075
X125.818Y107.145
X125.169Y107.227
X124.522Y107.319
X123.876Y107.422
X123.232Y107.536
X122.589Y107.66
X122.465Y107.687
X122.342Y107.715
X122.219Y107.746
X122.097Y107.779
X121.975Y107.813
X121.854Y107.85
X121.734Y107.889
X121.614Y107.931
X121.495Y107.974
X121.377Y108.019
X121.26Y108.066
X121.143Y108.116
X121.027Y108.167
X120.912Y108.221
X120.799Y108.276
X120.686Y108.333
X120.574Y108.392
X120.463Y108.453
X120.353Y108.517
X120.245Y108.582
X120.137Y108.649
X120.031Y108.717
X119.926Y108.788
X119.822Y108.86
X119.719Y108.934
X119.618Y109.01
X119.518Y109.088
X119.42Y109.167
X119.322Y109.248
X119.227Y109.331
X119.132Y109.415
X119.039Y109.501
X118.948Y109.589
X118.858Y109.678
X118.77Y109.769
X118.683Y109.861
X118.598Y109.955
X118.515Y110.05
X118.433Y110.146
X118.333Y110.268
X118.235Y110.392
X118.14Y110.517
X118.045Y110.645
X117.954Y110.774
X117.865Y110.904
X117.778Y111.036
X117.693Y111.17
X117.611Y111.304
X117.531Y111.441
X117.453Y111.578
X117.378Y111.717
X117.305Y111.857
X117.234Y111.998
X117.166Y112.141
X117.101Y112.285
X117.037Y112.429
X116.977Y112.575
X116.919Y112.722
X116.863Y112.87
X116.81Y113.019
X116.759Y113.168
X116.711Y113.319
X116.666Y113.47
X116.623Y113.622
X116.583Y113.775
X116.545Y113.928
X116.51Y114.082
X116.478Y114.237
X116.448Y114.392
X116.421Y114.548
X116.397Y114.704
X116.375Y114.86
X116.357Y115.017
X116.34Y115.174
X116.327Y115.331
X116.316Y115.489
X116.308Y115.647
X116.302Y115.805
X116.3Y115.963
Y116.12
X116.302Y116.278
X116.308Y116.436
X116.316Y116.594
X116.326Y116.752
X116.34Y116.909
X116.356Y117.066
X116.375Y117.223
X116.395Y117.366
X116.814Y120.257
X116.828Y120.332
X116.844Y120.409
X116.863Y120.484
X116.885Y120.558
X116.909Y120.631
X116.936Y120.704
X116.965Y120.776
X116.997Y120.846
X117.031Y120.916
X117.068Y120.984
X117.106Y121.051
X117.148Y121.117
X117.191Y121.181
X117.237Y121.243
X117.285Y121.305
X117.335Y121.363
X117.387Y121.421
X117.441Y121.477
X117.496Y121.53
X117.554Y121.582
X117.614Y121.631
X117.675Y121.679
X117.738Y121.725
X117.801Y121.767
X117.868Y121.809
X117.935Y121.847
X118.003Y121.883
X118.074Y121.918
X118.143Y121.949
X118.216Y121.978
X118.288Y122.004
X118.362Y122.028
X118.436Y122.049
X118.512Y122.068
X118.587Y122.084
X118.664Y122.098
X118.741Y122.108
X118.817Y122.116
X118.895Y122.122
X118.972Y122.124
X119.011Y122.125
X124.062
X124.179Y122.124
X124.296Y122.121
X124.412Y122.116
X124.529Y122.109
X125.784Y122.018
X126.937Y121.954
X128.091Y121.908
X129.245Y121.88
X130.406Y121.871
X133.958
X133.997Y121.874
X134.035Y121.876
X134.073Y121.878
X134.111
X162.111
X162.151
X162.191Y121.876
X162.23Y121.874
X162.27Y121.87
X162.309Y121.866
X162.349Y121.86
X162.388Y121.854
X162.427Y121.846
X162.466Y121.838
X162.505Y121.829
X162.543Y121.818
X162.581Y121.807
X162.619Y121.795
X162.657Y121.782
X162.694Y121.768
X162.731Y121.753
X162.767Y121.737
X162.803Y121.72
X162.839Y121.702
X162.874Y121.684
X162.909Y121.664
X162.943Y121.643
X162.978Y121.622
X163.011Y121.599
X163.044Y121.576
X163.077Y121.552
X163.109Y121.527
X163.14Y121.501
X163.155Y121.488
X163.184Y121.462
X163.206Y121.441
X163.228Y121.42
X163.256Y121.392
X163.284Y121.362
X163.316Y121.326
X163.347Y121.29
X163.369Y121.262
X163.39Y121.234
X163.411Y121.205
X163.431Y121.176
X163.45Y121.146
X163.469Y121.116
X163.486Y121.088
X163.502Y121.059
X163.518Y121.03
X163.537Y120.993
X163.555Y120.955
X163.568Y120.926
X163.581Y120.896
X163.597Y120.856
X163.605Y120.834
X163.619Y120.794
X163.632Y120.753
X163.645Y120.711
X163.656Y120.669
X163.666Y120.626
X163.674Y120.586
X163.681Y120.545
X163.689Y120.494
X163.695Y120.438
X163.698Y120.404
X163.7Y120.371
X163.701Y120.337
X163.702Y120.287
Y120.055
X163.713Y119.993
X163.724Y119.916
X163.732Y119.839
X163.737Y119.761
X163.74Y119.683
Y119.645
Y108.811
Y108.772
X163.738Y108.732
X163.736Y108.693
X163.732Y108.654
X163.728Y108.614
X163.723Y108.575
X163.716Y108.536
X163.709Y108.498
X163.702Y108.464
X163.701Y108.422
X163.698Y108.379
X163.695Y108.336
X163.69Y108.293
X163.684Y108.25
X163.677Y108.208
X163.669Y108.166
X163.66Y108.124
X163.65Y108.082
X163.64Y108.047
X163.63Y108.013
X163.619Y107.979
X163.607Y107.945
X163.594Y107.911
X163.578Y107.87
X163.56Y107.829
X163.541Y107.789
X163.519Y107.745
X163.502Y107.715
X163.486Y107.686
X163.464Y107.65
X163.441Y107.614
X163.42Y107.582
X163.397Y107.551
X163.374Y107.52
X163.35Y107.49
X163.326Y107.46
X163.301Y107.431
X163.275Y107.402
X163.248Y107.374
X163.221Y107.347
X163.193Y107.32
X163.164Y107.295
X163.135Y107.269
X163.105Y107.245
X163.075Y107.221
X163.044Y107.198
X163.012Y107.176
X162.98Y107.155
X162.948Y107.134
X162.915Y107.114
X162.881Y107.095
X162.846Y107.076
X162.812Y107.059
X162.778Y107.043
X162.743Y107.027
X162.708Y107.012
X162.672Y106.998
X162.636Y106.985
X162.6Y106.973
X162.563Y106.962
X162.527Y106.951
X162.49Y106.942
X162.452Y106.933
X162.415Y106.925
X162.377Y106.919
X162.34Y106.913
X162.302Y106.908
X162.264Y106.904
X162.226Y106.9
X162.188Y106.898
X162.149Y106.897
X162.111Y106.896
X158.175
X157.585Y106.883
X156.841Y106.878
G0Z1
X122.882Y113.73
G1Z-0.35F50
X122.901Y113.71F100
X122.92Y113.69
X122.94Y113.67
X122.96Y113.651
X122.981Y113.632
X123.002Y113.614
X123.023Y113.596
X123.045Y113.578
X123.066Y113.561
X123.088Y113.544
X123.111Y113.527
X123.133Y113.511
X123.157Y113.495
X123.18Y113.48
X123.203Y113.465
X123.227Y113.45
X123.251Y113.436
X123.275Y113.422
X123.3Y113.409
X123.324Y113.396
X123.349Y113.384
X123.39Y113.364
X123.428Y113.348
X123.477Y113.328
X123.503Y113.318
X123.53Y113.309
X123.582Y113.292
X123.609Y113.284
X123.636Y113.277
X123.663Y113.27
X123.69Y113.263
X123.717Y113.257
X123.744Y113.251
X123.77Y113.247
X123.8Y113.242
X123.827Y113.238
X123.855Y113.234
X123.882Y113.231
X123.91Y113.228
X123.938Y113.226
X123.966Y113.224
X123.994Y113.223
X124.021Y113.222
X124.049
X124.077
X124.105Y113.223
X124.133Y113.224
X124.161Y113.226
X124.189Y113.228
X124.216Y113.231
X124.244Y113.234
X124.271Y113.238
X124.299Y113.242
X124.327Y113.246
X124.354Y113.251
X124.398Y113.261
X124.438Y113.27
X124.489Y113.284
X124.516Y113.292
X124.543Y113.3
X124.569Y113.309
X124.595Y113.318
X124.622Y113.328
X124.648Y113.338
X124.673Y113.349
X124.699Y113.36
X124.724Y113.372
X124.749Y113.384
X124.774Y113.396
X124.799Y113.409
X124.823Y113.422
X124.848Y113.436
X124.872Y113.45
X124.895Y113.465
X124.919Y113.48
X124.942Y113.495
X124.965Y113.511
X124.988Y113.527
X125.01Y113.544
X125.032Y113.561
X125.054Y113.578
X125.076Y113.596
X125.097Y113.614
X125.118Y113.632
X125.138Y113.651
X125.158Y113.67
X125.178Y113.69
X125.198Y113.71
X125.217Y113.73
X125.236Y113.751
X125.254Y113.771
X125.272Y113.792
X125.307Y113.836
X125.324Y113.858
X125.341Y113.88
X125.357Y113.903
X125.373Y113.926
X125.388Y113.949
X125.403Y113.973
X125.418Y113.997
X125.446Y114.045
X125.459Y114.069
X125.472Y114.094
X125.484Y114.119
X125.496Y114.144
X125.508Y114.169
X125.519Y114.195
X125.53Y114.221
X125.54Y114.247
X125.55Y114.273
X125.559Y114.299
X125.568Y114.325
X125.576Y114.352
X125.584Y114.379
X125.591Y114.405
X125.598Y114.432
X125.605Y114.46
X125.611Y114.487
X125.622Y114.542
X125.626Y114.569
X125.63Y114.597
X125.634Y114.624
X125.637Y114.652
X125.64Y114.68
X125.642Y114.707
X125.644Y114.735
X125.645Y114.763
X125.646Y114.791
Y114.819
Y114.847
X125.645Y114.874
X125.644Y114.902
X125.642Y114.93
X125.64Y114.958
X125.637Y114.986
X125.634Y115.013
X125.63Y115.041
X125.626Y115.069
X125.622Y115.096
X125.617Y115.123
X125.611Y115.151
X125.605Y115.178
X125.598Y115.205
X125.591Y115.232
X125.584Y115.259
X125.576Y115.286
X125.568Y115.312
X125.559Y115.339
X125.55Y115.365
X125.54Y115.391
X125.53Y115.417
X125.519Y115.443
X125.508Y115.468
X125.496Y115.494
X125.484Y115.519
X125.472Y115.544
X125.459Y115.568
X125.446Y115.593
X125.432Y115.617
X125.418Y115.641
X125.403Y115.665
X125.388Y115.688
X125.373Y115.711
X125.357Y115.735
X125.341Y115.757
X125.324Y115.78
X125.307Y115.802
X125.29Y115.823
X125.272Y115.845
X125.254Y115.866
X125.236Y115.887
X125.217Y115.908
X125.198Y115.928
X125.178Y115.948
X125.158Y115.967
X125.138Y115.987
X125.118Y116.005
X125.097Y116.024
X125.076Y116.042
X125.054Y116.06
X125.032Y116.077
X125.01Y116.094
X124.988Y116.11
X124.965Y116.127
X124.942Y116.142
X124.919Y116.158
X124.895Y116.173
X124.872Y116.187
X124.848Y116.201
X124.823Y116.215
X124.799Y116.229
X124.774Y116.241
X124.749Y116.254
X124.724Y116.266
X124.699Y116.277
X124.673Y116.288
X124.647Y116.299
X124.621Y116.309
X124.595Y116.319
X124.569Y116.328
X124.543Y116.337
X124.516Y116.346
X124.489Y116.354
X124.463Y116.361
X124.435Y116.368
X124.408Y116.375
X124.381Y116.38
X124.354Y116.386
X124.326Y116.391
X124.299Y116.396
X124.271Y116.4
X124.244Y116.404
X124.216Y116.407
X124.188Y116.409
X124.161Y116.412
X124.133Y116.413
X124.105Y116.414
X124.077Y116.415
X124.031
X123.991Y116.414
X123.968Y116.413
X123.937Y116.411
X123.91Y116.409
X123.882Y116.407
X123.855Y116.404
X123.799Y116.396
X123.772Y116.391
X123.717Y116.38
X123.69Y116.374
X123.663Y116.368
X123.636Y116.361
X123.609Y116.354
X123.582Y116.346
X123.556Y116.337
X123.529Y116.328
X123.503Y116.319
X123.477Y116.309
X123.425Y116.288
X123.4Y116.277
X123.374Y116.266
X123.353Y116.255
X123.323Y116.241
X123.3Y116.229
X123.275Y116.215
X123.251Y116.201
X123.227Y116.187
X123.203Y116.173
X123.18Y116.158
X123.156Y116.142
X123.133Y116.127
X123.111Y116.11
X123.066Y116.077
X123.045Y116.06
X123.023Y116.042
X123.002Y116.024
X122.981Y116.005
X122.96Y115.987
X122.94Y115.967
X122.92Y115.948
X122.901Y115.928
X122.881Y115.908
X122.863Y115.887
X122.826Y115.845
X122.808Y115.823
X122.791Y115.802
X122.774Y115.78
X122.758Y115.757
X122.741Y115.735
X122.726Y115.712
X122.71Y115.688
X122.695Y115.665
X122.681Y115.641
X122.653Y115.593
X122.639Y115.568
X122.618Y115.527
X122.601Y115.491
X122.591Y115.468
X122.58Y115.443
X122.569Y115.417
X122.559Y115.391
X122.549Y115.365
X122.54Y115.339
X122.531Y115.312
X122.522Y115.286
X122.514Y115.259
X122.507Y115.232
X122.5Y115.205
X122.494Y115.178
X122.488Y115.151
X122.482Y115.123
X122.477Y115.096
X122.472Y115.069
X122.468Y115.041
X122.463Y114.997
X122.458Y114.955
X122.456Y114.93
X122.455Y114.902
X122.453Y114.871
Y114.819
Y114.791
X122.454Y114.744
X122.457Y114.705
X122.459Y114.676
X122.461Y114.652
X122.465Y114.624
X122.468Y114.597
X122.472Y114.569
X122.477Y114.541
X122.482Y114.514
X122.494Y114.46
X122.5Y114.433
X122.507Y114.405
X122.514Y114.379
X122.531Y114.325
X122.54Y114.299
X122.549Y114.273
X122.559Y114.247
X122.58Y114.195
X122.591Y114.169
X122.602Y114.144
X122.614Y114.119
X122.627Y114.094
X122.639Y114.069
X122.653Y114.045
X122.667Y114.02
X122.681Y113.996
X122.695Y113.974
X122.71Y113.949
X122.726Y113.926
X122.741Y113.903
X122.758Y113.88
X122.774Y113.858
X122.791Y113.836
X122.826Y113.792
X122.844Y113.771
X122.863Y113.75
X122.882Y113.73
G0Z1
X137.434Y114.803
G1Z-0.35F50
X137.451Y114.628F100
X137.502Y114.458
X137.586Y114.303
X137.698Y114.166
X137.834Y114.054
X137.99Y113.971
X138.159Y113.919
X138.335Y113.902
X138.511Y113.919
X138.68Y113.971
X138.836Y114.054
X138.972Y114.166
X139.084Y114.303
X139.168Y114.458
X139.219Y114.627
X139.236Y114.803
X139.219Y114.979
X139.168Y115.148
X139.084Y115.304
X138.972Y115.441
X138.836Y115.553
X138.68Y115.636
X138.511Y115.687
X138.335Y115.705
X138.159Y115.687
X137.99Y115.636
X137.834Y115.553
X137.698Y115.441
X137.586Y115.304
X137.502Y115.148
X137.451Y114.979
X137.434Y114.803
G0Z1
X153.338
G1Z-0.35F50
X153.355Y114.628F100
X153.406Y114.458
X153.49Y114.303
X153.602Y114.166
X153.738Y114.054
X153.894Y113.971
X154.063Y113.919
X154.239Y113.902
X154.415Y113.919
X154.584Y113.971
X154.74Y114.054
X154.876Y114.166
X154.988Y114.303
X155.072Y114.458
X155.123Y114.628
X155.14Y114.803
X155.123Y114.979
X155.072Y115.148
X154.988Y115.304
X154.876Y115.441
X154.74Y115.553
X154.584Y115.636
X154.415Y115.687
X154.239Y115.705
X154.063Y115.687
X153.894Y115.636
X153.738Y115.553
X153.602Y115.441
X153.49Y115.304
X153.406Y115.148
X153.355Y114.979
X153.338Y114.803
G0Z1
X156.841Y106.878
G1Z-0.35F50
X130.386F100
X129.732Y106.883
X129.078Y106.9
X128.425Y106.927
X127.772Y106.966
X127.12Y107.015
X126.468Y107.075
X125.818Y107.145
X125.169Y107.227
X124.522Y107.319
X123.876Y107.422
X123.232Y107.536
X122.589Y107.66
X122.465Y107.687
X122.342Y107.715
X122.219Y107.746
X122.097Y107.779
X121.975Y107.813
X121.854Y107.85
X121.734Y107.889
X121.614Y107.931
X121.495Y107.974
X121.377Y108.019
X121.26Y108.066
X121.143Y108.116
X121.027Y108.167
X120.912Y108.221
X120.799Y108.276
X120.686Y108.333
X120.574Y108.392
X120.463Y108.453
X120.353Y108.517
X120.245Y108.582
X120.137Y108.649
X120.031Y108.717
X119.926Y108.788
X119.822Y108.86
X119.719Y108.934
X119.618Y109.01
X119.518Y109.088
X119.42Y109.167
X119.322Y109.248
X119.227Y109.331
X119.132Y109.415
X119.039Y109.501
X118.948Y109.589
X118.858Y109.678
X118.77Y109.769
X118.683Y109.861
X118.598Y109.955
X118.515Y110.05
X118.433Y110.146
X118.333Y110.268
X118.235Y110.392
X118.14Y110.517
X118.045Y110.645
X117.954Y110.774
X117.865Y110.904
X117.778Y111.036
X117.693Y111.17
X117.611Y111.304
X117.531Y111.441
X117.453Y111.578
X117.378Y111.717
X117.305Y111.857
X117.234Y111.998
X117.166Y112.141
X117.101Y112.285
X117.037Y112.429
X116.977Y112.575
X116.919Y112.722
X116.863Y112.87
X116.81Y113.019
X116.759Y113.168
X116.711Y113.319
X116.666Y113.47
X116.623Y113.622
X116.583Y113.775
X116.545Y113.928
X116.51Y114.082
X116.478Y114.237
X116.448Y114.392
X116.421Y114.548
X116.397Y114.704
X116.375Y114.86
X116.357Y115.017
X116.34Y115.174
X116.327Y115.331
X116.316Y115.489
X116.308Y115.647
X116.302Y115.805
X116.3Y115.963
Y116.12
X116.302Y116.278
X116.308Y116.436
X116.316Y116.594
X116.326Y116.752
X116.34Y116.909
X116.356Y117.066
X116.375Y117.223
X116.395Y117.366
X116.814Y120.257
X116.828Y120.332
X116.844Y120.409
X116.863Y120.484
X116.885Y120.558
X116.909Y120.631
X116.936Y120.704
X116.965Y120.776
X116.997Y120.846
X117.031Y120.916
X117.068Y120.984
X117.106Y121.051
X117.148Y121.117
X117.191Y121.181
X117.237Y121.243
X117.285Y121.305
X117.335Y121.363
X117.387Y121.421
X117.441Y121.477
X117.496Y121.53
X117.554Y121.582
X117.614Y121.631
X117.675Y121.679
X117.738Y121.725
X117.801Y121.767
X117.868Y121.809
X117.935Y121.847
X118.003Y121.883
X118.074Y121.918
X118.143Y121.949
X118.216Y121.978
X118.288Y122.004
X118.362Y122.028
X118.436Y122.049
X118.512Y122.068
X118.587Y122.084
X118.664Y122.098
X118.741Y122.108
X118.817Y122.116
X118.895Y122.122
X118.972Y122.124
X119.011Y122.125
X124.062
X124.179Y122.124
X124.296Y122.121
X124.412Y122.116
X124.529Y122.109
X125.784Y122.018
X126.937Y121.954
X128.091Y121.908
X129.245Y121.88
X130.406Y121.871
X133.958
X133.997Y121.874
X134.035Y121.876
X134.073Y121.878
X134.111
X162.111
X162.151
X162.191Y121.876
X162.23Y121.874
X162.27Y121.87
X162.309Y121.866
X162.349Y121.86
X162.388Y121.854
X162.427Y121.846
X162.466Y121.838
X162.505Y121.829
X162.543Y121.818
X162.581Y121.807
X162.619Y121.795
X162.657Y121.782
X162.694Y121.768
X162.731Y121.753
X162.767Y121.737
X162.803Y121.72
X162.839Y121.702
X162.874Y121.684
X162.909Y121.664
X162.943Y121.643
X162.978Y121.622
X163.011Y121.599
X163.044Y121.576
X163.077Y121.552
X163.109Y121.527
X163.14Y121.501
X163.155Y121.488
X163.184Y121.462
X163.206Y121.441
X163.228Y121.42
X163.256Y121.392
X163.284Y121.362
X163.316Y121.326
X163.347Y121.29
X163.369Y121.262
X163.39Y121.234
X163.411Y121.205
X163.431Y121.176
X163.45Y121.146
X163.469Y121.116
X163.486Y121.088
X163.502Y121.059
X163.518Y121.03
X163.537Y120.993
X163.555Y120.955
X163.568Y120.926
X163.581Y120.896
X163.597Y120.856
X163.605Y120.834
X163.619Y120.794
X163.632Y120.753
X163.645Y120.711
X163.656Y120.669
X163.666Y120.626
X163.674Y120.586
X163.681Y120.545
X163.689Y120.494
X163.695Y120.438
X163.698Y120.404
X163.7Y120.371
X163.701Y120.337
X163.702Y120.287
Y120.055
X163.713Y119.993
X163.724Y119.916
X163.732Y119.839
X163.737Y119.761
X163.74Y119.683
Y119.645
Y108.811
Y108.772
X163.738Y108.732
X163.736Y108.693
X163.732Y108.654
X163.728Y108.614
X163.723Y108.575
X163.716Y108.536
X163.709Y108.498
X163.702Y108.464
X163.701Y108.422
X163.698Y108.379
X163.695Y108.336
X163.69Y108.293
X163.684Y108.25
X163.677Y108.208
X163.669Y108.166
X163.66Y108.124
X163.65Y108.082
X163.64Y108.047
X163.63Y108.013
X163.619Y107.979
X163.607Y107.945
X163.594Y107.911
X163.578Y107.87
X163.56Y107.829
X163.541Y107.789
X163.519Y107.745
X163.502Y107.715
X163.486Y107.686
X163.464Y107.65
X163.441Y107.614
X163.42Y107.582
X163.397Y107.551
X163.374Y107.52
X163.35Y107.49
X163.326Y107.46
X163.301Y107.431
X163.275Y107.402
X163.248Y107.374
X163.221Y107.347
X163.193Y107.32
X163.164Y107.295
X163.135Y107.269
X163.105Y107.245
X163.075Y107.221
X163.044Y107.198
X163.012Y107.176
X162.98Y107.155
X162.948Y107.134
X162.915Y107.114
X162.881Y107.095
X162.846Y107.076
X162.812Y107.059
X162.778Y107.043
X162.743Y107.027
X162.708Y107.012
X162.672Y106.998
X162.636Y106.985
X162.6Y106.973
X162.563Y106.962
X162.527Y106.951
X162.49Y106.942
X162.452Y106.933
X162.415Y106.925
X162.377Y106.919
X162.34Y106.913
X162.302Y106.908
X162.264Y106.904
X162.226Y106.9
X162.188Y106.898
X162.149Y106.897
X162.111Y106.896
X158.175
X157.585Y106.883
X156.841Y106.878
G0Z1
X122.882Y113.73
G1Z-0.4F50
X122.901Y113.71F100
X122.92Y113.69
X122.94Y113.67
X122.96Y113.651
X122.981Y113.632
X123.002Y113.614
X123.023Y113.596
X123.045Y113.578
X123.066Y113.561
X123.088Y113.544
X123.111Y113.527
X123.133Y113.511
X123.157Y113.495
X123.18Y113.48
X123.203Y113.465
X123.227Y113.45
X123.251Y113.436
X123.275Y113.422
X123.3Y113.409
X123.324Y113.396
X123.349Y113.384
X123.39Y113.364
X123.428Y113.348
X123.477Y113.328
X123.503Y113.318
X123.53Y113.309
X123.582Y113.292
X123.609Y113.284
X123.636Y113.277
X123.663Y113.27
X123.69Y113.263
X123.717Y113.257
X123.744Y113.251
X123.77Y113.247
X123.8Y113.242
X123.827Y113.238
X123.855Y113.234
X123.882Y113.231
X123.91Y113.228
X123.938Y113.226
X123.966Y113.224
X123.994Y113.223
X124.021Y113.222
X124.049
X124.077
X124.105Y113.223
X124.133Y113.224
X124.161Y113.226
X124.189Y113.228
X124.216Y113.231
X124.244Y113.234
X124.271Y113.238
X124.299Y113.242
X124.327Y113.246
X124.354Y113.251
X124.398Y113.261
X124.438Y113.27
X124.489Y113.284
X124.516Y113.292
X124.543Y113.3
X124.569Y113.309
X124.595Y113.318
X124.622Y113.328
X124.648Y113.338
X124.673Y113.349
X124.699Y113.36
X124.724Y113.372
X124.749Y113.384
X124.774Y113.396
X124.799Y113.409
X124.823Y113.422
X124.848Y113.436
X124.872Y113.45
X124.895Y113.465
X124.919Y113.48
X124.942Y113.495
X124.965Y113.511
X124.988Y113.527
X125.01Y113.544
X125.032Y113.561
X125.054Y113.578
X125.076Y113.596
X125.097Y113.614
X125.118Y113.632
X125.138Y113.651
X125.158Y113.67
X125.178Y113.69
X125.198Y113.71
X125.217Y113.73
X125.236Y113.751
X125.254Y113.771
X125.272Y113.792
X125.307Y113.836
X125.324Y113.858
X125.341Y113.88
X125.357Y113.903
X125.373Y113.926
X125.388Y113.949
X125.403Y113.973
X125.418Y113.997
X125.446Y114.045
X125.459Y114.069
X125.472Y114.094
X125.484Y114.119
X125.496Y114.144
X125.508Y114.169
X125.519Y114.195
X125.53Y114.221
X125.54Y114.247
X125.55Y114.273
X125.559Y114.299
X125.568Y114.325
X125.576Y114.352
X125.584Y114.379
X125.591Y114.405
X125.598Y114.432
X125.605Y114.46
X125.611Y114.487
X125.622Y114.542
X125.626Y114.569
X125.63Y114.597
X125.634Y114.624
X125.637Y114.652
X125.64Y114.68
X125.642Y114.707
X125.644Y114.735
X125.645Y114.763
X125.646Y114.791
Y114.819
Y114.847
X125.645Y114.874
X125.644Y114.902
X125.642Y114.93
X125.64Y114.958
X125.637Y114.986
X125.634Y115.013
X125.63Y115.041
X125.626Y115.069
X125.622Y115.096
X125.617Y115.123
X125.611Y115.151
X125.605Y115.178
X125.598Y115.205
X125.591Y115.232
X125.584Y115.259
X125.576Y115.286
X125.568Y115.312
X125.559Y115.339
X125.55Y115.365
X125.54Y115.391
X125.53Y115.417
X125.519Y115.443
X125.508Y115.468
X125.496Y115.494
X125.484Y115.519
X125.472Y115.544
X125.459Y115.568
X125.446Y115.593
X125.432Y115.617
X125.418Y115.641
X125.403Y115.665
X125.388Y115.688
X125.373Y115.711
X125.357Y115.735
X125.341Y115.757
X125.324Y115.78
X125.307Y115.802
X125.29Y115.823
X125.272Y115.845
X125.254Y115.866
X125.236Y115.887
X125.217Y115.908
X125.198Y115.928
X125.178Y115.948
X125.158Y115.967
X125.138Y115.987
X125.118Y116.005
X125.097Y116.024
X125.076Y116.042
X125.054Y116.06
X125.032Y116.077
X125.01Y116.094
X124.988Y116.11
X124.965Y116.127
X124.942Y116.142
X124.919Y116.158
X124.895Y116.173
X124.872Y116.187
X124.848Y116.201
X124.823Y116.215
X124.799Y116.229
X124.774Y116.241
X124.749Y116.254
X124.724Y116.266
X124.699Y116.277
X124.673Y116.288
X124.647Y116.299
X124.621Y116.309
X124.595Y116.319
X124.569Y116.328
X124.543Y116.337
X124.516Y116.346
X124.489Y116.354
X124.463Y116.361
X124.435Y116.368
X124.408Y116.375
X124.381Y116.38
X124.354Y116.386
X124.326Y116.391
X124.299Y116.396
X124.271Y116.4
X124.244Y116.404
X124.216Y116.407
X124.188Y116.409
X124.161Y116.412
X124.133Y116.413
X124.105Y116.414
X124.077Y116.415
X124.031
X123.991Y116.414
X123.968Y116.413
X123.937Y116.411
X123.91Y116.409
X123.882Y116.407
X123.855Y116.404
X123.799Y116.396
X123.772Y116.391
X123.717Y116.38
X123.69Y116.374
X123.663Y116.368
X123.636Y116.361
X123.609Y116.354
X123.582Y116.346
X123.556Y116.337
X123.529Y116.328
X123.503Y116.319
X123.477Y116.309
X123.425Y116.288
X123.4Y116.277
X123.374Y116.266
X123.353Y116.255
X123.323Y116.241
X123.3Y116.229
X123.275Y116.215
X123.251Y116.201
X123.227Y116.187
X123.203Y116.173
X123.18Y116.158
X123.156Y116.142
X123.133Y116.127
X123.111Y116.11
X123.066Y116.077
X123.045Y116.06
X123.023Y116.042
X123.002Y116.024
X122.981Y116.005
X122.96Y115.987
X122.94Y115.967
X122.92Y115.948
X122.901Y115.928
X122.881Y115.908
X122.863Y115.887
X122.826Y115.845
X122.808Y115.823
X122.791Y115.802
X122.774Y115.78
X122.758Y115.757
X122.741Y115.735
X122.726Y115.712
X122.71Y115.688
X122.695Y115.665
X122.681Y115.641
X122.653Y115.593
X122.639Y115.568
X122.618Y115.527
X122.601Y115.491
X122.591Y115.468
X122.58Y115.443
X122.569Y115.417
X122.559Y115.391
X122.549Y115.365
X122.54Y115.339
X122.531Y115.312
X122.522Y115.286
X122.514Y115.259
X122.507Y115.232
X122.5Y115.205
X122.494Y115.178
X122.488Y115.151
X122.482Y115.123
X122.477Y115.096
X122.472Y115.069
X122.468Y115.041
X122.463Y114.997
X122.458Y114.955
X122.456Y114.93
X122.455Y114.902
X122.453Y114.871
Y114.819
Y114.791
X122.454Y114.744
X122.457Y114.705
X122.459Y114.676
X122.461Y114.652
X122.465Y114.624
X122.468Y114.597
X122.472Y114.569
X122.477Y114.541
X122.482Y114.514
X122.494Y114.46
X122.5Y114.433
X122.507Y114.405
X122.514Y114.379
X122.531Y114.325
X122.54Y114.299
X122.549Y114.273
X122.559Y114.247
X122.58Y114.195
X122.591Y114.169
X122.602Y114.144
X122.614Y114.119
X122.627Y114.094
X122.639Y114.069
X122.653Y114.045
X122.667Y114.02
X122.681Y113.996
X122.695Y113.974
X122.71Y113.949
X122.726Y113.926
X122.741Y113.903
X122.758Y113.88
X122.774Y113.858
X122.791Y113.836
X122.826Y113.792
X122.844Y113.771
X122.863Y113.75
X122.882Y113.73
G0Z1
X137.434Y114.803
G1Z-0.4F50
X137.451Y114.628F100
X137.502Y114.458
X137.586Y114.303
X137.698Y114.166
X137.834Y114.054
X137.99Y113.971
X138.159Y113.919
X138.335Y113.902
X138.511Y113.919
X138.68Y113.971
X138.836Y114.054
X138.972Y114.166
X139.084Y114.303
X139.168Y114.458
X139.219Y114.627
X139.236Y114.803
X139.219Y114.979
X139.168Y115.148
X139.084Y115.304
X138.972Y115.441
X138.836Y115.553
X138.68Y115.636
X138.511Y115.687
X138.335Y115.705
X138.159Y115.687
X137.99Y115.636
X137.834Y115.553
X137.698Y115.441
X137.586Y115.304
X137.502Y115.148
X137.451Y114.979
X137.434Y114.803
G0Z1
X153.338
G1Z-0.4F50
X153.355Y114.628F100
X153.406Y114.458
X153.49Y114.303
X153.602Y114.166
X153.738Y114.054
X153.894Y113.971
X154.063Y113.919
X154.239Y113.902
X154.415Y113.919
X154.584Y113.971
X154.74Y114.054
X154.876Y114.166
X154.988Y114.303
X155.072Y114.458
X155.123Y114.628
X155.14Y114.803
X155.123Y114.979
X155.072Y115.148
X154.988Y115.304
X154.876Y115.441
X154.74Y115.553
X154.584Y115.636
X154.415Y115.687
X154.239Y115.705
X154.063Y115.687
X153.894Y115.636
X153.738Y115.553
X153.602Y115.441
X153.49Y115.304
X153.406Y115.148
X153.355Y114.979
X153.338Y114.803
G0Z1
X156.841Y106.878
G1Z-0.4F50
X130.386F100
X129.732Y106.883
X129.078Y106.9
X128.425Y106.927
X127.772Y106.966
X127.12Y107.015
X126.468Y107.075
X125.818Y107.145
X125.169Y107.227
X124.522Y107.319
X123.876Y107.422
X123.232Y107.536
X122.589Y107.66
X122.465Y107.687
X122.342Y107.715
X122.219Y107.746
X122.097Y107.779
X121.975Y107.813
X121.854Y107.85
X121.734Y107.889
X121.614Y107.931
X121.495Y107.974
X121.377Y108.019
X121.26Y108.066
X121.143Y108.116
X121.027Y108.167
X120.912Y108.221
X120.799Y108.276
X120.686Y108.333
X120.574Y108.392
X120.463Y108.453
X120.353Y108.517
X120.245Y108.582
X120.137Y108.649
X120.031Y108.717
X119.926Y108.788
X119.822Y108.86
X119.719Y108.934
X119.618Y109.01
X119.518Y109.088
X119.42Y109.167
X119.322Y109.248
X119.227Y109.331
X119.132Y109.415
X119.039Y109.501
X118.948Y109.589
X118.858Y109.678
X118.77Y109.769
X118.683Y109.861
X118.598Y109.955
X118.515Y110.05
X118.433Y110.146
X118.333Y110.268
X118.235Y110.392
X118.14Y110.517
X118.045Y110.645
X117.954Y110.774
X117.865Y110.904
X117.778Y111.036
X117.693Y111.17
X117.611Y111.304
X117.531Y111.441
X117.453Y111.578
X117.378Y111.717
X117.305Y111.857
X117.234Y111.998
X117.166Y112.141
X117.101Y112.285
X117.037Y112.429
X116.977Y112.575
X116.919Y112.722
X116.863Y112.87
X116.81Y113.019
X116.759Y113.168
X116.711Y113.319
X116.666Y113.47
X116.623Y113.622
X116.583Y113.775
X116.545Y113.928
X116.51Y114.082
X116.478Y114.237
X116.448Y114.392
X116.421Y114.548
X116.397Y114.704
X116.375Y114.86
X116.357Y115.017
X116.34Y115.174
X116.327Y115.331
X116.316Y115.489
X116.308Y115.647
X116.302Y115.805
X116.3Y115.963
Y116.12
X116.302Y116.278
X116.308Y116.436
X116.316Y116.594
X116.326Y116.752
X116.34Y116.909
X116.356Y117.066
X116.375Y117.223
X116.395Y117.366
X116.814Y120.257
X116.828Y120.332
X116.844Y120.409
X116.863Y120.484
X116.885Y120.558
X116.909Y120.631
X116.936Y120.704
X116.965Y120.776
X116.997Y120.846
X117.031Y120.916
X117.068Y120.984
X117.106Y121.051
X117.148Y121.117
X117.191Y121.181
X117.237Y121.243
X117.285Y121.305
X117.335Y121.363
X117.387Y121.421
X117.441Y121.477
X117.496Y121.53
X117.554Y121.582
X117.614Y121.631
X117.675Y121.679
X117.738Y121.725
X117.801Y121.767
X117.868Y121.809
X117.935Y121.847
X118.003Y121.883
X118.074Y121.918
X118.143Y121.949
X118.216Y121.978
X118.288Y122.004
X118.362Y122.028
X118.436Y122.049
X118.512Y122.068
X118.587Y122.084
X118.664Y122.098
X118.741Y122.108
X118.817Y122.116
X118.895Y122.122
X118.972Y122.124
X119.011Y122.125
X124.062
X124.179Y122.124
X124.296Y122.121
X124.412Y122.116
X124.529Y122.109
X125.784Y122.018
X126.937Y121.954
X128.091Y121.908
X129.245Y121.88
X130.406Y121.871
X133.958
X133.997Y121.874
X134.035Y121.876
X134.073Y121.878
X134.111
X162.111
X162.151
X162.191Y121.876
X162.23Y121.874
X162.27Y121.87
X162.309Y121.866
X162.349Y121.86
X162.388Y121.854
X162.427Y121.846
X162.466Y121.838
X162.505Y121.829
X162.543Y121.818
X162.581Y121.807
X162.619Y121.795
X162.657Y121.782
X162.694Y121.768
X162.731Y121.753
X162.767Y121.737
X162.803Y121.72
X162.839Y121.702
X162.874Y121.684
X162.909Y121.664
X162.943Y121.643
X162.978Y121.622
X163.011Y121.599
X163.044Y121.576
X163.077Y121.552
X163.109Y121.527
X163.14Y121.501
X163.155Y121.488
X163.184Y121.462
X163.206Y121.441
X163.228Y121.42
X163.256Y121.392
X163.284Y121.362
X163.316Y121.326
X163.347Y121.29
X163.369Y121.262
X163.39Y121.234
X163.411Y121.205
X163.431Y121.176
X163.45Y121.146
X163.469Y121.116
X163.486Y121.088
X163.502Y121.059
X163.518Y121.03
X163.537Y120.993
X163.555Y120.955
X163.568Y120.926
X163.581Y120.896
X163.597Y120.856
X163.605Y120.834
X163.619Y120.794
X163.632Y120.753
X163.645Y120.711
X163.656Y120.669
X163.666Y120.626
X163.674Y120.586
X163.681Y120.545
X163.689Y120.494
X163.695Y120.438
X163.698Y120.404
X163.7Y120.371
X163.701Y120.337
X163.702Y120.287
Y120.055
X163.713Y119.993
X163.724Y119.916
X163.732Y119.839
X163.737Y119.761
X163.74Y119.683
Y119.645
Y108.811
Y108.772
X163.738Y108.732
X163.736Y108.693
X163.732Y108.654
X163.728Y108.614
X163.723Y108.575
X163.716Y108.536
X163.709Y108.498
X163.702Y108.464
X163.701Y108.422
X163.698Y108.379
X163.695Y108.336
X163.69Y108.293
X163.684Y108.25
X163.677Y108.208
X163.669Y108.166
X163.66Y108.124
X163.65Y108.082
X163.64Y108.047
X163.63Y108.013
X163.619Y107.979
X163.607Y107.945
X163.594Y107.911
X163.578Y107.87
X163.56Y107.829
X163.541Y107.789
X163.519Y107.745
X163.502Y107.715
X163.486Y107.686
X163.464Y107.65
X163.441Y107.614
X163.42Y107.582
X163.397Y107.551
X163.374Y107.52
X163.35Y107.49
X163.326Y107.46
X163.301Y107.431
X163.275Y107.402
X163.248Y107.374
X163.221Y107.347
X163.193Y107.32
X163.164Y107.295
X163.135Y107.269
X163.105Y107.245
X163.075Y107.221
X163.044Y107.198
X163.012Y107.176
X162.98Y107.155
X162.948Y107.134
X162.915Y107.114
X162.881Y107.095
X162.846Y107.076
X162.812Y107.059
X162.778Y107.043
X162.743Y107.027
X162.708Y107.012
X162.672Y106.998
X162.636Y106.985
X162.6Y106.973
X162.563Y106.962
X162.527Y106.951
X162.49Y106.942
X162.452Y106.933
X162.415Y106.925
X162.377Y106.919
X162.34Y106.913
X162.302Y106.908
X162.264Y106.904
X162.226Y106.9
X162.188Y106.898
X162.149Y106.897
X162.111Y106.896
X158.175
X157.585Y106.883
X156.841Y106.878
G0Z1
X122.882Y113.73
G1Z-0.45F50
X122.901Y113.71F100
X122.92Y113.69
X122.94Y113.67
X122.96Y113.651
X122.981Y113.632
X123.002Y113.614
X123.023Y113.596
X123.045Y113.578
X123.066Y113.561
X123.088Y113.544
X123.111Y113.527
X123.133Y113.511
X123.157Y113.495
X123.18Y113.48
X123.203Y113.465
X123.227Y113.45
X123.251Y113.436
X123.275Y113.422
X123.3Y113.409
X123.324Y113.396
X123.349Y113.384
X123.39Y113.364
X123.428Y113.348
X123.477Y113.328
X123.503Y113.318
X123.53Y113.309
X123.582Y113.292
X123.609Y113.284
X123.636Y113.277
X123.663Y113.27
X123.69Y113.263
X123.717Y113.257
X123.744Y113.251
X123.77Y113.247
X123.8Y113.242
X123.827Y113.238
X123.855Y113.234
X123.882Y113.231
X123.91Y113.228
X123.938Y113.226
X123.966Y113.224
X123.994Y113.223
X124.021Y113.222
X124.049
X124.077
X124.105Y113.223
X124.133Y113.224
X124.161Y113.226
X124.189Y113.228
X124.216Y113.231
X124.244Y113.234
X124.271Y113.238
X124.299Y113.242
X124.327Y113.246
X124.354Y113.251
X124.398Y113.261
X124.438Y113.27
X124.489Y113.284
X124.516Y113.292
X124.543Y113.3
X124.569Y113.309
X124.595Y113.318
X124.622Y113.328
X124.648Y113.338
X124.673Y113.349
X124.699Y113.36
X124.724Y113.372
X124.749Y113.384
X124.774Y113.396
X124.799Y113.409
X124.823Y113.422
X124.848Y113.436
X124.872Y113.45
X124.895Y113.465
X124.919Y113.48
X124.942Y113.495
X124.965Y113.511
X124.988Y113.527
X125.01Y113.544
X125.032Y113.561
X125.054Y113.578
X125.076Y113.596
X125.097Y113.614
X125.118Y113.632
X125.138Y113.651
X125.158Y113.67
X125.178Y113.69
X125.198Y113.71
X125.217Y113.73
X125.236Y113.751
X125.254Y113.771
X125.272Y113.792
X125.307Y113.836
X125.324Y113.858
X125.341Y113.88
X125.357Y113.903
X125.373Y113.926
X125.388Y113.949
X125.403Y113.973
X125.418Y113.997
X125.446Y114.045
X125.459Y114.069
X125.472Y114.094
X125.484Y114.119
X125.496Y114.144
X125.508Y114.169
X125.519Y114.195
X125.53Y114.221
X125.54Y114.247
X125.55Y114.273
X125.559Y114.299
X125.568Y114.325
X125.576Y114.352
X125.584Y114.379
X125.591Y114.405
X125.598Y114.432
X125.605Y114.46
X125.611Y114.487
X125.622Y114.542
X125.626Y114.569
X125.63Y114.597
X125.634Y114.624
X125.637Y114.652
X125.64Y114.68
X125.642Y114.707
X125.644Y114.735
X125.645Y114.763
X125.646Y114.791
Y114.819
Y114.847
X125.645Y114.874
X125.644Y114.902
X125.642Y114.93
X125.64Y114.958
X125.637Y114.986
X125.634Y115.013
X125.63Y115.041
X125.626Y115.069
X125.622Y115.096
X125.617Y115.123
X125.611Y115.151
X125.605Y115.178
X125.598Y115.205
X125.591Y115.232
X125.584Y115.259
X125.576Y115.286
X125.568Y115.312
X125.559Y115.339
X125.55Y115.365
X125.54Y115.391
X125.53Y115.417
X125.519Y115.443
X125.508Y115.468
X125.496Y115.494
X125.484Y115.519
X125.472Y115.544
X125.459Y115.568
X125.446Y115.593
X125.432Y115.617
X125.418Y115.641
X125.403Y115.665
X125.388Y115.688
X125.373Y115.711
X125.357Y115.735
X125.341Y115.757
X125.324Y115.78
X125.307Y115.802
X125.29Y115.823
X125.272Y115.845
X125.254Y115.866
X125.236Y115.887
X125.217Y115.908
X125.198Y115.928
X125.178Y115.948
X125.158Y115.967
X125.138Y115.987
X125.118Y116.005
X125.097Y116.024
X125.076Y116.042
X125.054Y116.06
X125.032Y116.077
X125.01Y116.094
X124.988Y116.11
X124.965Y116.127
X124.942Y116.142
X124.919Y116.158
X124.895Y116.173
X124.872Y116.187
X124.848Y116.201
X124.823Y116.215
X124.799Y116.229
X124.774Y116.241
X124.749Y116.254
X124.724Y116.266
X124.699Y116.277
X124.673Y116.288
X124.647Y116.299
X124.621Y116.309
X124.595Y116.319
X124.569Y116.328
X124.543Y116.337
X124.516Y116.346
X124.489Y116.354
X124.463Y116.361
X124.435Y116.368
X124.408Y116.375
X124.381Y116.38
X124.354Y116.386
X124.326Y116.391
X124.299Y116.396
X124.271Y116.4
X124.244Y116.404
X124.216Y116.407
X124.188Y116.409
X124.161Y116.412
X124.133Y116.413
X124.105Y116.414
X124.077Y116.415
X124.031
X123.991Y116.414
X123.968Y116.413
X123.937Y116.411
X123.91Y116.409
X123.882Y116.407
X123.855Y116.404
X123.799Y116.396
X123.772Y116.391
X123.717Y116.38
X123.69Y116.374
X123.663Y116.368
X123.636Y116.361
X123.609Y116.354
X123.582Y116.346
X123.556Y116.337
X123.529Y116.328
X123.503Y116.319
X123.477Y116.309
X123.425Y116.288
X123.4Y116.277
X123.374Y116.266
X123.353Y116.255
X123.323Y116.241
X123.3Y116.229
X123.275Y116.215
X123.251Y116.201
X123.227Y116.187
X123.203Y116.173
X123.18Y116.158
X123.156Y116.142
X123.133Y116.127
X123.111Y116.11
X123.066Y116.077
X123.045Y116.06
X123.023Y116.042
X123.002Y116.024
X122.981Y116.005
X122.96Y115.987
X122.94Y115.967
X122.92Y115.948
X122.901Y115.928
X122.881Y115.908
X122.863Y115.887
X122.826Y115.845
X122.808Y115.823
X122.791Y115.802
X122.774Y115.78
X122.758Y115.757
X122.741Y115.735
X122.726Y115.712
X122.71Y115.688
X122.695Y115.665
X122.681Y115.641
X122.653Y115.593
X122.639Y115.568
X122.618Y115.527
X122.601Y115.491
X122.591Y115.468
X122.58Y115.443
X122.569Y115.417
X122.559Y115.391
X122.549Y115.365
X122.54Y115.339
X122.531Y115.312
X122.522Y115.286
X122.514Y115.259
X122.507Y115.232
X122.5Y115.205
X122.494Y115.178
X122.488Y115.151
X122.482Y115.123
X122.477Y115.096
X122.472Y115.069
X122.468Y115.041
X122.463Y114.997
X122.458Y114.955
X122.456Y114.93
X122.455Y114.902
