(Created with grbl post processor 2025/02/04 20:21)
G21
(G-code generated with BlenderCAM and NC library)
G17G90
(Tool: D = 3.18 mm  type END flutes 2)
S1000M03
G00 Z1.0

G0X0Y0Z1
X10.673Y15.068
G1Z-0.1F50
X10.934Y14.946F100
X11.212Y14.872
X11.5Y14.847
X11.787Y14.872
X12.065Y14.946
X12.326Y15.068
X12.562Y15.233
X12.766Y15.437
X12.931Y15.673
X13.053Y15.934
X13.127Y16.212
X13.152Y16.499
X13.127Y16.786
X13.053Y17.065
X12.931Y17.326
X12.766Y17.562
X12.562Y17.766
X12.326Y17.931
X12.065Y18.053
X11.787Y18.127
X11.5Y18.152
X11.212Y18.127
X10.934Y18.053
X10.673Y17.931
X10.437Y17.766
X10.233Y17.562
X10.068Y17.326
X9.946Y17.065
X9.872Y16.786
X9.847Y16.499
X9.872Y16.212
X9.946Y15.934
X10.068Y15.673
X10.233Y15.437
X10.437Y15.233
X10.673Y15.068
G0Z1
X11.5Y47.167
G1Z-0.1F50
X11.787Y47.192F100
X12.065Y47.266
X12.326Y47.388
X12.562Y47.553
X12.766Y47.757
X12.931Y47.993
X13.053Y48.254
X13.127Y48.532
X13.152Y48.819
X13.127Y49.106
X13.053Y49.385
X12.931Y49.646
X12.766Y49.882
X12.562Y50.086
X12.326Y50.251
X12.065Y50.373
X11.787Y50.447
X11.5Y50.472
X11.212Y50.447
X10.934Y50.373
X10.673Y50.251
X10.437Y50.086
X10.233Y49.882
X10.068Y49.646
X9.946Y49.385
X9.872Y49.106
X9.847Y48.819
X9.872Y48.532
X9.946Y48.254
X10.068Y47.993
X10.233Y47.757
X10.437Y47.553
X10.673Y47.388
X10.934Y47.266
X11.212Y47.192
X11.5Y47.167
G0Z1
Y79.487
G1Z-0.1F50
X11.786Y79.512F100
X12.065Y79.586
X12.326Y79.708
X12.562Y79.873
X12.766Y80.077
X12.931Y80.313
X13.053Y80.574
X13.127Y80.852
X13.152Y81.14
X13.127Y81.426
X13.053Y81.705
X12.931Y81.966
X12.766Y82.202
X12.562Y82.406
X12.326Y82.571
X12.065Y82.693
X11.787Y82.767
X11.5Y82.792
X11.212Y82.767
X10.934Y82.693
X10.673Y82.571
X10.436Y82.405
X10.233Y82.202
X10.068Y81.966
X9.946Y81.705
X9.872Y81.426
X9.847Y81.14
X9.872Y80.852
X9.946Y80.574
X10.068Y80.313
X10.233Y80.077
X10.437Y79.873
X10.673Y79.708
X10.934Y79.586
X11.212Y79.512
X11.5Y79.487
G0Z1
Y111.807
G1Z-0.1F50
X11.786Y111.832F100
X12.065Y111.906
X12.326Y112.028
X12.562Y112.193
X12.766Y112.397
X12.931Y112.633
X13.053Y112.894
X13.127Y113.172
X13.152Y113.459
X13.127Y113.747
X13.053Y114.025
X12.931Y114.286
X12.766Y114.522
X12.562Y114.726
X12.326Y114.891
X12.065Y115.013
X11.786Y115.087
X11.5Y115.112
X11.212Y115.087
X10.934Y115.013
X10.673Y114.891
X10.437Y114.726
X10.233Y114.522
X10.068Y114.286
X9.946Y114.025
X9.872Y113.747
X9.847Y113.459
X9.872Y113.172
X9.946Y112.894
X10.068Y112.633
X10.233Y112.397
X10.437Y112.193
X10.673Y112.028
X10.934Y111.906
X11.213Y111.832
X11.5Y111.807
G0Z1
X63.047Y113.459
G1Z-0.1F50
X63.072Y113.172F100
X63.146Y112.894
X63.268Y112.633
X63.433Y112.397
X63.637Y112.193
X63.873Y112.028
X64.134Y111.906
X64.413Y111.832
X64.699Y111.807
X64.986Y111.832
X65.265Y111.906
X65.526Y112.028
X65.762Y112.193
X65.966Y112.397
X66.131Y112.633
X66.253Y112.894
X66.327Y113.172
X66.352Y113.459
X66.327Y113.746
X66.253Y114.025
X66.131Y114.286
X65.966Y114.522
X65.762Y114.726
X65.526Y114.891
X65.265Y115.013
X64.986Y115.087
X64.699Y115.112
X64.412Y115.087
X64.134Y115.013
X63.873Y114.891
X63.637Y114.726
X63.433Y114.522
X63.268Y114.286
X63.146Y114.025
X63.072Y113.747
X63.047Y113.459
G0Z1
X64.699Y82.792
G1Z-0.1F50
X64.412Y82.767F100
X64.134Y82.693
X63.873Y82.571
X63.637Y82.406
X63.433Y82.202
X63.268Y81.966
X63.146Y81.705
X63.072Y81.426
X63.047Y81.14
X63.072Y80.852
X63.146Y80.574
X63.268Y80.313
X63.433Y80.077
X63.637Y79.873
X63.873Y79.708
X64.134Y79.586
X64.412Y79.512
X64.699Y79.487
X64.986Y79.512
X65.265Y79.586
X65.526Y79.708
X65.762Y79.873
X65.966Y80.077
X66.131Y80.313
X66.253Y80.574
X66.327Y80.852
X66.352Y81.14
X66.327Y81.426
X66.253Y81.705
X66.131Y81.966
X65.966Y82.202
X65.762Y82.406
X65.526Y82.571
X65.265Y82.693
X64.986Y82.767
X64.699Y82.792
G0Z1
X92.764Y88.882
G1Z-0.1F50
X92.787Y88.806F100
X92.824Y88.737
X92.874Y88.676
X92.934Y88.626
X93.004Y88.589
X93.079Y88.566
X93.157Y88.559
X93.236Y88.566
X93.311Y88.589
X93.38Y88.626
X93.441Y88.676
X93.491Y88.737
X93.528Y88.806
X93.551Y88.882
X93.559Y88.96
X93.551Y89.038
X93.528Y89.113
X93.491Y89.183
X93.441Y89.244
X93.38Y89.294
X93.311Y89.331
X93.236Y89.354
X93.157Y89.361
X93.079Y89.353
X93.004Y89.331
X92.934Y89.294
X92.874Y89.244
X92.824Y89.183
X92.787Y89.113
X92.764Y89.038
X92.756Y88.96
X92.764Y88.882
G0Z1
X101.803Y80.815
G1Z-0.1F50
X100.509Y79.239F100
X99.548Y77.44
X98.956Y75.489
X98.756Y73.46
X98.956Y71.431
X99.548Y69.479
X100.509Y67.681
X101.799Y66.11
X103.379Y64.811
X105.177Y63.85
X107.128Y63.258
X109.157Y63.059
X111.187Y63.258
X113.138Y63.85
X114.936Y64.812
X116.512Y66.105
X117.806Y67.681
X118.767Y69.479
X119.359Y71.431
X119.559Y73.46
X119.359Y75.489
X118.767Y77.44
X117.806Y79.239
X116.512Y80.815
X114.936Y82.108
X113.138Y83.069
X111.187Y83.661
X109.157Y83.861
X107.128Y83.661
X105.177Y83.069
X103.379Y82.108
X101.803Y80.815
G0Z1
X123.787Y88.806
G1Z-0.1F50
X123.824Y88.737F100
X123.874Y88.676
X123.934Y88.626
X124.004Y88.589
X124.079Y88.566
X124.157Y88.559
X124.236Y88.566
X124.311Y88.589
X124.38Y88.626
X124.441Y88.676
X124.491Y88.737
X124.528Y88.806
X124.551Y88.882
X124.559Y88.96
X124.551Y89.038
X124.528Y89.113
X124.491Y89.183
X124.441Y89.244
X124.38Y89.294
X124.311Y89.331
X124.236Y89.353
X124.157Y89.361
X124.079Y89.353
X124.004Y89.331
X123.934Y89.294
X123.874Y89.244
X123.824Y89.183
X123.787Y89.113
X123.764Y89.038
X123.756Y88.96
X123.764Y88.882
X123.787Y88.806
G0Z1
X124.157Y58.361
G1Z-0.1F50
X124.079Y58.353F100
X124.004Y58.331
X123.934Y58.294
X123.874Y58.244
X123.824Y58.183
X123.787Y58.113
X123.764Y58.038
X123.756Y57.96
X123.764Y57.882
X123.787Y57.806
X123.824Y57.737
X123.874Y57.676
X123.934Y57.626
X124.004Y57.589
X124.079Y57.566
X124.157Y57.559
X124.236Y57.566
X124.311Y57.589
X124.38Y57.626
X124.441Y57.676
X124.491Y57.737
X124.528Y57.806
X124.551Y57.882
X124.559Y57.96
X124.551Y58.038
X124.528Y58.113
X124.491Y58.183
X124.441Y58.244
X124.38Y58.294
X124.311Y58.331
X124.236Y58.353
X124.157Y58.361
G0Z1
X93.559Y57.96
G1Z-0.1F50
X93.551Y58.038F100
X93.528Y58.113
X93.491Y58.183
X93.441Y58.244
X93.38Y58.294
X93.311Y58.331
X93.236Y58.353
X93.157Y58.361
X93.079Y58.353
X93.004Y58.331
X92.934Y58.294
X92.874Y58.244
X92.824Y58.183
X92.787Y58.113
X92.764Y58.038
X92.756Y57.96
X92.764Y57.882
X92.787Y57.806
X92.824Y57.737
X92.874Y57.676
X92.934Y57.626
X93.004Y57.589
X93.079Y57.566
X93.157Y57.559
X93.236Y57.566
X93.311Y57.589
X93.38Y57.626
X93.441Y57.676
X93.491Y57.737
X93.528Y57.806
X93.551Y57.882
X93.559Y57.96
G0Z1
X66.253Y49.385
G1Z-0.1F50
X66.131Y49.646F100
X65.966Y49.882
X65.762Y50.086
X65.526Y50.251
X65.265Y50.373
X64.986Y50.447
X64.699Y50.472
X64.412Y50.447
X64.134Y50.373
X63.873Y50.251
X63.637Y50.086
X63.433Y49.882
X63.268Y49.646
X63.146Y49.385
X63.072Y49.106
X63.047Y48.819
X63.072Y48.532
X63.146Y48.254
X63.268Y47.993
X63.433Y47.757
X63.637Y47.553
X63.873Y47.388
X64.134Y47.266
X64.412Y47.192
X64.699Y47.167
X64.987Y47.192
X65.265Y47.266
X65.526Y47.388
X65.762Y47.553
X65.966Y47.757
X66.131Y47.993
X66.253Y48.254
X66.327Y48.532
X66.352Y48.819
X66.327Y49.106
X66.253Y49.385
G0Z1
X64.699Y18.152
G1Z-0.1F50
X64.412Y18.127F100
X64.134Y18.053
X63.873Y17.931
X63.637Y17.766
X63.433Y17.562
X63.268Y17.326
X63.146Y17.065
X63.072Y16.786
X63.047Y16.499
X63.072Y16.212
X63.146Y15.934
X63.268Y15.673
X63.433Y15.437
X63.637Y15.233
X63.873Y15.068
X64.134Y14.946
X64.412Y14.872
X64.699Y14.847
X64.986Y14.872
X65.265Y14.946
X65.526Y15.068
X65.762Y15.233
X65.966Y15.437
X66.131Y15.673
X66.253Y15.934
X66.327Y16.212
X66.352Y16.499
X66.327Y16.786
X66.253Y17.065
X66.131Y17.326
X65.966Y17.562
X65.762Y17.766
X65.526Y17.931
X65.265Y18.053
X64.987Y18.127
X64.699Y18.152
G0Z1
X104.141Y119.151
G1Z-0.1F50
X104.293Y119.11F100
X104.449Y119.097
X104.606Y119.11
X104.758Y119.151
X104.901Y119.218
X105.03Y119.308
X105.141Y119.419
X105.231Y119.548
X105.298Y119.691
X105.339Y119.843
X105.352Y119.999
X105.339Y120.156
X105.298Y120.308
X105.231Y120.451
X105.141Y120.58
X105.03Y120.691
X104.901Y120.781
X104.758Y120.848
X104.606Y120.889
X104.449Y120.902
X104.293Y120.889
X104.14Y120.848
X103.998Y120.781
X103.869Y120.691
X103.758Y120.58
X103.667Y120.451
X103.601Y120.308
X103.56Y120.156
X103.546Y119.999
X103.56Y119.843
X103.601Y119.691
X103.667Y119.548
X103.758Y119.419
X103.869Y119.308
X103.998Y119.217
X104.141Y119.151
G0Z1
X150.396Y119.999
G1Z-0.1F50
X150.41Y119.843F100
X150.451Y119.691
X150.517Y119.548
X150.608Y119.419
X150.719Y119.308
X150.848Y119.217
X150.991Y119.151
X151.143Y119.11
X151.299Y119.097
X151.456Y119.11
X151.608Y119.151
X151.751Y119.218
X151.88Y119.308
X151.991Y119.419
X152.081Y119.548
X152.148Y119.691
X152.189Y119.843
X152.202Y119.999
X152.189Y120.156
X152.148Y120.308
X152.081Y120.451
X151.991Y120.58
X151.88Y120.691
X151.751Y120.781
X151.608Y120.848
X151.456Y120.889
X151.299Y120.902
X151.143Y120.889
X150.99Y120.848
X150.848Y120.781
X150.719Y120.691
X150.608Y120.58
X150.517Y120.451
X150.451Y120.308
X150.41Y120.156
X150.396Y119.999
G0Z1
X181.906
G1Z-0.1F50
X181.92Y119.843F100
X181.961Y119.691
X182.027Y119.548
X182.118Y119.419
X182.229Y119.308
X182.358Y119.217
X182.501Y119.151
X182.653Y119.11
X182.809Y119.097
X182.966Y119.11
X183.118Y119.151
X183.261Y119.217
X183.39Y119.308
X183.501Y119.419
X183.591Y119.548
X183.658Y119.691
X183.699Y119.843
X183.712Y119.999
X183.699Y120.156
X183.658Y120.308
X183.591Y120.451
X183.501Y120.58
X183.39Y120.691
X183.261Y120.781
X183.118Y120.848
X182.966Y120.889
X182.809Y120.902
X182.653Y120.889
X182.5Y120.848
X182.358Y120.781
X182.229Y120.691
X182.118Y120.58
X182.027Y120.451
X181.961Y120.308
X181.92Y120.156
X181.906Y119.999
G0Z1
X197.948Y129.548
G1Z-0.1F50
X198.038Y129.419F100
X198.149Y129.308
X198.278Y129.217
X198.421Y129.151
X198.573Y129.11
X198.73Y129.097
X198.887Y129.11
X199.039Y129.151
X199.181Y129.217
X199.31Y129.308
X199.421Y129.419
X199.512Y129.548
X199.578Y129.691
X199.619Y129.843
X199.633Y129.999
X199.619Y130.156
X199.578Y130.308
X199.512Y130.451
X199.422Y130.58
X199.31Y130.691
X199.181Y130.781
X199.039Y130.848
X198.887Y130.889
X198.73Y130.902
X198.573Y130.889
X198.421Y130.848
X198.278Y130.781
X198.149Y130.691
X198.038Y130.58
X197.948Y130.451
X197.881Y130.308
X197.841Y130.156
X197.827Y129.999
X197.841Y129.843
X197.881Y129.691
X197.948Y129.548
G0Z1
X212.827Y129.999
G1Z-0.1F50
X212.841Y129.843F100
X212.881Y129.691
X212.948Y129.548
X213.038Y129.419
X213.149Y129.308
X213.278Y129.217
X213.421Y129.151
X213.573Y129.11
X213.73Y129.097
X213.887Y129.11
X214.039Y129.151
X214.181Y129.217
X214.31Y129.308
X214.421Y129.419
X214.512Y129.548
X214.578Y129.691
X214.619Y129.843
X214.633Y129.999
X214.619Y130.156
X214.578Y130.308
X214.512Y130.451
X214.422Y130.58
X214.31Y130.691
X214.181Y130.781
X214.039Y130.848
X213.887Y130.889
X213.73Y130.902
X213.573Y130.889
X213.421Y130.848
X213.278Y130.781
X213.149Y130.691
X213.038Y130.58
X212.948Y130.451
X212.881Y130.308
X212.841Y130.156
X212.827Y129.999
G0Z1
X228.877Y120.451
G1Z-0.1F50
X228.811Y120.308F100
X228.77Y120.156
X228.756Y119.999
X228.77Y119.842
X228.811Y119.691
X228.877Y119.548
X228.968Y119.419
X229.079Y119.308
X229.208Y119.217
X229.351Y119.151
X229.503Y119.11
X229.659Y119.097
X229.816Y119.11
X229.968Y119.151
X230.111Y119.217
X230.24Y119.308
X230.351Y119.419
X230.441Y119.548
X230.508Y119.691
X230.549Y119.843
X230.562Y119.999
X230.549Y120.156
X230.508Y120.308
X230.441Y120.451
X230.352Y120.578
X230.239Y120.692
X230.111Y120.781
X229.968Y120.848
X229.816Y120.889
X229.659Y120.902
X229.503Y120.889
X229.35Y120.848
X229.208Y120.781
X229.079Y120.691
X228.968Y120.58
X228.877Y120.451
G0Z1
X214.039Y159.151
G1Z-0.1F50
X214.181Y159.217F100
X214.31Y159.308
X214.421Y159.419
X214.512Y159.548
X214.578Y159.691
X214.619Y159.843
X214.633Y159.999
X214.619Y160.156
X214.578Y160.308
X214.512Y160.451
X214.421Y160.58
X214.31Y160.691
X214.181Y160.781
X214.039Y160.848
X213.887Y160.889
X213.73Y160.902
X213.573Y160.889
X213.421Y160.848
X213.278Y160.781
X213.149Y160.691
X213.038Y160.58
X212.948Y160.451
X212.881Y160.308
X212.841Y160.156
X212.827Y159.999
X212.841Y159.842
X212.881Y159.69
X212.948Y159.548
X213.038Y159.419
X213.149Y159.308
X213.278Y159.217
X213.421Y159.151
X213.573Y159.11
X213.73Y159.096
X213.887Y159.11
X214.039Y159.151
G0Z1
X199.633Y159.999
G1Z-0.1F50
X199.619Y160.156F100
X199.578Y160.308
X199.512Y160.451
X199.421Y160.58
X199.31Y160.691
X199.181Y160.781
X199.039Y160.848
X198.887Y160.889
X198.73Y160.902
X198.573Y160.889
X198.421Y160.848
X198.278Y160.781
X198.149Y160.691
X198.038Y160.58
X197.948Y160.451
X197.881Y160.308
X197.841Y160.156
X197.827Y159.999
X197.841Y159.842
X197.881Y159.69
X197.948Y159.548
X198.038Y159.419
X198.149Y159.308
X198.278Y159.217
X198.421Y159.151
X198.573Y159.11
X198.73Y159.096
X198.887Y159.11
X199.039Y159.151
X199.181Y159.217
X199.31Y159.308
X199.421Y159.419
X199.512Y159.548
X199.578Y159.691
X199.619Y159.843
X199.633Y159.999
G0Z1
X190.768Y148.188
G1Z-0.1F50
X190.266Y148.456F100
X189.722Y148.621
X189.156Y148.677
X188.59Y148.621
X188.046Y148.456
X187.544Y148.188
X187.105Y147.827
X186.744Y147.388
X186.476Y146.886
X186.311Y146.342
X186.255Y145.776
X186.311Y145.21
X186.476Y144.666
X186.744Y144.164
X187.105Y143.724
X187.544Y143.363
X188.046Y143.095
X188.59Y142.93
X189.156Y142.874
X189.722Y142.93
X190.266Y143.095
X190.768Y143.363
X191.208Y143.724
X191.569Y144.164
X191.837Y144.666
X192.002Y145.21
X192.057Y145.776
X192.002Y146.342
X191.837Y146.886
X191.569Y147.388
X191.208Y147.827
X190.768Y148.188
G0Z1
X183.118Y169.151
G1Z-0.1F50
X183.261Y169.217F100
X183.39Y169.308
X183.501Y169.419
X183.591Y169.548
X183.658Y169.691
X183.699Y169.842
X183.712Y169.999
X183.699Y170.156
X183.658Y170.308
X183.591Y170.451
X183.501Y170.58
X183.39Y170.691
X183.261Y170.781
X183.118Y170.848
X182.966Y170.889
X182.809Y170.902
X182.653Y170.889
X182.501Y170.848
X182.358Y170.781
X182.229Y170.691
X182.118Y170.58
X182.027Y170.451
X181.961Y170.308
X181.92Y170.156
X181.906Y169.999
X181.92Y169.843
X181.961Y169.69
X182.027Y169.548
X182.118Y169.419
X182.229Y169.308
X182.358Y169.217
X182.501Y169.151
X182.653Y169.11
X182.809Y169.096
X182.966Y169.11
X183.118Y169.151
G0Z1
X152.202Y169.999
G1Z-0.1F50
X152.189Y170.156F100
X152.148Y170.308
X152.081Y170.451
X151.991Y170.58
X151.88Y170.691
X151.751Y170.781
X151.608Y170.848
X151.456Y170.889
X151.299Y170.902
X151.143Y170.889
X150.991Y170.848
X150.848Y170.781
X150.719Y170.691
X150.608Y170.58
X150.517Y170.451
X150.451Y170.308
X150.41Y170.156
X150.396Y169.999
X150.41Y169.843
X150.451Y169.69
X150.517Y169.548
X150.608Y169.419
X150.719Y169.308
X150.848Y169.217
X150.991Y169.151
X151.142Y169.11
X151.299Y169.096
X151.456Y169.11
X151.608Y169.151
X151.751Y169.217
X151.88Y169.308
X151.991Y169.419
X152.081Y169.548
X152.148Y169.691
X152.189Y169.843
X152.202Y169.999
G0Z1
X105.352
G1Z-0.1F50
X105.339Y170.156F100
X105.298Y170.308
X105.231Y170.451
X105.141Y170.58
X105.03Y170.691
X104.901Y170.781
X104.758Y170.848
X104.606Y170.889
X104.449Y170.902
X104.293Y170.889
X104.141Y170.848
X103.998Y170.781
X103.869Y170.691
X103.758Y170.58
X103.667Y170.451
X103.601Y170.308
X103.56Y170.156
X103.546Y169.999
X103.56Y169.843
X103.601Y169.69
X103.667Y169.548
X103.758Y169.419
X103.869Y169.308
X103.998Y169.217
X104.141Y169.151
X104.292Y169.11
X104.449Y169.096
X104.606Y169.11
X104.758Y169.151
X104.901Y169.217
X105.03Y169.308
X105.141Y169.419
X105.231Y169.548
X105.298Y169.691
X105.339Y169.843
X105.352Y169.999
G0Z1
X228.756
G1Z-0.1F50
X228.77Y169.842F100
X228.811Y169.69
X228.877Y169.548
X228.968Y169.419
X229.079Y169.308
X229.208Y169.217
X229.351Y169.151
X229.503Y169.11
X229.659Y169.096
X229.816Y169.11
X229.968Y169.151
X230.111Y169.217
X230.24Y169.308
X230.351Y169.419
X230.441Y169.548
X230.508Y169.691
X230.549Y169.843
X230.562Y169.999
X230.549Y170.156
X230.508Y170.308
X230.441Y170.451
X230.351Y170.58
X230.24Y170.691
X230.111Y170.781
X229.968Y170.848
X229.816Y170.889
X229.659Y170.902
X229.503Y170.889
X229.351Y170.848
X229.208Y170.781
X229.079Y170.691
X228.968Y170.58
X228.877Y170.451
X228.811Y170.308
X228.77Y170.156
X228.756Y169.999
G0Z1
X275.606
G1Z-0.1F50
X275.62Y169.842F100
X275.661Y169.691
X275.727Y169.548
X275.818Y169.419
X275.929Y169.308
X276.058Y169.217
X276.201Y169.151
X276.352Y169.11
X276.509Y169.096
X276.666Y169.11
X276.818Y169.151
X276.961Y169.217
X277.09Y169.308
X277.201Y169.419
X277.291Y169.548
X277.358Y169.69
X277.398Y169.843
X277.412Y169.999
X277.399Y170.156
X277.358Y170.308
X277.291Y170.451
X277.201Y170.58
X277.09Y170.691
X276.961Y170.781
X276.818Y170.848
X276.666Y170.889
X276.509Y170.902
X276.352Y170.889
X276.201Y170.848
X276.058Y170.781
X275.929Y170.691
X275.818Y170.58
X275.727Y170.451
X275.661Y170.308
X275.62Y170.156
X275.606Y169.999
G0Z1
X276.509Y120.902
G1Z-0.1F50
X276.352Y120.889F100
X276.2Y120.848
X276.058Y120.781
X275.929Y120.691
X275.818Y120.58
X275.727Y120.451
X275.661Y120.308
X275.62Y120.156
X275.606Y119.999
X275.62Y119.843
X275.661Y119.691
X275.727Y119.548
X275.818Y119.419
X275.929Y119.308
X276.058Y119.217
X276.201Y119.151
X276.352Y119.11
X276.509Y119.097
X276.666Y119.11
X276.818Y119.151
X276.961Y119.217
X277.09Y119.308
X277.201Y119.419
X277.291Y119.548
X277.358Y119.691
X277.398Y119.843
X277.412Y119.999
X277.399Y120.156
X277.358Y120.308
X277.291Y120.451
X277.201Y120.58
X277.09Y120.691
X276.961Y120.781
X276.818Y120.848
X276.666Y120.889
X276.509Y120.902
G0Z1
X282.026Y110.939
G1Z-0.1F50
X281.997Y110.912F100
X281.969Y110.885
X281.939Y110.859
X281.909Y110.834
X281.878Y110.809
X281.847Y110.785
X281.815Y110.762
X281.782Y110.74
X281.749Y110.719
X281.716Y110.698
X281.682Y110.678
X281.647Y110.66
X70.884Y-1.404
X70.85Y-1.422
X70.815Y-1.439
X70.779Y-1.455
X70.744Y-1.47
X70.708Y-1.485
X70.671Y-1.498
X70.634Y-1.511
X70.597Y-1.523
X70.56Y-1.533
X70.522Y-1.543
X70.484Y-1.552
X70.446Y-1.56
X70.408Y-1.567
X70.37Y-1.573
X70.331Y-1.579
X70.293Y-1.583
X70.254Y-1.586
X70.215Y-1.589
X70.176Y-1.59
X70.137Y-1.591
X0
X-0.036Y-1.59
X-0.073Y-1.589
X-0.11Y-1.587
X-0.147Y-1.584
X-0.184Y-1.58
X-0.222Y-1.575
X-0.26Y-1.569
X-0.298Y-1.562
X-0.336Y-1.554
X-0.374Y-1.546
X-0.412Y-1.536
X-0.447Y-1.526
X-0.482Y-1.515
X-0.517Y-1.504
X-0.552Y-1.491
X-0.59Y-1.477
X-0.627Y-1.461
X-0.664Y-1.445
X-0.7Y-1.428
X-0.736Y-1.41
X-0.767Y-1.393
X-0.803Y-1.373
X-0.844Y-1.348
X-0.887Y-1.32
X-0.93Y-1.29
X-0.971Y-1.259
X-1.009Y-1.229
X-1.041Y-1.202
X-1.072Y-1.175
X-1.102Y-1.147
X-1.129Y-1.12
X-1.156Y-1.092
X-1.183Y-1.063
X-1.208Y-1.034
X-1.233Y-1.004
X-1.258Y-0.973
X-1.281Y-0.942
X-1.304Y-0.911
X-1.326Y-0.878
X-1.347Y-0.846
X-1.367Y-0.813
X-1.386Y-0.779
X-1.405Y-0.745
X-1.423Y-0.71
X-1.44Y-0.675
X-1.456Y-0.639
X-1.471Y-0.603
X-1.486Y-0.567
X-1.499Y-0.531
X-1.512Y-0.494
X-1.523Y-0.457
X-1.534Y-0.42
X-1.544Y-0.383
X-1.552Y-0.345
X-1.56Y-0.307
X-1.567Y-0.269
X-1.574Y-0.231
X-1.579Y-0.193
X-1.583Y-0.154
X-1.586Y-0.116
X-1.589Y-0.077
X-1.59Y-0.038
X-1.591Y0
Y129.999
X-1.59Y130.051
X-1.588Y130.09
X-1.585Y130.129
X-1.582Y130.168
X-1.577Y130.207
X-1.571Y130.246
X-1.565Y130.284
X-1.557Y130.322
X-1.549Y130.36
X-1.54Y130.398
X-1.529Y130.436
X-1.518Y130.473
X-1.506Y130.511
X-1.493Y130.547
X-1.479Y130.584
X-1.465Y130.62
X-1.449Y130.656
X-1.432Y130.691
X-1.415Y130.726
X-1.397Y130.76
X-1.378Y130.794
X-1.358Y130.828
X-1.337Y130.861
X-1.315Y130.894
X-1.293Y130.926
X-1.27Y130.957
X-1.246Y130.988
X-1.221Y131.018
X-1.196Y131.048
X-1.17Y131.077
X-1.143Y131.105
X-1.116Y131.133
X-1.087Y131.161
X-1.058Y131.187
X-1.029Y131.212
X-0.999Y131.237
X-0.969Y131.261
X-0.938Y131.284
X-0.907Y131.306
X-0.875Y131.328
X-0.842Y131.349
X-0.809Y131.369
X-0.776Y131.388
X-0.742Y131.407
X-0.707Y131.424
X-0.673Y131.441
X-0.637Y131.457
X-0.602Y131.472
X-0.566Y131.486
X-0.53Y131.499
X-0.493Y131.512
X-0.456Y131.523
X-0.419Y131.534
X-0.382Y131.544
X-0.344Y131.553
X-0.306Y131.561
X-0.268Y131.568
X-0.23Y131.574
X-0.192Y131.579
X-0.154Y131.583
X-0.115Y131.586
X-0.077Y131.589
X-0.038Y131.59
X0
X83.408
Y167.382
X83.409Y167.421
X83.41Y167.46
X83.413Y167.499
X83.416Y167.538
X83.42Y167.577
X83.426Y167.615
X83.432Y167.654
X83.439Y167.692
X83.447Y167.73
X83.456Y167.768
X83.466Y167.806
X83.477Y167.844
X83.489Y167.881
X83.501Y167.918
X83.515Y167.954
X83.53Y167.991
X83.545Y168.027
X83.561Y168.063
X83.579Y168.098
X83.597Y168.132
X83.615Y168.167
X83.635Y168.2
X83.655Y168.233
X83.677Y168.266
X83.699Y168.298
X83.722Y168.33
X83.745Y168.361
X83.77Y168.391
X83.795Y168.421
X83.821Y168.451
X83.847Y168.479
X83.874Y168.507
X96.492Y181.124
X96.52Y181.152
X96.548Y181.178
X96.577Y181.204
X96.607Y181.229
X96.638Y181.254
X96.669Y181.277
X96.7Y181.3
X96.733Y181.322
X96.765Y181.343
X96.799Y181.364
X96.832Y181.384
X96.866Y181.402
X96.901Y181.42
X96.936Y181.437
X96.972Y181.454
X97.008Y181.469
X97.044Y181.484
X97.081Y181.497
X97.118Y181.51
X97.155Y181.522
X97.193Y181.533
X97.23Y181.543
X97.268Y181.552
X97.307Y181.56
X97.345Y181.567
X97.383Y181.573
X97.422Y181.578
X97.461Y181.583
X97.5Y181.586
X97.539Y181.588
X97.578Y181.59
X97.617
X282.795
X282.834
X282.873Y181.588
X282.912Y181.586
X282.951Y181.583
X282.99Y181.578
X283.028Y181.573
X283.067Y181.567
X283.105Y181.56
X283.143Y181.552
X283.181Y181.543
X283.219Y181.533
X283.256Y181.522
X283.294Y181.51
X283.331Y181.497
X283.367Y181.484
X283.404Y181.469
X283.44Y181.454
X283.475Y181.437
X283.51Y181.42
X283.545Y181.402
X283.579Y181.384
X283.613Y181.364
X283.646Y181.343
X283.679Y181.322
X283.711Y181.3
X283.743Y181.277
X283.774Y181.254
X283.804Y181.229
X283.834Y181.204
X283.863Y181.178
X283.892Y181.152
X283.92Y181.125
X297.634Y167.41
X297.662Y167.382
X297.688Y167.353
X297.714Y167.324
X297.739Y167.294
X297.763Y167.264
X297.787Y167.233
X297.81Y167.201
X297.832Y167.169
X297.853Y167.136
X297.874Y167.103
X297.893Y167.069
X297.912Y167.035
X297.93Y167
X297.947Y166.965
X297.964Y166.93
X297.979Y166.893
X297.994Y166.857
X298.007Y166.821
X298.02Y166.784
X298.032Y166.746
X298.043Y166.709
X298.053Y166.671
X298.062Y166.633
X298.07Y166.595
X298.077Y166.557
X298.083Y166.518
X298.088Y166.48
X298.093Y166.441
X298.096Y166.402
X298.098Y166.363
X298.1Y166.324
Y166.285
Y127.673
Y127.634
X298.098Y127.595
X298.096Y127.556
X298.093Y127.517
X298.088Y127.478
X298.083Y127.44
X298.077Y127.401
X298.07Y127.363
X298.062Y127.325
X298.053Y127.287
X298.043Y127.249
X298.032Y127.212
X298.02Y127.174
X298.007Y127.137
X297.994Y127.101
X297.979Y127.064
X297.964Y127.028
X297.947Y126.993
X297.93Y126.957
X297.912Y126.923
X297.893Y126.889
X297.874Y126.855
X297.853Y126.822
X297.832Y126.789
X297.81Y126.757
X297.787Y126.725
X297.763Y126.694
X297.739Y126.664
X297.714Y126.634
X297.688Y126.605
X297.662Y126.576
X297.634Y126.548
X282.026Y110.939
G0Z1
X10.673Y15.068
G1Z-0.2F50
X10.934Y14.946F100
X11.212Y14.872
X11.5Y14.847
X11.787Y14.872
X12.065Y14.946
X12.326Y15.068
X12.562Y15.233
X12.766Y15.437
X12.931Y15.673
X13.053Y15.934
X13.127Y16.212
X13.152Y16.499
X13.127Y16.786
X13.053Y17.065
X12.931Y17.326
X12.766Y17.562
X12.562Y17.766
X12.326Y17.931
X12.065Y18.053
X11.787Y18.127
X11.5Y18.152
X11.212Y18.127
X10.934Y18.053
X10.673Y17.931
X10.437Y17.766
X10.233Y17.562
X10.068Y17.326
X9.946Y17.065
X9.872Y16.786
X9.847Y16.499
X9.872Y16.212
X9.946Y15.934
X10.068Y15.673
X10.233Y15.437
X10.437Y15.233
X10.673Y15.068
G0Z1
X11.5Y47.167
G1Z-0.2F50
X11.787Y47.192F100
X12.065Y47.266
X12.326Y47.388
X12.562Y47.553
X12.766Y47.757
X12.931Y47.993
X13.053Y48.254
X13.127Y48.532
X13.152Y48.819
X13.127Y49.106
X13.053Y49.385
X12.931Y49.646
X12.766Y49.882
X12.562Y50.086
X12.326Y50.251
X12.065Y50.373
X11.787Y50.447
X11.5Y50.472
X11.212Y50.447
X10.934Y50.373
X10.673Y50.251
X10.437Y50.086
X10.233Y49.882
X10.068Y49.646
X9.946Y49.385
X9.872Y49.106
X9.847Y48.819
X9.872Y48.532
X9.946Y48.254
X10.068Y47.993
X10.233Y47.757
X10.437Y47.553
X10.673Y47.388
X10.934Y47.266
X11.212Y47.192
X11.5Y47.167
G0Z1
Y79.487
G1Z-0.2F50
X11.786Y79.512F100
X12.065Y79.586
X12.326Y79.708
X12.562Y79.873
X12.766Y80.077
X12.931Y80.313
X13.053Y80.574
X13.127Y80.852
X13.152Y81.14
X13.127Y81.426
X13.053Y81.705
X12.931Y81.966
X12.766Y82.202
X12.562Y82.406
X12.326Y82.571
X12.065Y82.693
X11.787Y82.767
X11.5Y82.792
X11.212Y82.767
X10.934Y82.693
X10.673Y82.571
X10.436Y82.405
X10.233Y82.202
X10.068Y81.966
X9.946Y81.705
X9.872Y81.426
X9.847Y81.14
X9.872Y80.852
X9.946Y80.574
X10.068Y80.313
X10.233Y80.077
X10.437Y79.873
X10.673Y79.708
X10.934Y79.586
X11.212Y79.512
X11.5Y79.487
G0Z1
Y111.807
G1Z-0.2F50
X11.786Y111.832F100
X12.065Y111.906
X12.326Y112.028
X12.562Y112.193
X12.766Y112.397
X12.931Y112.633
X13.053Y112.894
X13.127Y113.172
X13.152Y113.459
X13.127Y113.747
X13.053Y114.025
X12.931Y114.286
X12.766Y114.522
X12.562Y114.726
X12.326Y114.891
X12.065Y115.013
X11.786Y115.087
X11.5Y115.112
X11.212Y115.087
X10.934Y115.013
X10.673Y114.891
X10.437Y114.726
X10.233Y114.522
X10.068Y114.286
X9.946Y114.025
X9.872Y113.747
X9.847Y113.459
X9.872Y113.172
X9.946Y112.894
X10.068Y112.633
X10.233Y112.397
X10.437Y112.193
X10.673Y112.028
X10.934Y111.906
X11.213Y111.832
X11.5Y111.807
G0Z1
X63.047Y113.459
G1Z-0.2F50
X63.072Y113.172F100
X63.146Y112.894
X63.268Y112.633
X63.433Y112.397
X63.637Y112.193
X63.873Y112.028
X64.134Y111.906
X64.413Y111.832
X64.699Y111.807
X64.986Y111.832
X65.265Y111.906
X65.526Y112.028
X65.762Y112.193
X65.966Y112.397
X66.131Y112.633
X66.253Y112.894
X66.327Y113.172
X66.352Y113.459
X66.327Y113.746
X66.253Y114.025
X66.131Y114.286
X65.966Y114.522
X65.762Y114.726
X65.526Y114.891
X65.265Y115.013
X64.986Y115.087
X64.699Y115.112
X64.412Y115.087
X64.134Y115.013
X63.873Y114.891
X63.637Y114.726
X63.433Y114.522
X63.268Y114.286
X63.146Y114.025
X63.072Y113.747
X63.047Y113.459
G0Z1
X64.699Y82.792
G1Z-0.2F50
X64.412Y82.767F100
X64.134Y82.693
X63.873Y82.571
X63.637Y82.406
X63.433Y82.202
X63.268Y81.966
X63.146Y81.705
X63.072Y81.426
X63.047Y81.14
X63.072Y80.852
X63.146Y80.574
X63.268Y80.313
X63.433Y80.077
X63.637Y79.873
X63.873Y79.708
X64.134Y79.586
X64.412Y79.512
X64.699Y79.487
X64.986Y79.512
X65.265Y79.586
X65.526Y79.708
X65.762Y79.873
X65.966Y80.077
X66.131Y80.313
X66.253Y80.574
X66.327Y80.852
X66.352Y81.14
X66.327Y81.426
X66.253Y81.705
X66.131Y81.966
X65.966Y82.202
X65.762Y82.406
X65.526Y82.571
X65.265Y82.693
X64.986Y82.767
X64.699Y82.792
G0Z1
X92.764Y88.882
G1Z-0.2F50
X92.787Y88.806F100
X92.824Y88.737
X92.874Y88.676
X92.934Y88.626
X93.004Y88.589
X93.079Y88.566
X93.157Y88.559
X93.236Y88.566
X93.311Y88.589
X93.38Y88.626
X93.441Y88.676
X93.491Y88.737
X93.528Y88.806
X93.551Y88.882
X93.559Y88.96
X93.551Y89.038
X93.528Y89.113
X93.491Y89.183
X93.441Y89.244
X93.38Y89.294
X93.311Y89.331
X93.236Y89.354
X93.157Y89.361
X93.079Y89.353
X93.004Y89.331
X92.934Y89.294
X92.874Y89.244
X92.824Y89.183
X92.787Y89.113
X92.764Y89.038
X92.756Y88.96
X92.764Y88.882
G0Z1
X101.803Y80.815
G1Z-0.2F50
X100.509Y79.239F100
X99.548Y77.44
X98.956Y75.489
X98.756Y73.46
X98.956Y71.431
X99.548Y69.479
X100.509Y67.681
X101.799Y66.11
X103.379Y64.811
X105.177Y63.85
X107.128Y63.258
X109.157Y63.059
X111.187Y63.258
X113.138Y63.85
X114.936Y64.812
X116.512Y66.105
X117.806Y67.681
X118.767Y69.479
X119.359Y71.431
X119.559Y73.46
X119.359Y75.489
X118.767Y77.44
X117.806Y79.239
X116.512Y80.815
X114.936Y82.108
X113.138Y83.069
X111.187Y83.661
X109.157Y83.861
X107.128Y83.661
X105.177Y83.069
X103.379Y82.108
X101.803Y80.815
G0Z1
X123.787Y88.806
G1Z-0.2F50
X123.824Y88.737F100
X123.874Y88.676
X123.934Y88.626
X124.004Y88.589
X124.079Y88.566
X124.157Y88.559
X124.236Y88.566
X124.311Y88.589
X124.38Y88.626
X124.441Y88.676
X124.491Y88.737
X124.528Y88.806
X124.551Y88.882
X124.559Y88.96
X124.551Y89.038
X124.528Y89.113
X124.491Y89.183
X124.441Y89.244
X124.38Y89.294
X124.311Y89.331
X124.236Y89.353
X124.157Y89.361
X124.079Y89.353
X124.004Y89.331
X123.934Y89.294
X123.874Y89.244
X123.824Y89.183
X123.787Y89.113
X123.764Y89.038
X123.756Y88.96
X123.764Y88.882
X123.787Y88.806
G0Z1
X124.157Y58.361
G1Z-0.2F50
X124.079Y58.353F100
X124.004Y58.331
X123.934Y58.294
X123.874Y58.244
X123.824Y58.183
X123.787Y58.113
X123.764Y58.038
X123.756Y57.96
X123.764Y57.882
X123.787Y57.806
X123.824Y57.737
X123.874Y57.676
X123.934Y57.626
X124.004Y57.589
X124.079Y57.566
X124.157Y57.559
X124.236Y57.566
X124.311Y57.589
X124.38Y57.626
X124.441Y57.676
X124.491Y57.737
X124.528Y57.806
X124.551Y57.882
X124.559Y57.96
X124.551Y58.038
X124.528Y58.113
X124.491Y58.183
X124.441Y58.244
X124.38Y58.294
X124.311Y58.331
X124.236Y58.353
X124.157Y58.361
G0Z1
X93.559Y57.96
G1Z-0.2F50
X93.551Y58.038F100
X93.528Y58.113
X93.491Y58.183
X93.441Y58.244
X93.38Y58.294
X93.311Y58.331
X93.236Y58.353
X93.157Y58.361
X93.079Y58.353
X93.004Y58.331
X92.934Y58.294
X92.874Y58.244
X92.824Y58.183
X92.787Y58.113
X92.764Y58.038
X92.756Y57.96
X92.764Y57.882
X92.787Y57.806
X92.824Y57.737
X92.874Y57.676
X92.934Y57.626
X93.004Y57.589
X93.079Y57.566
X93.157Y57.559
X93.236Y57.566
X93.311Y57.589
X93.38Y57.626
X93.441Y57.676
X93.491Y57.737
X93.528Y57.806
X93.551Y57.882
X93.559Y57.96
G0Z1
X66.253Y49.385
G1Z-0.2F50
X66.131Y49.646F100
X65.966Y49.882
X65.762Y50.086
X65.526Y50.251
X65.265Y50.373
X64.986Y50.447
X64.699Y50.472
X64.412Y50.447
X64.134Y50.373
X63.873Y50.251
X63.637Y50.086
X63.433Y49.882
X63.268Y49.646
X63.146Y49.385
X63.072Y49.106
X63.047Y48.819
X63.072Y48.532
X63.146Y48.254
X63.268Y47.993
X63.433Y47.757
X63.637Y47.553
X63.873Y47.388
X64.134Y47.266
X64.412Y47.192
X64.699Y47.167
X64.987Y47.192
X65.265Y47.266
X65.526Y47.388
X65.762Y47.553
X65.966Y47.757
X66.131Y47.993
X66.253Y48.254
X66.327Y48.532
X66.352Y48.819
X66.327Y49.106
X66.253Y49.385
G0Z1
X64.699Y18.152
G1Z-0.2F50
X64.412Y18.127F100
X64.134Y18.053
X63.873Y17.931
X63.637Y17.766
X63.433Y17.562
X63.268Y17.326
X63.146Y17.065
X63.072Y16.786
X63.047Y16.499
X63.072Y16.212
X63.146Y15.934
X63.268Y15.673
X63.433Y15.437
X63.637Y15.233
X63.873Y15.068
X64.134Y14.946
X64.412Y14.872
X64.699Y14.847
X64.986Y14.872
X65.265Y14.946
X65.526Y15.068
X65.762Y15.233
X65.966Y15.437
X66.131Y15.673
X66.253Y15.934
X66.327Y16.212
X66.352Y16.499
X66.327Y16.786
X66.253Y17.065
X66.131Y17.326
X65.966Y17.562
X65.762Y17.766
X65.526Y17.931
X65.265Y18.053
X64.987Y18.127
X64.699Y18.152
G0Z1
X104.141Y119.151
G1Z-0.2F50
X104.293Y119.11F100
X104.449Y119.097
X104.606Y119.11
X104.758Y119.151
X104.901Y119.218
X105.03Y119.308
X105.141Y119.419
X105.231Y119.548
X105.298Y119.691
X105.339Y119.843
X105.352Y119.999
X105.339Y120.156
X105.298Y120.308
X105.231Y120.451
X105.141Y120.58
X105.03Y120.691
X104.901Y120.781
X104.758Y120.848
X104.606Y120.889
X104.449Y120.902
X104.293Y120.889
X104.14Y120.848
X103.998Y120.781
X103.869Y120.691
X103.758Y120.58
X103.667Y120.451
X103.601Y120.308
X103.56Y120.156
X103.546Y119.999
X103.56Y119.843
X103.601Y119.691
X103.667Y119.548
X103.758Y119.419
X103.869Y119.308
X103.998Y119.217
X104.141Y119.151
G0Z1
X150.396Y119.999
G1Z-0.2F50
X150.41Y119.843F100
X150.451Y119.691
X150.517Y119.548
X150.608Y119.419
X150.719Y119.308
X150.848Y119.217
X150.991Y119.151
X151.143Y119.11
X151.299Y119.097
X151.456Y119.11
X151.608Y119.151
X151.751Y119.218
X151.88Y119.308
X151.991Y119.419
X152.081Y119.548
X152.148Y119.691
X152.189Y119.843
X152.202Y119.999
X152.189Y120.156
X152.148Y120.308
X152.081Y120.451
X151.991Y120.58
X151.88Y120.691
X151.751Y120.781
X151.608Y120.848
X151.456Y120.889
X151.299Y120.902
X151.143Y120.889
X150.99Y120.848
X150.848Y120.781
X150.719Y120.691
X150.608Y120.58
X150.517Y120.451
X150.451Y120.308
X150.41Y120.156
X150.396Y119.999
G0Z1
X181.906
G1Z-0.2F50
X181.92Y119.843F100
X181.961Y119.691
X182.027Y119.548
X182.118Y119.419
X182.229Y119.308
X182.358Y119.217
X182.501Y119.151
X182.653Y119.11
X182.809Y119.097
X182.966Y119.11
X183.118Y119.151
X183.261Y119.217
X183.39Y119.308
X183.501Y119.419
X183.591Y119.548
X183.658Y119.691
X183.699Y119.843
X183.712Y119.999
X183.699Y120.156
X183.658Y120.308
X183.591Y120.451
X183.501Y120.58
X183.39Y120.691
X183.261Y120.781
X183.118Y120.848
X182.966Y120.889
X182.809Y120.902
X182.653Y120.889
X182.5Y120.848
X182.358Y120.781
X182.229Y120.691
X182.118Y120.58
X182.027Y120.451
X181.961Y120.308
X181.92Y120.156
X181.906Y119.999
G0Z1
X197.948Y129.548
G1Z-0.2F50
X198.038Y129.419F100
X198.149Y129.308
X198.278Y129.217
X198.421Y129.151
X198.573Y129.11
X198.73Y129.097
X198.887Y129.11
X199.039Y129.151
X199.181Y129.217
X199.31Y129.308
X199.421Y129.419
X199.512Y129.548
X199.578Y129.691
X199.619Y129.843
X199.633Y129.999
X199.619Y130.156
X199.578Y130.308
X199.512Y130.451
X199.422Y130.58
X199.31Y130.691
X199.181Y130.781
X199.039Y130.848
X198.887Y130.889
X198.73Y130.902
X198.573Y130.889
X198.421Y130.848
X198.278Y130.781
X198.149Y130.691
X198.038Y130.58
X197.948Y130.451
X197.881Y130.308
X197.841Y130.156
X197.827Y129.999
X197.841Y129.843
X197.881Y129.691
X197.948Y129.548
G0Z1
X212.827Y129.999
G1Z-0.2F50
X212.841Y129.843F100
X212.881Y129.691
X212.948Y129.548
X213.038Y129.419
X213.149Y129.308
X213.278Y129.217
X213.421Y129.151
X213.573Y129.11
X213.73Y129.097
X213.887Y129.11
X214.039Y129.151
X214.181Y129.217
X214.31Y129.308
X214.421Y129.419
X214.512Y129.548
X214.578Y129.691
X214.619Y129.843
X214.633Y129.999
X214.619Y130.156
X214.578Y130.308
X214.512Y130.451
X214.422Y130.58
X214.31Y130.691
X214.181Y130.781
X214.039Y130.848
X213.887Y130.889
X213.73Y130.902
X213.573Y130.889
X213.421Y130.848
X213.278Y130.781
X213.149Y130.691
X213.038Y130.58
X212.948Y130.451
X212.881Y130.308
X212.841Y130.156
X212.827Y129.999
G0Z1
X228.877Y120.451
G1Z-0.2F50
X228.811Y120.308F100
X228.77Y120.156
X228.756Y119.999
X228.77Y119.842
X228.811Y119.691
X228.877Y119.548
X228.968Y119.419
X229.079Y119.308
X229.208Y119.217
X229.351Y119.151
X229.503Y119.11
X229.659Y119.097
X229.816Y119.11
X229.968Y119.151
X230.111Y119.217
X230.24Y119.308
X230.351Y119.419
X230.441Y119.548
X230.508Y119.691
X230.549Y119.843
X230.562Y119.999
X230.549Y120.156
X230.508Y120.308
X230.441Y120.451
X230.352Y120.578
X230.239Y120.692
X230.111Y120.781
X229.968Y120.848
X229.816Y120.889
X229.659Y120.902
X229.503Y120.889
X229.35Y120.848
X229.208Y120.781
X229.079Y120.691
X228.968Y120.58
X228.877Y120.451
G0Z1
X214.039Y159.151
G1Z-0.2F50
X214.181Y159.217F100
X214.31Y159.308
X214.421Y159.419
X214.512Y159.548
X214.578Y159.691
X214.619Y159.843
X214.633Y159.999
X214.619Y160.156
X214.578Y160.308
X214.512Y160.451
X214.421Y160.58
X214.31Y160.691
X214.181Y160.781
X214.039Y160.848
X213.887Y160.889
X213.73Y160.902
X213.573Y160.889
X213.421Y160.848
X213.278Y160.781
X213.149Y160.691
X213.038Y160.58
X212.948Y160.451
X212.881Y160.308
X212.841Y160.156
X212.827Y159.999
X212.841Y159.842
X212.881Y159.69
X212.948Y159.548
X213.038Y159.419
X213.149Y159.308
X213.278Y159.217
X213.421Y159.151
X213.573Y159.11
X213.73Y159.096
X213.887Y159.11
X214.039Y159.151
G0Z1
X199.633Y159.999
G1Z-0.2F50
X199.619Y160.156F100
X199.578Y160.308
X199.512Y160.451
X199.421Y160.58
X199.31Y160.691
X199.181Y160.781
X199.039Y160.848
X198.887Y160.889
X198.73Y160.902
X198.573Y160.889
X198.421Y160.848
X198.278Y160.781
X198.149Y160.691
X198.038Y160.58
X197.948Y160.451
X197.881Y160.308
X197.841Y160.156
X197.827Y159.999
X197.841Y159.842
X197.881Y159.69
X197.948Y159.548
X198.038Y159.419
X198.149Y159.308
X198.278Y159.217
X198.421Y159.151
X198.573Y159.11
X198.73Y159.096
X198.887Y159.11
X199.039Y159.151
X199.181Y159.217
X199.31Y159.308
X199.421Y159.419
X199.512Y159.548
X199.578Y159.691
X199.619Y159.843
X199.633Y159.999
G0Z1
X190.768Y148.188
G1Z-0.2F50
X190.266Y148.456F100
X189.722Y148.621
X189.156Y148.677
X188.59Y148.621
X188.046Y148.456
X187.544Y148.188
X187.105Y147.827
X186.744Y147.388
X186.476Y146.886
X186.311Y146.342
X186.255Y145.776
X186.311Y145.21
X186.476Y144.666
X186.744Y144.164
X187.105Y143.724
X187.544Y143.363
X188.046Y143.095
X188.59Y142.93
X189.156Y142.874
X189.722Y142.93
X190.266Y143.095
X190.768Y143.363
X191.208Y143.724
X191.569Y144.164
X191.837Y144.666
X192.002Y145.21
X192.057Y145.776
X192.002Y146.342
X191.837Y146.886
X191.569Y147.388
X191.208Y147.827
X190.768Y148.188
G0Z1
X183.118Y169.151
G1Z-0.2F50
X183.261Y169.217F100
X183.39Y169.308
X183.501Y169.419
X183.591Y169.548
X183.658Y169.691
X183.699Y169.842
X183.712Y169.999
X183.699Y170.156
X183.658Y170.308
X183.591Y170.451
X183.501Y170.58
X183.39Y170.691
X183.261Y170.781
X183.118Y170.848
X182.966Y170.889
X182.809Y170.902
X182.653Y170.889
X182.501Y170.848
X182.358Y170.781
X182.229Y170.691
X182.118Y170.58
X182.027Y170.451
X181.961Y170.308
X181.92Y170.156
X181.906Y169.999
X181.92Y169.843
X181.961Y169.69
X182.027Y169.548
X182.118Y169.419
X182.229Y169.308
X182.358Y169.217
X182.501Y169.151
X182.653Y169.11
X182.809Y169.096
X182.966Y169.11
X183.118Y169.151
G0Z1
X152.202Y169.999
G1Z-0.2F50
X152.189Y170.156F100
X152.148Y170.308
X152.081Y170.451
X151.991Y170.58
X151.88Y170.691
X151.751Y170.781
X151.608Y170.848
X151.456Y170.889
X151.299Y170.902
X151.143Y170.889
X150.991Y170.848
X150.848Y170.781
X150.719Y170.691
X150.608Y170.58
X150.517Y170.451
X150.451Y170.308
X150.41Y170.156
X150.396Y169.999
X150.41Y169.843
X150.451Y169.69
X150.517Y169.548
X150.608Y169.419
X150.719Y169.308
X150.848Y169.217
X150.991Y169.151
X151.142Y169.11
X151.299Y169.096
X151.456Y169.11
X151.608Y169.151
X151.751Y169.217
X151.88Y169.308
X151.991Y169.419
X152.081Y169.548
X152.148Y169.691
X152.189Y169.843
X152.202Y169.999
G0Z1
X105.352
G1Z-0.2F50
X105.339Y170.156F100
X105.298Y170.308
X105.231Y170.451
X105.141Y170.58
X105.03Y170.691
X104.901Y170.781
X104.758Y170.848
X104.606Y170.889
X104.449Y170.902
X104.293Y170.889
X104.141Y170.848
X103.998Y170.781
X103.869Y170.691
X103.758Y170.58
X103.667Y170.451
X103.601Y170.308
X103.56Y170.156
X103.546Y169.999
X103.56Y169.843
X103.601Y169.69
X103.667Y169.548
X103.758Y169.419
X103.869Y169.308
X103.998Y169.217
X104.141Y169.151
X104.292Y169.11
X104.449Y169.096
X104.606Y169.11
X104.758Y169.151
X104.901Y169.217
X105.03Y169.308
X105.141Y169.419
X105.231Y169.548
X105.298Y169.691
X105.339Y169.843
X105.352Y169.999
G0Z1
X228.756
G1Z-0.2F50
X228.77Y169.842F100
X228.811Y169.69
X228.877Y169.548
X228.968Y169.419
X229.079Y169.308
X229.208Y169.217
X229.351Y169.151
X229.503Y169.11
X229.659Y169.096
X229.816Y169.11
X229.968Y169.151
X230.111Y169.217
X230.24Y169.308
X230.351Y169.419
X230.441Y169.548
X230.508Y169.691
X230.549Y169.843
X230.562Y169.999
X230.549Y170.156
X230.508Y170.308
X230.441Y170.451
X230.351Y170.58
X230.24Y170.691
X230.111Y170.781
X229.968Y170.848
X229.816Y170.889
X229.659Y170.902
X229.503Y170.889
X229.351Y170.848
X229.208Y170.781
X229.079Y170.691
X228.968Y170.58
X228.877Y170.451
X228.811Y170.308
X228.77Y170.156
X228.756Y169.999
G0Z1
X275.606
G1Z-0.2F50
X275.62Y169.842F100
X275.661Y169.691
X275.727Y169.548
X275.818Y169.419
X275.929Y169.308
X276.058Y169.217
X276.201Y169.151
X276.352Y169.11
X276.509Y169.096
X276.666Y169.11
X276.818Y169.151
X276.961Y169.217
X277.09Y169.308
X277.201Y169.419
X277.291Y169.548
X277.358Y169.69
X277.398Y169.843
X277.412Y169.999
X277.399Y170.156
X277.358Y170.308
X277.291Y170.451
X277.201Y170.58
X277.09Y170.691
X276.961Y170.781
X276.818Y170.848
X276.666Y170.889
X276.509Y170.902
X276.352Y170.889
X276.201Y170.848
X276.058Y170.781
X275.929Y170.691
X275.818Y170.58
X275.727Y170.451
X275.661Y170.308
X275.62Y170.156
X275.606Y169.999
G0Z1
X276.509Y120.902
G1Z-0.2F50
X276.352Y120.889F100
X276.2Y120.848
X276.058Y120.781
X275.929Y120.691
X275.818Y120.58
X275.727Y120.451
X275.661Y120.308
X275.62Y120.156
X275.606Y119.999
X275.62Y119.843
X275.661Y119.691
X275.727Y119.548
X275.818Y119.419
X275.929Y119.308
X276.058Y119.217
X276.201Y119.151
X276.352Y119.11
X276.509Y119.097
X276.666Y119.11
X276.818Y119.151
X276.961Y119.217
X277.09Y119.308
X277.201Y119.419
X277.291Y119.548
X277.358Y119.691
X277.398Y119.843
X277.412Y119.999
X277.399Y120.156
X277.358Y120.308
X277.291Y120.451
X277.201Y120.58
X277.09Y120.691
X276.961Y120.781
X276.818Y120.848
X276.666Y120.889
X276.509Y120.902
G0Z1
X282.026Y110.939
G1Z-0.2F50
X281.997Y110.912F100
X281.969Y110.885
X281.939Y110.859
X281.909Y110.834
X281.878Y110.809
X281.847Y110.785
X281.815Y110.762
X281.782Y110.74
X281.749Y110.719
X281.716Y110.698
X281.682Y110.678
X281.647Y110.66
X70.884Y-1.404
X70.85Y-1.422
X70.815Y-1.439
X70.779Y-1.455
X70.744Y-1.47
X70.708Y-1.485
X70.671Y-1.498
X70.634Y-1.511
X70.597Y-1.523
X70.56Y-1.533
X70.522Y-1.543
X70.484Y-1.552
X70.446Y-1.56
X70.408Y-1.567
X70.37Y-1.573
X70.331Y-1.579
X70.293Y-1.583
X70.254Y-1.586
X70.215Y-1.589
X70.176Y-1.59
X70.137Y-1.591
X0
X-0.036Y-1.59
X-0.073Y-1.589
X-0.11Y-1.587
X-0.147Y-1.584
X-0.184Y-1.58
X-0.222Y-1.575
X-0.26Y-1.569
X-0.298Y-1.562
X-0.336Y-1.554
X-0.374Y-1.546
X-0.412Y-1.536
X-0.447Y-1.526
X-0.482Y-1.515
X-0.517Y-1.504
X-0.552Y-1.491
X-0.59Y-1.477
X-0.627Y-1.461
X-0.664Y-1.445
X-0.7Y-1.428
X-0.736Y-1.41
X-0.767Y-1.393
X-0.803Y-1.373
X-0.844Y-1.348
X-0.887Y-1.32
X-0.93Y-1.29
X-0.971Y-1.259
X-1.009Y-1.229
X-1.041Y-1.202
X-1.072Y-1.175
X-1.102Y-1.147
X-1.129Y-1.12
X-1.156Y-1.092
X-1.183Y-1.063
X-1.208Y-1.034
X-1.233Y-1.004
X-1.258Y-0.973
X-1.281Y-0.942
X-1.304Y-0.911
X-1.326Y-0.878
X-1.347Y-0.846
X-1.367Y-0.813
X-1.386Y-0.779
X-1.405Y-0.745
X-1.423Y-0.71
X-1.44Y-0.675
X-1.456Y-0.639
X-1.471Y-0.603
X-1.486Y-0.567
X-1.499Y-0.531
X-1.512Y-0.494
X-1.523Y-0.457
X-1.534Y-0.42
X-1.544Y-0.383
X-1.552Y-0.345
X-1.56Y-0.307
X-1.567Y-0.269
X-1.574Y-0.231
X-1.579Y-0.193
X-1.583Y-0.154
X-1.586Y-0.116
X-1.589Y-0.077
X-1.59Y-0.038
X-1.591Y0
Y129.999
X-1.59Y130.051
X-1.588Y130.09
X-1.585Y130.129
X-1.582Y130.168
X-1.577Y130.207
X-1.571Y130.246
X-1.565Y130.284
X-1.557Y130.322
X-1.549Y130.36
X-1.54Y130.398
X-1.529Y130.436
X-1.518Y130.473
X-1.506Y130.511
X-1.493Y130.547
X-1.479Y130.584
X-1.465Y130.62
X-1.449Y130.656
X-1.432Y130.691
X-1.415Y130.726
X-1.397Y130.76
X-1.378Y130.794
X-1.358Y130.828
X-1.337Y130.861
X-1.315Y130.894
X-1.293Y130.926
X-1.27Y130.957
X-1.246Y130.988
X-1.221Y131.018
X-1.196Y131.048
X-1.17Y131.077
X-1.143Y131.105
X-1.116Y131.133
X-1.087Y131.161
X-1.058Y131.187
X-1.029Y131.212
X-0.999Y131.237
X-0.969Y131.261
X-0.938Y131.284
X-0.907Y131.306
X-0.875Y131.328
X-0.842Y131.349
X-0.809Y131.369
X-0.776Y131.388
X-0.742Y131.407
X-0.707Y131.424
X-0.673Y131.441
X-0.637Y131.457
X-0.602Y131.472
X-0.566Y131.486
X-0.53Y131.499
X-0.493Y131.512
X-0.456Y131.523
X-0.419Y131.534
X-0.382Y131.544
X-0.344Y131.553
X-0.306Y131.561
X-0.268Y131.568
X-0.23Y131.574
X-0.192Y131.579
X-0.154Y131.583
X-0.115Y131.586
X-0.077Y131.589
X-0.038Y131.59
X0
X83.408
Y167.382
X83.409Y167.421
X83.41Y167.46
X83.413Y167.499
X83.416Y167.538
X83.42Y167.577
X83.426Y167.615
X83.432Y167.654
X83.439Y167.692
X83.447Y167.73
X83.456Y167.768
X83.466Y167.806
X83.477Y167.844
X83.489Y167.881
X83.501Y167.918
X83.515Y167.954
X83.53Y167.991
X83.545Y168.027
X83.561Y168.063
X83.579Y168.098
X83.597Y168.132
X83.615Y168.167
X83.635Y168.2
X83.655Y168.233
X83.677Y168.266
X83.699Y168.298
X83.722Y168.33
X83.745Y168.361
X83.77Y168.391
X83.795Y168.421
X83.821Y168.451
X83.847Y168.479
X83.874Y168.507
X96.492Y181.124
X96.52Y181.152
X96.548Y181.178
X96.577Y181.204
X96.607Y181.229
X96.638Y181.254
X96.669Y181.277
X96.7Y181.3
X96.733Y181.322
X96.765Y181.343
X96.799Y181.364
X96.832Y181.384
X96.866Y181.402
X96.901Y181.42
X96.936Y181.437
X96.972Y181.454
X97.008Y181.469
X97.044Y181.484
X97.081Y181.497
X97.118Y181.51
X97.155Y181.522
X97.193Y181.533
X97.23Y181.543
X97.268Y181.552
X97.307Y181.56
X97.345Y181.567
X97.383Y181.573
X97.422Y181.578
X97.461Y181.583
X97.5Y181.586
X97.539Y181.588
X97.578Y181.59
X97.617
X282.795
X282.834
X282.873Y181.588
X282.912Y181.586
X282.951Y181.583
X282.99Y181.578
X283.028Y181.573
X283.067Y181.567
X283.105Y181.56
X283.143Y181.552
X283.181Y181.543
X283.219Y181.533
X283.256Y181.522
X283.294Y181.51
X283.331Y181.497
X283.367Y181.484
X283.404Y181.469
X283.44Y181.454
X283.475Y181.437
X283.51Y181.42
X283.545Y181.402
X283.579Y181.384
X283.613Y181.364
X283.646Y181.343
X283.679Y181.322
X283.711Y181.3
X283.743Y181.277
X283.774Y181.254
X283.804Y181.229
X283.834Y181.204
X283.863Y181.178
X283.892Y181.152
X283.92Y181.125
X297.634Y167.41
X297.662Y167.382
X297.688Y167.353
X297.714Y167.324
X297.739Y167.294
X297.763Y167.264
X297.787Y167.233
X297.81Y167.201
X297.832Y167.169
X297.853Y167.136
X297.874Y167.103
X297.893Y167.069
X297.912Y167.035
X297.93Y167
X297.947Y166.965
X297.964Y166.93
X297.979Y166.893
X297.994Y166.857
X298.007Y166.821
X298.02Y166.784
X298.032Y166.746
X298.043Y166.709
X298.053Y166.671
X298.062Y166.633
X298.07Y166.595
X298.077Y166.557
X298.083Y166.518
X298.088Y166.48
X298.093Y166.441
X298.096Y166.402
X298.098Y166.363
X298.1Y166.324
Y166.285
Y127.673
Y127.634
X298.098Y127.595
X298.096Y127.556
X298.093Y127.517
X298.088Y127.478
X298.083Y127.44
X298.077Y127.401
X298.07Y127.363
X298.062Y127.325
X298.053Y127.287
X298.043Y127.249
X298.032Y127.212
X298.02Y127.174
X298.007Y127.137
X297.994Y127.101
X297.979Y127.064
X297.964Y127.028
X297.947Y126.993
X297.93Y126.957
X297.912Y126.923
X297.893Y126.889
X297.874Y126.855
X297.853Y126.822
X297.832Y126.789
X297.81Y126.757
X297.787Y126.725
X297.763Y126.694
X297.739Y126.664
X297.714Y126.634
X297.688Y126.605
X297.662Y126.576
X297.634Y126.548
X282.026Y110.939
G0Z1
X10.673Y15.068
G1Z-0.3F50
X10.934Y14.946F100
X11.212Y14.872
X11.5Y14.847
X11.787Y14.872
X12.065Y14.946
X12.326Y15.068
X12.562Y15.233
X12.766Y15.437
X12.931Y15.673
X13.053Y15.934
X13.127Y16.212
X13.152Y16.499
X13.127Y16.786
X13.053Y17.065
X12.931Y17.326
X12.766Y17.562
X12.562Y17.766
X12.326Y17.931
X12.065Y18.053
X11.787Y18.127
X11.5Y18.152
X11.212Y18.127
X10.934Y18.053
X10.673Y17.931
X10.437Y17.766
X10.233Y17.562
X10.068Y17.326
X9.946Y17.065
X9.872Y16.786
X9.847Y16.499
X9.872Y16.212
X9.946Y15.934
X10.068Y15.673
X10.233Y15.437
X10.437Y15.233
X10.673Y15.068
G0Z1
X11.5Y47.167
G1Z-0.3F50
X11.787Y47.192F100
X12.065Y47.266
X12.326Y47.388
X12.562Y47.553
X12.766Y47.757
X12.931Y47.993
X13.053Y48.254
X13.127Y48.532
X13.152Y48.819
X13.127Y49.106
X13.053Y49.385
X12.931Y49.646
X12.766Y49.882
X12.562Y50.086
X12.326Y50.251
X12.065Y50.373
X11.787Y50.447
X11.5Y50.472
X11.212Y50.447
X10.934Y50.373
X10.673Y50.251
X10.437Y50.086
X10.233Y49.882
X10.068Y49.646
X9.946Y49.385
X9.872Y49.106
X9.847Y48.819
X9.872Y48.532
X9.946Y48.254
X10.068Y47.993
X10.233Y47.757
X10.437Y47.553
X10.673Y47.388
X10.934Y47.266
X11.212Y47.192
X11.5Y47.167
G0Z1
Y79.487
G1Z-0.3F50
X11.786Y79.512F100
X12.065Y79.586
X12.326Y79.708
X12.562Y79.873
X12.766Y80.077
X12.931Y80.313
X13.053Y80.574
X13.127Y80.852
X13.152Y81.14
X13.127Y81.426
X13.053Y81.705
X12.931Y81.966
X12.766Y82.202
X12.562Y82.406
X12.326Y82.571
X12.065Y82.693
X11.787Y82.767
X11.5Y82.792
X11.212Y82.767
X10.934Y82.693
X10.673Y82.571
X10.436Y82.405
X10.233Y82.202
X10.068Y81.966
X9.946Y81.705
X9.872Y81.426
X9.847Y81.14
X9.872Y80.852
X9.946Y80.574
X10.068Y80.313
X10.233Y80.077
X10.437Y79.873
X10.673Y79.708
X10.934Y79.586
X11.212Y79.512
X11.5Y79.487
G0Z1
Y111.807
G1Z-0.3F50
X11.786Y111.832F100
X12.065Y111.906
X12.326Y112.028
X12.562Y112.193
X12.766Y112.397
X12.931Y112.633
X13.053Y112.894
X13.127Y113.172
X13.152Y113.459
X13.127Y113.747
X13.053Y114.025
X12.931Y114.286
X12.766Y114.522
X12.562Y114.726
X12.326Y114.891
X12.065Y115.013
X11.786Y115.087
X11.5Y115.112
X11.212Y115.087
X10.934Y115.013
X10.673Y114.891
X10.437Y114.726
X10.233Y114.522
X10.068Y114.286
X9.946Y114.025
X9.872Y113.747
X9.847Y113.459
X9.872Y113.172
X9.946Y112.894
X10.068Y112.633
X10.233Y112.397
X10.437Y112.193
X10.673Y112.028
X10.934Y111.906
X11.213Y111.832
X11.5Y111.807
G0Z1
X63.047Y113.459
G1Z-0.3F50
X63.072Y113.172F100
X63.146Y112.894
X63.268Y112.633
X63.433Y112.397
X63.637Y112.193
X63.873Y112.028
X64.134Y111.906
X64.413Y111.832
X64.699Y111.807
X64.986Y111.832
X65.265Y111.906
X65.526Y112.028
X65.762Y112.193
X65.966Y112.397
X66.131Y112.633
X66.253Y112.894
X66.327Y113.172
X66.352Y113.459
X66.327Y113.746
X66.253Y114.025
X66.131Y114.286
X65.966Y114.522
X65.762Y114.726
X65.526Y114.891
X65.265Y115.013
X64.986Y115.087
X64.699Y115.112
X64.412Y115.087
X64.134Y115.013
X63.873Y114.891
X63.637Y114.726
X63.433Y114.522
X63.268Y114.286
X63.146Y114.025
X63.072Y113.747
X63.047Y113.459
G0Z1
X64.699Y82.792
G1Z-0.3F50
X64.412Y82.767F100
X64.134Y82.693
X63.873Y82.571
X63.637Y82.406
X63.433Y82.202
X63.268Y81.966
X63.146Y81.705
X63.072Y81.426
X63.047Y81.14
X63.072Y80.852
X63.146Y80.574
X63.268Y80.313
X63.433Y80.077
X63.637Y79.873
X63.873Y79.708
X64.134Y79.586
X64.412Y79.512
X64.699Y79.487
X64.986Y79.512
X65.265Y79.586
X65.526Y79.708
X65.762Y79.873
X65.966Y80.077
X66.131Y80.313
X66.253Y80.574
X66.327Y80.852
X66.352Y81.14
X66.327Y81.426
X66.253Y81.705
X66.131Y81.966
X65.966Y82.202
X65.762Y82.406
X65.526Y82.571
X65.265Y82.693
X64.986Y82.767
X64.699Y82.792
G0Z1
X92.764Y88.882
G1Z-0.3F50
X92.787Y88.806F100
X92.824Y88.737
X92.874Y88.676
X92.934Y88.626
X93.004Y88.589
X93.079Y88.566
X93.157Y88.559
X93.236Y88.566
X93.311Y88.589
X93.38Y88.626
X93.441Y88.676
X93.491Y88.737
X93.528Y88.806
X93.551Y88.882
X93.559Y88.96
X93.551Y89.038
X93.528Y89.113
X93.491Y89.183
X93.441Y89.244
X93.38Y89.294
X93.311Y89.331
X93.236Y89.354
X93.157Y89.361
X93.079Y89.353
X93.004Y89.331
X92.934Y89.294
X92.874Y89.244
X92.824Y89.183
X92.787Y89.113
X92.764Y89.038
X92.756Y88.96
X92.764Y88.882
G0Z1
X101.803Y80.815
G1Z-0.3F50
X100.509Y79.239F100
X99.548Y77.44
X98.956Y75.489
X98.756Y73.46
X98.956Y71.431
X99.548Y69.479
X100.509Y67.681
X101.799Y66.11
X103.379Y64.811
X105.177Y63.85
X107.128Y63.258
X109.157Y63.059
X111.187Y63.258
X113.138Y63.85
X114.936Y64.812
X116.512Y66.105
X117.806Y67.681
X118.767Y69.479
X119.359Y71.431
X119.559Y73.46
X119.359Y75.489
X118.767Y77.44
X117.806Y79.239
X116.512Y80.815
X114.936Y82.108
X113.138Y83.069
X111.187Y83.661
X109.157Y83.861
X107.128Y83.661
X105.177Y83.069
X103.379Y82.108
X101.803Y80.815
G0Z1
X123.787Y88.806
G1Z-0.3F50
X123.824Y88.737F100
X123.874Y88.676
X123.934Y88.626
X124.004Y88.589
X124.079Y88.566
X124.157Y88.559
X124.236Y88.566
X124.311Y88.589
X124.38Y88.626
X124.441Y88.676
X124.491Y88.737
X124.528Y88.806
X124.551Y88.882
X124.559Y88.96
X124.551Y89.038
X124.528Y89.113
X124.491Y89.183
X124.441Y89.244
X124.38Y89.294
X124.311Y89.331
X124.236Y89.353
X124.157Y89.361
X124.079Y89.353
X124.004Y89.331
X123.934Y89.294
X123.874Y89.244
X123.824Y89.183
X123.787Y89.113
X123.764Y89.038
X123.756Y88.96
X123.764Y88.882
X123.787Y88.806
G0Z1
X124.157Y58.361
G1Z-0.3F50
X124.079Y58.353F100
X124.004Y58.331
X123.934Y58.294
X123.874Y58.244
X123.824Y58.183
X123.787Y58.113
X123.764Y58.038
X123.756Y57.96
X123.764Y57.882
X123.787Y57.806
X123.824Y57.737
X123.874Y57.676
X123.934Y57.626
X124.004Y57.589
X124.079Y57.566
X124.157Y57.559
X124.236Y57.566
X124.311Y57.589
X124.38Y57.626
X124.441Y57.676
X124.491Y57.737
X124.528Y57.806
X124.551Y57.882
X124.559Y57.96
X124.551Y58.038
X124.528Y58.113
X124.491Y58.183
X124.441Y58.244
X124.38Y58.294
X124.311Y58.331
X124.236Y58.353
X124.157Y58.361
G0Z1
X93.559Y57.96
G1Z-0.3F50
X93.551Y58.038F100
X93.528Y58.113
X93.491Y58.183
X93.441Y58.244
X93.38Y58.294
X93.311Y58.331
X93.236Y58.353
X93.157Y58.361
X93.079Y58.353
X93.004Y58.331
X92.934Y58.294
X92.874Y58.244
X92.824Y58.183
X92.787Y58.113
X92.764Y58.038
X92.756Y57.96
X92.764Y57.882
X92.787Y57.806
X92.824Y57.737
X92.874Y57.676
X92.934Y57.626
X93.004Y57.589
X93.079Y57.566
X93.157Y57.559
X93.236Y57.566
X93.311Y57.589
X93.38Y57.626
X93.441Y57.676
X93.491Y57.737
X93.528Y57.806
X93.551Y57.882
X93.559Y57.96
G0Z1
X66.253Y49.385
G1Z-0.3F50
X66.131Y49.646F100
X65.966Y49.882
X65.762Y50.086
X65.526Y50.251
X65.265Y50.373
X64.986Y50.447
X64.699Y50.472
X64.412Y50.447
X64.134Y50.373
X63.873Y50.251
X63.637Y50.086
X63.433Y49.882
X63.268Y49.646
X63.146Y49.385
X63.072Y49.106
X63.047Y48.819
X63.072Y48.532
X63.146Y48.254
X63.268Y47.993
X63.433Y47.757
X63.637Y47.553
X63.873Y47.388
X64.134Y47.266
X64.412Y47.192
X64.699Y47.167
X64.987Y47.192
X65.265Y47.266
X65.526Y47.388
X65.762Y47.553
X65.966Y47.757
X66.131Y47.993
X66.253Y48.254
X66.327Y48.532
X66.352Y48.819
X66.327Y49.106
X66.253Y49.385
G0Z1
X64.699Y18.152
G1Z-0.3F50
X64.412Y18.127F100
X64.134Y18.053
X63.873Y17.931
X63.637Y17.766
X63.433Y17.562
X63.268Y17.326
X63.146Y17.065
X63.072Y16.786
X63.047Y16.499
X63.072Y16.212
X63.146Y15.934
X63.268Y15.673
X63.433Y15.437
X63.637Y15.233
X63.873Y15.068
X64.134Y14.946
X64.412Y14.872
X64.699Y14.847
X64.986Y14.872
X65.265Y14.946
X65.526Y15.068
X65.762Y15.233
X65.966Y15.437
X66.131Y15.673
X66.253Y15.934
X66.327Y16.212
X66.352Y16.499
X66.327Y16.786
X66.253Y17.065
X66.131Y17.326
X65.966Y17.562
X65.762Y17.766
X65.526Y17.931
X65.265Y18.053
X64.987Y18.127
X64.699Y18.152
G0Z1
X104.141Y119.151
G1Z-0.3F50
X104.293Y119.11F100
X104.449Y119.097
X104.606Y119.11
X104.758Y119.151
X104.901Y119.218
X105.03Y119.308
X105.141Y119.419
X105.231Y119.548
X105.298Y119.691
X105.339Y119.843
X105.352Y119.999
X105.339Y120.156
X105.298Y120.308
X105.231Y120.451
X105.141Y120.58
X105.03Y120.691
X104.901Y120.781
X104.758Y120.848
X104.606Y120.889
X104.449Y120.902
X104.293Y120.889
X104.14Y120.848
X103.998Y120.781
X103.869Y120.691
X103.758Y120.58
X103.667Y120.451
X103.601Y120.308
X103.56Y120.156
X103.546Y119.999
X103.56Y119.843
X103.601Y119.691
X103.667Y119.548
X103.758Y119.419
X103.869Y119.308
X103.998Y119.217
X104.141Y119.151
G0Z1
X150.396Y119.999
G1Z-0.3F50
X150.41Y119.843F100
X150.451Y119.691
X150.517Y119.548
X150.608Y119.419
X150.719Y119.308
X150.848Y119.217
X150.991Y119.151
X151.143Y119.11
X151.299Y119.097
X151.456Y119.11
X151.608Y119.151
X151.751Y119.218
X151.88Y119.308
X151.991Y119.419
X152.081Y119.548
X152.148Y119.691
X152.189Y119.843
X152.202Y119.999
X152.189Y120.156
X152.148Y120.308
X152.081Y120.451
X151.991Y120.58
X151.88Y120.691
X151.751Y120.781
X151.608Y120.848
X151.456Y120.889
X151.299Y120.902
X151.143Y120.889
X150.99Y120.848
X150.848Y120.781
X150.719Y120.691
X150.608Y120.58
X150.517Y120.451
X150.451Y120.308
X150.41Y120.156
X150.396Y119.999
G0Z1
X181.906
G1Z-0.3F50
X181.92Y119.843F100
X181.961Y119.691
X182.027Y119.548
X182.118Y119.419
X182.229Y119.308
X182.358Y119.217
X182.501Y119.151
X182.653Y119.11
X182.809Y119.097
X182.966Y119.11
X183.118Y119.151
X183.261Y119.217
X183.39Y119.308
X183.501Y119.419
X183.591Y119.548
X183.658Y119.691
X183.699Y119.843
X183.712Y119.999
X183.699Y120.156
X183.658Y120.308
X183.591Y120.451
X183.501Y120.58
X183.39Y120.691
X183.261Y120.781
X183.118Y120.848
X182.966Y120.889
X182.809Y120.902
X182.653Y120.889
X182.5Y120.848
X182.358Y120.781
X182.229Y120.691
X182.118Y120.58
X182.027Y120.451
X181.961Y120.308
X181.92Y120.156
X181.906Y119.999
G0Z1
X197.948Y129.548
G1Z-0.3F50
X198.038Y129.419F100
X198.149Y129.308
X198.278Y129.217
X198.421Y129.151
X198.573Y129.11
X198.73Y129.097
X198.887Y129.11
X199.039Y129.151
X199.181Y129.217
X199.31Y129.308
X199.421Y129.419
X199.512Y129.548
X199.578Y129.691
X199.619Y129.843
X199.633Y129.999
X199.619Y130.156
X199.578Y130.308
X199.512Y130.451
X199.422Y130.58
X199.31Y130.691
X199.181Y130.781
X199.039Y130.848
X198.887Y130.889
X198.73Y130.902
X198.573Y130.889
X198.421Y130.848
X198.278Y130.781
X198.149Y130.691
X198.038Y130.58
X197.948Y130.451
X197.881Y130.308
X197.841Y130.156
X197.827Y129.999
X197.841Y129.843
X197.881Y129.691
X197.948Y129.548
G0Z1
X212.827Y129.999
G1Z-0.3F50
X212.841Y129.843F100
X212.881Y129.691
X212.948Y129.548
X213.038Y129.419
X213.149Y129.308
X213.278Y129.217
X213.421Y129.151
X213.573Y129.11
X213.73Y129.097
X213.887Y129.11
X214.039Y129.151
X214.181Y129.217
X214.31Y129.308
X214.421Y129.419
X214.512Y129.548
X214.578Y129.691
X214.619Y129.843
X214.633Y129.999
X214.619Y130.156
X214.578Y130.308
X214.512Y130.451
X214.422Y130.58
X214.31Y130.691
X214.181Y130.781
X214.039Y130.848
X213.887Y130.889
X213.73Y130.902
X213.573Y130.889
X213.421Y130.848
X213.278Y130.781
X213.149Y130.691
X213.038Y130.58
X212.948Y130.451
X212.881Y130.308
X212.841Y130.156
X212.827Y129.999
G0Z1
X228.877Y120.451
G1Z-0.3F50
X228.811Y120.308F100
X228.77Y120.156
X228.756Y119.999
X228.77Y119.842
X228.811Y119.691
X228.877Y119.548
X228.968Y119.419
X229.079Y119.308
X229.208Y119.217
X229.351Y119.151
X229.503Y119.11
X229.659Y119.097
X229.816Y119.11
X229.968Y119.151
X230.111Y119.217
X230.24Y119.308
X230.351Y119.419
X230.441Y119.548
X230.508Y119.691
X230.549Y119.843
X230.562Y119.999
X230.549Y120.156
X230.508Y120.308
X230.441Y120.451
X230.352Y120.578
X230.239Y120.692
X230.111Y120.781
X229.968Y120.848
X229.816Y120.889
X229.659Y120.902
X229.503Y120.889
X229.35Y120.848
X229.208Y120.781
X229.079Y120.691
X228.968Y120.58
X228.877Y120.451
G0Z1
X214.039Y159.151
G1Z-0.3F50
X214.181Y159.217F100
X214.31Y159.308
X214.421Y159.419
X214.512Y159.548
X214.578Y159.691
X214.619Y159.843
X214.633Y159.999
X214.619Y160.156
X214.578Y160.308
X214.512Y160.451
X214.421Y160.58
X214.31Y160.691
X214.181Y160.781
X214.039Y160.848
X213.887Y160.889
X213.73Y160.902
X213.573Y160.889
X213.421Y160.848
X213.278Y160.781
X213.149Y160.691
X213.038Y160.58
X212.948Y160.451
X212.881Y160.308
X212.841Y160.156
X212.827Y159.999
X212.841Y159.842
X212.881Y159.69
X212.948Y159.548
X213.038Y159.419
X213.149Y159.308
X213.278Y159.217
X213.421Y159.151
X213.573Y159.11
X213.73Y159.096
X213.887Y159.11
X214.039Y159.151
G0Z1
X199.633Y159.999
G1Z-0.3F50
X199.619Y160.156F100
X199.578Y160.308
X199.512Y160.451
X199.421Y160.58
X199.31Y160.691
X199.181Y160.781
X199.039Y160.848
X198.887Y160.889
X198.73Y160.902
X198.573Y160.889
X198.421Y160.848
X198.278Y160.781
X198.149Y160.691
X198.038Y160.58
X197.948Y160.451
X197.881Y160.308
X197.841Y160.156
X197.827Y159.999
X197.841Y159.842
X197.881Y159.69
X197.948Y159.548
X198.038Y159.419
X198.149Y159.308
X198.278Y159.217
X198.421Y159.151
X198.573Y159.11
X198.73Y159.096
X198.887Y159.11
X199.039Y159.151
X199.181Y159.217
X199.31Y159.308
X199.421Y159.419
X199.512Y159.548
X199.578Y159.691
X199.619Y159.843
X199.633Y159.999
G0Z1
X190.768Y148.188
G1Z-0.3F50
X190.266Y148.456F100
X189.722Y148.621
X189.156Y148.677
X188.59Y148.621
X188.046Y148.456
X187.544Y148.188
X187.105Y147.827
X186.744Y147.388
X186.476Y146.886
X186.311Y146.342
X186.255Y145.776
X186.311Y145.21
X186.476Y144.666
X186.744Y144.164
X187.105Y143.724
X187.544Y143.363
X188.046Y143.095
X188.59Y142.93
X189.156Y142.874
X189.722Y142.93
X190.266Y143.095
X190.768Y143.363
X191.208Y143.724
X191.569Y144.164
X191.837Y144.666
X192.002Y145.21
X192.057Y145.776
X192.002Y146.342
X191.837Y146.886
X191.569Y147.388
X191.208Y147.827
X190.768Y148.188
G0Z1
X183.118Y169.151
G1Z-0.3F50
X183.261Y169.217F100
X183.39Y169.308
X183.501Y169.419
X183.591Y169.548
X183.658Y169.691
X183.699Y169.842
X183.712Y169.999
X183.699Y170.156
X183.658Y170.308
X183.591Y170.451
X183.501Y170.58
X183.39Y170.691
X183.261Y170.781
X183.118Y170.848
X182.966Y170.889
X182.809Y170.902
X182.653Y170.889
X182.501Y170.848
X182.358Y170.781
X182.229Y170.691
X182.118Y170.58
X182.027Y170.451
X181.961Y170.308
X181.92Y170.156
X181.906Y169.999
X181.92Y169.843
X181.961Y169.69
X182.027Y169.548
X182.118Y169.419
X182.229Y169.308
X182.358Y169.217
X182.501Y169.151
X182.653Y169.11
X182.809Y169.096
X182.966Y169.11
X183.118Y169.151
G0Z1
X152.202Y169.999
G1Z-0.3F50
X152.189Y170.156F100
X152.148Y170.308
X152.081Y170.451
X151.991Y170.58
X151.88Y170.691
X151.751Y170.781
X151.608Y170.848
X151.456Y170.889
X151.299Y170.902
X151.143Y170.889
X150.991Y170.848
X150.848Y170.781
X150.719Y170.691
X150.608Y170.58
X150.517Y170.451
X150.451Y170.308
X150.41Y170.156
X150.396Y169.999
X150.41Y169.843
X150.451Y169.69
X150.517Y169.548
X150.608Y169.419
X150.719Y169.308
X150.848Y169.217
X150.991Y169.151
X151.142Y169.11
X151.299Y169.096
X151.456Y169.11
X151.608Y169.151
X151.751Y169.217
X151.88Y169.308
X151.991Y169.419
X152.081Y169.548
X152.148Y169.691
X152.189Y169.843
X152.202Y169.999
G0Z1
X105.352
G1Z-0.3F50
X105.339Y170.156F100
X105.298Y170.308
X105.231Y170.451
X105.141Y170.58
X105.03Y170.691
X104.901Y170.781
X104.758Y170.848
X104.606Y170.889
X104.449Y170.902
X104.293Y170.889
X104.141Y170.848
X103.998Y170.781
X103.869Y170.691
X103.758Y170.58
X103.667Y170.451
X103.601Y170.308
X103.56Y170.156
X103.546Y169.999
X103.56Y169.843
X103.601Y169.69
X103.667Y169.548
X103.758Y169.419
X103.869Y169.308
X103.998Y169.217
X104.141Y169.151
X104.292Y169.11
X104.449Y169.096
X104.606Y169.11
X104.758Y169.151
X104.901Y169.217
X105.03Y169.308
X105.141Y169.419
X105.231Y169.548
X105.298Y169.691
X105.339Y169.843
X105.352Y169.999
G0Z1
X228.756
G1Z-0.3F50
X228.77Y169.842F100
X228.811Y169.69
X228.877Y169.548
X228.968Y169.419
X229.079Y169.308
X229.208Y169.217
X229.351Y169.151
X229.503Y169.11
X229.659Y169.096
X229.816Y169.11
X229.968Y169.151
X230.111Y169.217
X230.24Y169.308
X230.351Y169.419
X230.441Y169.548
X230.508Y169.691
X230.549Y169.843
X230.562Y169.999
X230.549Y170.156
X230.508Y170.308
X230.441Y170.451
X230.351Y170.58
X230.24Y170.691
X230.111Y170.781
X229.968Y170.848
X229.816Y170.889
X229.659Y170.902
X229.503Y170.889
X229.351Y170.848
X229.208Y170.781
X229.079Y170.691
X228.968Y170.58
X228.877Y170.451
X228.811Y170.308
X228.77Y170.156
X228.756Y169.999
G0Z1
X275.606
G1Z-0.3F50
X275.62Y169.842F100
X275.661Y169.691
X275.727Y169.548
X275.818Y169.419
X275.929Y169.308
X276.058Y169.217
X276.201Y169.151
X276.352Y169.11
X276.509Y169.096
X276.666Y169.11
X276.818Y169.151
X276.961Y169.217
X277.09Y169.308
X277.201Y169.419
X277.291Y169.548
X277.358Y169.69
X277.398Y169.843
X277.412Y169.999
X277.399Y170.156
X277.358Y170.308
X277.291Y170.451
X277.201Y170.58
X277.09Y170.691
X276.961Y170.781
X276.818Y170.848
X276.666Y170.889
X276.509Y170.902
X276.352Y170.889
X276.201Y170.848
X276.058Y170.781
X275.929Y170.691
X275.818Y170.58
X275.727Y170.451
X275.661Y170.308
X275.62Y170.156
X275.606Y169.999
G0Z1
X276.509Y120.902
G1Z-0.3F50
X276.352Y120.889F100
X276.2Y120.848
X276.058Y120.781
X275.929Y120.691
X275.818Y120.58
X275.727Y120.451
X275.661Y120.308
X275.62Y120.156
X275.606Y119.999
X275.62Y119.843
X275.661Y119.691
X275.727Y119.548
X275.818Y119.419
X275.929Y119.308
X276.058Y119.217
X276.201Y119.151
X276.352Y119.11
X276.509Y119.097
X276.666Y119.11
X276.818Y119.151
X276.961Y119.217
X277.09Y119.308
X277.201Y119.419
X277.291Y119.548
X277.358Y119.691
X277.398Y119.843
X277.412Y119.999
X277.399Y120.156
X277.358Y120.308
X277.291Y120.451
X277.201Y120.58
X277.09Y120.691
X276.961Y120.781
X276.818Y120.848
X276.666Y120.889
X276.509Y120.902
G0Z1
X282.026Y110.939
G1Z-0.3F50
X281.997Y110.912F100
X281.969Y110.885
X281.939Y110.859
X281.909Y110.834
X281.878Y110.809
X281.847Y110.785
X281.815Y110.762
X281.782Y110.74
X281.749Y110.719
X281.716Y110.698
X281.682Y110.678
X281.647Y110.66
X70.884Y-1.404
X70.85Y-1.422
X70.815Y-1.439
X70.779Y-1.455
X70.744Y-1.47
X70.708Y-1.485
X70.671Y-1.498
X70.634Y-1.511
X70.597Y-1.523
X70.56Y-1.533
X70.522Y-1.543
X70.484Y-1.552
X70.446Y-1.56
X70.408Y-1.567
X70.37Y-1.573
X70.331Y-1.579
X70.293Y-1.583
X70.254Y-1.586
X70.215Y-1.589
X70.176Y-1.59
X70.137Y-1.591
X0
X-0.036Y-1.59
X-0.073Y-1.589
X-0.11Y-1.587
X-0.147Y-1.584
X-0.184Y-1.58
X-0.222Y-1.575
X-0.26Y-1.569
X-0.298Y-1.562
X-0.336Y-1.554
X-0.374Y-1.546
X-0.412Y-1.536
X-0.447Y-1.526
X-0.482Y-1.515
X-0.517Y-1.504
X-0.552Y-1.491
X-0.59Y-1.477
X-0.627Y-1.461
X-0.664Y-1.445
X-0.7Y-1.428
X-0.736Y-1.41
X-0.767Y-1.393
X-0.803Y-1.373
X-0.844Y-1.348
X-0.887Y-1.32
X-0.93Y-1.29
X-0.971Y-1.259
X-1.009Y-1.229
X-1.041Y-1.202
X-1.072Y-1.175
X-1.102Y-1.147
X-1.129Y-1.12
X-1.156Y-1.092
X-1.183Y-1.063
X-1.208Y-1.034
X-1.233Y-1.004
X-1.258Y-0.973
X-1.281Y-0.942
X-1.304Y-0.911
X-1.326Y-0.878
X-1.347Y-0.846
X-1.367Y-0.813
X-1.386Y-0.779
X-1.405Y-0.745
X-1.423Y-0.71
X-1.44Y-0.675
X-1.456Y-0.639
X-1.471Y-0.603
X-1.486Y-0.567
X-1.499Y-0.531
X-1.512Y-0.494
X-1.523Y-0.457
X-1.534Y-0.42
X-1.544Y-0.383
X-1.552Y-0.345
X-1.56Y-0.307
X-1.567Y-0.269
X-1.574Y-0.231
X-1.579Y-0.193
X-1.583Y-0.154
X-1.586Y-0.116
X-1.589Y-0.077
X-1.59Y-0.038
X-1.591Y0
Y129.999
X-1.59Y130.051
X-1.588Y130.09
X-1.585Y130.129
X-1.582Y130.168
X-1.577Y130.207
X-1.571Y130.246
X-1.565Y130.284
X-1.557Y130.322
X-1.549Y130.36
X-1.54Y130.398
X-1.529Y130.436
X-1.518Y130.473
X-1.506Y130.511
X-1.493Y130.547
X-1.479Y130.584
X-1.465Y130.62
X-1.449Y130.656
X-1.432Y130.691
X-1.415Y130.726
X-1.397Y130.76
X-1.378Y130.794
X-1.358Y130.828
X-1.337Y130.861
X-1.315Y130.894
X-1.293Y130.926
X-1.27Y130.957
X-1.246Y130.988
X-1.221Y131.018
X-1.196Y131.048
X-1.17Y131.077
X-1.143Y131.105
X-1.116Y131.133
X-1.087Y131.161
X-1.058Y131.187
X-1.029Y131.212
X-0.999Y131.237
X-0.969Y131.261
X-0.938Y131.284
X-0.907Y131.306
X-0.875Y131.328
X-0.842Y131.349
X-0.809Y131.369
X-0.776Y131.388
X-0.742Y131.407
X-0.707Y131.424
X-0.673Y131.441
X-0.637Y131.457
X-0.602Y131.472
X-0.566Y131.486
X-0.53Y131.499
X-0.493Y131.512
X-0.456Y131.523
X-0.419Y131.534
X-0.382Y131.544
X-0.344Y131.553
X-0.306Y131.561
X-0.268Y131.568
X-0.23Y131.574
X-0.192Y131.579
X-0.154Y131.583
X-0.115Y131.586
X-0.077Y131.589
X-0.038Y131.59
X0
X83.408
Y167.382
X83.409Y167.421
X83.41Y167.46
X83.413Y167.499
X83.416Y167.538
X83.42Y167.577
X83.426Y167.615
X83.432Y167.654
X83.439Y167.692
X83.447Y167.73
X83.456Y167.768
X83.466Y167.806
X83.477Y167.844
X83.489Y167.881
X83.501Y167.918
X83.515Y167.954
X83.53Y167.991
X83.545Y168.027
X83.561Y168.063
X83.579Y168.098
X83.597Y168.132
X83.615Y168.167
X83.635Y168.2
X83.655Y168.233
X83.677Y168.266
X83.699Y168.298
X83.722Y168.33
X83.745Y168.361
X83.77Y168.391
X83.795Y168.421
X83.821Y168.451
X83.847Y168.479
X83.874Y168.507
X96.492Y181.124
X96.52Y181.152
X96.548Y181.178
X96.577Y181.204
X96.607Y181.229
X96.638Y181.254
X96.669Y181.277
X96.7Y181.3
X96.733Y181.322
X96.765Y181.343
X96.799Y181.364
X96.832Y181.384
X96.866Y181.402
X96.901Y181.42
X96.936Y181.437
X96.972Y181.454
X97.008Y181.469
X97.044Y181.484
X97.081Y181.497
X97.118Y181.51
X97.155Y181.522
X97.193Y181.533
X97.23Y181.543
X97.268Y181.552
X97.307Y181.56
X97.345Y181.567
X97.383Y181.573
X97.422Y181.578
X97.461Y181.583
X97.5Y181.586
X97.539Y181.588
X97.578Y181.59
X97.617
X282.795
X282.834
X282.873Y181.588
X282.912Y181.586
X282.951Y181.583
X282.99Y181.578
X283.028Y181.573
X283.067Y181.567
X283.105Y181.56
X283.143Y181.552
X283.181Y181.543
X283.219Y181.533
X283.256Y181.522
X283.294Y181.51
X283.331Y181.497
X283.367Y181.484
X283.404Y181.469
X283.44Y181.454
X283.475Y181.437
X283.51Y181.42
X283.545Y181.402
X283.579Y181.384
X283.613Y181.364
X283.646Y181.343
X283.679Y181.322
X283.711Y181.3
X283.743Y181.277
X283.774Y181.254
X283.804Y181.229
X283.834Y181.204
X283.863Y181.178
X283.892Y181.152
X283.92Y181.125
X297.634Y167.41
X297.662Y167.382
X297.688Y167.353
X297.714Y167.324
X297.739Y167.294
X297.763Y167.264
X297.787Y167.233
X297.81Y167.201
X297.832Y167.169
X297.853Y167.136
X297.874Y167.103
X297.893Y167.069
X297.912Y167.035
X297.93Y167
X297.947Y166.965
X297.964Y166.93
X297.979Y166.893
X297.994Y166.857
X298.007Y166.821
X298.02Y166.784
X298.032Y166.746
X298.043Y166.709
X298.053Y166.671
X298.062Y166.633
X298.07Y166.595
X298.077Y166.557
X298.083Y166.518
X298.088Y166.48
X298.093Y166.441
X298.096Y166.402
X298.098Y166.363
X298.1Y166.324
Y166.285
Y127.673
Y127.634
X298.098Y127.595
X298.096Y127.556
X298.093Y127.517
X298.088Y127.478
X298.083Y127.44
X298.077Y127.401
X298.07Y127.363
X298.062Y127.325
X298.053Y127.287
X298.043Y127.249
X298.032Y127.212
X298.02Y127.174
X298.007Y127.137
X297.994Y127.101
X297.979Y127.064
X297.964Y127.028
X297.947Y126.993
X297.93Y126.957
X297.912Y126.923
X297.893Y126.889
X297.874Y126.855
X297.853Y126.822
X297.832Y126.789
X297.81Y126.757
X297.787Y126.725
X297.763Y126.694
X297.739Y126.664
X297.714Y126.634
X297.688Y126.605
X297.662Y126.576
X297.634Y126.548
X282.026Y110.939
G0Z1
X10.673Y15.068
G1Z-0.4F50
X10.934Y14.946F100
X11.212Y14.872
X11.5Y14.847
X11.787Y14.872
X12.065Y14.946
X12.326Y15.068
X12.562Y15.233
X12.766Y15.437
X12.931Y15.673
X13.053Y15.934
X13.127Y16.212
X13.152Y16.499
X13.127Y16.786
X13.053Y17.065
X12.931Y17.326
X12.766Y17.562
X12.562Y17.766
X12.326Y17.931
X12.065Y18.053
X11.787Y18.127
X11.5Y18.152
X11.212Y18.127
X10.934Y18.053
X10.673Y17.931
X10.437Y17.766
X10.233Y17.562
X10.068Y17.326
X9.946Y17.065
X9.872Y16.786
X9.847Y16.499
X9.872Y16.212
X9.946Y15.934
X10.068Y15.673
X10.233Y15.437
X10.437Y15.233
X10.673Y15.068
G0Z1
X11.5Y47.167
G1Z-0.4F50
X11.787Y47.192F100
X12.065Y47.266
X12.326Y47.388
X12.562Y47.553
X12.766Y47.757
X12.931Y47.993
X13.053Y48.254
X13.127Y48.532
X13.152Y48.819
X13.127Y49.106
X13.053Y49.385
X12.931Y49.646
X12.766Y49.882
X12.562Y50.086
X12.326Y50.251
X12.065Y50.373
X11.787Y50.447
X11.5Y50.472
X11.212Y50.447
X10.934Y50.373
X10.673Y50.251
X10.437Y50.086
X10.233Y49.882
X10.068Y49.646
X9.946Y49.385
X9.872Y49.106
X9.847Y48.819
X9.872Y48.532
X9.946Y48.254
X10.068Y47.993
X10.233Y47.757
X10.437Y47.553
X10.673Y47.388
X10.934Y47.266
X11.212Y47.192
X11.5Y47.167
G0Z1
Y79.487
G1Z-0.4F50
X11.786Y79.512F100
X12.065Y79.586
X12.326Y79.708
X12.562Y79.873
X12.766Y80.077
X12.931Y80.313
X13.053Y80.574
X13.127Y80.852
X13.152Y81.14
X13.127Y81.426
X13.053Y81.705
X12.931Y81.966
X12.766Y82.202
X12.562Y82.406
X12.326Y82.571
X12.065Y82.693
X11.787Y82.767
X11.5Y82.792
X11.212Y82.767
X10.934Y82.693
X10.673Y82.571
X10.436Y82.405
X10.233Y82.202
X10.068Y81.966
X9.946Y81.705
X9.872Y81.426
X9.847Y81.14
X9.872Y80.852
X9.946Y80.574
X10.068Y80.313
X10.233Y80.077
X10.437Y79.873
X10.673Y79.708
X10.934Y79.586
X11.212Y79.512
X11.5Y79.487
G0Z1
Y111.807
G1Z-0.4F50
X11.786Y111.832F100
X12.065Y111.906
X12.326Y112.028
X12.562Y112.193
X12.766Y112.397
X12.931Y112.633
X13.053Y112.894
X13.127Y113.172
X13.152Y113.459
X13.127Y113.747
X13.053Y114.025
X12.931Y114.286
X12.766Y114.522
X12.562Y114.726
X12.326Y114.891
X12.065Y115.013
X11.786Y115.087
X11.5Y115.112
X11.212Y115.087
X10.934Y115.013
X10.673Y114.891
X10.437Y114.726
X10.233Y114.522
X10.068Y114.286
X9.946Y114.025
X9.872Y113.747
X9.847Y113.459
X9.872Y113.172
X9.946Y112.894
X10.068Y112.633
X10.233Y112.397
X10.437Y112.193
X10.673Y112.028
X10.934Y111.906
X11.213Y111.832
X11.5Y111.807
G0Z1
X63.047Y113.459
G1Z-0.4F50
X63.072Y113.172F100
X63.146Y112.894
X63.268Y112.633
X63.433Y112.397
X63.637Y112.193
X63.873Y112.028
X64.134Y111.906
X64.413Y111.832
X64.699Y111.807
X64.986Y111.832
X65.265Y111.906
X65.526Y112.028
X65.762Y112.193
X65.966Y112.397
X66.131Y112.633
X66.253Y112.894
X66.327Y113.172
X66.352Y113.459
X66.327Y113.746
X66.253Y114.025
X66.131Y114.286
X65.966Y114.522
X65.762Y114.726
X65.526Y114.891
X65.265Y115.013
X64.986Y115.087
X64.699Y115.112
X64.412Y115.087
X64.134Y115.013
X63.873Y114.891
X63.637Y114.726
X63.433Y114.522
X63.268Y114.286
X63.146Y114.025
X63.072Y113.747
X63.047Y113.459
G0Z1
X64.699Y82.792
G1Z-0.4F50
X64.412Y82.767F100
X64.134Y82.693
X63.873Y82.571
X63.637Y82.406
X63.433Y82.202
X63.268Y81.966
X63.146Y81.705
X63.072Y81.426
X63.047Y81.14
X63.072Y80.852
X63.146Y80.574
X63.268Y80.313
X63.433Y80.077
X63.637Y79.873
X63.873Y79.708
X64.134Y79.586
X64.412Y79.512
X64.699Y79.487
X64.986Y79.512
X65.265Y79.586
X65.526Y79.708
X65.762Y79.873
X65.966Y80.077
X66.131Y80.313
X66.253Y80.574
X66.327Y80.852
X66.352Y81.14
X66.327Y81.426
X66.253Y81.705
X66.131Y81.966
X65.966Y82.202
X65.762Y82.406
X65.526Y82.571
X65.265Y82.693
X64.986Y82.767
X64.699Y82.792
G0Z1
X92.764Y88.882
G1Z-0.4F50
X92.787Y88.806F100
X92.824Y88.737
X92.874Y88.676
X92.934Y88.626
X93.004Y88.589
X93.079Y88.566
X93.157Y88.559
X93.236Y88.566
X93.311Y88.589
X93.38Y88.626
X93.441Y88.676
X93.491Y88.737
X93.528Y88.806
X93.551Y88.882
X93.559Y88.96
X93.551Y89.038
X93.528Y89.113
X93.491Y89.183
X93.441Y89.244
X93.38Y89.294
X93.311Y89.331
X93.236Y89.354
X93.157Y89.361
X93.079Y89.353
X93.004Y89.331
X92.934Y89.294
X92.874Y89.244
X92.824Y89.183
X92.787Y89.113
X92.764Y89.038
X92.756Y88.96
X92.764Y88.882
G0Z1
X101.803Y80.815
G1Z-0.4F50
X100.509Y79.239F100
X99.548Y77.44
X98.956Y75.489
X98.756Y73.46
X98.956Y71.431
X99.548Y69.479
X100.509Y67.681
X101.799Y66.11
X103.379Y64.811
X105.177Y63.85
X107.128Y63.258
X109.157Y63.059
X111.187Y63.258
X113.138Y63.85
X114.936Y64.812
X116.512Y66.105
X117.806Y67.681
X118.767Y69.479
X119.359Y71.431
X119.559Y73.46
X119.359Y75.489
X118.767Y77.44
X117.806Y79.239
X116.512Y80.815
X114.936Y82.108
X113.138Y83.069
X111.187Y83.661
X109.157Y83.861
X107.128Y83.661
X105.177Y83.069
X103.379Y82.108
X101.803Y80.815
G0Z1
X123.787Y88.806
G1Z-0.4F50
X123.824Y88.737F100
X123.874Y88.676
X123.934Y88.626
X124.004Y88.589
X124.079Y88.566
X124.157Y88.559
X124.236Y88.566
X124.311Y88.589
X124.38Y88.626
X124.441Y88.676
X124.491Y88.737
X124.528Y88.806
X124.551Y88.882
X124.559Y88.96
X124.551Y89.038
X124.528Y89.113
X124.491Y89.183
X124.441Y89.244
X124.38Y89.294
X124.311Y89.331
X124.236Y89.353
X124.157Y89.361
X124.079Y89.353
X124.004Y89.331
X123.934Y89.294
X123.874Y89.244
X123.824Y89.183
X123.787Y89.113
X123.764Y89.038
X123.756Y88.96
X123.764Y88.882
X123.787Y88.806
G0Z1
X124.157Y58.361
G1Z-0.4F50
X124.079Y58.353F100
X124.004Y58.331
X123.934Y58.294
X123.874Y58.244
X123.824Y58.183
X123.787Y58.113
X123.764Y58.038
X123.756Y57.96
X123.764Y57.882
X123.787Y57.806
X123.824Y57.737
X123.874Y57.676
X123.934Y57.626
X124.004Y57.589
X124.079Y57.566
X124.157Y57.559
X124.236Y57.566
X124.311Y57.589
X124.38Y57.626
X124.441Y57.676
X124.491Y57.737
X124.528Y57.806
X124.551Y57.882
X124.559Y57.96
X124.551Y58.038
X124.528Y58.113
X124.491Y58.183
X124.441Y58.244
X124.38Y58.294
X124.311Y58.331
X124.236Y58.353
X124.157Y58.361
G0Z1
X93.559Y57.96
G1Z-0.4F50
X93.551Y58.038F100
X93.528Y58.113
X93.491Y58.183
X93.441Y58.244
X93.38Y58.294
X93.311Y58.331
X93.236Y58.353
X93.157Y58.361
X93.079Y58.353
X93.004Y58.331
X92.934Y58.294
X92.874Y58.244
X92.824Y58.183
X92.787Y58.113
X92.764Y58.038
X92.756Y57.96
X92.764Y57.882
X92.787Y57.806
X92.824Y57.737
X92.874Y57.676
X92.934Y57.626
X93.004Y57.589
X93.079Y57.566
X93.157Y57.559
X93.236Y57.566
X93.311Y57.589
X93.38Y57.626
X93.441Y57.676
X93.491Y57.737
X93.528Y57.806
X93.551Y57.882
X93.559Y57.96
G0Z1
X66.253Y49.385
G1Z-0.4F50
X66.131Y49.646F100
X65.966Y49.882
X65.762Y50.086
X65.526Y50.251
X65.265Y50.373
X64.986Y50.447
X64.699Y50.472
X64.412Y50.447
X64.134Y50.373
X63.873Y50.251
X63.637Y50.086
X63.433Y49.882
X63.268Y49.646
X63.146Y49.385
X63.072Y49.106
X63.047Y48.819
X63.072Y48.532
X63.146Y48.254
X63.268Y47.993
X63.433Y47.757
X63.637Y47.553
X63.873Y47.388
X64.134Y47.266
X64.412Y47.192
X64.699Y47.167
X64.987Y47.192
X65.265Y47.266
X65.526Y47.388
X65.762Y47.553
X65.966Y47.757
X66.131Y47.993
X66.253Y48.254
X66.327Y48.532
X66.352Y48.819
X66.327Y49.106
X66.253Y49.385
G0Z1
X64.699Y18.152
G1Z-0.4F50
X64.412Y18.127F100
X64.134Y18.053
X63.873Y17.931
X63.637Y17.766
X63.433Y17.562
X63.268Y17.326
X63.146Y17.065
X63.072Y16.786
X63.047Y16.499
X63.072Y16.212
X63.146Y15.934
X63.268Y15.673
X63.433Y15.437
X63.637Y15.233
X63.873Y15.068
X64.134Y14.946
X64.412Y14.872
X64.699Y14.847
X64.986Y14.872
X65.265Y14.946
X65.526Y15.068
X65.762Y15.233
X65.966Y15.437
X66.131Y15.673
X66.253Y15.934
X66.327Y16.212
X66.352Y16.499
X66.327Y16.786
X66.253Y17.065
X66.131Y17.326
X65.966Y17.562
X65.762Y17.766
X65.526Y17.931
X65.265Y18.053
X64.987Y18.127
X64.699Y18.152
G0Z1
X104.141Y119.151
G1Z-0.4F50
X104.293Y119.11F100
X104.449Y119.097
X104.606Y119.11
X104.758Y119.151
X104.901Y119.218
X105.03Y119.308
X105.141Y119.419
X105.231Y119.548
X105.298Y119.691
X105.339Y119.843
X105.352Y119.999
X105.339Y120.156
X105.298Y120.308
X105.231Y120.451
X105.141Y120.58
X105.03Y120.691
X104.901Y120.781
X104.758Y120.848
X104.606Y120.889
X104.449Y120.902
X104.293Y120.889
X104.14Y120.848
X103.998Y120.781
X103.869Y120.691
X103.758Y120.58
X103.667Y120.451
X103.601Y120.308
X103.56Y120.156
X103.546Y119.999
X103.56Y119.843
X103.601Y119.691
X103.667Y119.548
X103.758Y119.419
X103.869Y119.308
X103.998Y119.217
X104.141Y119.151
G0Z1
X150.396Y119.999
G1Z-0.4F50
X150.41Y119.843F100
X150.451Y119.691
X150.517Y119.548
X150.608Y119.419
X150.719Y119.308
X150.848Y119.217
X150.991Y119.151
X151.143Y119.11
X151.299Y119.097
X151.456Y119.11
X151.608Y119.151
X151.751Y119.218
X151.88Y119.308
X151.991Y119.419
X152.081Y119.548
X152.148Y119.691
X152.189Y119.843
X152.202Y119.999
X152.189Y120.156
X152.148Y120.308
X152.081Y120.451
X151.991Y120.58
X151.88Y120.691
X151.751Y120.781
X151.608Y120.848
X151.456Y120.889
X151.299Y120.902
X151.143Y120.889
X150.99Y120.848
X150.848Y120.781
X150.719Y120.691
X150.608Y120.58
X150.517Y120.451
X150.451Y120.308
X150.41Y120.156
X150.396Y119.999
G0Z1
X181.906
G1Z-0.4F50
X181.92Y119.843F100
X181.961Y119.691
X182.027Y119.548
X182.118Y119.419
X182.229Y119.308
X182.358Y119.217
X182.501Y119.151
X182.653Y119.11
X182.809Y119.097
X182.966Y119.11
X183.118Y119.151
X183.261Y119.217
X183.39Y119.308
X183.501Y119.419
X183.591Y119.548
X183.658Y119.691
X183.699Y119.843
X183.712Y119.999
X183.699Y120.156
X183.658Y120.308
X183.591Y120.451
X183.501Y120.58
X183.39Y120.691
X183.261Y120.781
X183.118Y120.848
X182.966Y120.889
X182.809Y120.902
X182.653Y120.889
X182.5Y120.848
X182.358Y120.781
X182.229Y120.691
X182.118Y120.58
X182.027Y120.451
X181.961Y120.308
X181.92Y120.156
X181.906Y119.999
G0Z1
X197.948Y129.548
G1Z-0.4F50
X198.038Y129.419F100
X198.149Y129.308
X198.278Y129.217
X198.421Y129.151
X198.573Y129.11
X198.73Y129.097
X198.887Y129.11
X199.039Y129.151
X199.181Y129.217
X199.31Y129.308
X199.421Y129.419
X199.512Y129.548
X199.578Y129.691
X199.619Y129.843
X199.633Y129.999
X199.619Y130.156
X199.578Y130.308
X199.512Y130.451
X199.422Y130.58
X199.31Y130.691
X199.181Y130.781
X199.039Y130.848
X198.887Y130.889
X198.73Y130.902
X198.573Y130.889
X198.421Y130.848
X198.278Y130.781
X198.149Y130.691
X198.038Y130.58
X197.948Y130.451
X197.881Y130.308
X197.841Y130.156
X197.827Y129.999
X197.841Y129.843
X197.881Y129.691
X197.948Y129.548
G0Z1
X212.827Y129.999
G1Z-0.4F50
X212.841Y129.843F100
X212.881Y129.691
X212.948Y129.548
X213.038Y129.419
X213.149Y129.308
X213.278Y129.217
X213.421Y129.151
X213.573Y129.11
X213.73Y129.097
X213.887Y129.11
X214.039Y129.151
X214.181Y129.217
X214.31Y129.308
X214.421Y129.419
X214.512Y129.548
X214.578Y129.691
X214.619Y129.843
X214.633Y129.999
X214.619Y130.156
X214.578Y130.308
X214.512Y130.451
X214.422Y130.58
X214.31Y130.691
X214.181Y130.781
X214.039Y130.848
X213.887Y130.889
X213.73Y130.902
X213.573Y130.889
X213.421Y130.848
X213.278Y130.781
X213.149Y130.691
X213.038Y130.58
X212.948Y130.451
X212.881Y130.308
X212.841Y130.156
X212.827Y129.999
G0Z1
X228.877Y120.451
G1Z-0.4F50
X228.811Y120.308F100
X228.77Y120.156
X228.756Y119.999
X228.77Y119.842
X228.811Y119.691
X228.877Y119.548
X228.968Y119.419
X229.079Y119.308
X229.208Y119.217
X229.351Y119.151
X229.503Y119.11
X229.659Y119.097
X229.816Y119.11
X229.968Y119.151
X230.111Y119.217
X230.24Y119.308
X230.351Y119.419
X230.441Y119.548
X230.508Y119.691
X230.549Y119.843
X230.562Y119.999
X230.549Y120.156
X230.508Y120.308
X230.441Y120.451
X230.352Y120.578
X230.239Y120.692
X230.111Y120.781
X229.968Y120.848
X229.816Y120.889
X229.659Y120.902
X229.503Y120.889
X229.35Y120.848
X229.208Y120.781
X229.079Y120.691
X228.968Y120.58
X228.877Y120.451
G0Z1
X214.039Y159.151
G1Z-0.4F50
X214.181Y159.217F100
X214.31Y159.308
X214.421Y159.419
X214.512Y159.548
X214.578Y159.691
X214.619Y159.843
X214.633Y159.999
X214.619Y160.156
X214.578Y160.308
X214.512Y160.451
X214.421Y160.58
X214.31Y160.691
X214.181Y160.781
X214.039Y160.848
X213.887Y160.889
X213.73Y160.902
X213.573Y160.889
X213.421Y160.848
X213.278Y160.781
X213.149Y160.691
X213.038Y160.58
X212.948Y160.451
X212.881Y160.308
X212.841Y160.156
X212.827Y159.999
X212.841Y159.842
X212.881Y159.69
X212.948Y159.548
X213.038Y159.419
X213.149Y159.308
X213.278Y159.217
X213.421Y159.151
X213.573Y159.11
X213.73Y159.096
X213.887Y159.11
X214.039Y159.151
G0Z1
X199.633Y159.999
G1Z-0.4F50
X199.619Y160.156F100
X199.578Y160.308
X199.512Y160.451
X199.421Y160.58
X199.31Y160.691
X199.181Y160.781
X199.039Y160.848
X198.887Y160.889
X198.73Y160.902
X198.573Y160.889
X198.421Y160.848
X198.278Y160.781
X198.149Y160.691
X198.038Y160.58
X197.948Y160.451
X197.881Y160.308
X197.841Y160.156
X197.827Y159.999
X197.841Y159.842
X197.881Y159.69
X197.948Y159.548
X198.038Y159.419
X198.149Y159.308
X198.278Y159.217
X198.421Y159.151
X198.573Y159.11
X198.73Y159.096
X198.887Y159.11
X199.039Y159.151
X199.181Y159.217
X199.31Y159.308
X199.421Y159.419
X199.512Y159.548
X199.578Y159.691
X199.619Y159.843
X199.633Y159.999
G0Z1
X190.768Y148.188
G1Z-0.4F50
X190.266Y148.456F100
X189.722Y148.621
X189.156Y148.677
X188.59Y148.621
X188.046Y148.456
X187.544Y148.188
X187.105Y147.827
X186.744Y147.388
X186.476Y146.886
X186.311Y146.342
X186.255Y145.776
X186.311Y145.21
X186.476Y144.666
X186.744Y144.164
X187.105Y143.724
X187.544Y143.363
X188.046Y143.095
X188.59Y142.93
X189.156Y142.874
X189.722Y142.93
X190.266Y143.095
X190.768Y143.363
X191.208Y143.724
X191.569Y144.164
X191.837Y144.666
X192.002Y145.21
X192.057Y145.776
X192.002Y146.342
X191.837Y146.886
X191.569Y147.388
X191.208Y147.827
X190.768Y148.188
G0Z1
X183.118Y169.151
G1Z-0.4F50
X183.261Y169.217F100
X183.39Y169.308
X183.501Y169.419
X183.591Y169.548
X183.658Y169.691
X183.699Y169.842
X183.712Y169.999
X183.699Y170.156
X183.658Y170.308
X183.591Y170.451
X183.501Y170.58
X183.39Y170.691
X183.261Y170.781
X183.118Y170.848
X182.966Y170.889
X182.809Y170.902
X182.653Y170.889
X182.501Y170.848
X182.358Y170.781
X182.229Y170.691
X182.118Y170.58
X182.027Y170.451
X181.961Y170.308
X181.92Y170.156
X181.906Y169.999
X181.92Y169.843
X181.961Y169.69
X182.027Y169.548
X182.118Y169.419
X182.229Y169.308
X182.358Y169.217
X182.501Y169.151
X182.653Y169.11
X182.809Y169.096
X182.966Y169.11
X183.118Y169.151
G0Z1
X152.202Y169.999
G1Z-0.4F50
X152.189Y170.156F100
X152.148Y170.308
X152.081Y170.451
X151.991Y170.58
X151.88Y170.691
X151.751Y170.781
X151.608Y170.848
X151.456Y170.889
X151.299Y170.902
X151.143Y170.889
X150.991Y170.848
X150.848Y170.781
X150.719Y170.691
X150.608Y170.58
X150.517Y170.451
X150.451Y170.308
X150.41Y170.156
X150.396Y169.999
X150.41Y169.843
X150.451Y169.69
X150.517Y169.548
X150.608Y169.419
X150.719Y169.308
X150.848Y169.217
X150.991Y169.151
X151.142Y169.11
X151.299Y169.096
X151.456Y169.11
X151.608Y169.151
X151.751Y169.217
X151.88Y169.308
X151.991Y169.419
X152.081Y169.548
X152.148Y169.691
X152.189Y169.843
X152.202Y169.999
G0Z1
X105.352
G1Z-0.4F50
X105.339Y170.156F100
X105.298Y170.308
X105.231Y170.451
X105.141Y170.58
X105.03Y170.691
X104.901Y170.781
X104.758Y170.848
X104.606Y170.889
X104.449Y170.902
X104.293Y170.889
X104.141Y170.848
X103.998Y170.781
X103.869Y170.691
X103.758Y170.58
X103.667Y170.451
X103.601Y170.308
X103.56Y170.156
X103.546Y169.999
X103.56Y169.843
X103.601Y169.69
X103.667Y169.548
X103.758Y169.419
X103.869Y169.308
X103.998Y169.217
X104.141Y169.151
X104.292Y169.11
X104.449Y169.096
X104.606Y169.11
X104.758Y169.151
X104.901Y169.217
X105.03Y169.308
X105.141Y169.419
X105.231Y169.548
X105.298Y169.691
X105.339Y169.843
X105.352Y169.999
G0Z1
X228.756
G1Z-0.4F50
X228.77Y169.842F100
X228.811Y169.69
X228.877Y169.548
X228.968Y169.419
X229.079Y169.308
X229.208Y169.217
X229.351Y169.151
X229.503Y169.11
X229.659Y169.096
X229.816Y169.11
X229.968Y169.151
X230.111Y169.217
X230.24Y169.308
X230.351Y169.419
X230.441Y169.548
X230.508Y169.691
X230.549Y169.843
X230.562Y169.999
X230.549Y170.156
X230.508Y170.308
X230.441Y170.451
X230.351Y170.58
X230.24Y170.691
X230.111Y170.781
X229.968Y170.848
X229.816Y170.889
X229.659Y170.902
X229.503Y170.889
X229.351Y170.848
X229.208Y170.781
X229.079Y170.691
X228.968Y170.58
X228.877Y170.451
X228.811Y170.308
X228.77Y170.156
X228.756Y169.999
G0Z1
X275.606
G1Z-0.4F50
X275.62Y169.842F100
X275.661Y169.691
X275.727Y169.548
X275.818Y169.419
X275.929Y169.308
X276.058Y169.217
X276.201Y169.151
X276.352Y169.11
X276.509Y169.096
X276.666Y169.11
X276.818Y169.151
X276.961Y169.217
X277.09Y169.308
X277.201Y169.419
X277.291Y169.548
X277.358Y169.69
X277.398Y169.843
X277.412Y169.999
X277.399Y170.156
X277.358Y170.308
X277.291Y170.451
X277.201Y170.58
X277.09Y170.691
X276.961Y170.781
X276.818Y170.848
X276.666Y170.889
X276.509Y170.902
X276.352Y170.889
X276.201Y170.848
X276.058Y170.781
X275.929Y170.691
X275.818Y170.58
X275.727Y170.451
X275.661Y170.308
X275.62Y170.156
X275.606Y169.999
G0Z1
X276.509Y120.902
G1Z-0.4F50
X276.352Y120.889F100
X276.2Y120.848
X276.058Y120.781
X275.929Y120.691
X275.818Y120.58
X275.727Y120.451
X275.661Y120.308
X275.62Y120.156
X275.606Y119.999
X275.62Y119.843
X275.661Y119.691
X275.727Y119.548
X275.818Y119.419
X275.929Y119.308
X276.058Y119.217
X276.201Y119.151
X276.352Y119.11
X276.509Y119.097
X276.666Y119.11
X276.818Y119.151
X276.961Y119.217
X277.09Y119.308
X277.201Y119.419
X277.291Y119.548
X277.358Y119.691
X277.398Y119.843
X277.412Y119.999
X277.399Y120.156
X277.358Y120.308
X277.291Y120.451
X277.201Y120.58
X277.09Y120.691
X276.961Y120.781
X276.818Y120.848
X276.666Y120.889
X276.509Y120.902
G0Z1
X282.026Y110.939
G1Z-0.4F50
X281.997Y110.912F100
X281.969Y110.885
X281.939Y110.859
X281.909Y110.834
X281.878Y110.809
X281.847Y110.785
X281.815Y110.762
X281.782Y110.74
X281.749Y110.719
X281.716Y110.698
X281.682Y110.678
X281.647Y110.66
X70.884Y-1.404
X70.85Y-1.422
X70.815Y-1.439
X70.779Y-1.455
X70.744Y-1.47
X70.708Y-1.485
X70.671Y-1.498
X70.634Y-1.511
X70.597Y-1.523
X70.56Y-1.533
X70.522Y-1.543
X70.484Y-1.552
X70.446Y-1.56
X70.408Y-1.567
X70.37Y-1.573
X70.331Y-1.579
X70.293Y-1.583
X70.254Y-1.586
X70.215Y-1.589
X70.176Y-1.59
X70.137Y-1.591
X0
X-0.036Y-1.59
X-0.073Y-1.589
X-0.11Y-1.587
X-0.147Y-1.584
X-0.184Y-1.58
X-0.222Y-1.575
X-0.26Y-1.569
X-0.298Y-1.562
X-0.336Y-1.554
X-0.374Y-1.546
X-0.412Y-1.536
X-0.447Y-1.526
X-0.482Y-1.515
X-0.517Y-1.504
X-0.552Y-1.491
X-0.59Y-1.477
X-0.627Y-1.461
X-0.664Y-1.445
X-0.7Y-1.428
X-0.736Y-1.41
X-0.767Y-1.393
X-0.803Y-1.373
X-0.844Y-1.348
X-0.887Y-1.32
X-0.93Y-1.29
X-0.971Y-1.259
X-1.009Y-1.229
X-1.041Y-1.202
X-1.072Y-1.175
X-1.102Y-1.147
X-1.129Y-1.12
X-1.156Y-1.092
X-1.183Y-1.063
X-1.208Y-1.034
X-1.233Y-1.004
X-1.258Y-0.973
X-1.281Y-0.942
X-1.304Y-0.911
X-1.326Y-0.878
X-1.347Y-0.846
X-1.367Y-0.813
X-1.386Y-0.779
X-1.405Y-0.745
X-1.423Y-0.71
X-1.44Y-0.675
X-1.456Y-0.639
X-1.471Y-0.603
X-1.486Y-0.567
X-1.499Y-0.531
X-1.512Y-0.494
X-1.523Y-0.457
X-1.534Y-0.42
X-1.544Y-0.383
X-1.552Y-0.345
X-1.56Y-0.307
X-1.567Y-0.269
X-1.574Y-0.231
X-1.579Y-0.193
X-1.583Y-0.154
X-1.586Y-0.116
X-1.589Y-0.077
X-1.59Y-0.038
X-1.591Y0
Y129.999
X-1.59Y130.051
X-1.588Y130.09
X-1.585Y130.129
X-1.582Y130.168
X-1.577Y130.207
X-1.571Y130.246
X-1.565Y130.284
X-1.557Y130.322
X-1.549Y130.36
X-1.54Y130.398
X-1.529Y130.436
X-1.518Y130.473
X-1.506Y130.511
X-1.493Y130.547
X-1.479Y130.584
X-1.465Y130.62
X-1.449Y130.656
X-1.432Y130.691
X-1.415Y130.726
X-1.397Y130.76
X-1.378Y130.794
X-1.358Y130.828
X-1.337Y130.861
X-1.315Y130.894
X-1.293Y130.926
X-1.27Y130.957
X-1.246Y130.988
X-1.221Y131.018
X-1.196Y131.048
X-1.17Y131.077
X-1.143Y131.105
X-1.116Y131.133
X-1.087Y131.161
X-1.058Y131.187
X-1.029Y131.212
X-0.999Y131.237
X-0.969Y131.261
X-0.938Y131.284
X-0.907Y131.306
X-0.875Y131.328
X-0.842Y131.349
X-0.809Y131.369
X-0.776Y131.388
X-0.742Y131.407
X-0.707Y131.424
X-0.673Y131.441
X-0.637Y131.457
X-0.602Y131.472
X-0.566Y131.486
X-0.53Y131.499
X-0.493Y131.512
X-0.456Y131.523
X-0.419Y131.534
X-0.382Y131.544
X-0.344Y131.553
X-0.306Y131.561
X-0.268Y131.568
X-0.23Y131.574
X-0.192Y131.579
X-0.154Y131.583
X-0.115Y131.586
X-0.077Y131.589
X-0.038Y131.59
X0
X83.408
Y167.382
X83.409Y167.421
X83.41Y167.46
X83.413Y167.499
X83.416Y167.538
X83.42Y167.577
X83.426Y167.615
X83.432Y167.654
X83.439Y167.692
X83.447Y167.73
X83.456Y167.768
X83.466Y167.806
X83.477Y167.844
X83.489Y167.881
X83.501Y167.918
X83.515Y167.954
X83.53Y167.991
X83.545Y168.027
X83.561Y168.063
X83.579Y168.098
X83.597Y168.132
X83.615Y168.167
X83.635Y168.2
X83.655Y168.233
X83.677Y168.266
X83.699Y168.298
X83.722Y168.33
X83.745Y168.361
X83.77Y168.391
X83.795Y168.421
X83.821Y168.451
X83.847Y168.479
X83.874Y168.507
X96.492Y181.124
X96.52Y181.152
X96.548Y181.178
X96.577Y181.204
X96.607Y181.229
X96.638Y181.254
X96.669Y181.277
X96.7Y181.3
X96.733Y181.322
X96.765Y181.343
X96.799Y181.364
X96.832Y181.384
X96.866Y181.402
X96.901Y181.42
X96.936Y181.437
X96.972Y181.454
X97.008Y181.469
X97.044Y181.484
X97.081Y181.497
X97.118Y181.51
X97.155Y181.522
X97.193Y181.533
X97.23Y181.543
X97.268Y181.552
X97.307Y181.56
X97.345Y181.567
X97.383Y181.573
X97.422Y181.578
X97.461Y181.583
X97.5Y181.586
X97.539Y181.588
X97.578Y181.59
X97.617
X282.795
X282.834
X282.873Y181.588
X282.912Y181.586
X282.951Y181.583
X282.99Y181.578
X283.028Y181.573
X283.067Y181.567
X283.105Y181.56
X283.143Y181.552
X283.181Y181.543
X283.219Y181.533
X283.256Y181.522
X283.294Y181.51
X283.331Y181.497
X283.367Y181.484
X283.404Y181.469
X283.44Y181.454
X283.475Y181.437
X283.51Y181.42
X283.545Y181.402
X283.579Y181.384
X283.613Y181.364
X283.646Y181.343
X283.679Y181.322
X283.711Y181.3
X283.743Y181.277
X283.774Y181.254
X283.804Y181.229
X283.834Y181.204
X283.863Y181.178
X283.892Y181.152
X283.92Y181.125
X297.634Y167.41
X297.662Y167.382
X297.688Y167.353
X297.714Y167.324
X297.739Y167.294
X297.763Y167.264
X297.787Y167.233
X297.81Y167.201
X297.832Y167.169
X297.853Y167.136
X297.874Y167.103
X297.893Y167.069
X297.912Y167.035
X297.93Y167
X297.947Y166.965
X297.964Y166.93
X297.979Y166.893
X297.994Y166.857
X298.007Y166.821
X298.02Y166.784
X298.032Y166.746
X298.043Y166.709
X298.053Y166.671
X298.062Y166.633
X298.07Y166.595
X298.077Y166.557
X298.083Y166.518
X298.088Y166.48
X298.093Y166.441
X298.096Y166.402
X298.098Y166.363
X298.1Y166.324
Y166.285
Y127.673
Y127.634
X298.098Y127.595
X298.096Y127.556
X298.093Y127.517
X298.088Y127.478
X298.083Y127.44
X298.077Y127.401
X298.07Y127.363
X298.062Y127.325
X298.053Y127.287
X298.043Y127.249
X298.032Y127.212
X298.02Y127.174
X298.007Y127.137
X297.994Y127.101
X297.979Y127.064
X297.964Y127.028
X297.947Y126.993
X297.93Y126.957
X297.912Y126.923
X297.893Y126.889
X297.874Y126.855
X297.853Y126.822
X297.832Y126.789
X297.81Y126.757
X297.787Y126.725
X297.763Y126.694
X297.739Y126.664
X297.714Y126.634
X297.688Y126.605
X297.662Y126.576
X297.634Y126.548
X282.026Y110.939
G0Z1
X10.673Y15.068
G1Z-0.5F50
X10.934Y14.946F100
X11.212Y14.872
X11.5Y14.847
X11.787Y14.872
X12.065Y14.946
X12.326Y15.068
X12.562Y15.233
X12.766Y15.437
X12.931Y15.673
X13.053Y15.934
X13.127Y16.212
X13.152Y16.499
X13.127Y16.786
X13.053Y17.065
X12.931Y17.326
X12.766Y17.562
X12.562Y17.766
X12.326Y17.931
X12.065Y18.053
X11.787Y18.127
X11.5Y18.152
X11.212Y18.127
X10.934Y18.053
X10.673Y17.931
X10.437Y17.766
X10.233Y17.562
X10.068Y17.326
X9.946Y17.065
X9.872Y16.786
X9.847Y16.499
X9.872Y16.212
X9.946Y15.934
X10.068Y15.673
X10.233Y15.437
X10.437Y15.233
X10.673Y15.068
G0Z1
X11.5Y47.167
G1Z-0.5F50
X11.787Y47.192F100
X12.065Y47.266
X12.326Y47.388
X12.562Y47.553
X12.766Y47.757
X12.931Y47.993
X13.053Y48.254
X13.127Y48.532
X13.152Y48.819
X13.127Y49.106
X13.053Y49.385
X12.931Y49.646
X12.766Y49.882
X12.562Y50.086
X12.326Y50.251
X12.065Y50.373
X11.787Y50.447
X11.5Y50.472
X11.212Y50.447
X10.934Y50.373
X10.673Y50.251
X10.437Y50.086
X10.233Y49.882
X10.068Y49.646
X9.946Y49.385
X9.872Y49.106
X9.847Y48.819
X9.872Y48.532
X9.946Y48.254
X10.068Y47.993
X10.233Y47.757
X10.437Y47.553
X10.673Y47.388
X10.934Y47.266
X11.212Y47.192
X11.5Y47.167
G0Z1
Y79.487
G1Z-0.5F50
X11.786Y79.512F100
X12.065Y79.586
X12.326Y79.708
X12.562Y79.873
X12.766Y80.077
X12.931Y80.313
X13.053Y80.574
X13.127Y80.852
X13.152Y81.14
X13.127Y81.426
X13.053Y81.705
X12.931Y81.966
X12.766Y82.202
X12.562Y82.406
X12.326Y82.571
X12.065Y82.693
X11.787Y82.767
X11.5Y82.792
X11.212Y82.767
X10.934Y82.693
X10.673Y82.571
X10.436Y82.405
X10.233Y82.202
X10.068Y81.966
X9.946Y81.705
X9.872Y81.426
X9.847Y81.14
X9.872Y80.852
X9.946Y80.574
X10.068Y80.313
X10.233Y80.077
X10.437Y79.873
X10.673Y79.708
X10.934Y79.586
X11.212Y79.512
X11.5Y79.487
G0Z1
Y111.807
G1Z-0.5F50
X11.786Y111.832F100
X12.065Y111.906
X12.326Y112.028
X12.562Y112.193
X12.766Y112.397
X12.931Y112.633
X13.053Y112.894
X13.127Y113.172
X13.152Y113.459
X13.127Y113.747
X13.053Y114.025
X12.931Y114.286
X12.766Y114.522
X12.562Y114.726
X12.326Y114.891
X12.065Y115.013
X11.786Y115.087
X11.5Y115.112
X11.212Y115.087
X10.934Y115.013
X10.673Y114.891
X10.437Y114.726
X10.233Y114.522
X10.068Y114.286
X9.946Y114.025
X9.872Y113.747
X9.847Y113.459
X9.872Y113.172
X9.946Y112.894
X10.068Y112.633
X10.233Y112.397
X10.437Y112.193
X10.673Y112.028
X10.934Y111.906
X11.213Y111.832
X11.5Y111.807
G0Z1
X63.047Y113.459
G1Z-0.5F50
X63.072Y113.172F100
X63.146Y112.894
X63.268Y112.633
X63.433Y112.397
X63.637Y112.193
X63.873Y112.028
X64.134Y111.906
X64.413Y111.832
X64.699Y111.807
X64.986Y111.832
X65.265Y111.906
X65.526Y112.028
X65.762Y112.193
X65.966Y112.397
X66.131Y112.633
X66.253Y112.894
X66.327Y113.172
X66.352Y113.459
X66.327Y113.746
X66.253Y114.025
X66.131Y114.286
X65.966Y114.522
X65.762Y114.726
X65.526Y114.891
X65.265Y115.013
X64.986Y115.087
X64.699Y115.112
X64.412Y115.087
X64.134Y115.013
X63.873Y114.891
X63.637Y114.726
X63.433Y114.522
X63.268Y114.286
X63.146Y114.025
X63.072Y113.747
X63.047Y113.459
G0Z1
X64.699Y82.792
G1Z-0.5F50
X64.412Y82.767F100
X64.134Y82.693
X63.873Y82.571
X63.637Y82.406
X63.433Y82.202
X63.268Y81.966
X63.146Y81.705
X63.072Y81.426
X63.047Y81.14
X63.072Y80.852
X63.146Y80.574
X63.268Y80.313
X63.433Y80.077
X63.637Y79.873
X63.873Y79.708
X64.134Y79.586
X64.412Y79.512
X64.699Y79.487
X64.986Y79.512
X65.265Y79.586
X65.526Y79.708
X65.762Y79.873
X65.966Y80.077
X66.131Y80.313
X66.253Y80.574
X66.327Y80.852
X66.352Y81.14
X66.327Y81.426
X66.253Y81.705
X66.131Y81.966
X65.966Y82.202
X65.762Y82.406
X65.526Y82.571
X65.265Y82.693
X64.986Y82.767
X64.699Y82.792
G0Z1
X92.764Y88.882
G1Z-0.5F50
X92.787Y88.806F100
X92.824Y88.737
X92.874Y88.676
X92.934Y88.626
X93.004Y88.589
X93.079Y88.566
X93.157Y88.559
X93.236Y88.566
X93.311Y88.589
X93.38Y88.626
X93.441Y88.676
X93.491Y88.737
X93.528Y88.806
X93.551Y88.882
X93.559Y88.96
X93.551Y89.038
X93.528Y89.113
X93.491Y89.183
X93.441Y89.244
X93.38Y89.294
X93.311Y89.331
X93.236Y89.354
X93.157Y89.361
X93.079Y89.353
X93.004Y89.331
X92.934Y89.294
X92.874Y89.244
X92.824Y89.183
X92.787Y89.113
X92.764Y89.038
X92.756Y88.96
X92.764Y88.882
G0Z1
X101.803Y80.815
G1Z-0.5F50
X100.509Y79.239F100
X99.548Y77.44
X98.956Y75.489
X98.756Y73.46
X98.956Y71.431
X99.548Y69.479
X100.509Y67.681
X101.799Y66.11
X103.379Y64.811
X105.177Y63.85
X107.128Y63.258
X109.157Y63.059
X111.187Y63.258
X113.138Y63.85
X114.936Y64.812
X116.512Y66.105
X117.806Y67.681
X118.767Y69.479
X119.359Y71.431
X119.559Y73.46
X119.359Y75.489
X118.767Y77.44
X117.806Y79.239
X116.512Y80.815
X114.936Y82.108
X113.138Y83.069
X111.187Y83.661
X109.157Y83.861
X107.128Y83.661
X105.177Y83.069
X103.379Y82.108
X101.803Y80.815
G0Z1
X123.787Y88.806
G1Z-0.5F50
X123.824Y88.737F100
X123.874Y88.676
X123.934Y88.626
X124.004Y88.589
X124.079Y88.566
X124.157Y88.559
X124.236Y88.566
X124.311Y88.589
X124.38Y88.626
X124.441Y88.676
X124.491Y88.737
X124.528Y88.806
X124.551Y88.882
X124.559Y88.96
X124.551Y89.038
X124.528Y89.113
X124.491Y89.183
X124.441Y89.244
X124.38Y89.294
X124.311Y89.331
X124.236Y89.353
X124.157Y89.361
X124.079Y89.353
X124.004Y89.331
X123.934Y89.294
X123.874Y89.244
X123.824Y89.183
X123.787Y89.113
X123.764Y89.038
X123.756Y88.96
X123.764Y88.882
X123.787Y88.806
G0Z1
X124.157Y58.361
G1Z-0.5F50
X124.079Y58.353F100
X124.004Y58.331
X123.934Y58.294
X123.874Y58.244
X123.824Y58.183
X123.787Y58.113
X123.764Y58.038
X123.756Y57.96
X123.764Y57.882
X123.787Y57.806
X123.824Y57.737
X123.874Y57.676
X123.934Y57.626
X124.004Y57.589
X124.079Y57.566
X124.157Y57.559
X124.236Y57.566
X124.311Y57.589
X124.38Y57.626
X124.441Y57.676
X124.491Y57.737
X124.528Y57.806
X124.551Y57.882
X124.559Y57.96
X124.551Y58.038
X124.528Y58.113
X124.491Y58.183
X124.441Y58.244
X124.38Y58.294
X124.311Y58.331
X124.236Y58.353
X124.157Y58.361
G0Z1
X93.559Y57.96
G1Z-0.5F50
X93.551Y58.038F100
X93.528Y58.113
X93.491Y58.183
X93.441Y58.244
X93.38Y58.294
X93.311Y58.331
X93.236Y58.353
X93.157Y58.361
X93.079Y58.353
X93.004Y58.331
X92.934Y58.294
X92.874Y58.244
X92.824Y58.183
X92.787Y58.113
X92.764Y58.038
X92.756Y57.96
X92.764Y57.882
X92.787Y57.806
X92.824Y57.737
X92.874Y57.676
X92.934Y57.626
X93.004Y57.589
X93.079Y57.566
X93.157Y57.559
X93.236Y57.566
X93.311Y57.589
X93.38Y57.626
X93.441Y57.676
X93.491Y57.737
X93.528Y57.806
X93.551Y57.882
X93.559Y57.96
G0Z1
X66.253Y49.385
G1Z-0.5F50
X66.131Y49.646F100
X65.966Y49.882
X65.762Y50.086
X65.526Y50.251
X65.265Y50.373
X64.986Y50.447
X64.699Y50.472
X64.412Y50.447
X64.134Y50.373
X63.873Y50.251
X63.637Y50.086
X63.433Y49.882
X63.268Y49.646
X63.146Y49.385
X63.072Y49.106
X63.047Y48.819
X63.072Y48.532
X63.146Y48.254
X63.268Y47.993
X63.433Y47.757
X63.637Y47.553
X63.873Y47.388
X64.134Y47.266
X64.412Y47.192
X64.699Y47.167
X64.987Y47.192
X65.265Y47.266
X65.526Y47.388
X65.762Y47.553
X65.966Y47.757
X66.131Y47.993
X66.253Y48.254
X66.327Y48.532
X66.352Y48.819
X66.327Y49.106
X66.253Y49.385
G0Z1
X64.699Y18.152
G1Z-0.5F50
X64.412Y18.127F100
X64.134Y18.053
X63.873Y17.931
X63.637Y17.766
X63.433Y17.562
X63.268Y17.326
X63.146Y17.065
X63.072Y16.786
X63.047Y16.499
X63.072Y16.212
X63.146Y15.934
X63.268Y15.673
X63.433Y15.437
X63.637Y15.233
X63.873Y15.068
X64.134Y14.946
X64.412Y14.872
X64.699Y14.847
X64.986Y14.872
X65.265Y14.946
X65.526Y15.068
X65.762Y15.233
X65.966Y15.437
X66.131Y15.673
X66.253Y15.934
X66.327Y16.212
X66.352Y16.499
X66.327Y16.786
X66.253Y17.065
X66.131Y17.326
X65.966Y17.562
X65.762Y17.766
X65.526Y17.931
X65.265Y18.053
X64.987Y18.127
X64.699Y18.152
G0Z1
X104.141Y119.151
G1Z-0.5F50
X104.293Y119.11F100
X104.449Y119.097
X104.606Y119.11
X104.758Y119.151
X104.901Y119.218
X105.03Y119.308
X105.141Y119.419
X105.231Y119.548
X105.298Y119.691
X105.339Y119.843
X105.352Y119.999
X105.339Y120.156
X105.298Y120.308
X105.231Y120.451
X105.141Y120.58
X105.03Y120.691
X104.901Y120.781
X104.758Y120.848
X104.606Y120.889
X104.449Y120.902
X104.293Y120.889
X104.14Y120.848
X103.998Y120.781
X103.869Y120.691
X103.758Y120.58
X103.667Y120.451
X103.601Y120.308
X103.56Y120.156
X103.546Y119.999
X103.56Y119.843
X103.601Y119.691
X103.667Y119.548
X103.758Y119.419
X103.869Y119.308
X103.998Y119.217
X104.141Y119.151
G0Z1
X150.396Y119.999
G1Z-0.5F50
X150.41Y119.843F100
X150.451Y119.691
X150.517Y119.548
X150.608Y119.419
X150.719Y119.308
X150.848Y119.217
X150.991Y119.151
X151.143Y119.11
X151.299Y119.097
X151.456Y119.11
X151.608Y119.151
X151.751Y119.218
X151.88Y119.308
X151.991Y119.419
X152.081Y119.548
X152.148Y119.691
X152.189Y119.843
X152.202Y119.999
X152.189Y120.156
X152.148Y120.308
X152.081Y120.451
X151.991Y120.58
X151.88Y120.691
X151.751Y120.781
X151.608Y120.848
X151.456Y120.889
X151.299Y120.902
X151.143Y120.889
X150.99Y120.848
X150.848Y120.781
X150.719Y120.691
X150.608Y120.58
X150.517Y120.451
X150.451Y120.308
X150.41Y120.156
X150.396Y119.999
G0Z1
X181.906
G1Z-0.5F50
X181.92Y119.843F100
X181.961Y119.691
X182.027Y119.548
X182.118Y119.419
X182.229Y119.308
X182.358Y119.217
X182.501Y119.151
X182.653Y119.11
X182.809Y119.097
X182.966Y119.11
X183.118Y119.151
X183.261Y119.217
X183.39Y119.308
X183.501Y119.419
X183.591Y119.548
X183.658Y119.691
X183.699Y119.843
X183.712Y119.999
X183.699Y120.156
X183.658Y120.308
X183.591Y120.451
X183.501Y120.58
X183.39Y120.691
X183.261Y120.781
X183.118Y120.848
X182.966Y120.889
X182.809Y120.902
X182.653Y120.889
X182.5Y120.848
X182.358Y120.781
X182.229Y120.691
X182.118Y120.58
X182.027Y120.451
X181.961Y120.308
X181.92Y120.156
X181.906Y119.999
G0Z1
X197.948Y129.548
G1Z-0.5F50
X198.038Y129.419F100
X198.149Y129.308
X198.278Y129.217
X198.421Y129.151
X198.573Y129.11
X198.73Y129.097
X198.887Y129.11
X199.039Y129.151
X199.181Y129.217
X199.31Y129.308
X199.421Y129.419
X199.512Y129.548
X199.578Y129.691
X199.619Y129.843
X199.633Y129.999
X199.619Y130.156
X199.578Y130.308
X199.512Y130.451
X199.422Y130.58
X199.31Y130.691
X199.181Y130.781
X199.039Y130.848
X198.887Y130.889
X198.73Y130.902
X198.573Y130.889
X198.421Y130.848
X198.278Y130.781
X198.149Y130.691
X198.038Y130.58
X197.948Y130.451
X197.881Y130.308
X197.841Y130.156
X197.827Y129.999
X197.841Y129.843
X197.881Y129.691
X197.948Y129.548
G0Z1
X212.827Y129.999
G1Z-0.5F50
X212.841Y129.843F100
X212.881Y129.691
X212.948Y129.548
X213.038Y129.419
X213.149Y129.308
X213.278Y129.217
X213.421Y129.151
X213.573Y129.11
X213.73Y129.097
X213.887Y129.11
X214.039Y129.151
X214.181Y129.217
X214.31Y129.308
X214.421Y129.419
X214.512Y129.548
X214.578Y129.691
X214.619Y129.843
X214.633Y129.999
X214.619Y130.156
X214.578Y130.308
X214.512Y130.451
X214.422Y130.58
X214.31Y130.691
X214.181Y130.781
X214.039Y130.848
X213.887Y130.889
X213.73Y130.902
X213.573Y130.889
X213.421Y130.848
X213.278Y130.781
X213.149Y130.691
X213.038Y130.58
X212.948Y130.451
X212.881Y130.308
X212.841Y130.156
X212.827Y129.999
G0Z1
X228.877Y120.451
G1Z-0.5F50
X228.811Y120.308F100
X228.77Y120.156
X228.756Y119.999
X228.77Y119.842
X228.811Y119.691
X228.877Y119.548
X228.968Y119.419
X229.079Y119.308
X229.208Y119.217
X229.351Y119.151
X229.503Y119.11
X229.659Y119.097
X229.816Y119.11
X229.968Y119.151
X230.111Y119.217
X230.24Y119.308
X230.351Y119.419
X230.441Y119.548
X230.508Y119.691
X230.549Y119.843
X230.562Y119.999
X230.549Y120.156
X230.508Y120.308
X230.441Y120.451
X230.352Y120.578
X230.239Y120.692
X230.111Y120.781
X229.968Y120.848
X229.816Y120.889
X229.659Y120.902
X229.503Y120.889
X229.35Y120.848
X229.208Y120.781
X229.079Y120.691
X228.968Y120.58
X228.877Y120.451
G0Z1
X214.039Y159.151
G1Z-0.5F50
X214.181Y159.217F100
X214.31Y159.308
X214.421Y159.419
X214.512Y159.548
X214.578Y159.691
X214.619Y159.843
X214.633Y159.999
X214.619Y160.156
X214.578Y160.308
X214.512Y160.451
X214.421Y160.58
X214.31Y160.691
X214.181Y160.781
X214.039Y160.848
X213.887Y160.889
X213.73Y160.902
X213.573Y160.889
X213.421Y160.848
X213.278Y160.781
X213.149Y160.691
X213.038Y160.58
X212.948Y160.451
X212.881Y160.308
X212.841Y160.156
X212.827Y159.999
X212.841Y159.842
X212.881Y159.69
X212.948Y159.548
X213.038Y159.419
X213.149Y159.308
X213.278Y159.217
X213.421Y159.151
X213.573Y159.11
X213.73Y159.096
X213.887Y159.11
X214.039Y159.151
G0Z1
X199.633Y159.999
G1Z-0.5F50
X199.619Y160.156F100
X199.578Y160.308
X199.512Y160.451
X199.421Y160.58
X199.31Y160.691
X199.181Y160.781
X199.039Y160.848
X198.887Y160.889
X198.73Y160.902
X198.573Y160.889
X198.421Y160.848
X198.278Y160.781
X198.149Y160.691
X198.038Y160.58
X197.948Y160.451
X197.881Y160.308
X197.841Y160.156
X197.827Y159.999
X197.841Y159.842
X197.881Y159.69
X197.948Y159.548
X198.038Y159.419
X198.149Y159.308
