(Created with grbl post processor 2024/11/14 13:24)
G21
(G-code generated with BlenderCAM and NC library)
G17G90
(Tool: D = 3.18 mm  type END flutes 2)
S1000M03
G00 Z1.0

G0X0Y0Z1
X53.764Y39.725
G1Z-0.1F5
X53.795Y39.687F10
X53.833Y39.656
X53.877Y39.633
X53.918Y39.62
X53.977Y39.614
X54.022Y39.618
X54.069Y39.633
X54.112Y39.656
X54.15Y39.687
X54.182Y39.725
X54.205Y39.769
X54.219Y39.816
X54.224Y39.865
X54.219Y39.914
X54.205Y39.961
X54.182Y40.004
X54.15Y40.043
X54.112Y40.074
X54.069Y40.097
X54.022Y40.111
X53.973Y40.116
X53.924Y40.111
X53.877Y40.097
X53.833Y40.074
X53.795Y40.043
X53.764Y40.004
X53.741Y39.961
X53.727Y39.915
X53.721Y39.865
X53.726Y39.816
X53.741Y39.769
X53.764Y39.725
G0Z1
X62.446Y33.961
G1Z-0.1F5
X62.375Y33.817F10
X62.345Y33.687
Y33.543
X62.377Y33.404
X62.435Y33.284
X62.524Y33.169
X62.597Y33.104
X62.659Y33.064
X62.662Y33.062
X62.775Y33.018
X62.929Y32.993
X63.077Y33.001
X63.206Y33.039
X63.332Y33.11
X63.437Y33.206
X63.515Y33.319
X63.569Y33.447
X63.585Y33.525
X63.589Y33.578
X63.57Y33.744
X63.513Y33.9
X63.428Y34.026
X63.33Y34.116
X63.204Y34.187
X63.068Y34.227
X62.932Y34.236
X62.787Y34.215
X62.699Y34.186
X62.649Y34.16
X62.619Y34.141
X62.537Y34.075
X62.446Y33.961
G0Z1
X71.74Y39.725
G1Z-0.1F5
X71.772Y39.687F10
X71.81Y39.656
X71.853Y39.633
X71.9Y39.618
X71.949Y39.614
X71.998Y39.618
X72.046Y39.633
X72.089Y39.656
X72.127Y39.687
X72.158Y39.725
X72.182Y39.769
X72.196Y39.816
X72.201Y39.865
X72.196Y39.914
X72.182Y39.961
X72.158Y40.004
X72.127Y40.043
X72.089Y40.074
X72.046Y40.097
X71.998Y40.111
X71.949Y40.116
X71.9Y40.111
X71.853Y40.097
X71.81Y40.074
X71.772Y40.043
X71.74Y40.004
X71.717Y39.961
X71.703Y39.914
X71.698Y39.865
X71.703Y39.816
X71.717Y39.769
X71.74Y39.725
G0Z1
X82.305Y46.956
G1Z-0.1F5
X87.964F10
X88Y46.955
X88.037Y46.954
X88.074Y46.952
X88.111Y46.949
X88.147Y46.945
X88.183Y46.941
X88.443Y46.904
X88.484Y46.898
X88.525Y46.891
X88.566Y46.882
X88.606Y46.873
X88.647Y46.862
X88.687Y46.851
X88.726Y46.838
X88.766Y46.824
X89.006Y46.737
X89.04Y46.724
X89.074Y46.711
X89.107Y46.697
X89.139Y46.682
X89.172Y46.666
X89.204Y46.65
X89.236Y46.632
X89.267Y46.615
X89.298Y46.596
X89.329Y46.577
X89.512Y46.458
X89.542Y46.438
X89.571Y46.418
X89.6Y46.397
X89.629Y46.375
X89.657Y46.352
X89.684Y46.329
X89.711Y46.306
X89.737Y46.281
X89.763Y46.257
X89.788Y46.231
X89.912Y46.104
X89.936Y46.078
X89.96Y46.052
X89.983Y46.025
X90.006Y45.998
X90.028Y45.97
X90.05Y45.942
X90.07Y45.913
X90.091Y45.884
X90.11Y45.854
X90.129Y45.824
X90.228Y45.662
X90.247Y45.63
X90.265Y45.598
X90.282Y45.565
X90.299Y45.532
X90.315Y45.499
X90.33Y45.465
X90.344Y45.431
X90.358Y45.396
X90.371Y45.362
X90.383Y45.327
X90.451Y45.116
X90.464Y45.074
X90.476Y45.032
X90.487Y44.989
X90.497Y44.946
X90.505Y44.903
X90.512Y44.859
X90.531Y44.737
X90.536Y44.697
X90.541Y44.657
X90.544Y44.616
X90.547Y44.576
X90.553Y44.441
X90.554Y44.403
X90.555Y44.365
Y28.865
X90.554Y28.822
X90.552Y28.779
X90.55Y28.736
X90.546Y28.694
X90.515Y28.412
X90.511Y28.375
X90.505Y28.338
X90.499Y28.301
X90.492Y28.265
X90.484Y28.228
X90.476Y28.192
X90.466Y28.157
X90.456Y28.121
X90.445Y28.086
X90.433Y28.05
X90.36Y27.847
X90.348Y27.814
X90.335Y27.781
X90.321Y27.748
X90.307Y27.716
X90.292Y27.684
X90.276Y27.652
X90.259Y27.621
X90.242Y27.59
X90.224Y27.559
X90.206Y27.529
X90.113Y27.382
X90.091Y27.349
X90.068Y27.316
X90.045Y27.283
X90.02Y27.251
X89.995Y27.22
X89.969Y27.189
X89.942Y27.159
X89.915Y27.13
X89.803Y27.014
X89.778Y26.989
X89.753Y26.964
X89.727Y26.939
X89.7Y26.915
X89.672Y26.892
X89.645Y26.87
X89.616Y26.848
X89.588Y26.827
X89.465Y26.738
X89.437Y26.719
X89.409Y26.699
X89.38Y26.681
X89.35Y26.663
X89.321Y26.646
X89.291Y26.629
X89.26Y26.613
X89.23Y26.598
X89.061Y26.516
X89.025Y26.499
X88.988Y26.482
X88.951Y26.467
X88.913Y26.453
X88.875Y26.439
X88.836Y26.427
X88.798Y26.415
X88.759Y26.405
X88.478Y26.333
X88.435Y26.323
X88.392Y26.314
X88.349Y26.306
X88.306Y26.299
X88.263Y26.294
X88.219Y26.29
X88.098Y26.279
X88.064Y26.277
X88.031Y26.275
X87.997Y26.274
X87.964
X82.305
Y24.865
X82.304Y24.83
X82.303Y24.795
X82.301Y24.76
X82.299Y24.725
X82.295Y24.685
X82.29Y24.645
X82.283Y24.605
X82.276Y24.566
X82.268Y24.526
X82.259Y24.487
X82.249Y24.448
X82.239Y24.412
X82.228Y24.377
X82.216Y24.342
X82.195Y24.284
X82.175Y24.236
X82.167Y24.217
X82.151Y24.182
X82.134Y24.148
X82.116Y24.114
X82.098Y24.08
X82.078Y24.047
X82.058Y24.014
X82.037Y23.982
X82.016Y23.95
X81.993Y23.919
X81.97Y23.889
X81.946Y23.859
X81.922Y23.829
X81.896Y23.801
X81.87Y23.772
X81.844Y23.745
X81.816Y23.718
X81.788Y23.692
X81.76Y23.666
X81.731Y23.641
X81.701Y23.617
X81.67Y23.594
X81.639Y23.571
X81.608Y23.549
X81.575Y23.527
X81.542Y23.506
X81.507Y23.486
X81.473Y23.467
X81.438Y23.448
X81.403Y23.431
X81.367Y23.414
X81.33Y23.398
X81.294Y23.383
X81.257Y23.369
X81.219Y23.356
X81.182Y23.344
X81.144Y23.333
X81.105Y23.323
X81.067Y23.314
X81.028Y23.305
X80.989Y23.298
X80.95Y23.292
X80.911Y23.286
X80.872Y23.282
X80.832Y23.278
X80.793Y23.276
X80.753Y23.274
X80.714
X45.214
X45.174
X45.134Y23.276
X45.095Y23.278
X45.055Y23.282
X45.015Y23.286
X44.976Y23.292
X44.937Y23.298
X44.898Y23.306
X44.859Y23.314
X44.82Y23.323
X44.782Y23.334
X44.744Y23.345
X44.706Y23.357
X44.668Y23.37
X44.631Y23.384
X44.594Y23.399
X44.558Y23.415
X44.522Y23.432
X44.486Y23.45
X44.451Y23.469
X44.417Y23.488
X44.382Y23.508
X44.348Y23.53
X44.316Y23.552
X44.284Y23.574
X44.253Y23.596
X44.223Y23.62
X44.193Y23.644
X44.164Y23.669
X44.136Y23.695
X44.108Y23.721
X44.08Y23.748
X44.054Y23.776
X44.028Y23.804
X44.003Y23.833
X43.978Y23.863
X43.954Y23.893
X43.931Y23.924
X43.909Y23.955
X43.887Y23.987
X43.866Y24.019
X43.846Y24.052
X43.827Y24.085
X43.809Y24.119
X43.791Y24.153
X43.774Y24.187
X43.752Y24.236
X43.732Y24.286
X43.724Y24.307
X43.711Y24.342
X43.7Y24.376
X43.689Y24.411
X43.679Y24.447
X43.669Y24.486
X43.66Y24.525
X43.651Y24.564
X43.644Y24.604
X43.638Y24.644
X43.633Y24.684
X43.629Y24.724
X43.626Y24.759
X43.624Y24.794
X43.623Y24.83
Y24.865
Y26.274
X37.964
X37.926
X37.889Y26.276
X37.851Y26.278
X37.813Y26.281
X37.776Y26.285
X37.739Y26.29
X37.48Y26.327
X37.439Y26.333
X37.398Y26.341
X37.357Y26.349
X37.317Y26.359
X37.277Y26.369
X37.237Y26.381
X37.198Y26.394
X37.158Y26.407
X36.918Y26.495
X36.884Y26.508
X36.851Y26.522
X36.818Y26.536
X36.786Y26.551
X36.753Y26.566
X36.721Y26.583
X36.69Y26.6
X36.659Y26.618
X36.628Y26.636
X36.598Y26.655
X36.414Y26.774
X36.384Y26.794
X36.355Y26.814
X36.326Y26.835
X36.298Y26.857
X36.27Y26.88
X36.243Y26.902
X36.216Y26.926
X36.19Y26.95
X36.164Y26.975
X36.139Y27
X36.016Y27.127
X35.991Y27.153
X35.968Y27.179
X35.944Y27.206
X35.922Y27.233
X35.9Y27.261
X35.878Y27.289
X35.858Y27.317
X35.838Y27.347
X35.818Y27.376
X35.799Y27.406
X35.7Y27.568
X35.68Y27.602
X35.661Y27.635
X35.643Y27.67
X35.626Y27.705
X35.609Y27.74
X35.593Y27.775
X35.57Y27.833
X35.545Y27.903
X35.477Y28.113
X35.463Y28.155
X35.452Y28.198
X35.441Y28.241
X35.431Y28.284
X35.423Y28.327
X35.416Y28.37
X35.397Y28.492
X35.392Y28.533
X35.387Y28.573
X35.383Y28.614
X35.381Y28.654
X35.375Y28.789
X35.373Y28.827
Y28.865
Y44.365
Y44.397
X35.374Y44.43
X35.376Y44.463
X35.378Y44.495
X35.401Y44.776
X35.405Y44.814
X35.409Y44.851
X35.415Y44.888
X35.421Y44.926
X35.428Y44.963
X35.436Y45
X35.445Y45.036
X35.454Y45.073
X35.465Y45.109
X35.476Y45.145
X35.543Y45.348
X35.555Y45.382
X35.568Y45.416
X35.581Y45.45
X35.595Y45.483
X35.61Y45.517
X35.626Y45.55
X35.642Y45.582
X35.659Y45.614
X35.677Y45.646
X35.696Y45.677
X35.785Y45.823
X35.807Y45.858
X35.83Y45.892
X35.853Y45.926
X35.878Y45.96
X35.904Y45.992
X35.93Y46.024
X35.957Y46.055
X35.985Y46.086
X36.094Y46.201
X36.12Y46.228
X36.146Y46.254
X36.172Y46.279
X36.2Y46.303
X36.228Y46.327
X36.256Y46.351
X36.285Y46.373
X36.314Y46.395
X36.436Y46.484
X36.469Y46.508
X36.503Y46.531
X36.538Y46.553
X36.573Y46.574
X36.609Y46.594
X36.645Y46.613
X36.772Y46.679
X36.806Y46.695
X36.84Y46.712
X36.875Y46.727
X36.91Y46.741
X36.945Y46.755
X36.981Y46.768
X37.145Y46.825
X37.183Y46.837
X37.222Y46.849
X37.261Y46.86
X37.3Y46.87
X37.339Y46.878
X37.379Y46.886
X37.591Y46.925
X37.639Y46.933
X37.687Y46.939
X37.735Y46.944
X37.783Y46.948
X37.87Y46.953
X37.917Y46.955
X37.964Y46.956
X43.623
Y48.365
Y48.413
X43.626Y48.462
X43.629Y48.51
X43.635Y48.558
X43.641Y48.606
X43.649Y48.654
X43.656Y48.686
X43.663Y48.718
X43.679Y48.784
X43.689Y48.819
X43.699Y48.853
X43.711Y48.887
X43.723Y48.921
X43.736Y48.955
X43.75Y48.989
X43.765Y49.022
X43.78Y49.055
X43.796Y49.086
X43.812Y49.117
X43.829Y49.148
X43.846Y49.178
X43.864Y49.208
X43.883Y49.237
X43.902Y49.266
X43.932Y49.308
X43.968Y49.354
X43.999Y49.392
X44.01Y49.405
X44.035Y49.434
X44.061Y49.462
X44.088Y49.489
X44.115Y49.516
X44.143Y49.542
X44.172Y49.567
X44.201Y49.592
X44.231Y49.616
X44.261Y49.639
X44.292Y49.661
X44.323Y49.683
X44.355Y49.704
X44.387Y49.724
X44.42Y49.744
X44.453Y49.762
X44.487Y49.78
X44.521Y49.797
X44.557Y49.814
X44.593Y49.83
X44.63Y49.845
X44.667Y49.859
X44.705Y49.872
X44.743Y49.884
X44.781Y49.896
X44.819Y49.906
X44.858Y49.916
X44.897Y49.924
X44.936Y49.931
X44.976Y49.938
X45.015Y49.943
X45.055Y49.948
X45.094Y49.951
X45.134Y49.954
X45.174Y49.955
X45.214Y49.956
X80.714
X80.753Y49.955
X80.793Y49.954
X80.833Y49.951
X80.872Y49.948
X80.911Y49.943
X80.951Y49.938
X80.99Y49.932
X81.029Y49.924
X81.068Y49.916
X81.106Y49.907
X81.144Y49.896
X81.182Y49.885
X81.22Y49.873
X81.258Y49.86
X81.295Y49.846
X81.331Y49.831
X81.368Y49.815
X81.403Y49.799
X81.437Y49.782
X81.471Y49.764
X81.504Y49.746
X81.537Y49.726
X81.569Y49.706
X81.601Y49.685
X81.632Y49.664
X81.663Y49.642
X81.693Y49.618
X81.723Y49.595
X81.752Y49.57
X81.781Y49.545
X81.809Y49.519
X81.836Y49.493
X81.863Y49.465
X81.889Y49.438
X81.914Y49.409
X81.939Y49.38
X81.975Y49.335
X81.998Y49.305
X82.019Y49.274
X82.041Y49.243
X82.061Y49.211
X82.081Y49.179
X82.1Y49.146
X82.118Y49.113
X82.135Y49.08
X82.151Y49.047
X82.167Y49.013
X82.182Y48.979
X82.196Y48.944
X82.209Y48.909
X82.221Y48.874
X82.232Y48.839
X82.243Y48.803
X82.253Y48.767
X82.262Y48.731
X82.27Y48.695
X82.277Y48.659
X82.284Y48.622
X82.289Y48.585
X82.294Y48.549
X82.298Y48.512
X82.301Y48.475
X82.303Y48.438
X82.304Y48.402
X82.305Y48.365
Y46.956
G0Z1
X53.764Y39.725
G1Z-0.2F5
X53.795Y39.687F10
X53.833Y39.656
X53.877Y39.633
X53.918Y39.62
X53.977Y39.614
X54.022Y39.618
X54.069Y39.633
X54.112Y39.656
X54.15Y39.687
X54.182Y39.725
X54.205Y39.769
X54.219Y39.816
X54.224Y39.865
X54.219Y39.914
X54.205Y39.961
X54.182Y40.004
X54.15Y40.043
X54.112Y40.074
X54.069Y40.097
X54.022Y40.111
X53.973Y40.116
X53.924Y40.111
X53.877Y40.097
X53.833Y40.074
X53.795Y40.043
X53.764Y40.004
X53.741Y39.961
X53.727Y39.915
X53.721Y39.865
X53.726Y39.816
X53.741Y39.769
X53.764Y39.725
G0Z1
X62.446Y33.961
G1Z-0.2F5
X62.375Y33.817F10
X62.345Y33.687
Y33.543
X62.377Y33.404
X62.435Y33.284
X62.524Y33.169
X62.597Y33.104
X62.659Y33.064
X62.662Y33.062
X62.775Y33.018
X62.929Y32.993
X63.077Y33.001
X63.206Y33.039
X63.332Y33.11
X63.437Y33.206
X63.515Y33.319
X63.569Y33.447
X63.585Y33.525
X63.589Y33.578
X63.57Y33.744
X63.513Y33.9
X63.428Y34.026
X63.33Y34.116
X63.204Y34.187
X63.068Y34.227
X62.932Y34.236
X62.787Y34.215
X62.699Y34.186
X62.649Y34.16
X62.619Y34.141
X62.537Y34.075
X62.446Y33.961
G0Z1
X71.74Y39.725
G1Z-0.2F5
X71.772Y39.687F10
X71.81Y39.656
X71.853Y39.633
X71.9Y39.618
X71.949Y39.614
X71.998Y39.618
X72.046Y39.633
X72.089Y39.656
X72.127Y39.687
X72.158Y39.725
X72.182Y39.769
X72.196Y39.816
X72.201Y39.865
X72.196Y39.914
X72.182Y39.961
X72.158Y40.004
X72.127Y40.043
X72.089Y40.074
X72.046Y40.097
X71.998Y40.111
X71.949Y40.116
X71.9Y40.111
X71.853Y40.097
X71.81Y40.074
X71.772Y40.043
X71.74Y40.004
X71.717Y39.961
X71.703Y39.914
X71.698Y39.865
X71.703Y39.816
X71.717Y39.769
X71.74Y39.725
G0Z1
X82.305Y46.956
G1Z-0.2F5
X87.964F10
X88Y46.955
X88.037Y46.954
X88.074Y46.952
X88.111Y46.949
X88.147Y46.945
X88.183Y46.941
X88.443Y46.904
X88.484Y46.898
X88.525Y46.891
X88.566Y46.882
X88.606Y46.873
X88.647Y46.862
X88.687Y46.851
X88.726Y46.838
X88.766Y46.824
X89.006Y46.737
X89.04Y46.724
X89.074Y46.711
X89.107Y46.697
X89.139Y46.682
X89.172Y46.666
X89.204Y46.65
X89.236Y46.632
X89.267Y46.615
X89.298Y46.596
X89.329Y46.577
X89.512Y46.458
X89.542Y46.438
X89.571Y46.418
X89.6Y46.397
X89.629Y46.375
X89.657Y46.352
X89.684Y46.329
X89.711Y46.306
X89.737Y46.281
X89.763Y46.257
X89.788Y46.231
X89.912Y46.104
X89.936Y46.078
X89.96Y46.052
X89.983Y46.025
X90.006Y45.998
X90.028Y45.97
X90.05Y45.942
X90.07Y45.913
X90.091Y45.884
X90.11Y45.854
X90.129Y45.824
X90.228Y45.662
X90.247Y45.63
X90.265Y45.598
X90.282Y45.565
X90.299Y45.532
X90.315Y45.499
X90.33Y45.465
X90.344Y45.431
X90.358Y45.396
X90.371Y45.362
X90.383Y45.327
X90.451Y45.116
X90.464Y45.074
X90.476Y45.032
X90.487Y44.989
X90.497Y44.946
X90.505Y44.903
X90.512Y44.859
X90.531Y44.737
X90.536Y44.697
X90.541Y44.657
X90.544Y44.616
X90.547Y44.576
X90.553Y44.441
X90.554Y44.403
X90.555Y44.365
Y28.865
X90.554Y28.822
X90.552Y28.779
X90.55Y28.736
X90.546Y28.694
X90.515Y28.412
X90.511Y28.375
X90.505Y28.338
X90.499Y28.301
X90.492Y28.265
X90.484Y28.228
X90.476Y28.192
X90.466Y28.157
X90.456Y28.121
X90.445Y28.086
X90.433Y28.05
X90.36Y27.847
X90.348Y27.814
X90.335Y27.781
X90.321Y27.748
X90.307Y27.716
X90.292Y27.684
X90.276Y27.652
X90.259Y27.621
X90.242Y27.59
X90.224Y27.559
X90.206Y27.529
X90.113Y27.382
X90.091Y27.349
X90.068Y27.316
X90.045Y27.283
X90.02Y27.251
X89.995Y27.22
X89.969Y27.189
X89.942Y27.159
X89.915Y27.13
X89.803Y27.014
X89.778Y26.989
X89.753Y26.964
X89.727Y26.939
X89.7Y26.915
X89.672Y26.892
X89.645Y26.87
X89.616Y26.848
X89.588Y26.827
X89.465Y26.738
X89.437Y26.719
X89.409Y26.699
X89.38Y26.681
X89.35Y26.663
X89.321Y26.646
X89.291Y26.629
X89.26Y26.613
X89.23Y26.598
X89.061Y26.516
X89.025Y26.499
X88.988Y26.482
X88.951Y26.467
X88.913Y26.453
X88.875Y26.439
X88.836Y26.427
X88.798Y26.415
X88.759Y26.405
X88.478Y26.333
X88.435Y26.323
X88.392Y26.314
X88.349Y26.306
X88.306Y26.299
X88.263Y26.294
X88.219Y26.29
X88.098Y26.279
X88.064Y26.277
X88.031Y26.275
X87.997Y26.274
X87.964
X82.305
Y24.865
X82.304Y24.83
X82.303Y24.795
X82.301Y24.76
X82.299Y24.725
X82.295Y24.685
X82.29Y24.645
X82.283Y24.605
X82.276Y24.566
X82.268Y24.526
X82.259Y24.487
X82.249Y24.448
X82.239Y24.412
X82.228Y24.377
X82.216Y24.342
X82.195Y24.284
X82.175Y24.236
X82.167Y24.217
X82.151Y24.182
X82.134Y24.148
X82.116Y24.114
X82.098Y24.08
X82.078Y24.047
X82.058Y24.014
X82.037Y23.982
X82.016Y23.95
X81.993Y23.919
X81.97Y23.889
X81.946Y23.859
X81.922Y23.829
X81.896Y23.801
X81.87Y23.772
X81.844Y23.745
X81.816Y23.718
X81.788Y23.692
X81.76Y23.666
X81.731Y23.641
X81.701Y23.617
X81.67Y23.594
X81.639Y23.571
X81.608Y23.549
X81.575Y23.527
X81.542Y23.506
X81.507Y23.486
X81.473Y23.467
X81.438Y23.448
X81.403Y23.431
X81.367Y23.414
X81.33Y23.398
X81.294Y23.383
X81.257Y23.369
X81.219Y23.356
X81.182Y23.344
X81.144Y23.333
X81.105Y23.323
X81.067Y23.314
X81.028Y23.305
X80.989Y23.298
X80.95Y23.292
X80.911Y23.286
X80.872Y23.282
X80.832Y23.278
X80.793Y23.276
X80.753Y23.274
X80.714
X45.214
X45.174
X45.134Y23.276
X45.095Y23.278
X45.055Y23.282
X45.015Y23.286
X44.976Y23.292
X44.937Y23.298
X44.898Y23.306
X44.859Y23.314
X44.82Y23.323
X44.782Y23.334
X44.744Y23.345
X44.706Y23.357
X44.668Y23.37
X44.631Y23.384
X44.594Y23.399
X44.558Y23.415
X44.522Y23.432
X44.486Y23.45
X44.451Y23.469
X44.417Y23.488
X44.382Y23.508
X44.348Y23.53
X44.316Y23.552
X44.284Y23.574
X44.253Y23.596
X44.223Y23.62
X44.193Y23.644
X44.164Y23.669
X44.136Y23.695
X44.108Y23.721
X44.08Y23.748
X44.054Y23.776
X44.028Y23.804
X44.003Y23.833
X43.978Y23.863
X43.954Y23.893
X43.931Y23.924
X43.909Y23.955
X43.887Y23.987
X43.866Y24.019
X43.846Y24.052
X43.827Y24.085
X43.809Y24.119
X43.791Y24.153
X43.774Y24.187
X43.752Y24.236
X43.732Y24.286
X43.724Y24.307
X43.711Y24.342
X43.7Y24.376
X43.689Y24.411
X43.679Y24.447
X43.669Y24.486
X43.66Y24.525
X43.651Y24.564
X43.644Y24.604
X43.638Y24.644
X43.633Y24.684
X43.629Y24.724
X43.626Y24.759
X43.624Y24.794
X43.623Y24.83
Y24.865
Y26.274
X37.964
X37.926
X37.889Y26.276
X37.851Y26.278
X37.813Y26.281
X37.776Y26.285
X37.739Y26.29
X37.48Y26.327
X37.439Y26.333
X37.398Y26.341
X37.357Y26.349
X37.317Y26.359
X37.277Y26.369
X37.237Y26.381
X37.198Y26.394
X37.158Y26.407
X36.918Y26.495
X36.884Y26.508
X36.851Y26.522
X36.818Y26.536
X36.786Y26.551
X36.753Y26.566
X36.721Y26.583
X36.69Y26.6
X36.659Y26.618
X36.628Y26.636
X36.598Y26.655
X36.414Y26.774
X36.384Y26.794
X36.355Y26.814
X36.326Y26.835
X36.298Y26.857
X36.27Y26.88
X36.243Y26.902
X36.216Y26.926
X36.19Y26.95
X36.164Y26.975
X36.139Y27
X36.016Y27.127
X35.991Y27.153
X35.968Y27.179
X35.944Y27.206
X35.922Y27.233
X35.9Y27.261
X35.878Y27.289
X35.858Y27.317
X35.838Y27.347
X35.818Y27.376
X35.799Y27.406
X35.7Y27.568
X35.68Y27.602
X35.661Y27.635
X35.643Y27.67
X35.626Y27.705
X35.609Y27.74
X35.593Y27.775
X35.57Y27.833
X35.545Y27.903
X35.477Y28.113
X35.463Y28.155
X35.452Y28.198
X35.441Y28.241
X35.431Y28.284
X35.423Y28.327
X35.416Y28.37
X35.397Y28.492
X35.392Y28.533
X35.387Y28.573
X35.383Y28.614
X35.381Y28.654
X35.375Y28.789
X35.373Y28.827
Y28.865
Y44.365
Y44.397
X35.374Y44.43
X35.376Y44.463
X35.378Y44.495
X35.401Y44.776
X35.405Y44.814
X35.409Y44.851
X35.415Y44.888
X35.421Y44.926
X35.428Y44.963
X35.436Y45
X35.445Y45.036
X35.454Y45.073
X35.465Y45.109
X35.476Y45.145
X35.543Y45.348
X35.555Y45.382
X35.568Y45.416
X35.581Y45.45
X35.595Y45.483
X35.61Y45.517
X35.626Y45.55
X35.642Y45.582
X35.659Y45.614
X35.677Y45.646
X35.696Y45.677
X35.785Y45.823
X35.807Y45.858
X35.83Y45.892
X35.853Y45.926
X35.878Y45.96
X35.904Y45.992
X35.93Y46.024
X35.957Y46.055
X35.985Y46.086
X36.094Y46.201
X36.12Y46.228
X36.146Y46.254
X36.172Y46.279
X36.2Y46.303
X36.228Y46.327
X36.256Y46.351
X36.285Y46.373
X36.314Y46.395
X36.436Y46.484
X36.469Y46.508
X36.503Y46.531
X36.538Y46.553
X36.573Y46.574
X36.609Y46.594
X36.645Y46.613
X36.772Y46.679
X36.806Y46.695
X36.84Y46.712
X36.875Y46.727
X36.91Y46.741
X36.945Y46.755
X36.981Y46.768
X37.145Y46.825
X37.183Y46.837
X37.222Y46.849
X37.261Y46.86
X37.3Y46.87
X37.339Y46.878
X37.379Y46.886
X37.591Y46.925
X37.639Y46.933
X37.687Y46.939
X37.735Y46.944
X37.783Y46.948
X37.87Y46.953
X37.917Y46.955
X37.964Y46.956
X43.623
Y48.365
Y48.413
X43.626Y48.462
X43.629Y48.51
X43.635Y48.558
X43.641Y48.606
X43.649Y48.654
X43.656Y48.686
X43.663Y48.718
X43.679Y48.784
X43.689Y48.819
X43.699Y48.853
X43.711Y48.887
X43.723Y48.921
X43.736Y48.955
X43.75Y48.989
X43.765Y49.022
X43.78Y49.055
X43.796Y49.086
X43.812Y49.117
X43.829Y49.148
X43.846Y49.178
X43.864Y49.208
X43.883Y49.237
X43.902Y49.266
X43.932Y49.308
X43.968Y49.354
X43.999Y49.392
X44.01Y49.405
X44.035Y49.434
X44.061Y49.462
X44.088Y49.489
X44.115Y49.516
X44.143Y49.542
X44.172Y49.567
X44.201Y49.592
X44.231Y49.616
X44.261Y49.639
X44.292Y49.661
X44.323Y49.683
X44.355Y49.704
X44.387Y49.724
X44.42Y49.744
X44.453Y49.762
X44.487Y49.78
X44.521Y49.797
X44.557Y49.814
X44.593Y49.83
X44.63Y49.845
X44.667Y49.859
X44.705Y49.872
X44.743Y49.884
X44.781Y49.896
X44.819Y49.906
X44.858Y49.916
X44.897Y49.924
X44.936Y49.931
X44.976Y49.938
X45.015Y49.943
X45.055Y49.948
X45.094Y49.951
X45.134Y49.954
X45.174Y49.955
X45.214Y49.956
X80.714
X80.753Y49.955
X80.793Y49.954
X80.833Y49.951
X80.872Y49.948
X80.911Y49.943
X80.951Y49.938
X80.99Y49.932
X81.029Y49.924
X81.068Y49.916
X81.106Y49.907
X81.144Y49.896
X81.182Y49.885
X81.22Y49.873
X81.258Y49.86
X81.295Y49.846
X81.331Y49.831
X81.368Y49.815
X81.403Y49.799
X81.437Y49.782
X81.471Y49.764
X81.504Y49.746
X81.537Y49.726
X81.569Y49.706
X81.601Y49.685
X81.632Y49.664
X81.663Y49.642
X81.693Y49.618
X81.723Y49.595
X81.752Y49.57
X81.781Y49.545
X81.809Y49.519
X81.836Y49.493
X81.863Y49.465
X81.889Y49.438
X81.914Y49.409
X81.939Y49.38
X81.975Y49.335
X81.998Y49.305
X82.019Y49.274
X82.041Y49.243
X82.061Y49.211
X82.081Y49.179
X82.1Y49.146
X82.118Y49.113
X82.135Y49.08
X82.151Y49.047
X82.167Y49.013
X82.182Y48.979
X82.196Y48.944
X82.209Y48.909
X82.221Y48.874
X82.232Y48.839
X82.243Y48.803
X82.253Y48.767
X82.262Y48.731
X82.27Y48.695
X82.277Y48.659
X82.284Y48.622
X82.289Y48.585
X82.294Y48.549
X82.298Y48.512
X82.301Y48.475
X82.303Y48.438
X82.304Y48.402
X82.305Y48.365
Y46.956
G0Z1
X53.764Y39.725
G1Z-0.3F5
X53.795Y39.687F10
X53.833Y39.656
X53.877Y39.633
X53.918Y39.62
X53.977Y39.614
X54.022Y39.618
X54.069Y39.633
X54.112Y39.656
X54.15Y39.687
X54.182Y39.725
X54.205Y39.769
X54.219Y39.816
X54.224Y39.865
X54.219Y39.914
X54.205Y39.961
X54.182Y40.004
X54.15Y40.043
X54.112Y40.074
X54.069Y40.097
X54.022Y40.111
X53.973Y40.116
X53.924Y40.111
X53.877Y40.097
X53.833Y40.074
X53.795Y40.043
X53.764Y40.004
X53.741Y39.961
X53.727Y39.915
X53.721Y39.865
X53.726Y39.816
X53.741Y39.769
X53.764Y39.725
G0Z1
X62.446Y33.961
G1Z-0.3F5
X62.375Y33.817F10
X62.345Y33.687
Y33.543
X62.377Y33.404
X62.435Y33.284
X62.524Y33.169
X62.597Y33.104
X62.659Y33.064
X62.662Y33.062
X62.775Y33.018
X62.929Y32.993
X63.077Y33.001
X63.206Y33.039
X63.332Y33.11
X63.437Y33.206
X63.515Y33.319
X63.569Y33.447
X63.585Y33.525
X63.589Y33.578
X63.57Y33.744
X63.513Y33.9
X63.428Y34.026
X63.33Y34.116
X63.204Y34.187
X63.068Y34.227
X62.932Y34.236
X62.787Y34.215
X62.699Y34.186
X62.649Y34.16
X62.619Y34.141
X62.537Y34.075
X62.446Y33.961
G0Z1
X71.74Y39.725
G1Z-0.3F5
X71.772Y39.687F10
X71.81Y39.656
X71.853Y39.633
X71.9Y39.618
X71.949Y39.614
X71.998Y39.618
X72.046Y39.633
X72.089Y39.656
X72.127Y39.687
X72.158Y39.725
X72.182Y39.769
X72.196Y39.816
X72.201Y39.865
X72.196Y39.914
X72.182Y39.961
X72.158Y40.004
X72.127Y40.043
X72.089Y40.074
X72.046Y40.097
X71.998Y40.111
X71.949Y40.116
X71.9Y40.111
X71.853Y40.097
X71.81Y40.074
X71.772Y40.043
X71.74Y40.004
X71.717Y39.961
X71.703Y39.914
X71.698Y39.865
X71.703Y39.816
X71.717Y39.769
X71.74Y39.725
G0Z1
X82.305Y46.956
G1Z-0.3F5
X87.964F10
X88Y46.955
X88.037Y46.954
X88.074Y46.952
X88.111Y46.949
X88.147Y46.945
X88.183Y46.941
X88.443Y46.904
X88.484Y46.898
X88.525Y46.891
X88.566Y46.882
X88.606Y46.873
X88.647Y46.862
X88.687Y46.851
X88.726Y46.838
X88.766Y46.824
X89.006Y46.737
X89.04Y46.724
X89.074Y46.711
X89.107Y46.697
X89.139Y46.682
X89.172Y46.666
X89.204Y46.65
X89.236Y46.632
X89.267Y46.615
X89.298Y46.596
X89.329Y46.577
X89.512Y46.458
X89.542Y46.438
X89.571Y46.418
X89.6Y46.397
X89.629Y46.375
X89.657Y46.352
X89.684Y46.329
X89.711Y46.306
X89.737Y46.281
X89.763Y46.257
X89.788Y46.231
X89.912Y46.104
X89.936Y46.078
X89.96Y46.052
X89.983Y46.025
X90.006Y45.998
X90.028Y45.97
X90.05Y45.942
X90.07Y45.913
X90.091Y45.884
X90.11Y45.854
X90.129Y45.824
X90.228Y45.662
X90.247Y45.63
X90.265Y45.598
X90.282Y45.565
X90.299Y45.532
X90.315Y45.499
X90.33Y45.465
X90.344Y45.431
X90.358Y45.396
X90.371Y45.362
X90.383Y45.327
X90.451Y45.116
X90.464Y45.074
X90.476Y45.032
X90.487Y44.989
X90.497Y44.946
X90.505Y44.903
X90.512Y44.859
X90.531Y44.737
X90.536Y44.697
X90.541Y44.657
X90.544Y44.616
X90.547Y44.576
X90.553Y44.441
X90.554Y44.403
X90.555Y44.365
Y28.865
X90.554Y28.822
X90.552Y28.779
X90.55Y28.736
X90.546Y28.694
X90.515Y28.412
X90.511Y28.375
X90.505Y28.338
X90.499Y28.301
X90.492Y28.265
X90.484Y28.228
X90.476Y28.192
X90.466Y28.157
X90.456Y28.121
X90.445Y28.086
X90.433Y28.05
X90.36Y27.847
X90.348Y27.814
X90.335Y27.781
X90.321Y27.748
X90.307Y27.716
X90.292Y27.684
X90.276Y27.652
X90.259Y27.621
X90.242Y27.59
X90.224Y27.559
X90.206Y27.529
X90.113Y27.382
X90.091Y27.349
X90.068Y27.316
X90.045Y27.283
X90.02Y27.251
X89.995Y27.22
X89.969Y27.189
X89.942Y27.159
X89.915Y27.13
X89.803Y27.014
X89.778Y26.989
X89.753Y26.964
X89.727Y26.939
X89.7Y26.915
X89.672Y26.892
X89.645Y26.87
X89.616Y26.848
X89.588Y26.827
X89.465Y26.738
X89.437Y26.719
X89.409Y26.699
X89.38Y26.681
X89.35Y26.663
X89.321Y26.646
X89.291Y26.629
X89.26Y26.613
X89.23Y26.598
X89.061Y26.516
X89.025Y26.499
X88.988Y26.482
X88.951Y26.467
X88.913Y26.453
X88.875Y26.439
X88.836Y26.427
X88.798Y26.415
X88.759Y26.405
X88.478Y26.333
X88.435Y26.323
X88.392Y26.314
X88.349Y26.306
X88.306Y26.299
X88.263Y26.294
X88.219Y26.29
X88.098Y26.279
X88.064Y26.277
X88.031Y26.275
X87.997Y26.274
X87.964
X82.305
Y24.865
X82.304Y24.83
X82.303Y24.795
X82.301Y24.76
X82.299Y24.725
X82.295Y24.685
X82.29Y24.645
X82.283Y24.605
X82.276Y24.566
X82.268Y24.526
X82.259Y24.487
X82.249Y24.448
X82.239Y24.412
X82.228Y24.377
X82.216Y24.342
X82.195Y24.284
X82.175Y24.236
X82.167Y24.217
X82.151Y24.182
X82.134Y24.148
X82.116Y24.114
X82.098Y24.08
X82.078Y24.047
X82.058Y24.014
X82.037Y23.982
X82.016Y23.95
X81.993Y23.919
X81.97Y23.889
X81.946Y23.859
X81.922Y23.829
X81.896Y23.801
X81.87Y23.772
X81.844Y23.745
X81.816Y23.718
X81.788Y23.692
X81.76Y23.666
X81.731Y23.641
X81.701Y23.617
X81.67Y23.594
X81.639Y23.571
X81.608Y23.549
X81.575Y23.527
X81.542Y23.506
X81.507Y23.486
X81.473Y23.467
X81.438Y23.448
X81.403Y23.431
X81.367Y23.414
X81.33Y23.398
X81.294Y23.383
X81.257Y23.369
X81.219Y23.356
X81.182Y23.344
X81.144Y23.333
X81.105Y23.323
X81.067Y23.314
X81.028Y23.305
X80.989Y23.298
X80.95Y23.292
X80.911Y23.286
X80.872Y23.282
X80.832Y23.278
X80.793Y23.276
X80.753Y23.274
X80.714
X45.214
X45.174
X45.134Y23.276
X45.095Y23.278
X45.055Y23.282
X45.015Y23.286
X44.976Y23.292
X44.937Y23.298
X44.898Y23.306
X44.859Y23.314
X44.82Y23.323
X44.782Y23.334
X44.744Y23.345
X44.706Y23.357
X44.668Y23.37
X44.631Y23.384
X44.594Y23.399
X44.558Y23.415
X44.522Y23.432
X44.486Y23.45
X44.451Y23.469
X44.417Y23.488
X44.382Y23.508
X44.348Y23.53
X44.316Y23.552
X44.284Y23.574
X44.253Y23.596
X44.223Y23.62
X44.193Y23.644
X44.164Y23.669
X44.136Y23.695
X44.108Y23.721
X44.08Y23.748
X44.054Y23.776
X44.028Y23.804
X44.003Y23.833
X43.978Y23.863
X43.954Y23.893
X43.931Y23.924
X43.909Y23.955
X43.887Y23.987
X43.866Y24.019
X43.846Y24.052
X43.827Y24.085
X43.809Y24.119
X43.791Y24.153
X43.774Y24.187
X43.752Y24.236
X43.732Y24.286
X43.724Y24.307
X43.711Y24.342
X43.7Y24.376
X43.689Y24.411
X43.679Y24.447
X43.669Y24.486
X43.66Y24.525
X43.651Y24.564
X43.644Y24.604
X43.638Y24.644
X43.633Y24.684
X43.629Y24.724
X43.626Y24.759
X43.624Y24.794
X43.623Y24.83
Y24.865
Y26.274
X37.964
X37.926
X37.889Y26.276
X37.851Y26.278
X37.813Y26.281
X37.776Y26.285
X37.739Y26.29
X37.48Y26.327
X37.439Y26.333
X37.398Y26.341
X37.357Y26.349
X37.317Y26.359
X37.277Y26.369
X37.237Y26.381
X37.198Y26.394
X37.158Y26.407
X36.918Y26.495
X36.884Y26.508
X36.851Y26.522
X36.818Y26.536
X36.786Y26.551
X36.753Y26.566
X36.721Y26.583
X36.69Y26.6
X36.659Y26.618
X36.628Y26.636
X36.598Y26.655
X36.414Y26.774
X36.384Y26.794
X36.355Y26.814
X36.326Y26.835
X36.298Y26.857
X36.27Y26.88
X36.243Y26.902
X36.216Y26.926
X36.19Y26.95
X36.164Y26.975
X36.139Y27
X36.016Y27.127
X35.991Y27.153
X35.968Y27.179
X35.944Y27.206
X35.922Y27.233
X35.9Y27.261
X35.878Y27.289
X35.858Y27.317
X35.838Y27.347
X35.818Y27.376
X35.799Y27.406
X35.7Y27.568
X35.68Y27.602
X35.661Y27.635
X35.643Y27.67
X35.626Y27.705
X35.609Y27.74
X35.593Y27.775
X35.57Y27.833
X35.545Y27.903
X35.477Y28.113
X35.463Y28.155
X35.452Y28.198
X35.441Y28.241
X35.431Y28.284
X35.423Y28.327
X35.416Y28.37
X35.397Y28.492
X35.392Y28.533
X35.387Y28.573
X35.383Y28.614
X35.381Y28.654
X35.375Y28.789
X35.373Y28.827
Y28.865
Y44.365
Y44.397
X35.374Y44.43
X35.376Y44.463
X35.378Y44.495
X35.401Y44.776
X35.405Y44.814
X35.409Y44.851
X35.415Y44.888
X35.421Y44.926
X35.428Y44.963
X35.436Y45
X35.445Y45.036
X35.454Y45.073
X35.465Y45.109
X35.476Y45.145
X35.543Y45.348
X35.555Y45.382
X35.568Y45.416
X35.581Y45.45
X35.595Y45.483
X35.61Y45.517
X35.626Y45.55
X35.642Y45.582
X35.659Y45.614
X35.677Y45.646
X35.696Y45.677
X35.785Y45.823
X35.807Y45.858
X35.83Y45.892
X35.853Y45.926
X35.878Y45.96
X35.904Y45.992
X35.93Y46.024
X35.957Y46.055
X35.985Y46.086
X36.094Y46.201
X36.12Y46.228
X36.146Y46.254
X36.172Y46.279
X36.2Y46.303
X36.228Y46.327
X36.256Y46.351
X36.285Y46.373
X36.314Y46.395
X36.436Y46.484
X36.469Y46.508
X36.503Y46.531
X36.538Y46.553
X36.573Y46.574
X36.609Y46.594
X36.645Y46.613
X36.772Y46.679
X36.806Y46.695
X36.84Y46.712
X36.875Y46.727
X36.91Y46.741
X36.945Y46.755
X36.981Y46.768
X37.145Y46.825
X37.183Y46.837
X37.222Y46.849
X37.261Y46.86
X37.3Y46.87
X37.339Y46.878
X37.379Y46.886
X37.591Y46.925
X37.639Y46.933
X37.687Y46.939
X37.735Y46.944
X37.783Y46.948
X37.87Y46.953
X37.917Y46.955
X37.964Y46.956
X43.623
Y48.365
Y48.413
X43.626Y48.462
X43.629Y48.51
X43.635Y48.558
X43.641Y48.606
X43.649Y48.654
X43.656Y48.686
X43.663Y48.718
X43.679Y48.784
X43.689Y48.819
X43.699Y48.853
X43.711Y48.887
X43.723Y48.921
X43.736Y48.955
X43.75Y48.989
X43.765Y49.022
X43.78Y49.055
X43.796Y49.086
X43.812Y49.117
X43.829Y49.148
X43.846Y49.178
X43.864Y49.208
X43.883Y49.237
X43.902Y49.266
X43.932Y49.308
X43.968Y49.354
X43.999Y49.392
X44.01Y49.405
X44.035Y49.434
X44.061Y49.462
X44.088Y49.489
X44.115Y49.516
X44.143Y49.542
X44.172Y49.567
X44.201Y49.592
X44.231Y49.616
X44.261Y49.639
X44.292Y49.661
X44.323Y49.683
X44.355Y49.704
X44.387Y49.724
X44.42Y49.744
X44.453Y49.762
X44.487Y49.78
X44.521Y49.797
X44.557Y49.814
X44.593Y49.83
X44.63Y49.845
X44.667Y49.859
X44.705Y49.872
X44.743Y49.884
X44.781Y49.896
X44.819Y49.906
X44.858Y49.916
X44.897Y49.924
X44.936Y49.931
X44.976Y49.938
X45.015Y49.943
X45.055Y49.948
X45.094Y49.951
X45.134Y49.954
X45.174Y49.955
X45.214Y49.956
X80.714
X80.753Y49.955
X80.793Y49.954
X80.833Y49.951
X80.872Y49.948
X80.911Y49.943
X80.951Y49.938
X80.99Y49.932
X81.029Y49.924
X81.068Y49.916
X81.106Y49.907
X81.144Y49.896
X81.182Y49.885
X81.22Y49.873
X81.258Y49.86
X81.295Y49.846
X81.331Y49.831
X81.368Y49.815
X81.403Y49.799
X81.437Y49.782
X81.471Y49.764
X81.504Y49.746
X81.537Y49.726
X81.569Y49.706
X81.601Y49.685
X81.632Y49.664
X81.663Y49.642
X81.693Y49.618
X81.723Y49.595
X81.752Y49.57
X81.781Y49.545
X81.809Y49.519
X81.836Y49.493
X81.863Y49.465
X81.889Y49.438
X81.914Y49.409
X81.939Y49.38
X81.975Y49.335
X81.998Y49.305
X82.019Y49.274
X82.041Y49.243
X82.061Y49.211
X82.081Y49.179
X82.1Y49.146
X82.118Y49.113
X82.135Y49.08
X82.151Y49.047
X82.167Y49.013
X82.182Y48.979
X82.196Y48.944
X82.209Y48.909
X82.221Y48.874
X82.232Y48.839
X82.243Y48.803
X82.253Y48.767
X82.262Y48.731
X82.27Y48.695
X82.277Y48.659
X82.284Y48.622
X82.289Y48.585
X82.294Y48.549
X82.298Y48.512
X82.301Y48.475
X82.303Y48.438
X82.304Y48.402
X82.305Y48.365
Y46.956
G0Z1
X53.764Y39.725
G1Z-0.4F5
X53.795Y39.687F10
X53.833Y39.656
X53.877Y39.633
X53.918Y39.62
X53.977Y39.614
X54.022Y39.618
X54.069Y39.633
X54.112Y39.656
X54.15Y39.687
X54.182Y39.725
X54.205Y39.769
X54.219Y39.816
X54.224Y39.865
X54.219Y39.914
X54.205Y39.961
X54.182Y40.004
X54.15Y40.043
X54.112Y40.074
X54.069Y40.097
X54.022Y40.111
X53.973Y40.116
X53.924Y40.111
X53.877Y40.097
X53.833Y40.074
X53.795Y40.043
X53.764Y40.004
X53.741Y39.961
X53.727Y39.915
X53.721Y39.865
X53.726Y39.816
X53.741Y39.769
X53.764Y39.725
G0Z1
X62.446Y33.961
G1Z-0.4F5
X62.375Y33.817F10
X62.345Y33.687
Y33.543
X62.377Y33.404
X62.435Y33.284
X62.524Y33.169
X62.597Y33.104
X62.659Y33.064
X62.662Y33.062
X62.775Y33.018
X62.929Y32.993
X63.077Y33.001
X63.206Y33.039
X63.332Y33.11
X63.437Y33.206
X63.515Y33.319
X63.569Y33.447
X63.585Y33.525
X63.589Y33.578
X63.57Y33.744
X63.513Y33.9
X63.428Y34.026
X63.33Y34.116
X63.204Y34.187
X63.068Y34.227
X62.932Y34.236
X62.787Y34.215
X62.699Y34.186
X62.649Y34.16
X62.619Y34.141
X62.537Y34.075
X62.446Y33.961
G0Z1
X71.74Y39.725
G1Z-0.4F5
X71.772Y39.687F10
X71.81Y39.656
X71.853Y39.633
X71.9Y39.618
X71.949Y39.614
X71.998Y39.618
X72.046Y39.633
X72.089Y39.656
X72.127Y39.687
X72.158Y39.725
X72.182Y39.769
X72.196Y39.816
X72.201Y39.865
X72.196Y39.914
X72.182Y39.961
X72.158Y40.004
X72.127Y40.043
X72.089Y40.074
X72.046Y40.097
X71.998Y40.111
X71.949Y40.116
X71.9Y40.111
X71.853Y40.097
X71.81Y40.074
X71.772Y40.043
X71.74Y40.004
X71.717Y39.961
X71.703Y39.914
X71.698Y39.865
X71.703Y39.816
X71.717Y39.769
X71.74Y39.725
G0Z1
X82.305Y46.956
G1Z-0.4F5
X87.964F10
X88Y46.955
X88.037Y46.954
X88.074Y46.952
X88.111Y46.949
X88.147Y46.945
X88.183Y46.941
X88.443Y46.904
X88.484Y46.898
X88.525Y46.891
X88.566Y46.882
X88.606Y46.873
X88.647Y46.862
X88.687Y46.851
X88.726Y46.838
X88.766Y46.824
X89.006Y46.737
X89.04Y46.724
X89.074Y46.711
X89.107Y46.697
X89.139Y46.682
X89.172Y46.666
X89.204Y46.65
X89.236Y46.632
X89.267Y46.615
X89.298Y46.596
X89.329Y46.577
X89.512Y46.458
X89.542Y46.438
X89.571Y46.418
X89.6Y46.397
X89.629Y46.375
X89.657Y46.352
X89.684Y46.329
X89.711Y46.306
X89.737Y46.281
X89.763Y46.257
X89.788Y46.231
X89.912Y46.104
X89.936Y46.078
X89.96Y46.052
X89.983Y46.025
X90.006Y45.998
X90.028Y45.97
X90.05Y45.942
X90.07Y45.913
X90.091Y45.884
X90.11Y45.854
X90.129Y45.824
X90.228Y45.662
X90.247Y45.63
X90.265Y45.598
X90.282Y45.565
X90.299Y45.532
X90.315Y45.499
X90.33Y45.465
X90.344Y45.431
X90.358Y45.396
X90.371Y45.362
X90.383Y45.327
X90.451Y45.116
X90.464Y45.074
X90.476Y45.032
X90.487Y44.989
X90.497Y44.946
X90.505Y44.903
X90.512Y44.859
X90.531Y44.737
X90.536Y44.697
X90.541Y44.657
X90.544Y44.616
X90.547Y44.576
X90.553Y44.441
X90.554Y44.403
X90.555Y44.365
Y28.865
X90.554Y28.822
X90.552Y28.779
X90.55Y28.736
X90.546Y28.694
X90.515Y28.412
X90.511Y28.375
X90.505Y28.338
X90.499Y28.301
X90.492Y28.265
X90.484Y28.228
X90.476Y28.192
X90.466Y28.157
X90.456Y28.121
X90.445Y28.086
X90.433Y28.05
X90.36Y27.847
X90.348Y27.814
X90.335Y27.781
X90.321Y27.748
X90.307Y27.716
X90.292Y27.684
X90.276Y27.652
X90.259Y27.621
X90.242Y27.59
X90.224Y27.559
X90.206Y27.529
X90.113Y27.382
X90.091Y27.349
X90.068Y27.316
X90.045Y27.283
X90.02Y27.251
X89.995Y27.22
X89.969Y27.189
X89.942Y27.159
X89.915Y27.13
X89.803Y27.014
X89.778Y26.989
X89.753Y26.964
X89.727Y26.939
X89.7Y26.915
X89.672Y26.892
X89.645Y26.87
X89.616Y26.848
X89.588Y26.827
X89.465Y26.738
X89.437Y26.719
X89.409Y26.699
X89.38Y26.681
X89.35Y26.663
X89.321Y26.646
X89.291Y26.629
X89.26Y26.613
X89.23Y26.598
X89.061Y26.516
X89.025Y26.499
X88.988Y26.482
X88.951Y26.467
X88.913Y26.453
X88.875Y26.439
X88.836Y26.427
X88.798Y26.415
X88.759Y26.405
X88.478Y26.333
X88.435Y26.323
X88.392Y26.314
X88.349Y26.306
X88.306Y26.299
X88.263Y26.294
X88.219Y26.29
X88.098Y26.279
X88.064Y26.277
X88.031Y26.275
X87.997Y26.274
X87.964
X82.305
Y24.865
X82.304Y24.83
X82.303Y24.795
X82.301Y24.76
X82.299Y24.725
X82.295Y24.685
X82.29Y24.645
X82.283Y24.605
X82.276Y24.566
X82.268Y24.526
X82.259Y24.487
X82.249Y24.448
X82.239Y24.412
X82.228Y24.377
X82.216Y24.342
X82.195Y24.284
X82.175Y24.236
X82.167Y24.217
X82.151Y24.182
X82.134Y24.148
X82.116Y24.114
X82.098Y24.08
X82.078Y24.047
X82.058Y24.014
X82.037Y23.982
X82.016Y23.95
X81.993Y23.919
X81.97Y23.889
X81.946Y23.859
X81.922Y23.829
X81.896Y23.801
X81.87Y23.772
X81.844Y23.745
X81.816Y23.718
X81.788Y23.692
X81.76Y23.666
X81.731Y23.641
X81.701Y23.617
X81.67Y23.594
X81.639Y23.571
X81.608Y23.549
X81.575Y23.527
X81.542Y23.506
X81.507Y23.486
X81.473Y23.467
X81.438Y23.448
X81.403Y23.431
X81.367Y23.414
X81.33Y23.398
X81.294Y23.383
X81.257Y23.369
X81.219Y23.356
X81.182Y23.344
X81.144Y23.333
X81.105Y23.323
X81.067Y23.314
X81.028Y23.305
X80.989Y23.298
X80.95Y23.292
X80.911Y23.286
X80.872Y23.282
X80.832Y23.278
X80.793Y23.276
X80.753Y23.274
X80.714
X45.214
X45.174
X45.134Y23.276
X45.095Y23.278
X45.055Y23.282
X45.015Y23.286
X44.976Y23.292
X44.937Y23.298
X44.898Y23.306
X44.859Y23.314
X44.82Y23.323
X44.782Y23.334
X44.744Y23.345
X44.706Y23.357
X44.668Y23.37
X44.631Y23.384
X44.594Y23.399
X44.558Y23.415
X44.522Y23.432
X44.486Y23.45
X44.451Y23.469
X44.417Y23.488
X44.382Y23.508
X44.348Y23.53
X44.316Y23.552
X44.284Y23.574
X44.253Y23.596
X44.223Y23.62
X44.193Y23.644
X44.164Y23.669
X44.136Y23.695
X44.108Y23.721
X44.08Y23.748
X44.054Y23.776
X44.028Y23.804
X44.003Y23.833
X43.978Y23.863
X43.954Y23.893
X43.931Y23.924
X43.909Y23.955
X43.887Y23.987
X43.866Y24.019
X43.846Y24.052
X43.827Y24.085
X43.809Y24.119
X43.791Y24.153
X43.774Y24.187
X43.752Y24.236
X43.732Y24.286
X43.724Y24.307
X43.711Y24.342
X43.7Y24.376
X43.689Y24.411
X43.679Y24.447
X43.669Y24.486
X43.66Y24.525
X43.651Y24.564
X43.644Y24.604
X43.638Y24.644
X43.633Y24.684
X43.629Y24.724
X43.626Y24.759
X43.624Y24.794
X43.623Y24.83
Y24.865
Y26.274
X37.964
X37.926
X37.889Y26.276
X37.851Y26.278
X37.813Y26.281
X37.776Y26.285
X37.739Y26.29
X37.48Y26.327
X37.439Y26.333
X37.398Y26.341
X37.357Y26.349
X37.317Y26.359
X37.277Y26.369
X37.237Y26.381
X37.198Y26.394
X37.158Y26.407
X36.918Y26.495
X36.884Y26.508
X36.851Y26.522
X36.818Y26.536
X36.786Y26.551
X36.753Y26.566
X36.721Y26.583
X36.69Y26.6
X36.659Y26.618
X36.628Y26.636
X36.598Y26.655
X36.414Y26.774
X36.384Y26.794
X36.355Y26.814
X36.326Y26.835
X36.298Y26.857
X36.27Y26.88
X36.243Y26.902
X36.216Y26.926
X36.19Y26.95
X36.164Y26.975
X36.139Y27
X36.016Y27.127
X35.991Y27.153
X35.968Y27.179
X35.944Y27.206
X35.922Y27.233
X35.9Y27.261
X35.878Y27.289
X35.858Y27.317
X35.838Y27.347
X35.818Y27.376
X35.799Y27.406
X35.7Y27.568
X35.68Y27.602
X35.661Y27.635
X35.643Y27.67
X35.626Y27.705
X35.609Y27.74
X35.593Y27.775
X35.57Y27.833
X35.545Y27.903
X35.477Y28.113
X35.463Y28.155
X35.452Y28.198
X35.441Y28.241
X35.431Y28.284
X35.423Y28.327
X35.416Y28.37
X35.397Y28.492
X35.392Y28.533
X35.387Y28.573
X35.383Y28.614
X35.381Y28.654
X35.375Y28.789
X35.373Y28.827
Y28.865
Y44.365
Y44.397
X35.374Y44.43
X35.376Y44.463
X35.378Y44.495
X35.401Y44.776
X35.405Y44.814
X35.409Y44.851
X35.415Y44.888
X35.421Y44.926
X35.428Y44.963
X35.436Y45
X35.445Y45.036
X35.454Y45.073
X35.465Y45.109
X35.476Y45.145
X35.543Y45.348
X35.555Y45.382
X35.568Y45.416
X35.581Y45.45
X35.595Y45.483
X35.61Y45.517
X35.626Y45.55
X35.642Y45.582
X35.659Y45.614
X35.677Y45.646
X35.696Y45.677
X35.785Y45.823
X35.807Y45.858
X35.83Y45.892
X35.853Y45.926
X35.878Y45.96
X35.904Y45.992
X35.93Y46.024
X35.957Y46.055
X35.985Y46.086
X36.094Y46.201
X36.12Y46.228
X36.146Y46.254
X36.172Y46.279
X36.2Y46.303
X36.228Y46.327
X36.256Y46.351
X36.285Y46.373
X36.314Y46.395
X36.436Y46.484
X36.469Y46.508
X36.503Y46.531
X36.538Y46.553
X36.573Y46.574
X36.609Y46.594
X36.645Y46.613
X36.772Y46.679
X36.806Y46.695
X36.84Y46.712
X36.875Y46.727
X36.91Y46.741
X36.945Y46.755
X36.981Y46.768
X37.145Y46.825
X37.183Y46.837
X37.222Y46.849
X37.261Y46.86
X37.3Y46.87
X37.339Y46.878
X37.379Y46.886
X37.591Y46.925
X37.639Y46.933
X37.687Y46.939
X37.735Y46.944
X37.783Y46.948
X37.87Y46.953
X37.917Y46.955
X37.964Y46.956
X43.623
Y48.365
Y48.413
X43.626Y48.462
X43.629Y48.51
X43.635Y48.558
X43.641Y48.606
X43.649Y48.654
X43.656Y48.686
X43.663Y48.718
X43.679Y48.784
X43.689Y48.819
X43.699Y48.853
X43.711Y48.887
X43.723Y48.921
X43.736Y48.955
X43.75Y48.989
X43.765Y49.022
X43.78Y49.055
X43.796Y49.086
X43.812Y49.117
X43.829Y49.148
X43.846Y49.178
X43.864Y49.208
X43.883Y49.237
X43.902Y49.266
X43.932Y49.308
X43.968Y49.354
X43.999Y49.392
X44.01Y49.405
X44.035Y49.434
X44.061Y49.462
X44.088Y49.489
X44.115Y49.516
X44.143Y49.542
X44.172Y49.567
X44.201Y49.592
X44.231Y49.616
X44.261Y49.639
X44.292Y49.661
X44.323Y49.683
X44.355Y49.704
X44.387Y49.724
X44.42Y49.744
X44.453Y49.762
X44.487Y49.78
X44.521Y49.797
X44.557Y49.814
X44.593Y49.83
X44.63Y49.845
X44.667Y49.859
X44.705Y49.872
X44.743Y49.884
X44.781Y49.896
X44.819Y49.906
X44.858Y49.916
X44.897Y49.924
X44.936Y49.931
X44.976Y49.938
X45.015Y49.943
X45.055Y49.948
X45.094Y49.951
X45.134Y49.954
X45.174Y49.955
X45.214Y49.956
X80.714
X80.753Y49.955
X80.793Y49.954
X80.833Y49.951
X80.872Y49.948
X80.911Y49.943
X80.951Y49.938
X80.99Y49.932
X81.029Y49.924
X81.068Y49.916
X81.106Y49.907
X81.144Y49.896
X81.182Y49.885
X81.22Y49.873
X81.258Y49.86
X81.295Y49.846
X81.331Y49.831
X81.368Y49.815
X81.403Y49.799
X81.437Y49.782
X81.471Y49.764
X81.504Y49.746
X81.537Y49.726
X81.569Y49.706
X81.601Y49.685
X81.632Y49.664
X81.663Y49.642
X81.693Y49.618
X81.723Y49.595
X81.752Y49.57
X81.781Y49.545
X81.809Y49.519
X81.836Y49.493
X81.863Y49.465
X81.889Y49.438
X81.914Y49.409
X81.939Y49.38
X81.975Y49.335
X81.998Y49.305
X82.019Y49.274
X82.041Y49.243
X82.061Y49.211
X82.081Y49.179
X82.1Y49.146
X82.118Y49.113
X82.135Y49.08
X82.151Y49.047
X82.167Y49.013
X82.182Y48.979
X82.196Y48.944
X82.209Y48.909
X82.221Y48.874
X82.232Y48.839
X82.243Y48.803
X82.253Y48.767
X82.262Y48.731
X82.27Y48.695
X82.277Y48.659
X82.284Y48.622
X82.289Y48.585
X82.294Y48.549
X82.298Y48.512
X82.301Y48.475
X82.303Y48.438
X82.304Y48.402
X82.305Y48.365
Y46.956
G0Z1
X53.764Y39.725
G1Z-0.5F5
X53.795Y39.687F10
X53.833Y39.656
X53.877Y39.633
X53.918Y39.62
X53.977Y39.614
X54.022Y39.618
X54.069Y39.633
X54.112Y39.656
X54.15Y39.687
X54.182Y39.725
X54.205Y39.769
X54.219Y39.816
X54.224Y39.865
X54.219Y39.914
X54.205Y39.961
X54.182Y40.004
X54.15Y40.043
X54.112Y40.074
X54.069Y40.097
X54.022Y40.111
X53.973Y40.116
X53.924Y40.111
X53.877Y40.097
X53.833Y40.074
X53.795Y40.043
X53.764Y40.004
X53.741Y39.961
X53.727Y39.915
X53.721Y39.865
X53.726Y39.816
X53.741Y39.769
X53.764Y39.725
G0Z1
X62.446Y33.961
G1Z-0.5F5
X62.375Y33.817F10
X62.345Y33.687
Y33.543
X62.377Y33.404
X62.435Y33.284
X62.524Y33.169
X62.597Y33.104
X62.659Y33.064
X62.662Y33.062
X62.775Y33.018
X62.929Y32.993
X63.077Y33.001
X63.206Y33.039
X63.332Y33.11
X63.437Y33.206
X63.515Y33.319
X63.569Y33.447
X63.585Y33.525
X63.589Y33.578
X63.57Y33.744
X63.513Y33.9
X63.428Y34.026
X63.33Y34.116
X63.204Y34.187
X63.068Y34.227
X62.932Y34.236
X62.787Y34.215
X62.699Y34.186
X62.649Y34.16
X62.619Y34.141
X62.537Y34.075
X62.446Y33.961
G0Z1
X71.74Y39.725
G1Z-0.5F5
X71.772Y39.687F10
X71.81Y39.656
X71.853Y39.633
X71.9Y39.618
X71.949Y39.614
X71.998Y39.618
X72.046Y39.633
X72.089Y39.656
X72.127Y39.687
X72.158Y39.725
X72.182Y39.769
X72.196Y39.816
X72.201Y39.865
X72.196Y39.914
X72.182Y39.961
X72.158Y40.004
X72.127Y40.043
X72.089Y40.074
X72.046Y40.097
X71.998Y40.111
X71.949Y40.116
X71.9Y40.111
X71.853Y40.097
X71.81Y40.074
X71.772Y40.043
X71.74Y40.004
X71.717Y39.961
X71.703Y39.914
X71.698Y39.865
X71.703Y39.816
X71.717Y39.769
X71.74Y39.725
G0Z1
X82.305Y46.956
G1Z-0.5F5
X87.964F10
X88Y46.955
X88.037Y46.954
X88.074Y46.952
X88.111Y46.949
X88.147Y46.945
X88.183Y46.941
X88.443Y46.904
X88.484Y46.898
X88.525Y46.891
X88.566Y46.882
X88.606Y46.873
X88.647Y46.862
X88.687Y46.851
X88.726Y46.838
X88.766Y46.824
X89.006Y46.737
X89.04Y46.724
X89.074Y46.711
X89.107Y46.697
X89.139Y46.682
X89.172Y46.666
X89.204Y46.65
X89.236Y46.632
X89.267Y46.615
X89.298Y46.596
X89.329Y46.577
X89.512Y46.458
X89.542Y46.438
X89.571Y46.418
X89.6Y46.397
X89.629Y46.375
X89.657Y46.352
X89.684Y46.329
X89.711Y46.306
X89.737Y46.281
X89.763Y46.257
X89.788Y46.231
X89.912Y46.104
X89.936Y46.078
X89.96Y46.052
X89.983Y46.025
X90.006Y45.998
X90.028Y45.97
X90.05Y45.942
X90.07Y45.913
X90.091Y45.884
X90.11Y45.854
X90.129Y45.824
X90.228Y45.662
X90.247Y45.63
X90.265Y45.598
X90.282Y45.565
X90.299Y45.532
X90.315Y45.499
X90.33Y45.465
X90.344Y45.431
X90.358Y45.396
X90.371Y45.362
X90.383Y45.327
X90.451Y45.116
X90.464Y45.074
X90.476Y45.032
X90.487Y44.989
X90.497Y44.946
X90.505Y44.903
X90.512Y44.859
X90.531Y44.737
X90.536Y44.697
X90.541Y44.657
X90.544Y44.616
X90.547Y44.576
X90.553Y44.441
X90.554Y44.403
X90.555Y44.365
Y28.865
X90.554Y28.822
X90.552Y28.779
X90.55Y28.736
X90.546Y28.694
X90.515Y28.412
X90.511Y28.375
X90.505Y28.338
X90.499Y28.301
X90.492Y28.265
X90.484Y28.228
X90.476Y28.192
X90.466Y28.157
X90.456Y28.121
X90.445Y28.086
X90.433Y28.05
X90.36Y27.847
X90.348Y27.814
X90.335Y27.781
X90.321Y27.748
X90.307Y27.716
X90.292Y27.684
X90.276Y27.652
X90.259Y27.621
X90.242Y27.59
X90.224Y27.559
X90.206Y27.529
X90.113Y27.382
X90.091Y27.349
X90.068Y27.316
X90.045Y27.283
X90.02Y27.251
X89.995Y27.22
X89.969Y27.189
X89.942Y27.159
X89.915Y27.13
X89.803Y27.014
X89.778Y26.989
X89.753Y26.964
X89.727Y26.939
X89.7Y26.915
X89.672Y26.892
X89.645Y26.87
X89.616Y26.848
X89.588Y26.827
X89.465Y26.738
X89.437Y26.719
X89.409Y26.699
X89.38Y26.681
X89.35Y26.663
X89.321Y26.646
X89.291Y26.629
X89.26Y26.613
X89.23Y26.598
X89.061Y26.516
X89.025Y26.499
X88.988Y26.482
X88.951Y26.467
X88.913Y26.453
X88.875Y26.439
X88.836Y26.427
X88.798Y26.415
X88.759Y26.405
X88.478Y26.333
X88.435Y26.323
X88.392Y26.314
X88.349Y26.306
X88.306Y26.299
X88.263Y26.294
X88.219Y26.29
X88.098Y26.279
X88.064Y26.277
X88.031Y26.275
X87.997Y26.274
X87.964
X82.305
Y24.865
X82.304Y24.83
X82.303Y24.795
X82.301Y24.76
X82.299Y24.725
X82.295Y24.685
X82.29Y24.645
X82.283Y24.605
X82.276Y24.566
X82.268Y24.526
X82.259Y24.487
X82.249Y24.448
X82.239Y24.412
X82.228Y24.377
X82.216Y24.342
X82.195Y24.284
X82.175Y24.236
X82.167Y24.217
X82.151Y24.182
X82.134Y24.148
X82.116Y24.114
X82.098Y24.08
X82.078Y24.047
X82.058Y24.014
X82.037Y23.982
X82.016Y23.95
X81.993Y23.919
X81.97Y23.889
X81.946Y23.859
X81.922Y23.829
X81.896Y23.801
X81.87Y23.772
X81.844Y23.745
X81.816Y23.718
X81.788Y23.692
X81.76Y23.666
X81.731Y23.641
X81.701Y23.617
X81.67Y23.594
X81.639Y23.571
X81.608Y23.549
X81.575Y23.527
X81.542Y23.506
X81.507Y23.486
X81.473Y23.467
X81.438Y23.448
X81.403Y23.431
X81.367Y23.414
X81.33Y23.398
X81.294Y23.383
X81.257Y23.369
X81.219Y23.356
X81.182Y23.344
X81.144Y23.333
X81.105Y23.323
X81.067Y23.314
X81.028Y23.305
X80.989Y23.298
X80.95Y23.292
X80.911Y23.286
X80.872Y23.282
X80.832Y23.278
X80.793Y23.276
X80.753Y23.274
X80.714
X45.214
X45.174
X45.134Y23.276
X45.095Y23.278
X45.055Y23.282
X45.015Y23.286
X44.976Y23.292
X44.937Y23.298
X44.898Y23.306
X44.859Y23.314
X44.82Y23.323
X44.782Y23.334
X44.744Y23.345
X44.706Y23.357
X44.668Y23.37
X44.631Y23.384
X44.594Y23.399
X44.558Y23.415
X44.522Y23.432
X44.486Y23.45
X44.451Y23.469
X44.417Y23.488
X44.382Y23.508
X44.348Y23.53
X44.316Y23.552
X44.284Y23.574
X44.253Y23.596
X44.223Y23.62
X44.193Y23.644
X44.164Y23.669
X44.136Y23.695
X44.108Y23.721
X44.08Y23.748
X44.054Y23.776
X44.028Y23.804
X44.003Y23.833
X43.978Y23.863
X43.954Y23.893
X43.931Y23.924
X43.909Y23.955
X43.887Y23.987
X43.866Y24.019
X43.846Y24.052
X43.827Y24.085
X43.809Y24.119
X43.791Y24.153
X43.774Y24.187
X43.752Y24.236
X43.732Y24.286
X43.724Y24.307
X43.711Y24.342
X43.7Y24.376
X43.689Y24.411
X43.679Y24.447
X43.669Y24.486
X43.66Y24.525
X43.651Y24.564
X43.644Y24.604
X43.638Y24.644
X43.633Y24.684
X43.629Y24.724
X43.626Y24.759
X43.624Y24.794
X43.623Y24.83
Y24.865
Y26.274
X37.964
X37.926
X37.889Y26.276
X37.851Y26.278
X37.813Y26.281
X37.776Y26.285
X37.739Y26.29
X37.48Y26.327
X37.439Y26.333
X37.398Y26.341
X37.357Y26.349
X37.317Y26.359
X37.277Y26.369
X37.237Y26.381
X37.198Y26.394
X37.158Y26.407
X36.918Y26.495
X36.884Y26.508
X36.851Y26.522
X36.818Y26.536
X36.786Y26.551
X36.753Y26.566
X36.721Y26.583
X36.69Y26.6
X36.659Y26.618
X36.628Y26.636
X36.598Y26.655
X36.414Y26.774
X36.384Y26.794
X36.355Y26.814
X36.326Y26.835
X36.298Y26.857
X36.27Y26.88
X36.243Y26.902
X36.216Y26.926
X36.19Y26.95
X36.164Y26.975
X36.139Y27
X36.016Y27.127
X35.991Y27.153
X35.968Y27.179
X35.944Y27.206
X35.922Y27.233
X35.9Y27.261
X35.878Y27.289
X35.858Y27.317
X35.838Y27.347
X35.818Y27.376
X35.799Y27.406
X35.7Y27.568
X35.68Y27.602
X35.661Y27.635
X35.643Y27.67
X35.626Y27.705
X35.609Y27.74
X35.593Y27.775
X35.57Y27.833
X35.545Y27.903
X35.477Y28.113
X35.463Y28.155
X35.452Y28.198
X35.441Y28.241
X35.431Y28.284
X35.423Y28.327
X35.416Y28.37
X35.397Y28.492
X35.392Y28.533
X35.387Y28.573
X35.383Y28.614
X35.381Y28.654
X35.375Y28.789
X35.373Y28.827
Y28.865
Y44.365
Y44.397
X35.374Y44.43
X35.376Y44.463
X35.378Y44.495
X35.401Y44.776
X35.405Y44.814
X35.409Y44.851
X35.415Y44.888
X35.421Y44.926
X35.428Y44.963
X35.436Y45
X35.445Y45.036
X35.454Y45.073
X35.465Y45.109
X35.476Y45.145
X35.543Y45.348
X35.555Y45.382
X35.568Y45.416
X35.581Y45.45
X35.595Y45.483
X35.61Y45.517
X35.626Y45.55
X35.642Y45.582
X35.659Y45.614
X35.677Y45.646
X35.696Y45.677
X35.785Y45.823
X35.807Y45.858
X35.83Y45.892
X35.853Y45.926
X35.878Y45.96
X35.904Y45.992
X35.93Y46.024
X35.957Y46.055
X35.985Y46.086
X36.094Y46.201
X36.12Y46.228
X36.146Y46.254
X36.172Y46.279
X36.2Y46.303
X36.228Y46.327
X36.256Y46.351
X36.285Y46.373
X36.314Y46.395
X36.436Y46.484
X36.469Y46.508
X36.503Y46.531
X36.538Y46.553
X36.573Y46.574
X36.609Y46.594
X36.645Y46.613
X36.772Y46.679
X36.806Y46.695
X36.84Y46.712
X36.875Y46.727
X36.91Y46.741
X36.945Y46.755
X36.981Y46.768
X37.145Y46.825
X37.183Y46.837
X37.222Y46.849
X37.261Y46.86
X37.3Y46.87
X37.339Y46.878
X37.379Y46.886
X37.591Y46.925
X37.639Y46.933
X37.687Y46.939
X37.735Y46.944
X37.783Y46.948
X37.87Y46.953
X37.917Y46.955
X37.964Y46.956
X43.623
Y48.365
Y48.413
X43.626Y48.462
X43.629Y48.51
X43.635Y48.558
X43.641Y48.606
X43.649Y48.654
X43.656Y48.686
X43.663Y48.718
X43.679Y48.784
X43.689Y48.819
X43.699Y48.853
X43.711Y48.887
X43.723Y48.921
X43.736Y48.955
X43.75Y48.989
X43.765Y49.022
X43.78Y49.055
X43.796Y49.086
X43.812Y49.117
X43.829Y49.148
X43.846Y49.178
X43.864Y49.208
X43.883Y49.237
X43.902Y49.266
X43.932Y49.308
X43.968Y49.354
X43.999Y49.392
X44.01Y49.405
X44.035Y49.434
X44.061Y49.462
X44.088Y49.489
X44.115Y49.516
X44.143Y49.542
X44.172Y49.567
X44.201Y49.592
X44.231Y49.616
X44.261Y49.639
X44.292Y49.661
X44.323Y49.683
X44.355Y49.704
X44.387Y49.724
X44.42Y49.744
X44.453Y49.762
X44.487Y49.78
X44.521Y49.797
X44.557Y49.814
X44.593Y49.83
X44.63Y49.845
X44.667Y49.859
X44.705Y49.872
X44.743Y49.884
X44.781Y49.896
X44.819Y49.906
X44.858Y49.916
X44.897Y49.924
X44.936Y49.931
X44.976Y49.938
X45.015Y49.943
X45.055Y49.948
X45.094Y49.951
X45.134Y49.954
X45.174Y49.955
X45.214Y49.956
X80.714
X80.753Y49.955
X80.793Y49.954
X80.833Y49.951
X80.872Y49.948
X80.911Y49.943
X80.951Y49.938
X80.99Y49.932
X81.029Y49.924
X81.068Y49.916
X81.106Y49.907
X81.144Y49.896
X81.182Y49.885
X81.22Y49.873
X81.258Y49.86
X81.295Y49.846
X81.331Y49.831
X81.368Y49.815
X81.403Y49.799
X81.437Y49.782
X81.471Y49.764
X81.504Y49.746
X81.537Y49.726
X81.569Y49.706
X81.601Y49.685
X81.632Y49.664
X81.663Y49.642
X81.693Y49.618
X81.723Y49.595
X81.752Y49.57
X81.781Y49.545
X81.809Y49.519
X81.836Y49.493
X81.863Y49.465
X81.889Y49.438
X81.914Y49.409
X81.939Y49.38
X81.975Y49.335
X81.998Y49.305
X82.019Y49.274
X82.041Y49.243
X82.061Y49.211
X82.081Y49.179
X82.1Y49.146
X82.118Y49.113
X82.135Y49.08
X82.151Y49.047
X82.167Y49.013
X82.182Y48.979
X82.196Y48.944
X82.209Y48.909
X82.221Y48.874
X82.232Y48.839
X82.243Y48.803
X82.253Y48.767
X82.262Y48.731
X82.27Y48.695
X82.277Y48.659
X82.284Y48.622
X82.289Y48.585
X82.294Y48.549
X82.298Y48.512
X82.301Y48.475
X82.303Y48.438
X82.304Y48.402
X82.305Y48.365
Y46.956
G0Z1
X53.764Y39.725
G1Z-0.6F5
X53.795Y39.687F10
X53.833Y39.656
X53.877Y39.633
X53.918Y39.62
X53.977Y39.614
X54.022Y39.618
X54.069Y39.633
X54.112Y39.656
X54.15Y39.687
X54.182Y39.725
X54.205Y39.769
X54.219Y39.816
X54.224Y39.865
X54.219Y39.914
X54.205Y39.961
X54.182Y40.004
X54.15Y40.043
X54.112Y40.074
X54.069Y40.097
X54.022Y40.111
X53.973Y40.116
X53.924Y40.111
X53.877Y40.097
X53.833Y40.074
X53.795Y40.043
X53.764Y40.004
X53.741Y39.961
X53.727Y39.915
X53.721Y39.865
X53.726Y39.816
X53.741Y39.769
X53.764Y39.725
G0Z1
X62.446Y33.961
G1Z-0.6F5
X62.375Y33.817F10
X62.345Y33.687
Y33.543
X62.377Y33.404
X62.435Y33.284
X62.524Y33.169
X62.597Y33.104
X62.659Y33.064
X62.662Y33.062
X62.775Y33.018
X62.929Y32.993
X63.077Y33.001
X63.206Y33.039
X63.332Y33.11
X63.437Y33.206
X63.515Y33.319
X63.569Y33.447
X63.585Y33.525
X63.589Y33.578
X63.57Y33.744
X63.513Y33.9
X63.428Y34.026
X63.33Y34.116
X63.204Y34.187
X63.068Y34.227
X62.932Y34.236
X62.787Y34.215
X62.699Y34.186
X62.649Y34.16
X62.619Y34.141
X62.537Y34.075
X62.446Y33.961
G0Z1
X71.74Y39.725
G1Z-0.6F5
X71.772Y39.687F10
X71.81Y39.656
X71.853Y39.633
X71.9Y39.618
X71.949Y39.614
X71.998Y39.618
X72.046Y39.633
X72.089Y39.656
X72.127Y39.687
X72.158Y39.725
X72.182Y39.769
X72.196Y39.816
X72.201Y39.865
X72.196Y39.914
X72.182Y39.961
X72.158Y40.004
X72.127Y40.043
X72.089Y40.074
X72.046Y40.097
X71.998Y40.111
X71.949Y40.116
X71.9Y40.111
X71.853Y40.097
X71.81Y40.074
X71.772Y40.043
X71.74Y40.004
X71.717Y39.961
X71.703Y39.914
X71.698Y39.865
X71.703Y39.816
X71.717Y39.769
X71.74Y39.725
G0Z1
X82.305Y46.956
G1Z-0.6F5
X87.964F10
X88Y46.955
X88.037Y46.954
X88.074Y46.952
X88.111Y46.949
X88.147Y46.945
X88.183Y46.941
X88.443Y46.904
X88.484Y46.898
X88.525Y46.891
X88.566Y46.882
X88.606Y46.873
X88.647Y46.862
X88.687Y46.851
X88.726Y46.838
X88.766Y46.824
X89.006Y46.737
X89.04Y46.724
X89.074Y46.711
X89.107Y46.697
X89.139Y46.682
X89.172Y46.666
X89.204Y46.65
X89.236Y46.632
X89.267Y46.615
X89.298Y46.596
X89.329Y46.577
X89.512Y46.458
X89.542Y46.438
X89.571Y46.418
X89.6Y46.397
X89.629Y46.375
X89.657Y46.352
X89.684Y46.329
X89.711Y46.306
X89.737Y46.281
X89.763Y46.257
X89.788Y46.231
X89.912Y46.104
X89.936Y46.078
X89.96Y46.052
X89.983Y46.025
X90.006Y45.998
X90.028Y45.97
X90.05Y45.942
X90.07Y45.913
X90.091Y45.884
X90.11Y45.854
X90.129Y45.824
X90.228Y45.662
X90.247Y45.63
X90.265Y45.598
X90.282Y45.565
X90.299Y45.532
X90.315Y45.499
X90.33Y45.465
X90.344Y45.431
X90.358Y45.396
X90.371Y45.362
X90.383Y45.327
X90.451Y45.116
X90.464Y45.074
X90.476Y45.032
X90.487Y44.989
X90.497Y44.946
X90.505Y44.903
X90.512Y44.859
X90.531Y44.737
X90.536Y44.697
X90.541Y44.657
X90.544Y44.616
X90.547Y44.576
X90.553Y44.441
X90.554Y44.403
X90.555Y44.365
Y28.865
X90.554Y28.822
X90.552Y28.779
X90.55Y28.736
X90.546Y28.694
X90.515Y28.412
X90.511Y28.375
X90.505Y28.338
X90.499Y28.301
X90.492Y28.265
X90.484Y28.228
X90.476Y28.192
X90.466Y28.157
X90.456Y28.121
X90.445Y28.086
X90.433Y28.05
X90.36Y27.847
X90.348Y27.814
X90.335Y27.781
X90.321Y27.748
X90.307Y27.716
X90.292Y27.684
X90.276Y27.652
X90.259Y27.621
X90.242Y27.59
X90.224Y27.559
X90.206Y27.529
X90.113Y27.382
X90.091Y27.349
X90.068Y27.316
X90.045Y27.283
X90.02Y27.251
X89.995Y27.22
X89.969Y27.189
X89.942Y27.159
X89.915Y27.13
X89.803Y27.014
X89.778Y26.989
X89.753Y26.964
X89.727Y26.939
X89.7Y26.915
X89.672Y26.892
X89.645Y26.87
X89.616Y26.848
X89.588Y26.827
X89.465Y26.738
X89.437Y26.719
X89.409Y26.699
X89.38Y26.681
X89.35Y26.663
X89.321Y26.646
X89.291Y26.629
X89.26Y26.613
X89.23Y26.598
X89.061Y26.516
X89.025Y26.499
X88.988Y26.482
X88.951Y26.467
X88.913Y26.453
X88.875Y26.439
X88.836Y26.427
X88.798Y26.415
X88.759Y26.405
X88.478Y26.333
X88.435Y26.323
X88.392Y26.314
X88.349Y26.306
X88.306Y26.299
X88.263Y26.294
X88.219Y26.29
X88.098Y26.279
X88.064Y26.277
X88.031Y26.275
X87.997Y26.274
X87.964
X82.305
Y24.865
X82.304Y24.83
X82.303Y24.795
X82.301Y24.76
X82.299Y24.725
X82.295Y24.685
X82.29Y24.645
X82.283Y24.605
X82.276Y24.566
X82.268Y24.526
X82.259Y24.487
X82.249Y24.448
X82.239Y24.412
X82.228Y24.377
X82.216Y24.342
X82.195Y24.284
X82.175Y24.236
X82.167Y24.217
X82.151Y24.182
X82.134Y24.148
X82.116Y24.114
X82.098Y24.08
X82.078Y24.047
X82.058Y24.014
X82.037Y23.982
X82.016Y23.95
X81.993Y23.919
X81.97Y23.889
X81.946Y23.859
X81.922Y23.829
X81.896Y23.801
X81.87Y23.772
X81.844Y23.745
X81.816Y23.718
X81.788Y23.692
X81.76Y23.666
X81.731Y23.641
X81.701Y23.617
X81.67Y23.594
X81.639Y23.571
X81.608Y23.549
X81.575Y23.527
X81.542Y23.506
X81.507Y23.486
X81.473Y23.467
X81.438Y23.448
X81.403Y23.431
X81.367Y23.414
X81.33Y23.398
X81.294Y23.383
X81.257Y23.369
X81.219Y23.356
X81.182Y23.344
X81.144Y23.333
X81.105Y23.323
X81.067Y23.314
X81.028Y23.305
X80.989Y23.298
X80.95Y23.292
X80.911Y23.286
X80.872Y23.282
X80.832Y23.278
X80.793Y23.276
X80.753Y23.274
X80.714
X45.214
X45.174
X45.134Y23.276
X45.095Y23.278
X45.055Y23.282
X45.015Y23.286
X44.976Y23.292
X44.937Y23.298
X44.898Y23.306
X44.859Y23.314
X44.82Y23.323
X44.782Y23.334
X44.744Y23.345
X44.706Y23.357
X44.668Y23.37
X44.631Y23.384
X44.594Y23.399
X44.558Y23.415
X44.522Y23.432
X44.486Y23.45
X44.451Y23.469
X44.417Y23.488
X44.382Y23.508
X44.348Y23.53
X44.316Y23.552
X44.284Y23.574
X44.253Y23.596
X44.223Y23.62
X44.193Y23.644
X44.164Y23.669
X44.136Y23.695
X44.108Y23.721
X44.08Y23.748
X44.054Y23.776
X44.028Y23.804
X44.003Y23.833
X43.978Y23.863
X43.954Y23.893
X43.931Y23.924
X43.909Y23.955
X43.887Y23.987
X43.866Y24.019
X43.846Y24.052
X43.827Y24.085
X43.809Y24.119
X43.791Y24.153
X43.774Y24.187
X43.752Y24.236
X43.732Y24.286
X43.724Y24.307
X43.711Y24.342
X43.7Y24.376
X43.689Y24.411
X43.679Y24.447
X43.669Y24.486
X43.66Y24.525
X43.651Y24.564
X43.644Y24.604
X43.638Y24.644
X43.633Y24.684
X43.629Y24.724
X43.626Y24.759
X43.624Y24.794
X43.623Y24.83
Y24.865
Y26.274
X37.964
X37.926
X37.889Y26.276
X37.851Y26.278
X37.813Y26.281
X37.776Y26.285
X37.739Y26.29
X37.48Y26.327
X37.439Y26.333
X37.398Y26.341
X37.357Y26.349
X37.317Y26.359
X37.277Y26.369
X37.237Y26.381
X37.198Y26.394
X37.158Y26.407
X36.918Y26.495
X36.884Y26.508
X36.851Y26.522
X36.818Y26.536
X36.786Y26.551
X36.753Y26.566
X36.721Y26.583
X36.69Y26.6
X36.659Y26.618
X36.628Y26.636
X36.598Y26.655
X36.414Y26.774
X36.384Y26.794
X36.355Y26.814
X36.326Y26.835
X36.298Y26.857
X36.27Y26.88
X36.243Y26.902
X36.216Y26.926
X36.19Y26.95
X36.164Y26.975
X36.139Y27
X36.016Y27.127
X35.991Y27.153
X35.968Y27.179
X35.944Y27.206
X35.922Y27.233
X35.9Y27.261
X35.878Y27.289
X35.858Y27.317
X35.838Y27.347
X35.818Y27.376
X35.799Y27.406
X35.7Y27.568
X35.68Y27.602
X35.661Y27.635
X35.643Y27.67
X35.626Y27.705
X35.609Y27.74
X35.593Y27.775
X35.57Y27.833
X35.545Y27.903
X35.477Y28.113
X35.463Y28.155
X35.452Y28.198
X35.441Y28.241
X35.431Y28.284
X35.423Y28.327
X35.416Y28.37
X35.397Y28.492
X35.392Y28.533
X35.387Y28.573
X35.383Y28.614
X35.381Y28.654
X35.375Y28.789
X35.373Y28.827
Y28.865
Y44.365
Y44.397
X35.374Y44.43
X35.376Y44.463
X35.378Y44.495
X35.401Y44.776
X35.405Y44.814
X35.409Y44.851
X35.415Y44.888
X35.421Y44.926
X35.428Y44.963
X35.436Y45
X35.445Y45.036
X35.454Y45.073
X35.465Y45.109
X35.476Y45.145
X35.543Y45.348
X35.555Y45.382
X35.568Y45.416
X35.581Y45.45
X35.595Y45.483
X35.61Y45.517
X35.626Y45.55
X35.642Y45.582
X35.659Y45.614
X35.677Y45.646
X35.696Y45.677
X35.785Y45.823
X35.807Y45.858
X35.83Y45.892
X35.853Y45.926
X35.878Y45.96
X35.904Y45.992
X35.93Y46.024
X35.957Y46.055
X35.985Y46.086
X36.094Y46.201
X36.12Y46.228
X36.146Y46.254
X36.172Y46.279
X36.2Y46.303
X36.228Y46.327
X36.256Y46.351
X36.285Y46.373
X36.314Y46.395
X36.436Y46.484
X36.469Y46.508
X36.503Y46.531
X36.538Y46.553
X36.573Y46.574
X36.609Y46.594
X36.645Y46.613
X36.772Y46.679
X36.806Y46.695
X36.84Y46.712
X36.875Y46.727
X36.91Y46.741
X36.945Y46.755
X36.981Y46.768
X37.145Y46.825
X37.183Y46.837
X37.222Y46.849
X37.261Y46.86
X37.3Y46.87
X37.339Y46.878
X37.379Y46.886
X37.591Y46.925
X37.639Y46.933
X37.687Y46.939
X37.735Y46.944
X37.783Y46.948
X37.87Y46.953
X37.917Y46.955
X37.964Y46.956
X43.623
Y48.365
Y48.413
X43.626Y48.462
X43.629Y48.51
X43.635Y48.558
X43.641Y48.606
X43.649Y48.654
X43.656Y48.686
X43.663Y48.718
X43.679Y48.784
X43.689Y48.819
X43.699Y48.853
X43.711Y48.887
X43.723Y48.921
X43.736Y48.955
X43.75Y48.989
X43.765Y49.022
X43.78Y49.055
X43.796Y49.086
X43.812Y49.117
X43.829Y49.148
X43.846Y49.178
X43.864Y49.208
X43.883Y49.237
X43.902Y49.266
X43.932Y49.308
X43.968Y49.354
X43.999Y49.392
X44.01Y49.405
X44.035Y49.434
X44.061Y49.462
X44.088Y49.489
X44.115Y49.516
X44.143Y49.542
X44.172Y49.567
X44.201Y49.592
X44.231Y49.616
X44.261Y49.639
X44.292Y49.661
X44.323Y49.683
X44.355Y49.704
X44.387Y49.724
X44.42Y49.744
X44.453Y49.762
X44.487Y49.78
X44.521Y49.797
X44.557Y49.814
X44.593Y49.83
X44.63Y49.845
X44.667Y49.859
X44.705Y49.872
X44.743Y49.884
X44.781Y49.896
X44.819Y49.906
X44.858Y49.916
X44.897Y49.924
X44.936Y49.931
X44.976Y49.938
X45.015Y49.943
X45.055Y49.948
X45.094Y49.951
X45.134Y49.954
X45.174Y49.955
X45.214Y49.956
X80.714
X80.753Y49.955
X80.793Y49.954
X80.833Y49.951
X80.872Y49.948
X80.911Y49.943
X80.951Y49.938
X80.99Y49.932
X81.029Y49.924
X81.068Y49.916
X81.106Y49.907
X81.144Y49.896
X81.182Y49.885
X81.22Y49.873
X81.258Y49.86
X81.295Y49.846
X81.331Y49.831
X81.368Y49.815
X81.403Y49.799
X81.437Y49.782
X81.471Y49.764
X81.504Y49.746
X81.537Y49.726
X81.569Y49.706
X81.601Y49.685
X81.632Y49.664
X81.663Y49.642
X81.693Y49.618
X81.723Y49.595
X81.752Y49.57
X81.781Y49.545
X81.809Y49.519
X81.836Y49.493
X81.863Y49.465
X81.889Y49.438
X81.914Y49.409
X81.939Y49.38
X81.975Y49.335
X81.998Y49.305
X82.019Y49.274
X82.041Y49.243
X82.061Y49.211
X82.081Y49.179
X82.1Y49.146
X82.118Y49.113
X82.135Y49.08
X82.151Y49.047
X82.167Y49.013
X82.182Y48.979
X82.196Y48.944
X82.209Y48.909
X82.221Y48.874
X82.232Y48.839
X82.243Y48.803
X82.253Y48.767
X82.262Y48.731
X82.27Y48.695
X82.277Y48.659
X82.284Y48.622
X82.289Y48.585
X82.294Y48.549
X82.298Y48.512
X82.301Y48.475
X82.303Y48.438
X82.304Y48.402
X82.305Y48.365
Y46.956
G0Z1
X53.764Y39.725
G1Z-0.7F5
X53.795Y39.687F10
X53.833Y39.656
X53.877Y39.633
X53.918Y39.62
X53.977Y39.614
X54.022Y39.618
X54.069Y39.633
X54.112Y39.656
X54.15Y39.687
X54.182Y39.725
X54.205Y39.769
X54.219Y39.816
X54.224Y39.865
X54.219Y39.914
X54.205Y39.961
X54.182Y40.004
X54.15Y40.043
X54.112Y40.074
X54.069Y40.097
X54.022Y40.111
X53.973Y40.116
X53.924Y40.111
X53.877Y40.097
X53.833Y40.074
X53.795Y40.043
X53.764Y40.004
X53.741Y39.961
X53.727Y39.915
X53.721Y39.865
X53.726Y39.816
X53.741Y39.769
X53.764Y39.725
G0Z1
X62.446Y33.961
G1Z-0.7F5
X62.375Y33.817F10
X62.345Y33.687
Y33.543
X62.377Y33.404
X62.435Y33.284
X62.524Y33.169
X62.597Y33.104
X62.659Y33.064
X62.662Y33.062
X62.775Y33.018
X62.929Y32.993
X63.077Y33.001
X63.206Y33.039
X63.332Y33.11
X63.437Y33.206
X63.515Y33.319
X63.569Y33.447
X63.585Y33.525
X63.589Y33.578
X63.57Y33.744
X63.513Y33.9
X63.428Y34.026
X63.33Y34.116
X63.204Y34.187
X63.068Y34.227
X62.932Y34.236
X62.787Y34.215
X62.699Y34.186
X62.649Y34.16
X62.619Y34.141
X62.537Y34.075
X62.446Y33.961
G0Z1
X71.74Y39.725
G1Z-0.7F5
X71.772Y39.687F10
X71.81Y39.656
X71.853Y39.633
X71.9Y39.618
X71.949Y39.614
X71.998Y39.618
X72.046Y39.633
X72.089Y39.656
X72.127Y39.687
X72.158Y39.725
X72.182Y39.769
X72.196Y39.816
X72.201Y39.865
X72.196Y39.914
X72.182Y39.961
X72.158Y40.004
X72.127Y40.043
X72.089Y40.074
X72.046Y40.097
X71.998Y40.111
X71.949Y40.116
X71.9Y40.111
X71.853Y40.097
X71.81Y40.074
X71.772Y40.043
X71.74Y40.004
X71.717Y39.961
X71.703Y39.914
X71.698Y39.865
X71.703Y39.816
X71.717Y39.769
X71.74Y39.725
G0Z1
X82.305Y46.956
G1Z-0.7F5
X87.964F10
X88Y46.955
X88.037Y46.954
X88.074Y46.952
X88.111Y46.949
X88.147Y46.945
X88.183Y46.941
X88.443Y46.904
X88.484Y46.898
X88.525Y46.891
X88.566Y46.882
X88.606Y46.873
X88.647Y46.862
X88.687Y46.851
X88.726Y46.838
X88.766Y46.824
X89.006Y46.737
X89.04Y46.724
X89.074Y46.711
X89.107Y46.697
X89.139Y46.682
X89.172Y46.666
X89.204Y46.65
X89.236Y46.632
X89.267Y46.615
X89.298Y46.596
X89.329Y46.577
X89.512Y46.458
X89.542Y46.438
X89.571Y46.418
X89.6Y46.397
X89.629Y46.375
X89.657Y46.352
X89.684Y46.329
X89.711Y46.306
X89.737Y46.281
X89.763Y46.257
X89.788Y46.231
X89.912Y46.104
X89.936Y46.078
X89.96Y46.052
X89.983Y46.025
X90.006Y45.998
X90.028Y45.97
X90.05Y45.942
X90.07Y45.913
X90.091Y45.884
X90.11Y45.854
X90.129Y45.824
X90.228Y45.662
X90.247Y45.63
X90.265Y45.598
X90.282Y45.565
X90.299Y45.532
X90.315Y45.499
X90.33Y45.465
X90.344Y45.431
X90.358Y45.396
X90.371Y45.362
X90.383Y45.327
X90.451Y45.116
X90.464Y45.074
X90.476Y45.032
X90.487Y44.989
X90.497Y44.946
X90.505Y44.903
X90.512Y44.859
X90.531Y44.737
X90.536Y44.697
X90.541Y44.657
X90.544Y44.616
X90.547Y44.576
X90.553Y44.441
X90.554Y44.403
X90.555Y44.365
Y28.865
X90.554Y28.822
X90.552Y28.779
X90.55Y28.736
X90.546Y28.694
X90.515Y28.412
X90.511Y28.375
X90.505Y28.338
X90.499Y28.301
X90.492Y28.265
X90.484Y28.228
X90.476Y28.192
X90.466Y28.157
X90.456Y28.121
X90.445Y28.086
X90.433Y28.05
X90.36Y27.847
X90.348Y27.814
X90.335Y27.781
X90.321Y27.748
X90.307Y27.716
X90.292Y27.684
X90.276Y27.652
X90.259Y27.621
X90.242Y27.59
X90.224Y27.559
X90.206Y27.529
X90.113Y27.382
X90.091Y27.349
X90.068Y27.316
X90.045Y27.283
X90.02Y27.251
X89.995Y27.22
X89.969Y27.189
X89.942Y27.159
X89.915Y27.13
X89.803Y27.014
X89.778Y26.989
X89.753Y26.964
X89.727Y26.939
X89.7Y26.915
X89.672Y26.892
X89.645Y26.87
X89.616Y26.848
X89.588Y26.827
X89.465Y26.738
X89.437Y26.719
X89.409Y26.699
X89.38Y26.681
X89.35Y26.663
X89.321Y26.646
X89.291Y26.629
X89.26Y26.613
X89.23Y26.598
X89.061Y26.516
X89.025Y26.499
X88.988Y26.482
X88.951Y26.467
X88.913Y26.453
X88.875Y26.439
X88.836Y26.427
X88.798Y26.415
X88.759Y26.405
X88.478Y26.333
X88.435Y26.323
X88.392Y26.314
X88.349Y26.306
X88.306Y26.299
X88.263Y26.294
X88.219Y26.29
X88.098Y26.279
X88.064Y26.277
X88.031Y26.275
X87.997Y26.274
X87.964
X82.305
Y24.865
X82.304Y24.83
X82.303Y24.795
X82.301Y24.76
X82.299Y24.725
X82.295Y24.685
X82.29Y24.645
X82.283Y24.605
X82.276Y24.566
X82.268Y24.526
X82.259Y24.487
X82.249Y24.448
X82.239Y24.412
X82.228Y24.377
X82.216Y24.342
X82.195Y24.284
X82.175Y24.236
X82.167Y24.217
X82.151Y24.182
X82.134Y24.148
X82.116Y24.114
X82.098Y24.08
X82.078Y24.047
X82.058Y24.014
X82.037Y23.982
X82.016Y23.95
X81.993Y23.919
X81.97Y23.889
X81.946Y23.859
X81.922Y23.829
X81.896Y23.801
X81.87Y23.772
X81.844Y23.745
X81.816Y23.718
X81.788Y23.692
X81.76Y23.666
X81.731Y23.641
X81.701Y23.617
X81.67Y23.594
X81.639Y23.571
X81.608Y23.549
X81.575Y23.527
X81.542Y23.506
X81.507Y23.486
X81.473Y23.467
X81.438Y23.448
X81.403Y23.431
X81.367Y23.414
X81.33Y23.398
X81.294Y23.383
X81.257Y23.369
X81.219Y23.356
X81.182Y23.344
X81.144Y23.333
X81.105Y23.323
X81.067Y23.314
X81.028Y23.305
X80.989Y23.298
X80.95Y23.292
X80.911Y23.286
X80.872Y23.282
X80.832Y23.278
X80.793Y23.276
X80.753Y23.274
X80.714
X45.214
X45.174
X45.134Y23.276
X45.095Y23.278
X45.055Y23.282
X45.015Y23.286
X44.976Y23.292
X44.937Y23.298
X44.898Y23.306
X44.859Y23.314
X44.82Y23.323
X44.782Y23.334
X44.744Y23.345
X44.706Y23.357
X44.668Y23.37
X44.631Y23.384
X44.594Y23.399
X44.558Y23.415
X44.522Y23.432
X44.486Y23.45
X44.451Y23.469
X44.417Y23.488
X44.382Y23.508
X44.348Y23.53
X44.316Y23.552
X44.284Y23.574
X44.253Y23.596
X44.223Y23.62
X44.193Y23.644
X44.164Y23.669
X44.136Y23.695
X44.108Y23.721
X44.08Y23.748
X44.054Y23.776
X44.028Y23.804
X44.003Y23.833
X43.978Y23.863
X43.954Y23.893
X43.931Y23.924
X43.909Y23.955
X43.887Y23.987
X43.866Y24.019
X43.846Y24.052
X43.827Y24.085
X43.809Y24.119
X43.791Y24.153
X43.774Y24.187
X43.752Y24.236
X43.732Y24.286
X43.724Y24.307
X43.711Y24.342
X43.7Y24.376
X43.689Y24.411
X43.679Y24.447
X43.669Y24.486
X43.66Y24.525
X43.651Y24.564
X43.644Y24.604
X43.638Y24.644
X43.633Y24.684
X43.629Y24.724
X43.626Y24.759
X43.624Y24.794
X43.623Y24.83
Y24.865
Y26.274
X37.964
X37.926
X37.889Y26.276
X37.851Y26.278
X37.813Y26.281
X37.776Y26.285
X37.739Y26.29
X37.48Y26.327
X37.439Y26.333
X37.398Y26.341
X37.357Y26.349
X37.317Y26.359
X37.277Y26.369
X37.237Y26.381
X37.198Y26.394
X37.158Y26.407
X36.918Y26.495
X36.884Y26.508
X36.851Y26.522
X36.818Y26.536
X36.786Y26.551
X36.753Y26.566
X36.721Y26.583
X36.69Y26.6
X36.659Y26.618
X36.628Y26.636
X36.598Y26.655
X36.414Y26.774
X36.384Y26.794
X36.355Y26.814
X36.326Y26.835
X36.298Y26.857
X36.27Y26.88
X36.243Y26.902
X36.216Y26.926
X36.19Y26.95
X36.164Y26.975
X36.139Y27
X36.016Y27.127
X35.991Y27.153
X35.968Y27.179
X35.944Y27.206
X35.922Y27.233
X35.9Y27.261
X35.878Y27.289
X35.858Y27.317
X35.838Y27.347
X35.818Y27.376
X35.799Y27.406
X35.7Y27.568
X35.68Y27.602
X35.661Y27.635
X35.643Y27.67
X35.626Y27.705
X35.609Y27.74
X35.593Y27.775
X35.57Y27.833
X35.545Y27.903
X35.477Y28.113
X35.463Y28.155
X35.452Y28.198
X35.441Y28.241
X35.431Y28.284
X35.423Y28.327
X35.416Y28.37
X35.397Y28.492
X35.392Y28.533
X35.387Y28.573
X35.383Y28.614
X35.381Y28.654
X35.375Y28.789
X35.373Y28.827
Y28.865
Y44.365
Y44.397
X35.374Y44.43
X35.376Y44.463
X35.378Y44.495
X35.401Y44.776
X35.405Y44.814
X35.409Y44.851
X35.415Y44.888
X35.421Y44.926
X35.428Y44.963
X35.436Y45
X35.445Y45.036
X35.454Y45.073
X35.465Y45.109
X35.476Y45.145
X35.543Y45.348
X35.555Y45.382
X35.568Y45.416
X35.581Y45.45
X35.595Y45.483
X35.61Y45.517
X35.626Y45.55
X35.642Y45.582
X35.659Y45.614
X35.677Y45.646
X35.696Y45.677
X35.785Y45.823
X35.807Y45.858
X35.83Y45.892
X35.853Y45.926
X35.878Y45.96
X35.904Y45.992
X35.93Y46.024
X35.957Y46.055
X35.985Y46.086
X36.094Y46.201
X36.12Y46.228
X36.146Y46.254
X36.172Y46.279
X36.2Y46.303
X36.228Y46.327
X36.256Y46.351
X36.285Y46.373
X36.314Y46.395
X36.436Y46.484
X36.469Y46.508
X36.503Y46.531
X36.538Y46.553
X36.573Y46.574
X36.609Y46.594
X36.645Y46.613
X36.772Y46.679
X36.806Y46.695
X36.84Y46.712
X36.875Y46.727
X36.91Y46.741
X36.945Y46.755
X36.981Y46.768
X37.145Y46.825
X37.183Y46.837
X37.222Y46.849
X37.261Y46.86
X37.3Y46.87
X37.339Y46.878
X37.379Y46.886
X37.591Y46.925
X37.639Y46.933
X37.687Y46.939
X37.735Y46.944
X37.783Y46.948
X37.87Y46.953
X37.917Y46.955
X37.964Y46.956
X43.623
Y48.365
Y48.413
X43.626Y48.462
X43.629Y48.51
X43.635Y48.558
X43.641Y48.606
X43.649Y48.654
X43.656Y48.686
X43.663Y48.718
X43.679Y48.784
X43.689Y48.819
X43.699Y48.853
X43.711Y48.887
X43.723Y48.921
X43.736Y48.955
X43.75Y48.989
X43.765Y49.022
X43.78Y49.055
X43.796Y49.086
X43.812Y49.117
X43.829Y49.148
X43.846Y49.178
X43.864Y49.208
X43.883Y49.237
X43.902Y49.266
X43.932Y49.308
X43.968Y49.354
X43.999Y49.392
X44.01Y49.405
X44.035Y49.434
X44.061Y49.462
X44.088Y49.489
X44.115Y49.516
X44.143Y49.542
X44.172Y49.567
X44.201Y49.592
X44.231Y49.616
X44.261Y49.639
X44.292Y49.661
X44.323Y49.683
X44.355Y49.704
X44.387Y49.724
X44.42Y49.744
X44.453Y49.762
X44.487Y49.78
X44.521Y49.797
X44.557Y49.814
X44.593Y49.83
X44.63Y49.845
X44.667Y49.859
X44.705Y49.872
X44.743Y49.884
X44.781Y49.896
X44.819Y49.906
X44.858Y49.916
X44.897Y49.924
X44.936Y49.931
X44.976Y49.938
X45.015Y49.943
X45.055Y49.948
X45.094Y49.951
X45.134Y49.954
X45.174Y49.955
X45.214Y49.956
X80.714
X80.753Y49.955
X80.793Y49.954
X80.833Y49.951
X80.872Y49.948
X80.911Y49.943
X80.951Y49.938
X80.99Y49.932
X81.029Y49.924
X81.068Y49.916
X81.106Y49.907
X81.144Y49.896
X81.182Y49.885
X81.22Y49.873
X81.258Y49.86
X81.295Y49.846
X81.331Y49.831
X81.368Y49.815
X81.403Y49.799
X81.437Y49.782
X81.471Y49.764
X81.504Y49.746
X81.537Y49.726
X81.569Y49.706
X81.601Y49.685
X81.632Y49.664
X81.663Y49.642
X81.693Y49.618
X81.723Y49.595
X81.752Y49.57
X81.781Y49.545
X81.809Y49.519
X81.836Y49.493
X81.863Y49.465
X81.889Y49.438
X81.914Y49.409
X81.939Y49.38
X81.975Y49.335
X81.998Y49.305
X82.019Y49.274
X82.041Y49.243
X82.061Y49.211
X82.081Y49.179
X82.1Y49.146
X82.118Y49.113
X82.135Y49.08
X82.151Y49.047
X82.167Y49.013
X82.182Y48.979
X82.196Y48.944
X82.209Y48.909
X82.221Y48.874
X82.232Y48.839
X82.243Y48.803
X82.253Y48.767
X82.262Y48.731
X82.27Y48.695
X82.277Y48.659
X82.284Y48.622
X82.289Y48.585
X82.294Y48.549
X82.298Y48.512
X82.301Y48.475
X82.303Y48.438
X82.304Y48.402
X82.305Y48.365
Y46.956
G0Z1
X53.764Y39.725
G1Z-0.8F5
X53.795Y39.687F10
X53.833Y39.656
X53.877Y39.633
X53.918Y39.62
X53.977Y39.614
X54.022Y39.618
X54.069Y39.633
X54.112Y39.656
X54.15Y39.687
X54.182Y39.725
X54.205Y39.769
X54.219Y39.816
X54.224Y39.865
X54.219Y39.914
X54.205Y39.961
X54.182Y40.004
X54.15Y40.043
X54.112Y40.074
X54.069Y40.097
X54.022Y40.111
X53.973Y40.116
X53.924Y40.111
X53.877Y40.097
X53.833Y40.074
X53.795Y40.043
X53.764Y40.004
X53.741Y39.961
X53.727Y39.915
X53.721Y39.865
X53.726Y39.816
X53.741Y39.769
X53.764Y39.725
G0Z1
X62.446Y33.961
G1Z-0.8F5
X62.375Y33.817F10
X62.345Y33.687
Y33.543
X62.377Y33.404
X62.435Y33.284
X62.524Y33.169
X62.597Y33.104
X62.659Y33.064
X62.662Y33.062
X62.775Y33.018
X62.929Y32.993
X63.077Y33.001
X63.206Y33.039
X63.332Y33.11
X63.437Y33.206
X63.515Y33.319
X63.569Y33.447
X63.585Y33.525
X63.589Y33.578
X63.57Y33.744
X63.513Y33.9
X63.428Y34.026
X63.33Y34.116
X63.204Y34.187
X63.068Y34.227
X62.932Y34.236
X62.787Y34.215
X62.699Y34.186
X62.649Y34.16
X62.619Y34.141
X62.537Y34.075
X62.446Y33.961
G0Z1
X71.74Y39.725
G1Z-0.8F5
X71.772Y39.687F10
X71.81Y39.656
X71.853Y39.633
X71.9Y39.618
X71.949Y39.614
X71.998Y39.618
X72.046Y39.633
X72.089Y39.656
X72.127Y39.687
X72.158Y39.725
X72.182Y39.769
X72.196Y39.816
X72.201Y39.865
X72.196Y39.914
X72.182Y39.961
X72.158Y40.004
X72.127Y40.043
X72.089Y40.074
X72.046Y40.097
X71.998Y40.111
X71.949Y40.116
X71.9Y40.111
X71.853Y40.097
X71.81Y40.074
X71.772Y40.043
X71.74Y40.004
X71.717Y39.961
X71.703Y39.914
X71.698Y39.865
X71.703Y39.816
X71.717Y39.769
X71.74Y39.725
G0Z1
X82.305Y46.956
G1Z-0.8F5
X87.964F10
X88Y46.955
X88.037Y46.954
X88.074Y46.952
X88.111Y46.949
X88.147Y46.945
X88.183Y46.941
X88.443Y46.904
X88.484Y46.898
X88.525Y46.891
X88.566Y46.882
X88.606Y46.873
X88.647Y46.862
X88.687Y46.851
X88.726Y46.838
X88.766Y46.824
X89.006Y46.737
X89.04Y46.724
X89.074Y46.711
X89.107Y46.697
X89.139Y46.682
X89.172Y46.666
X89.204Y46.65
X89.236Y46.632
X89.267Y46.615
X89.298Y46.596
X89.329Y46.577
X89.512Y46.458
X89.542Y46.438
X89.571Y46.418
X89.6Y46.397
X89.629Y46.375
X89.657Y46.352
X89.684Y46.329
X89.711Y46.306
X89.737Y46.281
X89.763Y46.257
X89.788Y46.231
X89.912Y46.104
X89.936Y46.078
X89.96Y46.052
X89.983Y46.025
X90.006Y45.998
X90.028Y45.97
X90.05Y45.942
X90.07Y45.913
X90.091Y45.884
X90.11Y45.854
X90.129Y45.824
X90.228Y45.662
X90.247Y45.63
X90.265Y45.598
X90.282Y45.565
X90.299Y45.532
X90.315Y45.499
X90.33Y45.465
X90.344Y45.431
X90.358Y45.396
X90.371Y45.362
X90.383Y45.327
X90.451Y45.116
X90.464Y45.074
X90.476Y45.032
X90.487Y44.989
X90.497Y44.946
X90.505Y44.903
X90.512Y44.859
X90.531Y44.737
X90.536Y44.697
X90.541Y44.657
X90.544Y44.616
X90.547Y44.576
X90.553Y44.441
X90.554Y44.403
X90.555Y44.365
Y28.865
X90.554Y28.822
X90.552Y28.779
X90.55Y28.736
X90.546Y28.694
X90.515Y28.412
X90.511Y28.375
X90.505Y28.338
X90.499Y28.301
X90.492Y28.265
X90.484Y28.228
X90.476Y28.192
X90.466Y28.157
X90.456Y28.121
X90.445Y28.086
X90.433Y28.05
X90.36Y27.847
X90.348Y27.814
X90.335Y27.781
X90.321Y27.748
X90.307Y27.716
X90.292Y27.684
X90.276Y27.652
X90.259Y27.621
X90.242Y27.59
X90.224Y27.559
X90.206Y27.529
X90.113Y27.382
X90.091Y27.349
X90.068Y27.316
X90.045Y27.283
X90.02Y27.251
X89.995Y27.22
X89.969Y27.189
X89.942Y27.159
X89.915Y27.13
X89.803Y27.014
X89.778Y26.989
X89.753Y26.964
X89.727Y26.939
X89.7Y26.915
X89.672Y26.892
X89.645Y26.87
X89.616Y26.848
X89.588Y26.827
X89.465Y26.738
X89.437Y26.719
X89.409Y26.699
X89.38Y26.681
X89.35Y26.663
X89.321Y26.646
X89.291Y26.629
X89.26Y26.613
X89.23Y26.598
X89.061Y26.516
X89.025Y26.499
X88.988Y26.482
X88.951Y26.467
X88.913Y26.453
X88.875Y26.439
X88.836Y26.427
X88.798Y26.415
X88.759Y26.405
X88.478Y26.333
X88.435Y26.323
X88.392Y26.314
X88.349Y26.306
X88.306Y26.299
X88.263Y26.294
X88.219Y26.29
X88.098Y26.279
X88.064Y26.277
X88.031Y26.275
X87.997Y26.274
X87.964
X82.305
Y24.865
X82.304Y24.83
X82.303Y24.795
X82.301Y24.76
X82.299Y24.725
X82.295Y24.685
X82.29Y24.645
X82.283Y24.605
X82.276Y24.566
X82.268Y24.526
X82.259Y24.487
X82.249Y24.448
X82.239Y24.412
X82.228Y24.377
X82.216Y24.342
X82.195Y24.284
X82.175Y24.236
X82.167Y24.217
X82.151Y24.182
X82.134Y24.148
X82.116Y24.114
X82.098Y24.08
X82.078Y24.047
X82.058Y24.014
X82.037Y23.982
X82.016Y23.95
X81.993Y23.919
X81.97Y23.889
X81.946Y23.859
X81.922Y23.829
X81.896Y23.801
X81.87Y23.772
X81.844Y23.745
X81.816Y23.718
X81.788Y23.692
X81.76Y23.666
X81.731Y23.641
X81.701Y23.617
X81.67Y23.594
X81.639Y23.571
X81.608Y23.549
X81.575Y23.527
X81.542Y23.506
X81.507Y23.486
X81.473Y23.467
X81.438Y23.448
X81.403Y23.431
X81.367Y23.414
X81.33Y23.398
X81.294Y23.383
X81.257Y23.369
X81.219Y23.356
X81.182Y23.344
X81.144Y23.333
X81.105Y23.323
X81.067Y23.314
X81.028Y23.305
X80.989Y23.298
X80.95Y23.292
X80.911Y23.286
X80.872Y23.282
X80.832Y23.278
X80.793Y23.276
X80.753Y23.274
X80.714
X45.214
X45.174
X45.134Y23.276
X45.095Y23.278
X45.055Y23.282
X45.015Y23.286
X44.976Y23.292
X44.937Y23.298
X44.898Y23.306
X44.859Y23.314
X44.82Y23.323
X44.782Y23.334
X44.744Y23.345
X44.706Y23.357
X44.668Y23.37
X44.631Y23.384
X44.594Y23.399
X44.558Y23.415
X44.522Y23.432
X44.486Y23.45
X44.451Y23.469
X44.417Y23.488
X44.382Y23.508
X44.348Y23.53
X44.316Y23.552
X44.284Y23.574
X44.253Y23.596
X44.223Y23.62
X44.193Y23.644
X44.164Y23.669
X44.136Y23.695
X44.108Y23.721
X44.08Y23.748
X44.054Y23.776
X44.028Y23.804
X44.003Y23.833
X43.978Y23.863
X43.954Y23.893
X43.931Y23.924
X43.909Y23.955
X43.887Y23.987
X43.866Y24.019
X43.846Y24.052
X43.827Y24.085
X43.809Y24.119
X43.791Y24.153
X43.774Y24.187
X43.752Y24.236
X43.732Y24.286
X43.724Y24.307
X43.711Y24.342
X43.7Y24.376
X43.689Y24.411
X43.679Y24.447
X43.669Y24.486
X43.66Y24.525
X43.651Y24.564
X43.644Y24.604
X43.638Y24.644
X43.633Y24.684
X43.629Y24.724
X43.626Y24.759
X43.624Y24.794
X43.623Y24.83
Y24.865
Y26.274
X37.964
X37.926
X37.889Y26.276
X37.851Y26.278
X37.813Y26.281
X37.776Y26.285
X37.739Y26.29
X37.48Y26.327
X37.439Y26.333
X37.398Y26.341
X37.357Y26.349
X37.317Y26.359
X37.277Y26.369
X37.237Y26.381
X37.198Y26.394
X37.158Y26.407
X36.918Y26.495
X36.884Y26.508
X36.851Y26.522
X36.818Y26.536
X36.786Y26.551
X36.753Y26.566
X36.721Y26.583
X36.69Y26.6
X36.659Y26.618
X36.628Y26.636
X36.598Y26.655
X36.414Y26.774
X36.384Y26.794
X36.355Y26.814
X36.326Y26.835
X36.298Y26.857
X36.27Y26.88
X36.243Y26.902
X36.216Y26.926
X36.19Y26.95
X36.164Y26.975
X36.139Y27
X36.016Y27.127
X35.991Y27.153
X35.968Y27.179
X35.944Y27.206
X35.922Y27.233
X35.9Y27.261
X35.878Y27.289
X35.858Y27.317
X35.838Y27.347
X35.818Y27.376
X35.799Y27.406
X35.7Y27.568
X35.68Y27.602
X35.661Y27.635
X35.643Y27.67
X35.626Y27.705
X35.609Y27.74
X35.593Y27.775
X35.57Y27.833
X35.545Y27.903
X35.477Y28.113
X35.463Y28.155
X35.452Y28.198
X35.441Y28.241
X35.431Y28.284
X35.423Y28.327
X35.416Y28.37
X35.397Y28.492
X35.392Y28.533
X35.387Y28.573
X35.383Y28.614
X35.381Y28.654
X35.375Y28.789
X35.373Y28.827
Y28.865
Y44.365
Y44.397
X35.374Y44.43
X35.376Y44.463
X35.378Y44.495
X35.401Y44.776
X35.405Y44.814
X35.409Y44.851
X35.415Y44.888
X35.421Y44.926
X35.428Y44.963
X35.436Y45
X35.445Y45.036
X35.454Y45.073
X35.465Y45.109
X35.476Y45.145
X35.543Y45.348
X35.555Y45.382
X35.568Y45.416
X35.581Y45.45
X35.595Y45.483
X35.61Y45.517
X35.626Y45.55
X35.642Y45.582
X35.659Y45.614
X35.677Y45.646
X35.696Y45.677
X35.785Y45.823
X35.807Y45.858
X35.83Y45.892
X35.853Y45.926
X35.878Y45.96
X35.904Y45.992
X35.93Y46.024
X35.957Y46.055
X35.985Y46.086
X36.094Y46.201
X36.12Y46.228
X36.146Y46.254
X36.172Y46.279
X36.2Y46.303
X36.228Y46.327
X36.256Y46.351
X36.285Y46.373
X36.314Y46.395
X36.436Y46.484
X36.469Y46.508
X36.503Y46.531
X36.538Y46.553
X36.573Y46.574
X36.609Y46.594
X36.645Y46.613
X36.772Y46.679
X36.806Y46.695
X36.84Y46.712
X36.875Y46.727
X36.91Y46.741
X36.945Y46.755
X36.981Y46.768
X37.145Y46.825
X37.183Y46.837
X37.222Y46.849
X37.261Y46.86
X37.3Y46.87
X37.339Y46.878
X37.379Y46.886
X37.591Y46.925
X37.639Y46.933
X37.687Y46.939
X37.735Y46.944
X37.783Y46.948
X37.87Y46.953
X37.917Y46.955
X37.964Y46.956
X43.623
Y48.365
Y48.413
X43.626Y48.462
X43.629Y48.51
X43.635Y48.558
X43.641Y48.606
X43.649Y48.654
X43.656Y48.686
X43.663Y48.718
X43.679Y48.784
X43.689Y48.819
X43.699Y48.853
X43.711Y48.887
X43.723Y48.921
X43.736Y48.955
X43.75Y48.989
X43.765Y49.022
X43.78Y49.055
X43.796Y49.086
X43.812Y49.117
X43.829Y49.148
X43.846Y49.178
X43.864Y49.208
X43.883Y49.237
X43.902Y49.266
X43.932Y49.308
X43.968Y49.354
X43.999Y49.392
X44.01Y49.405
X44.035Y49.434
X44.061Y49.462
X44.088Y49.489
X44.115Y49.516
X44.143Y49.542
X44.172Y49.567
X44.201Y49.592
X44.231Y49.616
X44.261Y49.639
X44.292Y49.661
X44.323Y49.683
X44.355Y49.704
X44.387Y49.724
X44.42Y49.744
X44.453Y49.762
X44.487Y49.78
X44.521Y49.797
X44.557Y49.814
X44.593Y49.83
X44.63Y49.845
X44.667Y49.859
X44.705Y49.872
X44.743Y49.884
X44.781Y49.896
X44.819Y49.906
X44.858Y49.916
X44.897Y49.924
X44.936Y49.931
X44.976Y49.938
X45.015Y49.943
X45.055Y49.948
X45.094Y49.951
X45.134Y49.954
X45.174Y49.955
X45.214Y49.956
X80.714
X80.753Y49.955
X80.793Y49.954
X80.833Y49.951
X80.872Y49.948
X80.911Y49.943
X80.951Y49.938
X80.99Y49.932
X81.029Y49.924
X81.068Y49.916
X81.106Y49.907
X81.144Y49.896
X81.182Y49.885
X81.22Y49.873
X81.258Y49.86
X81.295Y49.846
X81.331Y49.831
X81.368Y49.815
X81.403Y49.799
X81.437Y49.782
X81.471Y49.764
X81.504Y49.746
X81.537Y49.726
X81.569Y49.706
X81.601Y49.685
X81.632Y49.664
X81.663Y49.642
X81.693Y49.618
X81.723Y49.595
X81.752Y49.57
X81.781Y49.545
X81.809Y49.519
X81.836Y49.493
X81.863Y49.465
X81.889Y49.438
X81.914Y49.409
X81.939Y49.38
X81.975Y49.335
X81.998Y49.305
X82.019Y49.274
X82.041Y49.243
X82.061Y49.211
X82.081Y49.179
X82.1Y49.146
X82.118Y49.113
X82.135Y49.08
X82.151Y49.047
X82.167Y49.013
X82.182Y48.979
X82.196Y48.944
X82.209Y48.909
X82.221Y48.874
X82.232Y48.839
X82.243Y48.803
X82.253Y48.767
X82.262Y48.731
X82.27Y48.695
X82.277Y48.659
X82.284Y48.622
X82.289Y48.585
X82.294Y48.549
X82.298Y48.512
X82.301Y48.475
X82.303Y48.438
X82.304Y48.402
X82.305Y48.365
Y46.956
G0Z1
X53.764Y39.725
G1Z-0.9F5
X53.795Y39.687F10
X53.833Y39.656
X53.877Y39.633
X53.918Y39.62
X53.977Y39.614
X54.022Y39.618
X54.069Y39.633
X54.112Y39.656
X54.15Y39.687
X54.182Y39.725
X54.205Y39.769
X54.219Y39.816
X54.224Y39.865
X54.219Y39.914
X54.205Y39.961
X54.182Y40.004
X54.15Y40.043
X54.112Y40.074
X54.069Y40.097
X54.022Y40.111
X53.973Y40.116
X53.924Y40.111
X53.877Y40.097
X53.833Y40.074
X53.795Y40.043
X53.764Y40.004
X53.741Y39.961
X53.727Y39.915
X53.721Y39.865
X53.726Y39.816
X53.741Y39.769
X53.764Y39.725
G0Z1
X62.446Y33.961
G1Z-0.9F5
X62.375Y33.817F10
X62.345Y33.687
Y33.543
X62.377Y33.404
X62.435Y33.284
X62.524Y33.169
X62.597Y33.104
X62.659Y33.064
X62.662Y33.062
X62.775Y33.018
X62.929Y32.993
X63.077Y33.001
X63.206Y33.039
X63.332Y33.11
X63.437Y33.206
X63.515Y33.319
X63.569Y33.447
X63.585Y33.525
X63.589Y33.578
X63.57Y33.744
X63.513Y33.9
X63.428Y34.026
X63.33Y34.116
X63.204Y34.187
X63.068Y34.227
X62.932Y34.236
X62.787Y34.215
X62.699Y34.186
X62.649Y34.16
X62.619Y34.141
X62.537Y34.075
X62.446Y33.961
G0Z1
X71.74Y39.725
G1Z-0.9F5
X71.772Y39.687F10
X71.81Y39.656
X71.853Y39.633
X71.9Y39.618
X71.949Y39.614
X71.998Y39.618
X72.046Y39.633
X72.089Y39.656
X72.127Y39.687
X72.158Y39.725
X72.182Y39.769
X72.196Y39.816
X72.201Y39.865
X72.196Y39.914
X72.182Y39.961
X72.158Y40.004
X72.127Y40.043
X72.089Y40.074
X72.046Y40.097
X71.998Y40.111
X71.949Y40.116
X71.9Y40.111
X71.853Y40.097
X71.81Y40.074
X71.772Y40.043
X71.74Y40.004
X71.717Y39.961
X71.703Y39.914
X71.698Y39.865
X71.703Y39.816
X71.717Y39.769
X71.74Y39.725
G0Z1
X82.305Y46.956
G1Z-0.9F5
X87.964F10
X88Y46.955
X88.037Y46.954
X88.074Y46.952
X88.111Y46.949
X88.147Y46.945
X88.183Y46.941
X88.443Y46.904
X88.484Y46.898
X88.525Y46.891
X88.566Y46.882
X88.606Y46.873
X88.647Y46.862
X88.687Y46.851
X88.726Y46.838
X88.766Y46.824
X89.006Y46.737
X89.04Y46.724
X89.074Y46.711
X89.107Y46.697
X89.139Y46.682
X89.172Y46.666
X89.204Y46.65
X89.236Y46.632
X89.267Y46.615
X89.298Y46.596
X89.329Y46.577
X89.512Y46.458
X89.542Y46.438
X89.571Y46.418
X89.6Y46.397
X89.629Y46.375
X89.657Y46.352
X89.684Y46.329
X89.711Y46.306
X89.737Y46.281
X89.763Y46.257
X89.788Y46.231
X89.912Y46.104
X89.936Y46.078
X89.96Y46.052
X89.983Y46.025
X90.006Y45.998
X90.028Y45.97
X90.05Y45.942
X90.07Y45.913
X90.091Y45.884
X90.11Y45.854
X90.129Y45.824
X90.228Y45.662
X90.247Y45.63
X90.265Y45.598
X90.282Y45.565
X90.299Y45.532
X90.315Y45.499
X90.33Y45.465
X90.344Y45.431
X90.358Y45.396
X90.371Y45.362
X90.383Y45.327
X90.451Y45.116
X90.464Y45.074
X90.476Y45.032
X90.487Y44.989
X90.497Y44.946
X90.505Y44.903
X90.512Y44.859
X90.531Y44.737
X90.536Y44.697
X90.541Y44.657
X90.544Y44.616
X90.547Y44.576
X90.553Y44.441
X90.554Y44.403
X90.555Y44.365
Y28.865
X90.554Y28.822
X90.552Y28.779
X90.55Y28.736
X90.546Y28.694
X90.515Y28.412
X90.511Y28.375
X90.505Y28.338
X90.499Y28.301
X90.492Y28.265
X90.484Y28.228
X90.476Y28.192
X90.466Y28.157
X90.456Y28.121
X90.445Y28.086
X90.433Y28.05
X90.36Y27.847
X90.348Y27.814
X90.335Y27.781
X90.321Y27.748
X90.307Y27.716
X90.292Y27.684
X90.276Y27.652
X90.259Y27.621
X90.242Y27.59
X90.224Y27.559
X90.206Y27.529
X90.113Y27.382
X90.091Y27.349
X90.068Y27.316
X90.045Y27.283
X90.02Y27.251
X89.995Y27.22
X89.969Y27.189
X89.942Y27.159
X89.915Y27.13
X89.803Y27.014
X89.778Y26.989
X89.753Y26.964
X89.727Y26.939
X89.7Y26.915
X89.672Y26.892
X89.645Y26.87
X89.616Y26.848
X89.588Y26.827
X89.465Y26.738
X89.437Y26.719
X89.409Y26.699
X89.38Y26.681
X89.35Y26.663
X89.321Y26.646
X89.291Y26.629
X89.26Y26.613
X89.23Y26.598
X89.061Y26.516
X89.025Y26.499
X88.988Y26.482
X88.951Y26.467
X88.913Y26.453
X88.875Y26.439
X88.836Y26.427
X88.798Y26.415
X88.759Y26.405
X88.478Y26.333
X88.435Y26.323
X88.392Y26.314
X88.349Y26.306
X88.306Y26.299
X88.263Y26.294
X88.219Y26.29
X88.098Y26.279
X88.064Y26.277
X88.031Y26.275
X87.997Y26.274
X87.964
X82.305
Y24.865
X82.304Y24.83
X82.303Y24.795
X82.301Y24.76
X82.299Y24.725
X82.295Y24.685
X82.29Y24.645
X82.283Y24.605
X82.276Y24.566
X82.268Y24.526
X82.259Y24.487
X82.249Y24.448
X82.239Y24.412
X82.228Y24.377
X82.216Y24.342
X82.195Y24.284
X82.175Y24.236
X82.167Y24.217
X82.151Y24.182
X82.134Y24.148
X82.116Y24.114
X82.098Y24.08
X82.078Y24.047
X82.058Y24.014
X82.037Y23.982
X82.016Y23.95
X81.993Y23.919
X81.97Y23.889
X81.946Y23.859
X81.922Y23.829
X81.896Y23.801
X81.87Y23.772
X81.844Y23.745
X81.816Y23.718
X81.788Y23.692
X81.76Y23.666
X81.731Y23.641
X81.701Y23.617
X81.67Y23.594
X81.639Y23.571
X81.608Y23.549
X81.575Y23.527
X81.542Y23.506
X81.507Y23.486
X81.473Y23.467
X81.438Y23.448
X81.403Y23.431
X81.367Y23.414
X81.33Y23.398
X81.294Y23.383
X81.257Y23.369
X81.219Y23.356
X81.182Y23.344
X81.144Y23.333
X81.105Y23.323
X81.067Y23.314
X81.028Y23.305
X80.989Y23.298
X80.95Y23.292
X80.911Y23.286
X80.872Y23.282
X80.832Y23.278
X80.793Y23.276
X80.753Y23.274
X80.714
X45.214
X45.174
X45.134Y23.276
X45.095Y23.278
X45.055Y23.282
X45.015Y23.286
X44.976Y23.292
X44.937Y23.298
X44.898Y23.306
X44.859Y23.314
X44.82Y23.323
X44.782Y23.334
X44.744Y23.345
X44.706Y23.357
X44.668Y23.37
X44.631Y23.384
X44.594Y23.399
X44.558Y23.415
X44.522Y23.432
X44.486Y23.45
X44.451Y23.469
X44.417Y23.488
X44.382Y23.508
X44.348Y23.53
X44.316Y23.552
X44.284Y23.574
X44.253Y23.596
X44.223Y23.62
X44.193Y23.644
X44.164Y23.669
X44.136Y23.695
X44.108Y23.721
X44.08Y23.748
X44.054Y23.776
X44.028Y23.804
X44.003Y23.833
X43.978Y23.863
X43.954Y23.893
X43.931Y23.924
X43.909Y23.955
X43.887Y23.987
X43.866Y24.019
X43.846Y24.052
X43.827Y24.085
X43.809Y24.119
X43.791Y24.153
X43.774Y24.187
X43.752Y24.236
X43.732Y24.286
X43.724Y24.307
X43.711Y24.342
X43.7Y24.376
X43.689Y24.411
X43.679Y24.447
X43.669Y24.486
X43.66Y24.525
X43.651Y24.564
X43.644Y24.604
X43.638Y24.644
X43.633Y24.684
X43.629Y24.724
X43.626Y24.759
X43.624Y24.794
X43.623Y24.83
Y24.865
Y26.274
X37.964
X37.926
X37.889Y26.276
X37.851Y26.278
X37.813Y26.281
X37.776Y26.285
X37.739Y26.29
X37.48Y26.327
X37.439Y26.333
X37.398Y26.341
X37.357Y26.349
X37.317Y26.359
X37.277Y26.369
X37.237Y26.381
X37.198Y26.394
X37.158Y26.407
X36.918Y26.495
X36.884Y26.508
X36.851Y26.522
X36.818Y26.536
X36.786Y26.551
X36.753Y26.566
X36.721Y26.583
X36.69Y26.6
X36.659Y26.618
X36.628Y26.636
X36.598Y26.655
X36.414Y26.774
X36.384Y26.794
X36.355Y26.814
X36.326Y26.835
X36.298Y26.857
X36.27Y26.88
X36.243Y26.902
X36.216Y26.926
X36.19Y26.95
X36.164Y26.975
X36.139Y27
X36.016Y27.127
X35.991Y27.153
X35.968Y27.179
X35.944Y27.206
X35.922Y27.233
X35.9Y27.261
X35.878Y27.289
X35.858Y27.317
X35.838Y27.347
X35.818Y27.376
X35.799Y27.406
X35.7Y27.568
X35.68Y27.602
X35.661Y27.635
X35.643Y27.67
X35.626Y27.705
X35.609Y27.74
X35.593Y27.775
X35.57Y27.833
X35.545Y27.903
X35.477Y28.113
X35.463Y28.155
X35.452Y28.198
X35.441Y28.241
X35.431Y28.284
X35.423Y28.327
X35.416Y28.37
X35.397Y28.492
X35.392Y28.533
X35.387Y28.573
X35.383Y28.614
X35.381Y28.654
X35.375Y28.789
X35.373Y28.827
Y28.865
Y44.365
Y44.397
X35.374Y44.43
X35.376Y44.463
X35.378Y44.495
X35.401Y44.776
X35.405Y44.814
X35.409Y44.851
X35.415Y44.888
X35.421Y44.926
X35.428Y44.963
X35.436Y45
X35.445Y45.036
X35.454Y45.073
X35.465Y45.109
X35.476Y45.145
X35.543Y45.348
X35.555Y45.382
X35.568Y45.416
X35.581Y45.45
X35.595Y45.483
X35.61Y45.517
X35.626Y45.55
X35.642Y45.582
X35.659Y45.614
X35.677Y45.646
X35.696Y45.677
X35.785Y45.823
X35.807Y45.858
X35.83Y45.892
X35.853Y45.926
X35.878Y45.96
X35.904Y45.992
X35.93Y46.024
X35.957Y46.055
X35.985Y46.086
X36.094Y46.201
X36.12Y46.228
X36.146Y46.254
X36.172Y46.279
X36.2Y46.303
X36.228Y46.327
X36.256Y46.351
X36.285Y46.373
X36.314Y46.395
X36.436Y46.484
X36.469Y46.508
X36.503Y46.531
X36.538Y46.553
X36.573Y46.574
X36.609Y46.594
X36.645Y46.613
X36.772Y46.679
X36.806Y46.695
X36.84Y46.712
X36.875Y46.727
X36.91Y46.741
X36.945Y46.755
X36.981Y46.768
X37.145Y46.825
X37.183Y46.837
X37.222Y46.849
X37.261Y46.86
X37.3Y46.87
X37.339Y46.878
X37.379Y46.886
X37.591Y46.925
X37.639Y46.933
X37.687Y46.939
X37.735Y46.944
X37.783Y46.948
X37.87Y46.953
X37.917Y46.955
X37.964Y46.956
X43.623
Y48.365
Y48.413
X43.626Y48.462
X43.629Y48.51
X43.635Y48.558
X43.641Y48.606
X43.649Y48.654
X43.656Y48.686
X43.663Y48.718
X43.679Y48.784
X43.689Y48.819
X43.699Y48.853
X43.711Y48.887
X43.723Y48.921
X43.736Y48.955
X43.75Y48.989
X43.765Y49.022
X43.78Y49.055
X43.796Y49.086
X43.812Y49.117
X43.829Y49.148
X43.846Y49.178
X43.864Y49.208
X43.883Y49.237
X43.902Y49.266
X43.932Y49.308
X43.968Y49.354
X43.999Y49.392
X44.01Y49.405
X44.035Y49.434
X44.061Y49.462
X44.088Y49.489
X44.115Y49.516
X44.143Y49.542
X44.172Y49.567
X44.201Y49.592
X44.231Y49.616
X44.261Y49.639
X44.292Y49.661
X44.323Y49.683
X44.355Y49.704
X44.387Y49.724
X44.42Y49.744
X44.453Y49.762
X44.487Y49.78
X44.521Y49.797
X44.557Y49.814
X44.593Y49.83
X44.63Y49.845
X44.667Y49.859
X44.705Y49.872
X44.743Y49.884
X44.781Y49.896
X44.819Y49.906
X44.858Y49.916
X44.897Y49.924
X44.936Y49.931
X44.976Y49.938
X45.015Y49.943
X45.055Y49.948
X45.094Y49.951
X45.134Y49.954
X45.174Y49.955
X45.214Y49.956
X80.714
X80.753Y49.955
X80.793Y49.954
X80.833Y49.951
X80.872Y49.948
X80.911Y49.943
X80.951Y49.938
X80.99Y49.932
X81.029Y49.924
X81.068Y49.916
X81.106Y49.907
X81.144Y49.896
X81.182Y49.885
X81.22Y49.873
X81.258Y49.86
X81.295Y49.846
X81.331Y49.831
X81.368Y49.815
X81.403Y49.799
X81.437Y49.782
X81.471Y49.764
X81.504Y49.746
X81.537Y49.726
X81.569Y49.706
X81.601Y49.685
X81.632Y49.664
X81.663Y49.642
X81.693Y49.618
X81.723Y49.595
X81.752Y49.57
X81.781Y49.545
X81.809Y49.519
X81.836Y49.493
X81.863Y49.465
X81.889Y49.438
X81.914Y49.409
X81.939Y49.38
X81.975Y49.335
X81.998Y49.305
X82.019Y49.274
X82.041Y49.243
X82.061Y49.211
X82.081Y49.179
X82.1Y49.146
X82.118Y49.113
X82.135Y49.08
X82.151Y49.047
X82.167Y49.013
X82.182Y48.979
X82.196Y48.944
X82.209Y48.909
X82.221Y48.874
X82.232Y48.839
X82.243Y48.803
X82.253Y48.767
X82.262Y48.731
X82.27Y48.695
X82.277Y48.659
X82.284Y48.622
X82.289Y48.585
X82.294Y48.549
X82.298Y48.512
X82.301Y48.475
X82.303Y48.438
X82.304Y48.402
X82.305Y48.365
Y46.956
G0Z1
X53.764Y39.725
G1Z-1F5
X53.795Y39.687F10
X53.833Y39.656
X53.877Y39.633
X53.918Y39.62
X53.977Y39.614
X54.022Y39.618
X54.069Y39.633
X54.112Y39.656
X54.15Y39.687
X54.182Y39.725
X54.205Y39.769
X54.219Y39.816
X54.224Y39.865
X54.219Y39.914
X54.205Y39.961
X54.182Y40.004
X54.15Y40.043
X54.112Y40.074
X54.069Y40.097
X54.022Y40.111
X53.973Y40.116
X53.924Y40.111
X53.877Y40.097
X53.833Y40.074
X53.795Y40.043
X53.764Y40.004
X53.741Y39.961
X53.727Y39.915
X53.721Y39.865
X53.726Y39.816
X53.741Y39.769
X53.764Y39.725
G0Z1
X62.446Y33.961
G1Z-1F5
X62.375Y33.817F10
X62.345Y33.687
Y33.543
X62.377Y33.404
X62.435Y33.284
X62.524Y33.169
X62.597Y33.104
X62.659Y33.064
X62.662Y33.062
X62.775Y33.018
X62.929Y32.993
X63.077Y33.001
X63.206Y33.039
X63.332Y33.11
X63.437Y33.206
X63.515Y33.319
X63.569Y33.447
X63.585Y33.525
X63.589Y33.578
X63.57Y33.744
X63.513Y33.9
X63.428Y34.026
X63.33Y34.116
X63.204Y34.187
X63.068Y34.227
X62.932Y34.236
X62.787Y34.215
X62.699Y34.186
X62.649Y34.16
X62.619Y34.141
X62.537Y34.075
X62.446Y33.961
G0Z1
X71.74Y39.725
G1Z-1F5
X71.772Y39.687F10
X71.81Y39.656
X71.853Y39.633
X71.9Y39.618
X71.949Y39.614
X71.998Y39.618
X72.046Y39.633
X72.089Y39.656
X72.127Y39.687
X72.158Y39.725
X72.182Y39.769
X72.196Y39.816
X72.201Y39.865
X72.196Y39.914
X72.182Y39.961
X72.158Y40.004
X72.127Y40.043
X72.089Y40.074
X72.046Y40.097
X71.998Y40.111
X71.949Y40.116
X71.9Y40.111
X71.853Y40.097
X71.81Y40.074
X71.772Y40.043
X71.74Y40.004
X71.717Y39.961
X71.703Y39.914
X71.698Y39.865
X71.703Y39.816
X71.717Y39.769
X71.74Y39.725
G0Z1
X82.305Y46.956
G1Z-1F5
X87.964F10
X88Y46.955
X88.037Y46.954
X88.074Y46.952
X88.111Y46.949
X88.147Y46.945
X88.183Y46.941
X88.443Y46.904
X88.484Y46.898
X88.525Y46.891
X88.566Y46.882
X88.606Y46.873
X88.647Y46.862
X88.687Y46.851
X88.726Y46.838
X88.766Y46.824
X89.006Y46.737
X89.04Y46.724
X89.074Y46.711
X89.107Y46.697
X89.139Y46.682
X89.172Y46.666
X89.204Y46.65
X89.236Y46.632
X89.267Y46.615
X89.298Y46.596
X89.329Y46.577
X89.512Y46.458
X89.542Y46.438
X89.571Y46.418
X89.6Y46.397
X89.629Y46.375
X89.657Y46.352
X89.684Y46.329
X89.711Y46.306
X89.737Y46.281
X89.763Y46.257
X89.788Y46.231
X89.912Y46.104
X89.936Y46.078
X89.96Y46.052
X89.983Y46.025
X90.006Y45.998
X90.028Y45.97
X90.05Y45.942
X90.07Y45.913
X90.091Y45.884
X90.11Y45.854
X90.129Y45.824
X90.228Y45.662
X90.247Y45.63
X90.265Y45.598
X90.282Y45.565
X90.299Y45.532
X90.315Y45.499
X90.33Y45.465
X90.344Y45.431
X90.358Y45.396
X90.371Y45.362
X90.383Y45.327
X90.451Y45.116
X90.464Y45.074
X90.476Y45.032
X90.487Y44.989
X90.497Y44.946
X90.505Y44.903
X90.512Y44.859
X90.531Y44.737
X90.536Y44.697
X90.541Y44.657
X90.544Y44.616
X90.547Y44.576
X90.553Y44.441
X90.554Y44.403
X90.555Y44.365
Y28.865
X90.554Y28.822
X90.552Y28.779
X90.55Y28.736
X90.546Y28.694
X90.515Y28.412
X90.511Y28.375
X90.505Y28.338
X90.499Y28.301
X90.492Y28.265
X90.484Y28.228
X90.476Y28.192
X90.466Y28.157
X90.456Y28.121
X90.445Y28.086
X90.433Y28.05
X90.36Y27.847
X90.348Y27.814
X90.335Y27.781
X90.321Y27.748
X90.307Y27.716
X90.292Y27.684
X90.276Y27.652
X90.259Y27.621
X90.242Y27.59
X90.224Y27.559
X90.206Y27.529
X90.113Y27.382
X90.091Y27.349
X90.068Y27.316
X90.045Y27.283
X90.02Y27.251
X89.995Y27.22
X89.969Y27.189
X89.942Y27.159
X89.915Y27.13
X89.803Y27.014
X89.778Y26.989
X89.753Y26.964
X89.727Y26.939
X89.7Y26.915
X89.672Y26.892
X89.645Y26.87
X89.616Y26.848
X89.588Y26.827
X89.465Y26.738
X89.437Y26.719
X89.409Y26.699
X89.38Y26.681
X89.35Y26.663
X89.321Y26.646
X89.291Y26.629
X89.26Y26.613
X89.23Y26.598
X89.061Y26.516
X89.025Y26.499
X88.988Y26.482
X88.951Y26.467
X88.913Y26.453
X88.875Y26.439
X88.836Y26.427
X88.798Y26.415
X88.759Y26.405
X88.478Y26.333
X88.435Y26.323
X88.392Y26.314
X88.349Y26.306
X88.306Y26.299
X88.263Y26.294
X88.219Y26.29
X88.098Y26.279
X88.064Y26.277
X88.031Y26.275
X87.997Y26.274
X87.964
X82.305
Y24.865
X82.304Y24.83
X82.303Y24.795
X82.301Y24.76
X82.299Y24.725
X82.295Y24.685
X82.29Y24.645
X82.283Y24.605
X82.276Y24.566
X82.268Y24.526
X82.259Y24.487
X82.249Y24.448
X82.239Y24.412
X82.228Y24.377
X82.216Y24.342
X82.195Y24.284
X82.175Y24.236
X82.167Y24.217
X82.151Y24.182
X82.134Y24.148
X82.116Y24.114
X82.098Y24.08
X82.078Y24.047
X82.058Y24.014
X82.037Y23.982
X82.016Y23.95
X81.993Y23.919
X81.97Y23.889
X81.946Y23.859
X81.922Y23.829
X81.896Y23.801
X81.87Y23.772
X81.844Y23.745
X81.816Y23.718
X81.788Y23.692
X81.76Y23.666
X81.731Y23.641
X81.701Y23.617
X81.67Y23.594
X81.639Y23.571
X81.608Y23.549
X81.575Y23.527
X81.542Y23.506
X81.507Y23.486
X81.473Y23.467
X81.438Y23.448
X81.403Y23.431
X81.367Y23.414
X81.33Y23.398
X81.294Y23.383
X81.257Y23.369
X81.219Y23.356
X81.182Y23.344
X81.144Y23.333
X81.105Y23.323
X81.067Y23.314
X81.028Y23.305
X80.989Y23.298
X80.95Y23.292
X80.911Y23.286
X80.872Y23.282
X80.832Y23.278
X80.793Y23.276
X80.753Y23.274
X80.714
X45.214
X45.174
X45.134Y23.276
X45.095Y23.278
X45.055Y23.282
X45.015Y23.286
X44.976Y23.292
X44.937Y23.298
X44.898Y23.306
X44.859Y23.314
X44.82Y23.323
X44.782Y23.334
X44.744Y23.345
X44.706Y23.357
X44.668Y23.37
X44.631Y23.384
X44.594Y23.399
X44.558Y23.415
X44.522Y23.432
X44.486Y23.45
X44.451Y23.469
X44.417Y23.488
X44.382Y23.508
X44.348Y23.53
X44.316Y23.552
X44.284Y23.574
X44.253Y23.596
X44.223Y23.62
X44.193Y23.644
X44.164Y23.669
X44.136Y23.695
X44.108Y23.721
X44.08Y23.748
X44.054Y23.776
X44.028Y23.804
X44.003Y23.833
X43.978Y23.863
X43.954Y23.893
X43.931Y23.924
X43.909Y23.955
X43.887Y23.987
X43.866Y24.019
X43.846Y24.052
X43.827Y24.085
X43.809Y24.119
X43.791Y24.153
X43.774Y24.187
X43.752Y24.236
X43.732Y24.286
X43.724Y24.307
X43.711Y24.342
X43.7Y24.376
X43.689Y24.411
X43.679Y24.447
X43.669Y24.486
X43.66Y24.525
X43.651Y24.564
X43.644Y24.604
X43.638Y24.644
X43.633Y24.684
X43.629Y24.724
X43.626Y24.759
X43.624Y24.794
X43.623Y24.83
Y24.865
Y26.274
X37.964
X37.926
X37.889Y26.276
X37.851Y26.278
X37.813Y26.281
X37.776Y26.285
X37.739Y26.29
X37.48Y26.327
X37.439Y26.333
X37.398Y26.341
X37.357Y26.349
X37.317Y26.359
X37.277Y26.369
X37.237Y26.381
X37.198Y26.394
X37.158Y26.407
X36.918Y26.495
X36.884Y26.508
X36.851Y26.522
X36.818Y26.536
X36.786Y26.551
X36.753Y26.566
X36.721Y26.583
X36.69Y26.6
X36.659Y26.618
X36.628Y26.636
X36.598Y26.655
X36.414Y26.774
X36.384Y26.794
X36.355Y26.814
X36.326Y26.835
X36.298Y26.857
X36.27Y26.88
X36.243Y26.902
X36.216Y26.926
X36.19Y26.95
X36.164Y26.975
X36.139Y27
X36.016Y27.127
X35.991Y27.153
X35.968Y27.179
X35.944Y27.206
X35.922Y27.233
X35.9Y27.261
X35.878Y27.289
X35.858Y27.317
X35.838Y27.347
X35.818Y27.376
X35.799Y27.406
X35.7Y27.568
X35.68Y27.602
X35.661Y27.635
X35.643Y27.67
X35.626Y27.705
X35.609Y27.74
X35.593Y27.775
X35.57Y27.833
X35.545Y27.903
X35.477Y28.113
X35.463Y28.155
X35.452Y28.198
X35.441Y28.241
X35.431Y28.284
X35.423Y28.327
X35.416Y28.37
X35.397Y28.492
X35.392Y28.533
X35.387Y28.573
X35.383Y28.614
X35.381Y28.654
X35.375Y28.789
X35.373Y28.827
Y28.865
Y44.365
Y44.397
X35.374Y44.43
X35.376Y44.463
X35.378Y44.495
X35.401Y44.776
X35.405Y44.814
X35.409Y44.851
X35.415Y44.888
X35.421Y44.926
X35.428Y44.963
X35.436Y45
X35.445Y45.036
X35.454Y45.073
X35.465Y45.109
X35.476Y45.145
X35.543Y45.348
X35.555Y45.382
X35.568Y45.416
X35.581Y45.45
X35.595Y45.483
X35.61Y45.517
X35.626Y45.55
X35.642Y45.582
X35.659Y45.614
X35.677Y45.646
X35.696Y45.677
X35.785Y45.823
X35.807Y45.858
X35.83Y45.892
X35.853Y45.926
X35.878Y45.96
X35.904Y45.992
X35.93Y46.024
X35.957Y46.055
X35.985Y46.086
X36.094Y46.201
X36.12Y46.228
X36.146Y46.254
X36.172Y46.279
X36.2Y46.303
X36.228Y46.327
X36.256Y46.351
X36.285Y46.373
X36.314Y46.395
X36.436Y46.484
X36.469Y46.508
X36.503Y46.531
X36.538Y46.553
X36.573Y46.574
X36.609Y46.594
X36.645Y46.613
X36.772Y46.679
X36.806Y46.695
X36.84Y46.712
X36.875Y46.727
X36.91Y46.741
X36.945Y46.755
X36.981Y46.768
X37.145Y46.825
X37.183Y46.837
X37.222Y46.849
X37.261Y46.86
X37.3Y46.87
X37.339Y46.878
X37.379Y46.886
X37.591Y46.925
X37.639Y46.933
X37.687Y46.939
X37.735Y46.944
X37.783Y46.948
X37.87Y46.953
X37.917Y46.955
X37.964Y46.956
X43.623
Y48.365
Y48.413
X43.626Y48.462
X43.629Y48.51
X43.635Y48.558
X43.641Y48.606
X43.649Y48.654
X43.656Y48.686
X43.663Y48.718
X43.679Y48.784
X43.689Y48.819
X43.699Y48.853
X43.711Y48.887
X43.723Y48.921
X43.736Y48.955
X43.75Y48.989
X43.765Y49.022
X43.78Y49.055
X43.796Y49.086
X43.812Y49.117
X43.829Y49.148
X43.846Y49.178
X43.864Y49.208
X43.883Y49.237
X43.902Y49.266
X43.932Y49.308
X43.968Y49.354
X43.999Y49.392
X44.01Y49.405
X44.035Y49.434
X44.061Y49.462
X44.088Y49.489
X44.115Y49.516
X44.143Y49.542
X44.172Y49.567
X44.201Y49.592
X44.231Y49.616
X44.261Y49.639
X44.292Y49.661
X44.323Y49.683
X44.355Y49.704
X44.387Y49.724
X44.42Y49.744
X44.453Y49.762
X44.487Y49.78
X44.521Y49.797
X44.557Y49.814
X44.593Y49.83
X44.63Y49.845
X44.667Y49.859
X44.705Y49.872
X44.743Y49.884
X44.781Y49.896
X44.819Y49.906
X44.858Y49.916
X44.897Y49.924
X44.936Y49.931
X44.976Y49.938
X45.015Y49.943
X45.055Y49.948
X45.094Y49.951
X45.134Y49.954
X45.174Y49.955
X45.214Y49.956
X80.714
X80.753Y49.955
X80.793Y49.954
X80.833Y49.951
X80.872Y49.948
X80.911Y49.943
X80.951Y49.938
X80.99Y49.932
X81.029Y49.924
X81.068Y49.916
X81.106Y49.907
X81.144Y49.896
X81.182Y49.885
X81.22Y49.873
X81.258Y49.86
X81.295Y49.846
X81.331Y49.831
X81.368Y49.815
X81.403Y49.799
X81.437Y49.782
X81.471Y49.764
X81.504Y49.746
X81.537Y49.726
X81.569Y49.706
X81.601Y49.685
X81.632Y49.664
X81.663Y49.642
X81.693Y49.618
X81.723Y49.595
X81.752Y49.57
X81.781Y49.545
X81.809Y49.519
X81.836Y49.493
X81.863Y49.465
X81.889Y49.438
X81.914Y49.409
X81.939Y49.38
X81.975Y49.335
X81.998Y49.305
X82.019Y49.274
X82.041Y49.243
X82.061Y49.211
X82.081Y49.179
X82.1Y49.146
X82.118Y49.113
X82.135Y49.08
X82.151Y49.047
X82.167Y49.013
X82.182Y48.979
X82.196Y48.944
X82.209Y48.909
X82.221Y48.874
X82.232Y48.839
X82.243Y48.803
X82.253Y48.767
X82.262Y48.731
X82.27Y48.695
X82.277Y48.659
X82.284Y48.622
X82.289Y48.585
X82.294Y48.549
X82.298Y48.512
X82.301Y48.475
X82.303Y48.438
X82.304Y48.402
X82.305Y48.365
Y46.956
G0Z1
X53.764Y39.725
G1Z-1.1F5
X53.795Y39.687F10
X53.833Y39.656
X53.877Y39.633
X53.918Y39.62
X53.977Y39.614
X54.022Y39.618
X54.069Y39.633
X54.112Y39.656
X54.15Y39.687
X54.182Y39.725
X54.205Y39.769
X54.219Y39.816
X54.224Y39.865
X54.219Y39.914
X54.205Y39.961
X54.182Y40.004
X54.15Y40.043
X54.112Y40.074
X54.069Y40.097
X54.022Y40.111
X53.973Y40.116
X53.924Y40.111
X53.877Y40.097
X53.833Y40.074
X53.795Y40.043
X53.764Y40.004
X53.741Y39.961
X53.727Y39.915
X53.721Y39.865
X53.726Y39.816
X53.741Y39.769
X53.764Y39.725
G0Z1
X62.446Y33.961
G1Z-1.1F5
X62.375Y33.817F10
X62.345Y33.687
Y33.543
X62.377Y33.404
X62.435Y33.284
X62.524Y33.169
X62.597Y33.104
X62.659Y33.064
X62.662Y33.062
X62.775Y33.018
X62.929Y32.993
X63.077Y33.001
X63.206Y33.039
X63.332Y33.11
X63.437Y33.206
X63.515Y33.319
X63.569Y33.447
X63.585Y33.525
X63.589Y33.578
X63.57Y33.744
X63.513Y33.9
X63.428Y34.026
X63.33Y34.116
X63.204Y34.187
X63.068Y34.227
X62.932Y34.236
X62.787Y34.215
X62.699Y34.186
X62.649Y34.16
X62.619Y34.141
X62.537Y34.075
X62.446Y33.961
G0Z1
X71.74Y39.725
G1Z-1.1F5
X71.772Y39.687F10
X71.81Y39.656
X71.853Y39.633
X71.9Y39.618
X71.949Y39.614
X71.998Y39.618
X72.046Y39.633
X72.089Y39.656
X72.127Y39.687
X72.158Y39.725
X72.182Y39.769
X72.196Y39.816
X72.201Y39.865
X72.196Y39.914
X72.182Y39.961
X72.158Y40.004
X72.127Y40.043
X72.089Y40.074
X72.046Y40.097
X71.998Y40.111
X71.949Y40.116
X71.9Y40.111
X71.853Y40.097
X71.81Y40.074
X71.772Y40.043
X71.74Y40.004
X71.717Y39.961
X71.703Y39.914
X71.698Y39.865
X71.703Y39.816
X71.717Y39.769
X71.74Y39.725
G0Z1
X82.305Y46.956
G1Z-1.1F5
X87.964F10
X88Y46.955
X88.037Y46.954
X88.074Y46.952
X88.111Y46.949
X88.147Y46.945
X88.183Y46.941
X88.443Y46.904
X88.484Y46.898
X88.525Y46.891
X88.566Y46.882
X88.606Y46.873
X88.647Y46.862
X88.687Y46.851
X88.726Y46.838
X88.766Y46.824
X89.006Y46.737
X89.04Y46.724
X89.074Y46.711
X89.107Y46.697
X89.139Y46.682
X89.172Y46.666
X89.204Y46.65
X89.236Y46.632
X89.267Y46.615
X89.298Y46.596
X89.329Y46.577
X89.512Y46.458
X89.542Y46.438
X89.571Y46.418
X89.6Y46.397
X89.629Y46.375
X89.657Y46.352
X89.684Y46.329
X89.711Y46.306
X89.737Y46.281
X89.763Y46.257
X89.788Y46.231
X89.912Y46.104
X89.936Y46.078
X89.96Y46.052
X89.983Y46.025
X90.006Y45.998
X90.028Y45.97
X90.05Y45.942
X90.07Y45.913
X90.091Y45.884
X90.11Y45.854
X90.129Y45.824
X90.228Y45.662
X90.247Y45.63
X90.265Y45.598
X90.282Y45.565
X90.299Y45.532
X90.315Y45.499
X90.33Y45.465
X90.344Y45.431
X90.358Y45.396
X90.371Y45.362
X90.383Y45.327
X90.451Y45.116
X90.464Y45.074
X90.476Y45.032
X90.487Y44.989
X90.497Y44.946
X90.505Y44.903
X90.512Y44.859
X90.531Y44.737
X90.536Y44.697
X90.541Y44.657
X90.544Y44.616
X90.547Y44.576
X90.553Y44.441
X90.554Y44.403
X90.555Y44.365
Y28.865
X90.554Y28.822
X90.552Y28.779
X90.55Y28.736
X90.546Y28.694
