(Created with grbl post processor 2025/01/01 12:05)
G21
(G-code generated with BlenderCAM and NC library)
G17G90
(Tool: D = 3.18 mm  type END flutes 2)
S1000M03
G00 Z1.0

G0X0Y0Z1
X130.961Y49.707
G1Z-0.1F50
X130.948Y49.743F100
X130.935Y49.78
X130.923Y49.817
X130.912Y49.855
X130.902Y49.893
X130.893Y49.93
X130.885Y49.969
X130.878Y50.007
X130.872Y50.046
X130.866Y50.084
X130.862Y50.123
X130.859Y50.162
X130.856Y50.201
X130.855Y50.24
X130.854Y50.28
Y62.248
X130.856Y62.386
X130.86Y62.524
X130.866Y62.662
X130.875Y62.8
X130.886Y62.937
X130.899Y63.075
X130.915Y63.212
X130.933Y63.349
X130.954Y63.486
X130.977Y63.622
X131.002Y63.758
X131.03Y63.893
X131.06Y64.028
X131.092Y64.162
X131.127Y64.295
X131.164Y64.429
X131.203Y64.562
X131.244Y64.692
X131.289Y64.824
X131.335Y64.954
X131.383Y65.083
X131.434Y65.212
X131.487Y65.34
X131.542Y65.466
X131.599Y65.592
X131.659Y65.717
X131.72Y65.84
X131.784Y65.962
X131.85Y66.084
X131.918Y66.204
X131.988Y66.323
X132.06Y66.441
X132.134Y66.558
X132.21Y66.672
X132.289Y66.786
X132.369Y66.899
X132.451Y67.01
X132.535Y67.12
X132.621Y67.228
X132.709Y67.334
X132.798Y67.44
X132.89Y67.543
X132.983Y67.645
X133.078Y67.745
X133.175Y67.844
X133.273Y67.94
X133.373Y68.036
X133.475Y68.129
X133.578Y68.221
X133.683Y68.311
X133.789Y68.399
X133.898Y68.485
X134.007Y68.569
X134.118Y68.651
X134.23Y68.732
X134.344Y68.81
X134.459Y68.887
X134.575Y68.961
X134.693Y69.033
X134.811Y69.103
X134.932Y69.172
X135.053Y69.238
X135.176Y69.302
X135.299Y69.364
X135.423Y69.424
X135.549Y69.481
X135.675Y69.537
X135.803Y69.59
X135.932Y69.641
X136.06Y69.689
X136.191Y69.736
X136.309Y69.776
X147.443Y73.447
X147.486Y73.461
X147.53Y73.473
X147.574Y73.484
X147.607Y73.492
X147.641Y73.499
X147.675Y73.505
X147.79Y73.522
X163.87Y75.853
X163.941Y75.863
X164.012Y75.871
X164.089Y75.878
X164.157Y75.884
X164.227Y75.888
X164.298Y75.891
X164.37Y75.893
X164.44Y75.894
X164.513
X164.583Y75.892
X164.656Y75.889
X164.727Y75.885
X164.798Y75.879
X164.874Y75.872
X164.945Y75.864
X165.012Y75.856
X165.082Y75.845
X165.158Y75.833
X165.224Y75.821
X165.293Y75.807
X165.363Y75.792
X165.437Y75.774
X165.506Y75.757
X165.575Y75.738
X165.644Y75.718
X165.712Y75.696
X165.777Y75.675
X165.847Y75.65
X165.911Y75.627
X165.982Y75.599
X166.049Y75.572
X166.113Y75.544
X166.179Y75.514
X166.244Y75.484
X166.308Y75.452
X166.372Y75.419
X166.435Y75.385
X166.497Y75.351
X166.558Y75.315
X166.62Y75.278
X166.681Y75.24
X166.736Y75.203
X166.799Y75.16
X166.855Y75.121
X166.916Y75.077
X166.972Y75.034
X167.029Y74.99
X167.085Y74.944
X167.139Y74.899
X167.194Y74.851
X167.247Y74.803
X167.299Y74.754
X167.349Y74.705
X167.398Y74.656
X167.447Y74.605
X167.496Y74.553
X167.544Y74.5
X167.59Y74.446
X167.636Y74.391
X167.682Y74.335
X167.728Y74.276
X167.771Y74.219
X167.828Y74.14
X167.888Y74.052
X167.928Y73.992
X167.984Y73.902
X168.039Y73.808
X168.09Y73.715
X168.14Y73.619
X168.186Y73.524
X168.231Y73.425
X168.273Y73.327
X168.312Y73.227
X168.349Y73.126
X168.384Y73.023
X168.415Y72.92
X168.443Y72.818
X168.469Y72.714
X168.486Y72.643
X168.507Y72.54
X168.526Y72.433
X168.542Y72.326
X168.555Y72.221
X168.565Y72.114
X168.573Y72.006
X168.578Y71.9
X168.58Y71.792
Y61.581
X168.578Y61.475
X168.572Y61.367
X168.567Y61.293
X168.557Y61.185
X168.544Y61.079
X168.529Y60.972
X168.511Y60.867
X168.489Y60.761
X168.473Y60.69
X168.448Y60.586
X168.419Y60.48
X168.388Y60.38
X168.355Y60.277
X168.317Y60.173
X168.279Y60.074
X168.237Y59.974
X168.192Y59.875
X168.146Y59.78
X168.096Y59.683
X168.045Y59.59
X167.99Y59.496
X167.934Y59.405
X167.875Y59.315
X167.813Y59.226
X167.749Y59.138
X167.683Y59.054
X167.616Y58.971
X167.563Y58.91
X167.513Y58.853
X167.467Y58.803
X167.415Y58.748
X167.364Y58.696
X167.316Y58.65
X167.264Y58.6
X167.208Y58.549
X167.157Y58.504
X167.103Y58.458
X167.047Y58.412
X166.991Y58.367
X166.931Y58.321
X166.876Y58.281
X166.814Y58.236
X166.756Y58.197
X166.698Y58.159
X166.637Y58.12
X166.576Y58.082
X166.514Y58.046
X166.451Y58.01
X166.388Y57.976
X166.325Y57.943
X166.257Y57.91
X166.195Y57.88
X166.127Y57.849
X166.064Y57.822
X165.998Y57.794
X165.926Y57.766
X165.861Y57.742
X165.796Y57.718
X165.724Y57.695
X165.659Y57.674
X165.59Y57.654
X165.517Y57.633
X165.447Y57.615
X165.377Y57.598
X165.308Y57.583
X165.241Y57.569
X165.165Y57.555
X165.1Y57.544
X165.042Y57.536
X149.536Y55.287
X149.53Y52.756
X149.525Y52.635
X149.515Y52.529
X149.504Y52.447
X149.483Y52.33
X149.458Y52.223
X149.424Y52.105
X149.398Y52.03
X149.359Y51.93
X149.309Y51.818
X149.251Y51.706
X149.177Y51.583
X149.107Y51.481
X149.01Y51.355
X148.962Y51.3
X148.908Y51.243
X148.843Y51.178
X148.778Y51.118
X148.721Y51.07
X148.66Y51.021
X148.598Y50.975
X148.536Y50.932
X148.444Y50.874
X148.37Y50.832
X148.273Y50.782
X148.217Y50.756
X148.143Y50.724
X148.075Y50.698
X147.999Y50.671
X147.926Y50.649
X147.852Y50.629
X147.776Y50.611
X147.701Y50.596
X147.624Y50.583
X140.536Y49.556
X140.515Y49.516
X140.496Y49.482
X140.476Y49.449
X140.456Y49.416
X140.434Y49.384
X140.412Y49.352
X140.389Y49.321
X140.366Y49.291
X140.341Y49.261
X140.316Y49.231
X140.29Y49.203
X140.264Y49.175
X140.237Y49.147
X140.209Y49.12
X140.18Y49.094
X140.151Y49.069
X140.12Y49.043
X140.09Y49.019
X140.059Y48.996
X140.028Y48.974
X139.996Y48.952
X139.963Y48.931
X139.93Y48.911
X139.897Y48.892
X139.863Y48.873
X139.828Y48.856
X139.793Y48.839
X139.758Y48.823
X139.723Y48.808
X139.687Y48.794
X139.65Y48.78
X139.614Y48.768
X139.577Y48.756
X139.54Y48.746
X139.502Y48.736
X139.465Y48.727
X139.427Y48.719
X139.389Y48.712
X139.351Y48.706
X139.312Y48.701
X139.274Y48.697
X139.236Y48.693
X139.197Y48.691
X139.158Y48.69
X139.12Y48.689
X132.445
X132.406Y48.69
X132.367Y48.691
X132.329Y48.693
X132.29Y48.697
X132.251Y48.701
X132.212Y48.706
X132.174Y48.712
X132.135Y48.72
X132.097Y48.728
X132.059Y48.737
X132.022Y48.747
X131.984Y48.757
X131.947Y48.769
X131.91Y48.782
X131.874Y48.795
X131.837Y48.81
X131.802Y48.825
X131.766Y48.841
X131.731Y48.859
X131.697Y48.876
X131.662Y48.895
X131.629Y48.915
X131.595Y48.935
X131.563Y48.957
X131.531Y48.979
X131.499Y49.001
X131.468Y49.025
X131.438Y49.049
X131.408Y49.074
X131.378Y49.1
X131.349Y49.128
X131.321Y49.155
X131.294Y49.183
X131.267Y49.211
X131.241Y49.241
X131.216Y49.27
X131.192Y49.301
X131.168Y49.332
X131.145Y49.363
X131.123Y49.396
X131.102Y49.428
X131.081Y49.462
X131.062Y49.495
X131.043Y49.529
X131.025Y49.564
X131.008Y49.599
X130.991Y49.635
X130.976Y49.67
X130.961Y49.707
Z-0.2F50
X130.948Y49.743F100
X130.935Y49.78
X130.923Y49.817
X130.912Y49.855
X130.902Y49.893
X130.893Y49.93
X130.885Y49.969
X130.878Y50.007
X130.872Y50.046
X130.866Y50.084
X130.862Y50.123
X130.859Y50.162
X130.856Y50.201
X130.855Y50.24
X130.854Y50.28
Y62.248
X130.856Y62.386
X130.86Y62.524
X130.866Y62.662
X130.875Y62.8
X130.886Y62.937
X130.899Y63.075
X130.915Y63.212
X130.933Y63.349
X130.954Y63.486
X130.977Y63.622
X131.002Y63.758
X131.03Y63.893
X131.06Y64.028
X131.092Y64.162
X131.127Y64.295
X131.164Y64.429
X131.203Y64.562
X131.244Y64.692
X131.289Y64.824
X131.335Y64.954
X131.383Y65.083
X131.434Y65.212
X131.487Y65.34
X131.542Y65.466
X131.599Y65.592
X131.659Y65.717
X131.72Y65.84
X131.784Y65.962
X131.85Y66.084
X131.918Y66.204
X131.988Y66.323
X132.06Y66.441
X132.134Y66.558
X132.21Y66.672
X132.289Y66.786
X132.369Y66.899
X132.451Y67.01
X132.535Y67.12
X132.621Y67.228
X132.709Y67.334
X132.798Y67.44
X132.89Y67.543
X132.983Y67.645
X133.078Y67.745
X133.175Y67.844
X133.273Y67.94
X133.373Y68.036
X133.475Y68.129
X133.578Y68.221
X133.683Y68.311
X133.789Y68.399
X133.898Y68.485
X134.007Y68.569
X134.118Y68.651
X134.23Y68.732
X134.344Y68.81
X134.459Y68.887
X134.575Y68.961
X134.693Y69.033
X134.811Y69.103
X134.932Y69.172
X135.053Y69.238
X135.176Y69.302
X135.299Y69.364
X135.423Y69.424
X135.549Y69.481
X135.675Y69.537
X135.803Y69.59
X135.932Y69.641
X136.06Y69.689
X136.191Y69.736
X136.309Y69.776
X147.443Y73.447
X147.486Y73.461
X147.53Y73.473
X147.574Y73.484
X147.607Y73.492
X147.641Y73.499
X147.675Y73.505
X147.79Y73.522
X163.87Y75.853
X163.941Y75.863
X164.012Y75.871
X164.089Y75.878
X164.157Y75.884
X164.227Y75.888
X164.298Y75.891
X164.37Y75.893
X164.44Y75.894
X164.513
X164.583Y75.892
X164.656Y75.889
X164.727Y75.885
X164.798Y75.879
X164.874Y75.872
X164.945Y75.864
X165.012Y75.856
X165.082Y75.845
X165.158Y75.833
X165.224Y75.821
X165.293Y75.807
X165.363Y75.792
X165.437Y75.774
X165.506Y75.757
X165.575Y75.738
X165.644Y75.718
X165.712Y75.696
X165.777Y75.675
X165.847Y75.65
X165.911Y75.627
X165.982Y75.599
X166.049Y75.572
X166.113Y75.544
X166.179Y75.514
X166.244Y75.484
X166.308Y75.452
X166.372Y75.419
X166.435Y75.385
X166.497Y75.351
X166.558Y75.315
X166.62Y75.278
X166.681Y75.24
X166.736Y75.203
X166.799Y75.16
X166.855Y75.121
X166.916Y75.077
X166.972Y75.034
X167.029Y74.99
X167.085Y74.944
X167.139Y74.899
X167.194Y74.851
X167.247Y74.803
X167.299Y74.754
X167.349Y74.705
X167.398Y74.656
X167.447Y74.605
X167.496Y74.553
X167.544Y74.5
X167.59Y74.446
X167.636Y74.391
X167.682Y74.335
X167.728Y74.276
X167.771Y74.219
X167.828Y74.14
X167.888Y74.052
X167.928Y73.992
X167.984Y73.902
X168.039Y73.808
X168.09Y73.715
X168.14Y73.619
X168.186Y73.524
X168.231Y73.425
X168.273Y73.327
X168.312Y73.227
X168.349Y73.126
X168.384Y73.023
X168.415Y72.92
X168.443Y72.818
X168.469Y72.714
X168.486Y72.643
X168.507Y72.54
X168.526Y72.433
X168.542Y72.326
X168.555Y72.221
X168.565Y72.114
X168.573Y72.006
X168.578Y71.9
X168.58Y71.792
Y61.581
X168.578Y61.475
X168.572Y61.367
X168.567Y61.293
X168.557Y61.185
X168.544Y61.079
X168.529Y60.972
X168.511Y60.867
X168.489Y60.761
X168.473Y60.69
X168.448Y60.586
X168.419Y60.48
X168.388Y60.38
X168.355Y60.277
X168.317Y60.173
X168.279Y60.074
X168.237Y59.974
X168.192Y59.875
X168.146Y59.78
X168.096Y59.683
X168.045Y59.59
X167.99Y59.496
X167.934Y59.405
X167.875Y59.315
X167.813Y59.226
X167.749Y59.138
X167.683Y59.054
X167.616Y58.971
X167.563Y58.91
X167.513Y58.853
X167.467Y58.803
X167.415Y58.748
X167.364Y58.696
X167.316Y58.65
X167.264Y58.6
X167.208Y58.549
X167.157Y58.504
X167.103Y58.458
X167.047Y58.412
X166.991Y58.367
X166.931Y58.321
X166.876Y58.281
X166.814Y58.236
X166.756Y58.197
X166.698Y58.159
X166.637Y58.12
X166.576Y58.082
X166.514Y58.046
X166.451Y58.01
X166.388Y57.976
X166.325Y57.943
X166.257Y57.91
X166.195Y57.88
X166.127Y57.849
X166.064Y57.822
X165.998Y57.794
X165.926Y57.766
X165.861Y57.742
X165.796Y57.718
X165.724Y57.695
X165.659Y57.674
X165.59Y57.654
X165.517Y57.633
X165.447Y57.615
X165.377Y57.598
X165.308Y57.583
X165.241Y57.569
X165.165Y57.555
X165.1Y57.544
X165.042Y57.536
X149.536Y55.287
X149.53Y52.756
X149.525Y52.635
X149.515Y52.529
X149.504Y52.447
X149.483Y52.33
X149.458Y52.223
X149.424Y52.105
X149.398Y52.03
X149.359Y51.93
X149.309Y51.818
X149.251Y51.706
X149.177Y51.583
X149.107Y51.481
X149.01Y51.355
X148.962Y51.3
X148.908Y51.243
X148.843Y51.178
X148.778Y51.118
X148.721Y51.07
X148.66Y51.021
X148.598Y50.975
X148.536Y50.932
X148.444Y50.874
X148.37Y50.832
X148.273Y50.782
X148.217Y50.756
X148.143Y50.724
X148.075Y50.698
X147.999Y50.671
X147.926Y50.649
X147.852Y50.629
X147.776Y50.611
X147.701Y50.596
X147.624Y50.583
X140.536Y49.556
X140.515Y49.516
X140.496Y49.482
X140.476Y49.449
X140.456Y49.416
X140.434Y49.384
X140.412Y49.352
X140.389Y49.321
X140.366Y49.291
X140.341Y49.261
X140.316Y49.231
X140.29Y49.203
X140.264Y49.175
X140.237Y49.147
X140.209Y49.12
X140.18Y49.094
X140.151Y49.069
X140.12Y49.043
X140.09Y49.019
X140.059Y48.996
X140.028Y48.974
X139.996Y48.952
X139.963Y48.931
X139.93Y48.911
X139.897Y48.892
X139.863Y48.873
X139.828Y48.856
X139.793Y48.839
X139.758Y48.823
X139.723Y48.808
X139.687Y48.794
X139.65Y48.78
X139.614Y48.768
X139.577Y48.756
X139.54Y48.746
X139.502Y48.736
X139.465Y48.727
X139.427Y48.719
X139.389Y48.712
X139.351Y48.706
X139.312Y48.701
X139.274Y48.697
X139.236Y48.693
X139.197Y48.691
X139.158Y48.69
X139.12Y48.689
X132.445
X132.406Y48.69
X132.367Y48.691
X132.329Y48.693
X132.29Y48.697
X132.251Y48.701
X132.212Y48.706
X132.174Y48.712
X132.135Y48.72
X132.097Y48.728
X132.059Y48.737
X132.022Y48.747
X131.984Y48.757
X131.947Y48.769
X131.91Y48.782
X131.874Y48.795
X131.837Y48.81
X131.802Y48.825
X131.766Y48.841
X131.731Y48.859
X131.697Y48.876
X131.662Y48.895
X131.629Y48.915
X131.595Y48.935
X131.563Y48.957
X131.531Y48.979
X131.499Y49.001
X131.468Y49.025
X131.438Y49.049
X131.408Y49.074
X131.378Y49.1
X131.349Y49.128
X131.321Y49.155
X131.294Y49.183
X131.267Y49.211
X131.241Y49.241
X131.216Y49.27
X131.192Y49.301
X131.168Y49.332
X131.145Y49.363
X131.123Y49.396
X131.102Y49.428
X131.081Y49.462
X131.062Y49.495
X131.043Y49.529
X131.025Y49.564
X131.008Y49.599
X130.991Y49.635
X130.976Y49.67
X130.961Y49.707
Z-0.3F50
X130.948Y49.743F100
X130.935Y49.78
X130.923Y49.817
X130.912Y49.855
X130.902Y49.893
X130.893Y49.93
X130.885Y49.969
X130.878Y50.007
X130.872Y50.046
X130.866Y50.084
X130.862Y50.123
X130.859Y50.162
X130.856Y50.201
X130.855Y50.24
X130.854Y50.28
Y62.248
X130.856Y62.386
X130.86Y62.524
X130.866Y62.662
X130.875Y62.8
X130.886Y62.937
X130.899Y63.075
X130.915Y63.212
X130.933Y63.349
X130.954Y63.486
X130.977Y63.622
X131.002Y63.758
X131.03Y63.893
X131.06Y64.028
X131.092Y64.162
X131.127Y64.295
X131.164Y64.429
X131.203Y64.562
X131.244Y64.692
X131.289Y64.824
X131.335Y64.954
X131.383Y65.083
X131.434Y65.212
X131.487Y65.34
X131.542Y65.466
X131.599Y65.592
X131.659Y65.717
X131.72Y65.84
X131.784Y65.962
X131.85Y66.084
X131.918Y66.204
X131.988Y66.323
X132.06Y66.441
X132.134Y66.558
X132.21Y66.672
X132.289Y66.786
X132.369Y66.899
X132.451Y67.01
X132.535Y67.12
X132.621Y67.228
X132.709Y67.334
X132.798Y67.44
X132.89Y67.543
X132.983Y67.645
X133.078Y67.745
X133.175Y67.844
X133.273Y67.94
X133.373Y68.036
X133.475Y68.129
X133.578Y68.221
X133.683Y68.311
X133.789Y68.399
X133.898Y68.485
X134.007Y68.569
X134.118Y68.651
X134.23Y68.732
X134.344Y68.81
X134.459Y68.887
X134.575Y68.961
X134.693Y69.033
X134.811Y69.103
X134.932Y69.172
X135.053Y69.238
X135.176Y69.302
X135.299Y69.364
X135.423Y69.424
X135.549Y69.481
X135.675Y69.537
X135.803Y69.59
X135.932Y69.641
X136.06Y69.689
X136.191Y69.736
X136.309Y69.776
X147.443Y73.447
X147.486Y73.461
X147.53Y73.473
X147.574Y73.484
X147.607Y73.492
X147.641Y73.499
X147.675Y73.505
X147.79Y73.522
X163.87Y75.853
X163.941Y75.863
X164.012Y75.871
X164.089Y75.878
X164.157Y75.884
X164.227Y75.888
X164.298Y75.891
X164.37Y75.893
X164.44Y75.894
X164.513
X164.583Y75.892
X164.656Y75.889
X164.727Y75.885
X164.798Y75.879
X164.874Y75.872
X164.945Y75.864
X165.012Y75.856
X165.082Y75.845
X165.158Y75.833
X165.224Y75.821
X165.293Y75.807
X165.363Y75.792
X165.437Y75.774
X165.506Y75.757
X165.575Y75.738
X165.644Y75.718
X165.712Y75.696
X165.777Y75.675
X165.847Y75.65
X165.911Y75.627
X165.982Y75.599
X166.049Y75.572
X166.113Y75.544
X166.179Y75.514
X166.244Y75.484
X166.308Y75.452
X166.372Y75.419
X166.435Y75.385
X166.497Y75.351
X166.558Y75.315
X166.62Y75.278
X166.681Y75.24
X166.736Y75.203
X166.799Y75.16
X166.855Y75.121
X166.916Y75.077
X166.972Y75.034
X167.029Y74.99
X167.085Y74.944
X167.139Y74.899
X167.194Y74.851
X167.247Y74.803
X167.299Y74.754
X167.349Y74.705
X167.398Y74.656
X167.447Y74.605
X167.496Y74.553
X167.544Y74.5
X167.59Y74.446
X167.636Y74.391
X167.682Y74.335
X167.728Y74.276
X167.771Y74.219
X167.828Y74.14
X167.888Y74.052
X167.928Y73.992
X167.984Y73.902
X168.039Y73.808
X168.09Y73.715
X168.14Y73.619
X168.186Y73.524
X168.231Y73.425
X168.273Y73.327
X168.312Y73.227
X168.349Y73.126
X168.384Y73.023
X168.415Y72.92
X168.443Y72.818
X168.469Y72.714
X168.486Y72.643
X168.507Y72.54
X168.526Y72.433
X168.542Y72.326
X168.555Y72.221
X168.565Y72.114
X168.573Y72.006
X168.578Y71.9
X168.58Y71.792
Y61.581
X168.578Y61.475
X168.572Y61.367
X168.567Y61.293
X168.557Y61.185
X168.544Y61.079
X168.529Y60.972
X168.511Y60.867
X168.489Y60.761
X168.473Y60.69
X168.448Y60.586
X168.419Y60.48
X168.388Y60.38
X168.355Y60.277
X168.317Y60.173
X168.279Y60.074
X168.237Y59.974
X168.192Y59.875
X168.146Y59.78
X168.096Y59.683
X168.045Y59.59
X167.99Y59.496
X167.934Y59.405
X167.875Y59.315
X167.813Y59.226
X167.749Y59.138
X167.683Y59.054
X167.616Y58.971
X167.563Y58.91
X167.513Y58.853
X167.467Y58.803
X167.415Y58.748
X167.364Y58.696
X167.316Y58.65
X167.264Y58.6
X167.208Y58.549
X167.157Y58.504
X167.103Y58.458
X167.047Y58.412
X166.991Y58.367
X166.931Y58.321
X166.876Y58.281
X166.814Y58.236
X166.756Y58.197
X166.698Y58.159
X166.637Y58.12
X166.576Y58.082
X166.514Y58.046
X166.451Y58.01
X166.388Y57.976
X166.325Y57.943
X166.257Y57.91
X166.195Y57.88
X166.127Y57.849
X166.064Y57.822
X165.998Y57.794
X165.926Y57.766
X165.861Y57.742
X165.796Y57.718
X165.724Y57.695
X165.659Y57.674
X165.59Y57.654
X165.517Y57.633
X165.447Y57.615
X165.377Y57.598
X165.308Y57.583
X165.241Y57.569
X165.165Y57.555
X165.1Y57.544
X165.042Y57.536
X149.536Y55.287
X149.53Y52.756
X149.525Y52.635
X149.515Y52.529
X149.504Y52.447
X149.483Y52.33
X149.458Y52.223
X149.424Y52.105
X149.398Y52.03
X149.359Y51.93
X149.309Y51.818
X149.251Y51.706
X149.177Y51.583
X149.107Y51.481
X149.01Y51.355
X148.962Y51.3
X148.908Y51.243
X148.843Y51.178
X148.778Y51.118
X148.721Y51.07
X148.66Y51.021
X148.598Y50.975
X148.536Y50.932
X148.444Y50.874
X148.37Y50.832
X148.273Y50.782
X148.217Y50.756
X148.143Y50.724
X148.075Y50.698
X147.999Y50.671
X147.926Y50.649
X147.852Y50.629
X147.776Y50.611
X147.701Y50.596
X147.624Y50.583
X140.536Y49.556
X140.515Y49.516
X140.496Y49.482
X140.476Y49.449
X140.456Y49.416
X140.434Y49.384
X140.412Y49.352
X140.389Y49.321
X140.366Y49.291
X140.341Y49.261
X140.316Y49.231
X140.29Y49.203
X140.264Y49.175
X140.237Y49.147
X140.209Y49.12
X140.18Y49.094
X140.151Y49.069
X140.12Y49.043
X140.09Y49.019
X140.059Y48.996
X140.028Y48.974
X139.996Y48.952
X139.963Y48.931
X139.93Y48.911
X139.897Y48.892
X139.863Y48.873
X139.828Y48.856
X139.793Y48.839
X139.758Y48.823
X139.723Y48.808
X139.687Y48.794
X139.65Y48.78
X139.614Y48.768
X139.577Y48.756
X139.54Y48.746
X139.502Y48.736
X139.465Y48.727
X139.427Y48.719
X139.389Y48.712
X139.351Y48.706
X139.312Y48.701
X139.274Y48.697
X139.236Y48.693
X139.197Y48.691
X139.158Y48.69
X139.12Y48.689
X132.445
X132.406Y48.69
X132.367Y48.691
X132.329Y48.693
X132.29Y48.697
X132.251Y48.701
X132.212Y48.706
X132.174Y48.712
X132.135Y48.72
X132.097Y48.728
X132.059Y48.737
X132.022Y48.747
X131.984Y48.757
X131.947Y48.769
X131.91Y48.782
X131.874Y48.795
X131.837Y48.81
X131.802Y48.825
X131.766Y48.841
X131.731Y48.859
X131.697Y48.876
X131.662Y48.895
X131.629Y48.915
X131.595Y48.935
X131.563Y48.957
X131.531Y48.979
X131.499Y49.001
X131.468Y49.025
X131.438Y49.049
X131.408Y49.074
X131.378Y49.1
X131.349Y49.128
X131.321Y49.155
X131.294Y49.183
X131.267Y49.211
X131.241Y49.241
X131.216Y49.27
X131.192Y49.301
X131.168Y49.332
X131.145Y49.363
X131.123Y49.396
X131.102Y49.428
X131.081Y49.462
X131.062Y49.495
X131.043Y49.529
X131.025Y49.564
X131.008Y49.599
X130.991Y49.635
X130.976Y49.67
X130.961Y49.707
Z-0.4F50
X130.948Y49.743F100
X130.935Y49.78
X130.923Y49.817
X130.912Y49.855
X130.902Y49.893
X130.893Y49.93
X130.885Y49.969
X130.878Y50.007
X130.872Y50.046
X130.866Y50.084
X130.862Y50.123
X130.859Y50.162
X130.856Y50.201
X130.855Y50.24
X130.854Y50.28
Y62.248
X130.856Y62.386
X130.86Y62.524
X130.866Y62.662
X130.875Y62.8
X130.886Y62.937
X130.899Y63.075
X130.915Y63.212
X130.933Y63.349
X130.954Y63.486
X130.977Y63.622
X131.002Y63.758
X131.03Y63.893
X131.06Y64.028
X131.092Y64.162
X131.127Y64.295
X131.164Y64.429
X131.203Y64.562
X131.244Y64.692
X131.289Y64.824
X131.335Y64.954
X131.383Y65.083
X131.434Y65.212
X131.487Y65.34
X131.542Y65.466
X131.599Y65.592
X131.659Y65.717
X131.72Y65.84
X131.784Y65.962
X131.85Y66.084
X131.918Y66.204
X131.988Y66.323
X132.06Y66.441
X132.134Y66.558
X132.21Y66.672
X132.289Y66.786
X132.369Y66.899
X132.451Y67.01
X132.535Y67.12
X132.621Y67.228
X132.709Y67.334
X132.798Y67.44
X132.89Y67.543
X132.983Y67.645
X133.078Y67.745
X133.175Y67.844
X133.273Y67.94
X133.373Y68.036
X133.475Y68.129
X133.578Y68.221
X133.683Y68.311
X133.789Y68.399
X133.898Y68.485
X134.007Y68.569
X134.118Y68.651
X134.23Y68.732
X134.344Y68.81
X134.459Y68.887
X134.575Y68.961
X134.693Y69.033
X134.811Y69.103
X134.932Y69.172
X135.053Y69.238
X135.176Y69.302
X135.299Y69.364
X135.423Y69.424
X135.549Y69.481
X135.675Y69.537
X135.803Y69.59
X135.932Y69.641
X136.06Y69.689
X136.191Y69.736
X136.309Y69.776
X147.443Y73.447
X147.486Y73.461
X147.53Y73.473
X147.574Y73.484
X147.607Y73.492
X147.641Y73.499
X147.675Y73.505
X147.79Y73.522
X163.87Y75.853
X163.941Y75.863
X164.012Y75.871
X164.089Y75.878
X164.157Y75.884
X164.227Y75.888
X164.298Y75.891
X164.37Y75.893
X164.44Y75.894
X164.513
X164.583Y75.892
X164.656Y75.889
X164.727Y75.885
X164.798Y75.879
X164.874Y75.872
X164.945Y75.864
X165.012Y75.856
X165.082Y75.845
X165.158Y75.833
X165.224Y75.821
X165.293Y75.807
X165.363Y75.792
X165.437Y75.774
X165.506Y75.757
X165.575Y75.738
X165.644Y75.718
X165.712Y75.696
X165.777Y75.675
X165.847Y75.65
X165.911Y75.627
X165.982Y75.599
X166.049Y75.572
X166.113Y75.544
X166.179Y75.514
X166.244Y75.484
X166.308Y75.452
X166.372Y75.419
X166.435Y75.385
X166.497Y75.351
X166.558Y75.315
X166.62Y75.278
X166.681Y75.24
X166.736Y75.203
X166.799Y75.16
X166.855Y75.121
X166.916Y75.077
X166.972Y75.034
X167.029Y74.99
X167.085Y74.944
X167.139Y74.899
X167.194Y74.851
X167.247Y74.803
X167.299Y74.754
X167.349Y74.705
X167.398Y74.656
X167.447Y74.605
X167.496Y74.553
X167.544Y74.5
X167.59Y74.446
X167.636Y74.391
X167.682Y74.335
X167.728Y74.276
X167.771Y74.219
X167.828Y74.14
X167.888Y74.052
X167.928Y73.992
X167.984Y73.902
X168.039Y73.808
X168.09Y73.715
X168.14Y73.619
X168.186Y73.524
X168.231Y73.425
X168.273Y73.327
X168.312Y73.227
X168.349Y73.126
X168.384Y73.023
X168.415Y72.92
X168.443Y72.818
X168.469Y72.714
X168.486Y72.643
X168.507Y72.54
X168.526Y72.433
X168.542Y72.326
X168.555Y72.221
X168.565Y72.114
X168.573Y72.006
X168.578Y71.9
X168.58Y71.792
Y61.581
X168.578Y61.475
X168.572Y61.367
X168.567Y61.293
X168.557Y61.185
X168.544Y61.079
X168.529Y60.972
X168.511Y60.867
X168.489Y60.761
X168.473Y60.69
X168.448Y60.586
X168.419Y60.48
X168.388Y60.38
X168.355Y60.277
X168.317Y60.173
X168.279Y60.074
X168.237Y59.974
X168.192Y59.875
X168.146Y59.78
X168.096Y59.683
X168.045Y59.59
X167.99Y59.496
X167.934Y59.405
X167.875Y59.315
X167.813Y59.226
X167.749Y59.138
X167.683Y59.054
X167.616Y58.971
X167.563Y58.91
X167.513Y58.853
X167.467Y58.803
X167.415Y58.748
X167.364Y58.696
X167.316Y58.65
X167.264Y58.6
X167.208Y58.549
X167.157Y58.504
X167.103Y58.458
X167.047Y58.412
X166.991Y58.367
X166.931Y58.321
X166.876Y58.281
X166.814Y58.236
X166.756Y58.197
X166.698Y58.159
X166.637Y58.12
X166.576Y58.082
X166.514Y58.046
X166.451Y58.01
X166.388Y57.976
X166.325Y57.943
X166.257Y57.91
X166.195Y57.88
X166.127Y57.849
X166.064Y57.822
X165.998Y57.794
X165.926Y57.766
X165.861Y57.742
X165.796Y57.718
X165.724Y57.695
X165.659Y57.674
X165.59Y57.654
X165.517Y57.633
X165.447Y57.615
X165.377Y57.598
X165.308Y57.583
X165.241Y57.569
X165.165Y57.555
X165.1Y57.544
X165.042Y57.536
X149.536Y55.287
X149.53Y52.756
X149.525Y52.635
X149.515Y52.529
X149.504Y52.447
X149.483Y52.33
X149.458Y52.223
X149.424Y52.105
X149.398Y52.03
X149.359Y51.93
X149.309Y51.818
X149.251Y51.706
X149.177Y51.583
X149.107Y51.481
X149.01Y51.355
X148.962Y51.3
X148.908Y51.243
X148.843Y51.178
X148.778Y51.118
X148.721Y51.07
X148.66Y51.021
X148.598Y50.975
X148.536Y50.932
X148.444Y50.874
X148.37Y50.832
X148.273Y50.782
X148.217Y50.756
X148.143Y50.724
X148.075Y50.698
X147.999Y50.671
X147.926Y50.649
X147.852Y50.629
X147.776Y50.611
X147.701Y50.596
X147.624Y50.583
X140.536Y49.556
X140.515Y49.516
X140.496Y49.482
X140.476Y49.449
X140.456Y49.416
X140.434Y49.384
X140.412Y49.352
X140.389Y49.321
X140.366Y49.291
X140.341Y49.261
X140.316Y49.231
X140.29Y49.203
X140.264Y49.175
X140.237Y49.147
X140.209Y49.12
X140.18Y49.094
X140.151Y49.069
X140.12Y49.043
X140.09Y49.019
X140.059Y48.996
X140.028Y48.974
X139.996Y48.952
X139.963Y48.931
X139.93Y48.911
X139.897Y48.892
X139.863Y48.873
X139.828Y48.856
X139.793Y48.839
X139.758Y48.823
X139.723Y48.808
X139.687Y48.794
X139.65Y48.78
X139.614Y48.768
X139.577Y48.756
X139.54Y48.746
X139.502Y48.736
X139.465Y48.727
X139.427Y48.719
X139.389Y48.712
X139.351Y48.706
X139.312Y48.701
X139.274Y48.697
X139.236Y48.693
X139.197Y48.691
X139.158Y48.69
X139.12Y48.689
X132.445
X132.406Y48.69
X132.367Y48.691
X132.329Y48.693
X132.29Y48.697
X132.251Y48.701
X132.212Y48.706
X132.174Y48.712
X132.135Y48.72
X132.097Y48.728
X132.059Y48.737
X132.022Y48.747
X131.984Y48.757
X131.947Y48.769
X131.91Y48.782
X131.874Y48.795
X131.837Y48.81
X131.802Y48.825
X131.766Y48.841
X131.731Y48.859
X131.697Y48.876
X131.662Y48.895
X131.629Y48.915
X131.595Y48.935
X131.563Y48.957
X131.531Y48.979
X131.499Y49.001
X131.468Y49.025
X131.438Y49.049
X131.408Y49.074
X131.378Y49.1
X131.349Y49.128
X131.321Y49.155
X131.294Y49.183
X131.267Y49.211
X131.241Y49.241
X131.216Y49.27
X131.192Y49.301
X131.168Y49.332
X131.145Y49.363
X131.123Y49.396
X131.102Y49.428
X131.081Y49.462
X131.062Y49.495
X131.043Y49.529
X131.025Y49.564
X131.008Y49.599
X130.991Y49.635
X130.976Y49.67
X130.961Y49.707
Z-0.5F50
X130.948Y49.743F100
X130.935Y49.78
X130.923Y49.817
X130.912Y49.855
X130.902Y49.893
X130.893Y49.93
X130.885Y49.969
X130.878Y50.007
X130.872Y50.046
X130.866Y50.084
X130.862Y50.123
X130.859Y50.162
X130.856Y50.201
X130.855Y50.24
X130.854Y50.28
Y62.248
X130.856Y62.386
X130.86Y62.524
X130.866Y62.662
X130.875Y62.8
X130.886Y62.937
X130.899Y63.075
X130.915Y63.212
X130.933Y63.349
X130.954Y63.486
X130.977Y63.622
X131.002Y63.758
X131.03Y63.893
X131.06Y64.028
X131.092Y64.162
X131.127Y64.295
X131.164Y64.429
X131.203Y64.562
X131.244Y64.692
X131.289Y64.824
X131.335Y64.954
X131.383Y65.083
X131.434Y65.212
X131.487Y65.34
X131.542Y65.466
X131.599Y65.592
X131.659Y65.717
X131.72Y65.84
X131.784Y65.962
X131.85Y66.084
X131.918Y66.204
X131.988Y66.323
X132.06Y66.441
X132.134Y66.558
X132.21Y66.672
X132.289Y66.786
X132.369Y66.899
X132.451Y67.01
X132.535Y67.12
X132.621Y67.228
X132.709Y67.334
X132.798Y67.44
X132.89Y67.543
X132.983Y67.645
X133.078Y67.745
X133.175Y67.844
X133.273Y67.94
X133.373Y68.036
X133.475Y68.129
X133.578Y68.221
X133.683Y68.311
X133.789Y68.399
X133.898Y68.485
X134.007Y68.569
X134.118Y68.651
X134.23Y68.732
X134.344Y68.81
X134.459Y68.887
X134.575Y68.961
X134.693Y69.033
X134.811Y69.103
X134.932Y69.172
X135.053Y69.238
X135.176Y69.302
X135.299Y69.364
X135.423Y69.424
X135.549Y69.481
X135.675Y69.537
X135.803Y69.59
X135.932Y69.641
X136.06Y69.689
X136.191Y69.736
X136.309Y69.776
X147.443Y73.447
X147.486Y73.461
X147.53Y73.473
X147.574Y73.484
X147.607Y73.492
X147.641Y73.499
X147.675Y73.505
X147.79Y73.522
X163.87Y75.853
X163.941Y75.863
X164.012Y75.871
X164.089Y75.878
X164.157Y75.884
X164.227Y75.888
X164.298Y75.891
X164.37Y75.893
X164.44Y75.894
X164.513
X164.583Y75.892
X164.656Y75.889
X164.727Y75.885
X164.798Y75.879
X164.874Y75.872
X164.945Y75.864
X165.012Y75.856
X165.082Y75.845
X165.158Y75.833
X165.224Y75.821
X165.293Y75.807
X165.363Y75.792
X165.437Y75.774
X165.506Y75.757
X165.575Y75.738
X165.644Y75.718
X165.712Y75.696
X165.777Y75.675
X165.847Y75.65
X165.911Y75.627
X165.982Y75.599
X166.049Y75.572
X166.113Y75.544
X166.179Y75.514
X166.244Y75.484
X166.308Y75.452
X166.372Y75.419
X166.435Y75.385
X166.497Y75.351
X166.558Y75.315
X166.62Y75.278
X166.681Y75.24
X166.736Y75.203
X166.799Y75.16
X166.855Y75.121
X166.916Y75.077
X166.972Y75.034
X167.029Y74.99
X167.085Y74.944
X167.139Y74.899
X167.194Y74.851
X167.247Y74.803
X167.299Y74.754
X167.349Y74.705
X167.398Y74.656
X167.447Y74.605
X167.496Y74.553
X167.544Y74.5
X167.59Y74.446
X167.636Y74.391
X167.682Y74.335
X167.728Y74.276
X167.771Y74.219
X167.828Y74.14
X167.888Y74.052
X167.928Y73.992
X167.984Y73.902
X168.039Y73.808
X168.09Y73.715
X168.14Y73.619
X168.186Y73.524
X168.231Y73.425
X168.273Y73.327
X168.312Y73.227
X168.349Y73.126
X168.384Y73.023
X168.415Y72.92
X168.443Y72.818
X168.469Y72.714
X168.486Y72.643
X168.507Y72.54
X168.526Y72.433
X168.542Y72.326
X168.555Y72.221
X168.565Y72.114
X168.573Y72.006
X168.578Y71.9
X168.58Y71.792
Y61.581
X168.578Y61.475
X168.572Y61.367
X168.567Y61.293
X168.557Y61.185
X168.544Y61.079
X168.529Y60.972
X168.511Y60.867
X168.489Y60.761
X168.473Y60.69
X168.448Y60.586
X168.419Y60.48
X168.388Y60.38
X168.355Y60.277
X168.317Y60.173
X168.279Y60.074
X168.237Y59.974
X168.192Y59.875
X168.146Y59.78
X168.096Y59.683
X168.045Y59.59
X167.99Y59.496
X167.934Y59.405
X167.875Y59.315
X167.813Y59.226
X167.749Y59.138
X167.683Y59.054
X167.616Y58.971
X167.563Y58.91
X167.513Y58.853
X167.467Y58.803
X167.415Y58.748
X167.364Y58.696
X167.316Y58.65
X167.264Y58.6
X167.208Y58.549
X167.157Y58.504
X167.103Y58.458
X167.047Y58.412
X166.991Y58.367
X166.931Y58.321
X166.876Y58.281
X166.814Y58.236
X166.756Y58.197
X166.698Y58.159
X166.637Y58.12
X166.576Y58.082
X166.514Y58.046
X166.451Y58.01
X166.388Y57.976
X166.325Y57.943
X166.257Y57.91
X166.195Y57.88
X166.127Y57.849
X166.064Y57.822
X165.998Y57.794
X165.926Y57.766
X165.861Y57.742
X165.796Y57.718
X165.724Y57.695
X165.659Y57.674
X165.59Y57.654
X165.517Y57.633
X165.447Y57.615
X165.377Y57.598
X165.308Y57.583
X165.241Y57.569
X165.165Y57.555
X165.1Y57.544
X165.042Y57.536
X149.536Y55.287
X149.53Y52.756
X149.525Y52.635
X149.515Y52.529
X149.504Y52.447
X149.483Y52.33
X149.458Y52.223
X149.424Y52.105
X149.398Y52.03
X149.359Y51.93
X149.309Y51.818
X149.251Y51.706
X149.177Y51.583
X149.107Y51.481
X149.01Y51.355
X148.962Y51.3
X148.908Y51.243
X148.843Y51.178
X148.778Y51.118
X148.721Y51.07
X148.66Y51.021
X148.598Y50.975
X148.536Y50.932
X148.444Y50.874
X148.37Y50.832
X148.273Y50.782
X148.217Y50.756
X148.143Y50.724
X148.075Y50.698
X147.999Y50.671
X147.926Y50.649
X147.852Y50.629
X147.776Y50.611
X147.701Y50.596
X147.624Y50.583
X140.536Y49.556
X140.515Y49.516
X140.496Y49.482
X140.476Y49.449
X140.456Y49.416
X140.434Y49.384
X140.412Y49.352
X140.389Y49.321
X140.366Y49.291
X140.341Y49.261
X140.316Y49.231
X140.29Y49.203
X140.264Y49.175
X140.237Y49.147
X140.209Y49.12
X140.18Y49.094
X140.151Y49.069
X140.12Y49.043
X140.09Y49.019
X140.059Y48.996
X140.028Y48.974
X139.996Y48.952
X139.963Y48.931
X139.93Y48.911
X139.897Y48.892
X139.863Y48.873
X139.828Y48.856
X139.793Y48.839
X139.758Y48.823
X139.723Y48.808
X139.687Y48.794
X139.65Y48.78
X139.614Y48.768
X139.577Y48.756
X139.54Y48.746
X139.502Y48.736
X139.465Y48.727
X139.427Y48.719
X139.389Y48.712
X139.351Y48.706
X139.312Y48.701
X139.274Y48.697
X139.236Y48.693
X139.197Y48.691
X139.158Y48.69
X139.12Y48.689
X132.445
X132.406Y48.69
X132.367Y48.691
X132.329Y48.693
X132.29Y48.697
X132.251Y48.701
X132.212Y48.706
X132.174Y48.712
X132.135Y48.72
X132.097Y48.728
X132.059Y48.737
X132.022Y48.747
X131.984Y48.757
X131.947Y48.769
X131.91Y48.782
X131.874Y48.795
X131.837Y48.81
X131.802Y48.825
X131.766Y48.841
X131.731Y48.859
X131.697Y48.876
X131.662Y48.895
X131.629Y48.915
X131.595Y48.935
X131.563Y48.957
X131.531Y48.979
X131.499Y49.001
X131.468Y49.025
X131.438Y49.049
X131.408Y49.074
X131.378Y49.1
X131.349Y49.128
X131.321Y49.155
X131.294Y49.183
X131.267Y49.211
X131.241Y49.241
X131.216Y49.27
X131.192Y49.301
X131.168Y49.332
X131.145Y49.363
X131.123Y49.396
X131.102Y49.428
X131.081Y49.462
X131.062Y49.495
X131.043Y49.529
X131.025Y49.564
X131.008Y49.599
X130.991Y49.635
X130.976Y49.67
X130.961Y49.707
Z-0.6F50
X130.948Y49.743F100
X130.935Y49.78
X130.923Y49.817
X130.912Y49.855
X130.902Y49.893
X130.893Y49.93
X130.885Y49.969
X130.878Y50.007
X130.872Y50.046
X130.866Y50.084
X130.862Y50.123
X130.859Y50.162
X130.856Y50.201
X130.855Y50.24
X130.854Y50.28
Y62.248
X130.856Y62.386
X130.86Y62.524
X130.866Y62.662
X130.875Y62.8
X130.886Y62.937
X130.899Y63.075
X130.915Y63.212
X130.933Y63.349
X130.954Y63.486
X130.977Y63.622
X131.002Y63.758
X131.03Y63.893
X131.06Y64.028
X131.092Y64.162
X131.127Y64.295
X131.164Y64.429
X131.203Y64.562
X131.244Y64.692
X131.289Y64.824
X131.335Y64.954
X131.383Y65.083
X131.434Y65.212
X131.487Y65.34
X131.542Y65.466
X131.599Y65.592
X131.659Y65.717
X131.72Y65.84
X131.784Y65.962
X131.85Y66.084
X131.918Y66.204
X131.988Y66.323
X132.06Y66.441
X132.134Y66.558
X132.21Y66.672
X132.289Y66.786
X132.369Y66.899
X132.451Y67.01
X132.535Y67.12
X132.621Y67.228
X132.709Y67.334
X132.798Y67.44
X132.89Y67.543
X132.983Y67.645
X133.078Y67.745
X133.175Y67.844
X133.273Y67.94
X133.373Y68.036
X133.475Y68.129
X133.578Y68.221
X133.683Y68.311
X133.789Y68.399
X133.898Y68.485
X134.007Y68.569
X134.118Y68.651
X134.23Y68.732
X134.344Y68.81
X134.459Y68.887
X134.575Y68.961
X134.693Y69.033
X134.811Y69.103
X134.932Y69.172
X135.053Y69.238
X135.176Y69.302
X135.299Y69.364
X135.423Y69.424
X135.549Y69.481
X135.675Y69.537
X135.803Y69.59
X135.932Y69.641
X136.06Y69.689
X136.191Y69.736
X136.309Y69.776
X147.443Y73.447
X147.486Y73.461
X147.53Y73.473
X147.574Y73.484
X147.607Y73.492
X147.641Y73.499
X147.675Y73.505
X147.79Y73.522
X163.87Y75.853
X163.941Y75.863
X164.012Y75.871
X164.089Y75.878
X164.157Y75.884
X164.227Y75.888
X164.298Y75.891
X164.37Y75.893
X164.44Y75.894
X164.513
X164.583Y75.892
X164.656Y75.889
X164.727Y75.885
X164.798Y75.879
X164.874Y75.872
X164.945Y75.864
X165.012Y75.856
X165.082Y75.845
X165.158Y75.833
X165.224Y75.821
X165.293Y75.807
X165.363Y75.792
X165.437Y75.774
X165.506Y75.757
X165.575Y75.738
X165.644Y75.718
X165.712Y75.696
X165.777Y75.675
X165.847Y75.65
X165.911Y75.627
X165.982Y75.599
X166.049Y75.572
X166.113Y75.544
X166.179Y75.514
X166.244Y75.484
X166.308Y75.452
X166.372Y75.419
X166.435Y75.385
X166.497Y75.351
X166.558Y75.315
X166.62Y75.278
X166.681Y75.24
X166.736Y75.203
X166.799Y75.16
X166.855Y75.121
X166.916Y75.077
X166.972Y75.034
X167.029Y74.99
X167.085Y74.944
X167.139Y74.899
X167.194Y74.851
X167.247Y74.803
X167.299Y74.754
X167.349Y74.705
X167.398Y74.656
X167.447Y74.605
X167.496Y74.553
X167.544Y74.5
X167.59Y74.446
X167.636Y74.391
X167.682Y74.335
X167.728Y74.276
X167.771Y74.219
X167.828Y74.14
X167.888Y74.052
X167.928Y73.992
X167.984Y73.902
X168.039Y73.808
X168.09Y73.715
X168.14Y73.619
X168.186Y73.524
X168.231Y73.425
X168.273Y73.327
X168.312Y73.227
X168.349Y73.126
X168.384Y73.023
X168.415Y72.92
X168.443Y72.818
X168.469Y72.714
X168.486Y72.643
X168.507Y72.54
X168.526Y72.433
X168.542Y72.326
X168.555Y72.221
X168.565Y72.114
X168.573Y72.006
X168.578Y71.9
X168.58Y71.792
Y61.581
X168.578Y61.475
X168.572Y61.367
X168.567Y61.293
X168.557Y61.185
X168.544Y61.079
X168.529Y60.972
X168.511Y60.867
X168.489Y60.761
X168.473Y60.69
X168.448Y60.586
X168.419Y60.48
X168.388Y60.38
X168.355Y60.277
X168.317Y60.173
X168.279Y60.074
X168.237Y59.974
X168.192Y59.875
X168.146Y59.78
X168.096Y59.683
X168.045Y59.59
X167.99Y59.496
X167.934Y59.405
X167.875Y59.315
X167.813Y59.226
X167.749Y59.138
X167.683Y59.054
X167.616Y58.971
X167.563Y58.91
X167.513Y58.853
X167.467Y58.803
X167.415Y58.748
X167.364Y58.696
X167.316Y58.65
X167.264Y58.6
X167.208Y58.549
X167.157Y58.504
X167.103Y58.458
X167.047Y58.412
X166.991Y58.367
X166.931Y58.321
X166.876Y58.281
X166.814Y58.236
X166.756Y58.197
X166.698Y58.159
X166.637Y58.12
X166.576Y58.082
X166.514Y58.046
X166.451Y58.01
X166.388Y57.976
X166.325Y57.943
X166.257Y57.91
X166.195Y57.88
X166.127Y57.849
X166.064Y57.822
X165.998Y57.794
X165.926Y57.766
X165.861Y57.742
X165.796Y57.718
X165.724Y57.695
X165.659Y57.674
X165.59Y57.654
X165.517Y57.633
X165.447Y57.615
X165.377Y57.598
X165.308Y57.583
X165.241Y57.569
X165.165Y57.555
X165.1Y57.544
X165.042Y57.536
X149.536Y55.287
X149.53Y52.756
X149.525Y52.635
X149.515Y52.529
X149.504Y52.447
X149.483Y52.33
X149.458Y52.223
X149.424Y52.105
X149.398Y52.03
X149.359Y51.93
X149.309Y51.818
X149.251Y51.706
X149.177Y51.583
X149.107Y51.481
X149.01Y51.355
X148.962Y51.3
X148.908Y51.243
X148.843Y51.178
X148.778Y51.118
X148.721Y51.07
X148.66Y51.021
X148.598Y50.975
X148.536Y50.932
X148.444Y50.874
X148.37Y50.832
X148.273Y50.782
X148.217Y50.756
X148.143Y50.724
X148.075Y50.698
X147.999Y50.671
X147.926Y50.649
X147.852Y50.629
X147.776Y50.611
X147.701Y50.596
X147.624Y50.583
X140.536Y49.556
X140.515Y49.516
X140.496Y49.482
X140.476Y49.449
X140.456Y49.416
X140.434Y49.384
X140.412Y49.352
X140.389Y49.321
X140.366Y49.291
X140.341Y49.261
X140.316Y49.231
X140.29Y49.203
X140.264Y49.175
X140.237Y49.147
X140.209Y49.12
X140.18Y49.094
X140.151Y49.069
X140.12Y49.043
X140.09Y49.019
X140.059Y48.996
X140.028Y48.974
X139.996Y48.952
X139.963Y48.931
X139.93Y48.911
X139.897Y48.892
X139.863Y48.873
X139.828Y48.856
X139.793Y48.839
X139.758Y48.823
X139.723Y48.808
X139.687Y48.794
X139.65Y48.78
X139.614Y48.768
X139.577Y48.756
X139.54Y48.746
X139.502Y48.736
X139.465Y48.727
X139.427Y48.719
X139.389Y48.712
X139.351Y48.706
X139.312Y48.701
X139.274Y48.697
X139.236Y48.693
X139.197Y48.691
X139.158Y48.69
X139.12Y48.689
X132.445
X132.406Y48.69
X132.367Y48.691
X132.329Y48.693
X132.29Y48.697
X132.251Y48.701
X132.212Y48.706
X132.174Y48.712
X132.135Y48.72
X132.097Y48.728
X132.059Y48.737
X132.022Y48.747
X131.984Y48.757
X131.947Y48.769
X131.91Y48.782
X131.874Y48.795
X131.837Y48.81
X131.802Y48.825
X131.766Y48.841
X131.731Y48.859
X131.697Y48.876
X131.662Y48.895
X131.629Y48.915
X131.595Y48.935
X131.563Y48.957
X131.531Y48.979
X131.499Y49.001
X131.468Y49.025
X131.438Y49.049
X131.408Y49.074
X131.378Y49.1
X131.349Y49.128
X131.321Y49.155
X131.294Y49.183
X131.267Y49.211
X131.241Y49.241
X131.216Y49.27
X131.192Y49.301
X131.168Y49.332
X131.145Y49.363
X131.123Y49.396
X131.102Y49.428
X131.081Y49.462
X131.062Y49.495
X131.043Y49.529
X131.025Y49.564
X131.008Y49.599
X130.991Y49.635
X130.976Y49.67
X130.961Y49.707
Z-0.7F50
X130.948Y49.743F100
X130.935Y49.78
X130.923Y49.817
X130.912Y49.855
X130.902Y49.893
X130.893Y49.93
X130.885Y49.969
X130.878Y50.007
X130.872Y50.046
X130.866Y50.084
X130.862Y50.123
X130.859Y50.162
X130.856Y50.201
X130.855Y50.24
X130.854Y50.28
Y62.248
X130.856Y62.386
X130.86Y62.524
X130.866Y62.662
X130.875Y62.8
X130.886Y62.937
X130.899Y63.075
X130.915Y63.212
X130.933Y63.349
X130.954Y63.486
X130.977Y63.622
X131.002Y63.758
X131.03Y63.893
X131.06Y64.028
X131.092Y64.162
X131.127Y64.295
X131.164Y64.429
X131.203Y64.562
X131.244Y64.692
X131.289Y64.824
X131.335Y64.954
X131.383Y65.083
X131.434Y65.212
X131.487Y65.34
X131.542Y65.466
X131.599Y65.592
X131.659Y65.717
X131.72Y65.84
X131.784Y65.962
X131.85Y66.084
X131.918Y66.204
X131.988Y66.323
X132.06Y66.441
X132.134Y66.558
X132.21Y66.672
X132.289Y66.786
X132.369Y66.899
X132.451Y67.01
X132.535Y67.12
X132.621Y67.228
X132.709Y67.334
X132.798Y67.44
X132.89Y67.543
X132.983Y67.645
X133.078Y67.745
X133.175Y67.844
X133.273Y67.94
X133.373Y68.036
X133.475Y68.129
X133.578Y68.221
X133.683Y68.311
X133.789Y68.399
X133.898Y68.485
X134.007Y68.569
X134.118Y68.651
X134.23Y68.732
X134.344Y68.81
X134.459Y68.887
X134.575Y68.961
X134.693Y69.033
X134.811Y69.103
X134.932Y69.172
X135.053Y69.238
X135.176Y69.302
X135.299Y69.364
X135.423Y69.424
X135.549Y69.481
X135.675Y69.537
X135.803Y69.59
X135.932Y69.641
X136.06Y69.689
X136.191Y69.736
X136.309Y69.776
X147.443Y73.447
X147.486Y73.461
X147.53Y73.473
X147.574Y73.484
X147.607Y73.492
X147.641Y73.499
X147.675Y73.505
X147.79Y73.522
X163.87Y75.853
X163.941Y75.863
X164.012Y75.871
X164.089Y75.878
X164.157Y75.884
X164.227Y75.888
X164.298Y75.891
X164.37Y75.893
X164.44Y75.894
X164.513
X164.583Y75.892
X164.656Y75.889
X164.727Y75.885
X164.798Y75.879
X164.874Y75.872
X164.945Y75.864
X165.012Y75.856
X165.082Y75.845
X165.158Y75.833
X165.224Y75.821
X165.293Y75.807
X165.363Y75.792
X165.437Y75.774
X165.506Y75.757
X165.575Y75.738
X165.644Y75.718
X165.712Y75.696
X165.777Y75.675
X165.847Y75.65
X165.911Y75.627
X165.982Y75.599
X166.049Y75.572
X166.113Y75.544
X166.179Y75.514
X166.244Y75.484
X166.308Y75.452
X166.372Y75.419
X166.435Y75.385
X166.497Y75.351
X166.558Y75.315
X166.62Y75.278
X166.681Y75.24
X166.736Y75.203
X166.799Y75.16
X166.855Y75.121
X166.916Y75.077
X166.972Y75.034
X167.029Y74.99
X167.085Y74.944
X167.139Y74.899
X167.194Y74.851
X167.247Y74.803
X167.299Y74.754
X167.349Y74.705
X167.398Y74.656
X167.447Y74.605
X167.496Y74.553
X167.544Y74.5
X167.59Y74.446
X167.636Y74.391
X167.682Y74.335
X167.728Y74.276
X167.771Y74.219
X167.828Y74.14
X167.888Y74.052
X167.928Y73.992
X167.984Y73.902
X168.039Y73.808
X168.09Y73.715
X168.14Y73.619
X168.186Y73.524
X168.231Y73.425
X168.273Y73.327
X168.312Y73.227
X168.349Y73.126
X168.384Y73.023
X168.415Y72.92
X168.443Y72.818
X168.469Y72.714
X168.486Y72.643
X168.507Y72.54
X168.526Y72.433
X168.542Y72.326
X168.555Y72.221
X168.565Y72.114
X168.573Y72.006
X168.578Y71.9
X168.58Y71.792
Y61.581
X168.578Y61.475
X168.572Y61.367
X168.567Y61.293
X168.557Y61.185
X168.544Y61.079
X168.529Y60.972
X168.511Y60.867
X168.489Y60.761
X168.473Y60.69
X168.448Y60.586
X168.419Y60.48
X168.388Y60.38
X168.355Y60.277
X168.317Y60.173
X168.279Y60.074
X168.237Y59.974
X168.192Y59.875
X168.146Y59.78
X168.096Y59.683
X168.045Y59.59
X167.99Y59.496
X167.934Y59.405
X167.875Y59.315
X167.813Y59.226
X167.749Y59.138
X167.683Y59.054
X167.616Y58.971
X167.563Y58.91
X167.513Y58.853
X167.467Y58.803
X167.415Y58.748
X167.364Y58.696
X167.316Y58.65
X167.264Y58.6
X167.208Y58.549
X167.157Y58.504
X167.103Y58.458
X167.047Y58.412
X166.991Y58.367
X166.931Y58.321
X166.876Y58.281
X166.814Y58.236
X166.756Y58.197
X166.698Y58.159
X166.637Y58.12
X166.576Y58.082
X166.514Y58.046
X166.451Y58.01
X166.388Y57.976
X166.325Y57.943
X166.257Y57.91
X166.195Y57.88
X166.127Y57.849
X166.064Y57.822
X165.998Y57.794
X165.926Y57.766
X165.861Y57.742
X165.796Y57.718
X165.724Y57.695
X165.659Y57.674
X165.59Y57.654
X165.517Y57.633
X165.447Y57.615
X165.377Y57.598
X165.308Y57.583
X165.241Y57.569
X165.165Y57.555
X165.1Y57.544
X165.042Y57.536
X149.536Y55.287
X149.53Y52.756
X149.525Y52.635
X149.515Y52.529
X149.504Y52.447
X149.483Y52.33
X149.458Y52.223
X149.424Y52.105
X149.398Y52.03
X149.359Y51.93
X149.309Y51.818
X149.251Y51.706
X149.177Y51.583
X149.107Y51.481
X149.01Y51.355
X148.962Y51.3
X148.908Y51.243
X148.843Y51.178
X148.778Y51.118
X148.721Y51.07
X148.66Y51.021
X148.598Y50.975
X148.536Y50.932
X148.444Y50.874
X148.37Y50.832
X148.273Y50.782
X148.217Y50.756
X148.143Y50.724
X148.075Y50.698
X147.999Y50.671
X147.926Y50.649
X147.852Y50.629
X147.776Y50.611
X147.701Y50.596
X147.624Y50.583
X140.536Y49.556
X140.515Y49.516
X140.496Y49.482
X140.476Y49.449
X140.456Y49.416
X140.434Y49.384
X140.412Y49.352
X140.389Y49.321
X140.366Y49.291
X140.341Y49.261
X140.316Y49.231
X140.29Y49.203
X140.264Y49.175
X140.237Y49.147
X140.209Y49.12
X140.18Y49.094
X140.151Y49.069
X140.12Y49.043
X140.09Y49.019
X140.059Y48.996
X140.028Y48.974
X139.996Y48.952
X139.963Y48.931
X139.93Y48.911
X139.897Y48.892
X139.863Y48.873
X139.828Y48.856
X139.793Y48.839
X139.758Y48.823
X139.723Y48.808
X139.687Y48.794
X139.65Y48.78
X139.614Y48.768
X139.577Y48.756
X139.54Y48.746
X139.502Y48.736
X139.465Y48.727
X139.427Y48.719
X139.389Y48.712
X139.351Y48.706
X139.312Y48.701
X139.274Y48.697
X139.236Y48.693
X139.197Y48.691
X139.158Y48.69
X139.12Y48.689
X132.445
X132.406Y48.69
X132.367Y48.691
X132.329Y48.693
X132.29Y48.697
X132.251Y48.701
X132.212Y48.706
X132.174Y48.712
X132.135Y48.72
X132.097Y48.728
X132.059Y48.737
X132.022Y48.747
X131.984Y48.757
X131.947Y48.769
X131.91Y48.782
X131.874Y48.795
X131.837Y48.81
X131.802Y48.825
X131.766Y48.841
X131.731Y48.859
X131.697Y48.876
X131.662Y48.895
X131.629Y48.915
X131.595Y48.935
X131.563Y48.957
X131.531Y48.979
X131.499Y49.001
X131.468Y49.025
X131.438Y49.049
X131.408Y49.074
X131.378Y49.1
X131.349Y49.128
X131.321Y49.155
X131.294Y49.183
X131.267Y49.211
X131.241Y49.241
X131.216Y49.27
X131.192Y49.301
X131.168Y49.332
X131.145Y49.363
X131.123Y49.396
X131.102Y49.428
X131.081Y49.462
X131.062Y49.495
X131.043Y49.529
X131.025Y49.564
X131.008Y49.599
X130.991Y49.635
X130.976Y49.67
X130.961Y49.707
Z-0.8F50
X130.948Y49.743F100
X130.935Y49.78
X130.923Y49.817
X130.912Y49.855
X130.902Y49.893
X130.893Y49.93
X130.885Y49.969
X130.878Y50.007
X130.872Y50.046
X130.866Y50.084
X130.862Y50.123
X130.859Y50.162
X130.856Y50.201
X130.855Y50.24
X130.854Y50.28
Y62.248
X130.856Y62.386
X130.86Y62.524
X130.866Y62.662
X130.875Y62.8
X130.886Y62.937
X130.899Y63.075
X130.915Y63.212
X130.933Y63.349
X130.954Y63.486
X130.977Y63.622
X131.002Y63.758
X131.03Y63.893
X131.06Y64.028
X131.092Y64.162
X131.127Y64.295
X131.164Y64.429
X131.203Y64.562
X131.244Y64.692
X131.289Y64.824
X131.335Y64.954
X131.383Y65.083
X131.434Y65.212
X131.487Y65.34
X131.542Y65.466
X131.599Y65.592
X131.659Y65.717
X131.72Y65.84
X131.784Y65.962
X131.85Y66.084
X131.918Y66.204
X131.988Y66.323
X132.06Y66.441
X132.134Y66.558
X132.21Y66.672
X132.289Y66.786
X132.369Y66.899
X132.451Y67.01
X132.535Y67.12
X132.621Y67.228
X132.709Y67.334
X132.798Y67.44
X132.89Y67.543
X132.983Y67.645
X133.078Y67.745
X133.175Y67.844
X133.273Y67.94
X133.373Y68.036
X133.475Y68.129
X133.578Y68.221
X133.683Y68.311
X133.789Y68.399
X133.898Y68.485
X134.007Y68.569
X134.118Y68.651
X134.23Y68.732
X134.344Y68.81
X134.459Y68.887
X134.575Y68.961
X134.693Y69.033
X134.811Y69.103
X134.932Y69.172
X135.053Y69.238
X135.176Y69.302
X135.299Y69.364
X135.423Y69.424
X135.549Y69.481
X135.675Y69.537
X135.803Y69.59
X135.932Y69.641
X136.06Y69.689
X136.191Y69.736
X136.309Y69.776
X147.443Y73.447
X147.486Y73.461
X147.53Y73.473
X147.574Y73.484
X147.607Y73.492
X147.641Y73.499
X147.675Y73.505
X147.79Y73.522
X163.87Y75.853
X163.941Y75.863
X164.012Y75.871
X164.089Y75.878
X164.157Y75.884
X164.227Y75.888
X164.298Y75.891
X164.37Y75.893
X164.44Y75.894
X164.513
X164.583Y75.892
X164.656Y75.889
X164.727Y75.885
X164.798Y75.879
X164.874Y75.872
X164.945Y75.864
X165.012Y75.856
X165.082Y75.845
X165.158Y75.833
X165.224Y75.821
X165.293Y75.807
X165.363Y75.792
X165.437Y75.774
X165.506Y75.757
X165.575Y75.738
X165.644Y75.718
X165.712Y75.696
X165.777Y75.675
X165.847Y75.65
X165.911Y75.627
X165.982Y75.599
X166.049Y75.572
X166.113Y75.544
X166.179Y75.514
X166.244Y75.484
X166.308Y75.452
X166.372Y75.419
X166.435Y75.385
X166.497Y75.351
X166.558Y75.315
X166.62Y75.278
X166.681Y75.24
X166.736Y75.203
X166.799Y75.16
X166.855Y75.121
X166.916Y75.077
X166.972Y75.034
X167.029Y74.99
X167.085Y74.944
X167.139Y74.899
X167.194Y74.851
X167.247Y74.803
X167.299Y74.754
X167.349Y74.705
X167.398Y74.656
X167.447Y74.605
X167.496Y74.553
X167.544Y74.5
X167.59Y74.446
X167.636Y74.391
X167.682Y74.335
X167.728Y74.276
X167.771Y74.219
X167.828Y74.14
X167.888Y74.052
X167.928Y73.992
X167.984Y73.902
X168.039Y73.808
X168.09Y73.715
X168.14Y73.619
X168.186Y73.524
X168.231Y73.425
X168.273Y73.327
X168.312Y73.227
X168.349Y73.126
X168.384Y73.023
X168.415Y72.92
X168.443Y72.818
X168.469Y72.714
X168.486Y72.643
X168.507Y72.54
X168.526Y72.433
X168.542Y72.326
X168.555Y72.221
X168.565Y72.114
X168.573Y72.006
X168.578Y71.9
X168.58Y71.792
Y61.581
X168.578Y61.475
X168.572Y61.367
X168.567Y61.293
X168.557Y61.185
X168.544Y61.079
X168.529Y60.972
X168.511Y60.867
X168.489Y60.761
X168.473Y60.69
X168.448Y60.586
X168.419Y60.48
X168.388Y60.38
X168.355Y60.277
X168.317Y60.173
X168.279Y60.074
X168.237Y59.974
X168.192Y59.875
X168.146Y59.78
X168.096Y59.683
X168.045Y59.59
X167.99Y59.496
X167.934Y59.405
X167.875Y59.315
X167.813Y59.226
X167.749Y59.138
X167.683Y59.054
X167.616Y58.971
X167.563Y58.91
X167.513Y58.853
X167.467Y58.803
X167.415Y58.748
X167.364Y58.696
X167.316Y58.65
X167.264Y58.6
X167.208Y58.549
X167.157Y58.504
X167.103Y58.458
X167.047Y58.412
X166.991Y58.367
X166.931Y58.321
X166.876Y58.281
X166.814Y58.236
X166.756Y58.197
X166.698Y58.159
X166.637Y58.12
X166.576Y58.082
X166.514Y58.046
X166.451Y58.01
X166.388Y57.976
X166.325Y57.943
X166.257Y57.91
X166.195Y57.88
X166.127Y57.849
X166.064Y57.822
X165.998Y57.794
X165.926Y57.766
X165.861Y57.742
X165.796Y57.718
X165.724Y57.695
X165.659Y57.674
X165.59Y57.654
X165.517Y57.633
X165.447Y57.615
X165.377Y57.598
X165.308Y57.583
X165.241Y57.569
X165.165Y57.555
X165.1Y57.544
X165.042Y57.536
X149.536Y55.287
X149.53Y52.756
X149.525Y52.635
X149.515Y52.529
X149.504Y52.447
X149.483Y52.33
X149.458Y52.223
X149.424Y52.105
X149.398Y52.03
X149.359Y51.93
X149.309Y51.818
X149.251Y51.706
X149.177Y51.583
X149.107Y51.481
X149.01Y51.355
X148.962Y51.3
X148.908Y51.243
X148.843Y51.178
X148.778Y51.118
X148.721Y51.07
X148.66Y51.021
X148.598Y50.975
X148.536Y50.932
X148.444Y50.874
X148.37Y50.832
X148.273Y50.782
X148.217Y50.756
X148.143Y50.724
X148.075Y50.698
X147.999Y50.671
X147.926Y50.649
X147.852Y50.629
X147.776Y50.611
X147.701Y50.596
X147.624Y50.583
X140.536Y49.556
X140.515Y49.516
X140.496Y49.482
X140.476Y49.449
X140.456Y49.416
X140.434Y49.384
X140.412Y49.352
X140.389Y49.321
X140.366Y49.291
X140.341Y49.261
X140.316Y49.231
X140.29Y49.203
X140.264Y49.175
X140.237Y49.147
X140.209Y49.12
X140.18Y49.094
X140.151Y49.069
X140.12Y49.043
X140.09Y49.019
X140.059Y48.996
X140.028Y48.974
X139.996Y48.952
X139.963Y48.931
X139.93Y48.911
X139.897Y48.892
X139.863Y48.873
X139.828Y48.856
X139.793Y48.839
X139.758Y48.823
X139.723Y48.808
X139.687Y48.794
X139.65Y48.78
X139.614Y48.768
X139.577Y48.756
X139.54Y48.746
X139.502Y48.736
X139.465Y48.727
X139.427Y48.719
X139.389Y48.712
X139.351Y48.706
X139.312Y48.701
X139.274Y48.697
X139.236Y48.693
X139.197Y48.691
X139.158Y48.69
X139.12Y48.689
X132.445
X132.406Y48.69
X132.367Y48.691
X132.329Y48.693
X132.29Y48.697
X132.251Y48.701
X132.212Y48.706
X132.174Y48.712
X132.135Y48.72
X132.097Y48.728
X132.059Y48.737
X132.022Y48.747
X131.984Y48.757
X131.947Y48.769
X131.91Y48.782
X131.874Y48.795
X131.837Y48.81
X131.802Y48.825
X131.766Y48.841
X131.731Y48.859
X131.697Y48.876
X131.662Y48.895
X131.629Y48.915
X131.595Y48.935
X131.563Y48.957
X131.531Y48.979
X131.499Y49.001
X131.468Y49.025
X131.438Y49.049
X131.408Y49.074
X131.378Y49.1
X131.349Y49.128
X131.321Y49.155
X131.294Y49.183
X131.267Y49.211
X131.241Y49.241
X131.216Y49.27
X131.192Y49.301
X131.168Y49.332
X131.145Y49.363
X131.123Y49.396
X131.102Y49.428
X131.081Y49.462
X131.062Y49.495
X131.043Y49.529
X131.025Y49.564
X131.008Y49.599
X130.991Y49.635
X130.976Y49.67
X130.961Y49.707
Z-0.9F50
X130.948Y49.743F100
X130.935Y49.78
X130.923Y49.817
X130.912Y49.855
X130.902Y49.893
X130.893Y49.93
X130.885Y49.969
X130.878Y50.007
X130.872Y50.046
X130.866Y50.084
X130.862Y50.123
X130.859Y50.162
X130.856Y50.201
X130.855Y50.24
X130.854Y50.28
Y62.248
X130.856Y62.386
X130.86Y62.524
X130.866Y62.662
X130.875Y62.8
X130.886Y62.937
X130.899Y63.075
X130.915Y63.212
X130.933Y63.349
X130.954Y63.486
X130.977Y63.622
X131.002Y63.758
X131.03Y63.893
X131.06Y64.028
X131.092Y64.162
X131.127Y64.295
X131.164Y64.429
X131.203Y64.562
X131.244Y64.692
X131.289Y64.824
X131.335Y64.954
X131.383Y65.083
X131.434Y65.212
X131.487Y65.34
X131.542Y65.466
X131.599Y65.592
X131.659Y65.717
X131.72Y65.84
X131.784Y65.962
X131.85Y66.084
X131.918Y66.204
X131.988Y66.323
X132.06Y66.441
X132.134Y66.558
X132.21Y66.672
X132.289Y66.786
X132.369Y66.899
X132.451Y67.01
X132.535Y67.12
X132.621Y67.228
X132.709Y67.334
X132.798Y67.44
X132.89Y67.543
X132.983Y67.645
X133.078Y67.745
X133.175Y67.844
X133.273Y67.94
X133.373Y68.036
X133.475Y68.129
X133.578Y68.221
X133.683Y68.311
X133.789Y68.399
X133.898Y68.485
X134.007Y68.569
X134.118Y68.651
X134.23Y68.732
X134.344Y68.81
X134.459Y68.887
X134.575Y68.961
X134.693Y69.033
X134.811Y69.103
X134.932Y69.172
X135.053Y69.238
X135.176Y69.302
X135.299Y69.364
X135.423Y69.424
X135.549Y69.481
X135.675Y69.537
X135.803Y69.59
X135.932Y69.641
X136.06Y69.689
X136.191Y69.736
X136.309Y69.776
X147.443Y73.447
X147.486Y73.461
X147.53Y73.473
X147.574Y73.484
X147.607Y73.492
X147.641Y73.499
X147.675Y73.505
X147.79Y73.522
X163.87Y75.853
X163.941Y75.863
X164.012Y75.871
X164.089Y75.878
X164.157Y75.884
X164.227Y75.888
X164.298Y75.891
X164.37Y75.893
X164.44Y75.894
X164.513
X164.583Y75.892
X164.656Y75.889
X164.727Y75.885
X164.798Y75.879
X164.874Y75.872
X164.945Y75.864
X165.012Y75.856
X165.082Y75.845
X165.158Y75.833
X165.224Y75.821
X165.293Y75.807
X165.363Y75.792
X165.437Y75.774
X165.506Y75.757
X165.575Y75.738
X165.644Y75.718
X165.712Y75.696
X165.777Y75.675
X165.847Y75.65
X165.911Y75.627
X165.982Y75.599
X166.049Y75.572
X166.113Y75.544
X166.179Y75.514
X166.244Y75.484
X166.308Y75.452
X166.372Y75.419
X166.435Y75.385
X166.497Y75.351
X166.558Y75.315
X166.62Y75.278
X166.681Y75.24
X166.736Y75.203
X166.799Y75.16
X166.855Y75.121
X166.916Y75.077
X166.972Y75.034
X167.029Y74.99
X167.085Y74.944
X167.139Y74.899
X167.194Y74.851
X167.247Y74.803
X167.299Y74.754
X167.349Y74.705
X167.398Y74.656
X167.447Y74.605
X167.496Y74.553
X167.544Y74.5
X167.59Y74.446
X167.636Y74.391
X167.682Y74.335
X167.728Y74.276
X167.771Y74.219
X167.828Y74.14
X167.888Y74.052
X167.928Y73.992
X167.984Y73.902
X168.039Y73.808
X168.09Y73.715
X168.14Y73.619
X168.186Y73.524
X168.231Y73.425
X168.273Y73.327
X168.312Y73.227
X168.349Y73.126
X168.384Y73.023
X168.415Y72.92
X168.443Y72.818
X168.469Y72.714
X168.486Y72.643
X168.507Y72.54
X168.526Y72.433
X168.542Y72.326
X168.555Y72.221
X168.565Y72.114
X168.573Y72.006
X168.578Y71.9
X168.58Y71.792
Y61.581
X168.578Y61.475
X168.572Y61.367
X168.567Y61.293
X168.557Y61.185
X168.544Y61.079
X168.529Y60.972
X168.511Y60.867
X168.489Y60.761
X168.473Y60.69
X168.448Y60.586
X168.419Y60.48
X168.388Y60.38
X168.355Y60.277
X168.317Y60.173
X168.279Y60.074
X168.237Y59.974
X168.192Y59.875
X168.146Y59.78
X168.096Y59.683
X168.045Y59.59
X167.99Y59.496
X167.934Y59.405
X167.875Y59.315
X167.813Y59.226
X167.749Y59.138
X167.683Y59.054
X167.616Y58.971
X167.563Y58.91
X167.513Y58.853
X167.467Y58.803
X167.415Y58.748
X167.364Y58.696
X167.316Y58.65
X167.264Y58.6
X167.208Y58.549
X167.157Y58.504
X167.103Y58.458
X167.047Y58.412
X166.991Y58.367
X166.931Y58.321
X166.876Y58.281
X166.814Y58.236
X166.756Y58.197
X166.698Y58.159
X166.637Y58.12
X166.576Y58.082
X166.514Y58.046
X166.451Y58.01
X166.388Y57.976
X166.325Y57.943
X166.257Y57.91
X166.195Y57.88
X166.127Y57.849
X166.064Y57.822
X165.998Y57.794
X165.926Y57.766
X165.861Y57.742
X165.796Y57.718
X165.724Y57.695
X165.659Y57.674
X165.59Y57.654
X165.517Y57.633
X165.447Y57.615
X165.377Y57.598
X165.308Y57.583
X165.241Y57.569
X165.165Y57.555
X165.1Y57.544
X165.042Y57.536
X149.536Y55.287
X149.53Y52.756
X149.525Y52.635
X149.515Y52.529
X149.504Y52.447
X149.483Y52.33
X149.458Y52.223
X149.424Y52.105
X149.398Y52.03
X149.359Y51.93
X149.309Y51.818
X149.251Y51.706
X149.177Y51.583
X149.107Y51.481
X149.01Y51.355
X148.962Y51.3
X148.908Y51.243
X148.843Y51.178
X148.778Y51.118
X148.721Y51.07
X148.66Y51.021
X148.598Y50.975
X148.536Y50.932
X148.444Y50.874
X148.37Y50.832
X148.273Y50.782
X148.217Y50.756
X148.143Y50.724
X148.075Y50.698
X147.999Y50.671
X147.926Y50.649
X147.852Y50.629
X147.776Y50.611
X147.701Y50.596
X147.624Y50.583
X140.536Y49.556
X140.515Y49.516
X140.496Y49.482
X140.476Y49.449
X140.456Y49.416
X140.434Y49.384
X140.412Y49.352
X140.389Y49.321
X140.366Y49.291
X140.341Y49.261
X140.316Y49.231
X140.29Y49.203
X140.264Y49.175
X140.237Y49.147
X140.209Y49.12
X140.18Y49.094
X140.151Y49.069
X140.12Y49.043
X140.09Y49.019
X140.059Y48.996
X140.028Y48.974
X139.996Y48.952
X139.963Y48.931
X139.93Y48.911
X139.897Y48.892
X139.863Y48.873
X139.828Y48.856
X139.793Y48.839
X139.758Y48.823
X139.723Y48.808
X139.687Y48.794
X139.65Y48.78
X139.614Y48.768
X139.577Y48.756
X139.54Y48.746
X139.502Y48.736
X139.465Y48.727
X139.427Y48.719
X139.389Y48.712
X139.351Y48.706
X139.312Y48.701
X139.274Y48.697
X139.236Y48.693
X139.197Y48.691
X139.158Y48.69
X139.12Y48.689
X132.445
X132.406Y48.69
X132.367Y48.691
X132.329Y48.693
X132.29Y48.697
X132.251Y48.701
X132.212Y48.706
X132.174Y48.712
X132.135Y48.72
X132.097Y48.728
X132.059Y48.737
X132.022Y48.747
X131.984Y48.757
X131.947Y48.769
X131.91Y48.782
X131.874Y48.795
X131.837Y48.81
X131.802Y48.825
X131.766Y48.841
X131.731Y48.859
X131.697Y48.876
X131.662Y48.895
X131.629Y48.915
X131.595Y48.935
X131.563Y48.957
X131.531Y48.979
X131.499Y49.001
X131.468Y49.025
X131.438Y49.049
X131.408Y49.074
X131.378Y49.1
X131.349Y49.128
X131.321Y49.155
X131.294Y49.183
X131.267Y49.211
X131.241Y49.241
X131.216Y49.27
X131.192Y49.301
X131.168Y49.332
X131.145Y49.363
X131.123Y49.396
X131.102Y49.428
X131.081Y49.462
X131.062Y49.495
X131.043Y49.529
X131.025Y49.564
X131.008Y49.599
X130.991Y49.635
X130.976Y49.67
X130.961Y49.707
Z-1F50
X130.948Y49.743F100
X130.935Y49.78
X130.923Y49.817
X130.912Y49.855
X130.902Y49.893
X130.893Y49.93
X130.885Y49.969
X130.878Y50.007
X130.872Y50.046
X130.866Y50.084
X130.862Y50.123
X130.859Y50.162
X130.856Y50.201
X130.855Y50.24
X130.854Y50.28
Y62.248
X130.856Y62.386
X130.86Y62.524
X130.866Y62.662
X130.875Y62.8
X130.886Y62.937
X130.899Y63.075
X130.915Y63.212
X130.933Y63.349
X130.954Y63.486
X130.977Y63.622
X131.002Y63.758
X131.03Y63.893
X131.06Y64.028
X131.092Y64.162
X131.127Y64.295
X131.164Y64.429
X131.203Y64.562
X131.244Y64.692
X131.289Y64.824
X131.335Y64.954
X131.383Y65.083
X131.434Y65.212
X131.487Y65.34
X131.542Y65.466
X131.599Y65.592
X131.659Y65.717
X131.72Y65.84
X131.784Y65.962
X131.85Y66.084
X131.918Y66.204
X131.988Y66.323
X132.06Y66.441
X132.134Y66.558
X132.21Y66.672
X132.289Y66.786
X132.369Y66.899
X132.451Y67.01
X132.535Y67.12
X132.621Y67.228
X132.709Y67.334
X132.798Y67.44
X132.89Y67.543
X132.983Y67.645
X133.078Y67.745
X133.175Y67.844
X133.273Y67.94
X133.373Y68.036
X133.475Y68.129
X133.578Y68.221
X133.683Y68.311
X133.789Y68.399
X133.898Y68.485
X134.007Y68.569
X134.118Y68.651
X134.23Y68.732
X134.344Y68.81
X134.459Y68.887
X134.575Y68.961
X134.693Y69.033
X134.811Y69.103
X134.932Y69.172
X135.053Y69.238
X135.176Y69.302
X135.299Y69.364
X135.423Y69.424
X135.549Y69.481
X135.675Y69.537
X135.803Y69.59
X135.932Y69.641
X136.06Y69.689
X136.191Y69.736
X136.309Y69.776
X147.443Y73.447
X147.486Y73.461
X147.53Y73.473
X147.574Y73.484
X147.607Y73.492
X147.641Y73.499
X147.675Y73.505
X147.79Y73.522
X163.87Y75.853
X163.941Y75.863
X164.012Y75.871
X164.089Y75.878
X164.157Y75.884
X164.227Y75.888
X164.298Y75.891
X164.37Y75.893
X164.44Y75.894
X164.513
X164.583Y75.892
X164.656Y75.889
X164.727Y75.885
X164.798Y75.879
X164.874Y75.872
X164.945Y75.864
X165.012Y75.856
X165.082Y75.845
X165.158Y75.833
X165.224Y75.821
X165.293Y75.807
X165.363Y75.792
X165.437Y75.774
X165.506Y75.757
X165.575Y75.738
X165.644Y75.718
X165.712Y75.696
X165.777Y75.675
X165.847Y75.65
X165.911Y75.627
X165.982Y75.599
X166.049Y75.572
X166.113Y75.544
X166.179Y75.514
X166.244Y75.484
X166.308Y75.452
X166.372Y75.419
X166.435Y75.385
X166.497Y75.351
X166.558Y75.315
X166.62Y75.278
X166.681Y75.24
X166.736Y75.203
X166.799Y75.16
X166.855Y75.121
X166.916Y75.077
X166.972Y75.034
X167.029Y74.99
X167.085Y74.944
X167.139Y74.899
X167.194Y74.851
X167.247Y74.803
X167.299Y74.754
X167.349Y74.705
X167.398Y74.656
X167.447Y74.605
X167.496Y74.553
X167.544Y74.5
X167.59Y74.446
X167.636Y74.391
X167.682Y74.335
X167.728Y74.276
X167.771Y74.219
X167.828Y74.14
X167.888Y74.052
X167.928Y73.992
X167.984Y73.902
X168.039Y73.808
X168.09Y73.715
X168.14Y73.619
X168.186Y73.524
X168.231Y73.425
X168.273Y73.327
X168.312Y73.227
X168.349Y73.126
X168.384Y73.023
X168.415Y72.92
X168.443Y72.818
X168.469Y72.714
X168.486Y72.643
X168.507Y72.54
X168.526Y72.433
X168.542Y72.326
X168.555Y72.221
X168.565Y72.114
X168.573Y72.006
X168.578Y71.9
X168.58Y71.792
Y61.581
X168.578Y61.475
X168.572Y61.367
X168.567Y61.293
X168.557Y61.185
X168.544Y61.079
X168.529Y60.972
X168.511Y60.867
X168.489Y60.761
X168.473Y60.69
X168.448Y60.586
X168.419Y60.48
X168.388Y60.38
X168.355Y60.277
X168.317Y60.173
X168.279Y60.074
X168.237Y59.974
X168.192Y59.875
X168.146Y59.78
X168.096Y59.683
X168.045Y59.59
X167.99Y59.496
X167.934Y59.405
X167.875Y59.315
X167.813Y59.226
X167.749Y59.138
X167.683Y59.054
X167.616Y58.971
X167.563Y58.91
X167.513Y58.853
X167.467Y58.803
X167.415Y58.748
X167.364Y58.696
X167.316Y58.65
X167.264Y58.6
X167.208Y58.549
X167.157Y58.504
X167.103Y58.458
X167.047Y58.412
X166.991Y58.367
X166.931Y58.321
X166.876Y58.281
X166.814Y58.236
X166.756Y58.197
X166.698Y58.159
X166.637Y58.12
X166.576Y58.082
X166.514Y58.046
X166.451Y58.01
X166.388Y57.976
X166.325Y57.943
X166.257Y57.91
X166.195Y57.88
X166.127Y57.849
X166.064Y57.822
X165.998Y57.794
X165.926Y57.766
X165.861Y57.742
X165.796Y57.718
X165.724Y57.695
X165.659Y57.674
X165.59Y57.654
X165.517Y57.633
X165.447Y57.615
X165.377Y57.598
X165.308Y57.583
X165.241Y57.569
X165.165Y57.555
X165.1Y57.544
X165.042Y57.536
X149.536Y55.287
X149.53Y52.756
X149.525Y52.635
X149.515Y52.529
X149.504Y52.447
X149.483Y52.33
X149.458Y52.223
X149.424Y52.105
X149.398Y52.03
X149.359Y51.93
X149.309Y51.818
X149.251Y51.706
X149.177Y51.583
X149.107Y51.481
X149.01Y51.355
X148.962Y51.3
X148.908Y51.243
X148.843Y51.178
X148.778Y51.118
X148.721Y51.07
X148.66Y51.021
X148.598Y50.975
X148.536Y50.932
X148.444Y50.874
X148.37Y50.832
X148.273Y50.782
X148.217Y50.756
X148.143Y50.724
X148.075Y50.698
X147.999Y50.671
X147.926Y50.649
X147.852Y50.629
X147.776Y50.611
X147.701Y50.596
X147.624Y50.583
X140.536Y49.556
X140.515Y49.516
X140.496Y49.482
X140.476Y49.449
X140.456Y49.416
X140.434Y49.384
X140.412Y49.352
X140.389Y49.321
X140.366Y49.291
X140.341Y49.261
X140.316Y49.231
X140.29Y49.203
X140.264Y49.175
X140.237Y49.147
X140.209Y49.12
X140.18Y49.094
X140.151Y49.069
X140.12Y49.043
X140.09Y49.019
X140.059Y48.996
X140.028Y48.974
X139.996Y48.952
X139.963Y48.931
X139.93Y48.911
X139.897Y48.892
X139.863Y48.873
X139.828Y48.856
X139.793Y48.839
X139.758Y48.823
X139.723Y48.808
X139.687Y48.794
X139.65Y48.78
X139.614Y48.768
X139.577Y48.756
X139.54Y48.746
X139.502Y48.736
X139.465Y48.727
X139.427Y48.719
X139.389Y48.712
X139.351Y48.706
X139.312Y48.701
X139.274Y48.697
X139.236Y48.693
X139.197Y48.691
X139.158Y48.69
X139.12Y48.689
X132.445
X132.406Y48.69
X132.367Y48.691
X132.329Y48.693
X132.29Y48.697
X132.251Y48.701
X132.212Y48.706
X132.174Y48.712
X132.135Y48.72
X132.097Y48.728
X132.059Y48.737
X132.022Y48.747
X131.984Y48.757
X131.947Y48.769
X131.91Y48.782
X131.874Y48.795
X131.837Y48.81
X131.802Y48.825
X131.766Y48.841
X131.731Y48.859
X131.697Y48.876
X131.662Y48.895
X131.629Y48.915
X131.595Y48.935
X131.563Y48.957
X131.531Y48.979
X131.499Y49.001
X131.468Y49.025
X131.438Y49.049
X131.408Y49.074
X131.378Y49.1
X131.349Y49.128
X131.321Y49.155
X131.294Y49.183
X131.267Y49.211
X131.241Y49.241
X131.216Y49.27
X131.192Y49.301
X131.168Y49.332
X131.145Y49.363
X131.123Y49.396
X131.102Y49.428
X131.081Y49.462
X131.062Y49.495
X131.043Y49.529
X131.025Y49.564
X131.008Y49.599
X130.991Y49.635
X130.976Y49.67
X130.961Y49.707
Z-1.1F50
X130.948Y49.743F100
X130.935Y49.78
X130.923Y49.817
X130.912Y49.855
X130.902Y49.893
X130.893Y49.93
X130.885Y49.969
X130.878Y50.007
X130.872Y50.046
X130.866Y50.084
X130.862Y50.123
X130.859Y50.162
X130.856Y50.201
X130.855Y50.24
X130.854Y50.28
Y62.248
X130.856Y62.386
X130.86Y62.524
X130.866Y62.662
X130.875Y62.8
X130.886Y62.937
X130.899Y63.075
X130.915Y63.212
X130.933Y63.349
X130.954Y63.486
X130.977Y63.622
X131.002Y63.758
X131.03Y63.893
X131.06Y64.028
X131.092Y64.162
X131.127Y64.295
X131.164Y64.429
X131.203Y64.562
X131.244Y64.692
X131.289Y64.824
X131.335Y64.954
X131.383Y65.083
X131.434Y65.212
X131.487Y65.34
X131.542Y65.466
X131.599Y65.592
X131.659Y65.717
X131.72Y65.84
X131.784Y65.962
X131.85Y66.084
X131.918Y66.204
X131.988Y66.323
X132.06Y66.441
X132.134Y66.558
X132.21Y66.672
X132.289Y66.786
X132.369Y66.899
X132.451Y67.01
X132.535Y67.12
X132.621Y67.228
X132.709Y67.334
X132.798Y67.44
X132.89Y67.543
X132.983Y67.645
X133.078Y67.745
X133.175Y67.844
X133.273Y67.94
X133.373Y68.036
X133.475Y68.129
X133.578Y68.221
X133.683Y68.311
X133.789Y68.399
X133.898Y68.485
X134.007Y68.569
X134.118Y68.651
X134.23Y68.732
X134.344Y68.81
X134.459Y68.887
X134.575Y68.961
X134.693Y69.033
X134.811Y69.103
X134.932Y69.172
X135.053Y69.238
X135.176Y69.302
X135.299Y69.364
X135.423Y69.424
X135.549Y69.481
X135.675Y69.537
X135.803Y69.59
X135.932Y69.641
X136.06Y69.689
X136.191Y69.736
X136.309Y69.776
X147.443Y73.447
X147.486Y73.461
X147.53Y73.473
X147.574Y73.484
X147.607Y73.492
X147.641Y73.499
X147.675Y73.505
X147.79Y73.522
X163.87Y75.853
X163.941Y75.863
X164.012Y75.871
X164.089Y75.878
X164.157Y75.884
X164.227Y75.888
X164.298Y75.891
X164.37Y75.893
X164.44Y75.894
X164.513
X164.583Y75.892
X164.656Y75.889
X164.727Y75.885
X164.798Y75.879
X164.874Y75.872
X164.945Y75.864
X165.012Y75.856
X165.082Y75.845
X165.158Y75.833
X165.224Y75.821
X165.293Y75.807
X165.363Y75.792
X165.437Y75.774
X165.506Y75.757
X165.575Y75.738
X165.644Y75.718
X165.712Y75.696
X165.777Y75.675
X165.847Y75.65
X165.911Y75.627
X165.982Y75.599
X166.049Y75.572
X166.113Y75.544
X166.179Y75.514
X166.244Y75.484
X166.308Y75.452
X166.372Y75.419
X166.435Y75.385
X166.497Y75.351
X166.558Y75.315
X166.62Y75.278
X166.681Y75.24
X166.736Y75.203
X166.799Y75.16
X166.855Y75.121
X166.916Y75.077
X166.972Y75.034
X167.029Y74.99
X167.085Y74.944
X167.139Y74.899
X167.194Y74.851
X167.247Y74.803
X167.299Y74.754
X167.349Y74.705
X167.398Y74.656
X167.447Y74.605
X167.496Y74.553
X167.544Y74.5
X167.59Y74.446
X167.636Y74.391
X167.682Y74.335
X167.728Y74.276
X167.771Y74.219
X167.828Y74.14
X167.888Y74.052
X167.928Y73.992
X167.984Y73.902
X168.039Y73.808
X168.09Y73.715
X168.14Y73.619
X168.186Y73.524
X168.231Y73.425
X168.273Y73.327
X168.312Y73.227
X168.349Y73.126
X168.384Y73.023
X168.415Y72.92
X168.443Y72.818
X168.469Y72.714
X168.486Y72.643
X168.507Y72.54
X168.526Y72.433
X168.542Y72.326
X168.555Y72.221
X168.565Y72.114
X168.573Y72.006
X168.578Y71.9
X168.58Y71.792
Y61.581
X168.578Y61.475
X168.572Y61.367
X168.567Y61.293
X168.557Y61.185
X168.544Y61.079
X168.529Y60.972
X168.511Y60.867
X168.489Y60.761
X168.473Y60.69
X168.448Y60.586
X168.419Y60.48
X168.388Y60.38
X168.355Y60.277
X168.317Y60.173
X168.279Y60.074
X168.237Y59.974
X168.192Y59.875
X168.146Y59.78
X168.096Y59.683
X168.045Y59.59
X167.99Y59.496
X167.934Y59.405
X167.875Y59.315
X167.813Y59.226
X167.749Y59.138
X167.683Y59.054
X167.616Y58.971
X167.563Y58.91
X167.513Y58.853
X167.467Y58.803
X167.415Y58.748
X167.364Y58.696
X167.316Y58.65
X167.264Y58.6
X167.208Y58.549
X167.157Y58.504
X167.103Y58.458
X167.047Y58.412
X166.991Y58.367
X166.931Y58.321
X166.876Y58.281
X166.814Y58.236
X166.756Y58.197
X166.698Y58.159
X166.637Y58.12
X166.576Y58.082
X166.514Y58.046
X166.451Y58.01
X166.388Y57.976
X166.325Y57.943
X166.257Y57.91
X166.195Y57.88
X166.127Y57.849
X166.064Y57.822
X165.998Y57.794
X165.926Y57.766
X165.861Y57.742
X165.796Y57.718
X165.724Y57.695
X165.659Y57.674
X165.59Y57.654
X165.517Y57.633
X165.447Y57.615
X165.377Y57.598
X165.308Y57.583
X165.241Y57.569
X165.165Y57.555
X165.1Y57.544
X165.042Y57.536
X149.536Y55.287
X149.53Y52.756
X149.525Y52.635
X149.515Y52.529
X149.504Y52.447
X149.483Y52.33
X149.458Y52.223
X149.424Y52.105
X149.398Y52.03
X149.359Y51.93
X149.309Y51.818
X149.251Y51.706
X149.177Y51.583
X149.107Y51.481
X149.01Y51.355
X148.962Y51.3
X148.908Y51.243
X148.843Y51.178
X148.778Y51.118
X148.721Y51.07
X148.66Y51.021
X148.598Y50.975
X148.536Y50.932
X148.444Y50.874
X148.37Y50.832
X148.273Y50.782
X148.217Y50.756
X148.143Y50.724
X148.075Y50.698
X147.999Y50.671
X147.926Y50.649
X147.852Y50.629
X147.776Y50.611
X147.701Y50.596
X147.624Y50.583
X140.536Y49.556
X140.515Y49.516
X140.496Y49.482
X140.476Y49.449
X140.456Y49.416
X140.434Y49.384
X140.412Y49.352
X140.389Y49.321
X140.366Y49.291
X140.341Y49.261
X140.316Y49.231
X140.29Y49.203
X140.264Y49.175
X140.237Y49.147
X140.209Y49.12
X140.18Y49.094
X140.151Y49.069
X140.12Y49.043
X140.09Y49.019
X140.059Y48.996
X140.028Y48.974
X139.996Y48.952
X139.963Y48.931
X139.93Y48.911
X139.897Y48.892
X139.863Y48.873
X139.828Y48.856
X139.793Y48.839
X139.758Y48.823
X139.723Y48.808
X139.687Y48.794
X139.65Y48.78
X139.614Y48.768
X139.577Y48.756
X139.54Y48.746
X139.502Y48.736
X139.465Y48.727
X139.427Y48.719
X139.389Y48.712
X139.351Y48.706
X139.312Y48.701
X139.274Y48.697
X139.236Y48.693
X139.197Y48.691
X139.158Y48.69
X139.12Y48.689
X132.445
X132.406Y48.69
X132.367Y48.691
X132.329Y48.693
X132.29Y48.697
X132.251Y48.701
X132.212Y48.706
X132.174Y48.712
X132.135Y48.72
X132.097Y48.728
X132.059Y48.737
X132.022Y48.747
X131.984Y48.757
X131.947Y48.769
X131.91Y48.782
X131.874Y48.795
X131.837Y48.81
X131.802Y48.825
X131.766Y48.841
X131.731Y48.859
X131.697Y48.876
X131.662Y48.895
X131.629Y48.915
X131.595Y48.935
X131.563Y48.957
X131.531Y48.979
X131.499Y49.001
X131.468Y49.025
X131.438Y49.049
X131.408Y49.074
X131.378Y49.1
X131.349Y49.128
X131.321Y49.155
X131.294Y49.183
X131.267Y49.211
X131.241Y49.241
X131.216Y49.27
X131.192Y49.301
X131.168Y49.332
X131.145Y49.363
X131.123Y49.396
X131.102Y49.428
X131.081Y49.462
X131.062Y49.495
X131.043Y49.529
X131.025Y49.564
X131.008Y49.599
X130.991Y49.635
X130.976Y49.67
X130.961Y49.707
Z-1.2F50
X130.948Y49.743F100
X130.935Y49.78
X130.923Y49.817
X130.912Y49.855
X130.902Y49.893
X130.893Y49.93
X130.885Y49.969
X130.878Y50.007
X130.872Y50.046
X130.866Y50.084
X130.862Y50.123
X130.859Y50.162
X130.856Y50.201
X130.855Y50.24
X130.854Y50.28
Y62.248
X130.856Y62.386
X130.86Y62.524
X130.866Y62.662
X130.875Y62.8
X130.886Y62.937
X130.899Y63.075
X130.915Y63.212
X130.933Y63.349
X130.954Y63.486
X130.977Y63.622
X131.002Y63.758
X131.03Y63.893
X131.06Y64.028
X131.092Y64.162
X131.127Y64.295
X131.164Y64.429
X131.203Y64.562
X131.244Y64.692
X131.289Y64.824
X131.335Y64.954
X131.383Y65.083
X131.434Y65.212
X131.487Y65.34
X131.542Y65.466
X131.599Y65.592
X131.659Y65.717
X131.72Y65.84
X131.784Y65.962
X131.85Y66.084
X131.918Y66.204
X131.988Y66.323
X132.06Y66.441
X132.134Y66.558
X132.21Y66.672
X132.289Y66.786
X132.369Y66.899
X132.451Y67.01
X132.535Y67.12
X132.621Y67.228
X132.709Y67.334
X132.798Y67.44
X132.89Y67.543
X132.983Y67.645
X133.078Y67.745
X133.175Y67.844
X133.273Y67.94
X133.373Y68.036
X133.475Y68.129
X133.578Y68.221
X133.683Y68.311
X133.789Y68.399
X133.898Y68.485
X134.007Y68.569
X134.118Y68.651
X134.23Y68.732
X134.344Y68.81
X134.459Y68.887
X134.575Y68.961
X134.693Y69.033
X134.811Y69.103
X134.932Y69.172
X135.053Y69.238
X135.176Y69.302
X135.299Y69.364
X135.423Y69.424
X135.549Y69.481
X135.675Y69.537
X135.803Y69.59
X135.932Y69.641
X136.06Y69.689
X136.191Y69.736
X136.309Y69.776
X147.443Y73.447
X147.486Y73.461
X147.53Y73.473
X147.574Y73.484
X147.607Y73.492
X147.641Y73.499
X147.675Y73.505
X147.79Y73.522
X163.87Y75.853
X163.941Y75.863
X164.012Y75.871
X164.089Y75.878
X164.157Y75.884
X164.227Y75.888
X164.298Y75.891
X164.37Y75.893
X164.44Y75.894
X164.513
X164.583Y75.892
X164.656Y75.889
X164.727Y75.885
X164.798Y75.879
X164.874Y75.872
X164.945Y75.864
X165.012Y75.856
X165.082Y75.845
X165.158Y75.833
X165.224Y75.821
X165.293Y75.807
X165.363Y75.792
X165.437Y75.774
X165.506Y75.757
X165.575Y75.738
X165.644Y75.718
X165.712Y75.696
X165.777Y75.675
X165.847Y75.65
X165.911Y75.627
X165.982Y75.599
X166.049Y75.572
X166.113Y75.544
X166.179Y75.514
X166.244Y75.484
X166.308Y75.452
X166.372Y75.419
X166.435Y75.385
X166.497Y75.351
X166.558Y75.315
X166.62Y75.278
X166.681Y75.24
X166.736Y75.203
X166.799Y75.16
X166.855Y75.121
X166.916Y75.077
X166.972Y75.034
X167.029Y74.99
X167.085Y74.944
X167.139Y74.899
X167.194Y74.851
X167.247Y74.803
X167.299Y74.754
X167.349Y74.705
X167.398Y74.656
X167.447Y74.605
X167.496Y74.553
X167.544Y74.5
X167.59Y74.446
X167.636Y74.391
X167.682Y74.335
X167.728Y74.276
X167.771Y74.219
X167.828Y74.14
X167.888Y74.052
X167.928Y73.992
X167.984Y73.902
X168.039Y73.808
X168.09Y73.715
X168.14Y73.619
X168.186Y73.524
X168.231Y73.425
X168.273Y73.327
X168.312Y73.227
X168.349Y73.126
X168.384Y73.023
X168.415Y72.92
X168.443Y72.818
X168.469Y72.714
X168.486Y72.643
X168.507Y72.54
X168.526Y72.433
X168.542Y72.326
X168.555Y72.221
X168.565Y72.114
X168.573Y72.006
X168.578Y71.9
X168.58Y71.792
Y61.581
X168.578Y61.475
X168.572Y61.367
X168.567Y61.293
X168.557Y61.185
X168.544Y61.079
X168.529Y60.972
X168.511Y60.867
X168.489Y60.761
X168.473Y60.69
X168.448Y60.586
X168.419Y60.48
X168.388Y60.38
X168.355Y60.277
X168.317Y60.173
X168.279Y60.074
X168.237Y59.974
X168.192Y59.875
X168.146Y59.78
X168.096Y59.683
X168.045Y59.59
X167.99Y59.496
X167.934Y59.405
X167.875Y59.315
X167.813Y59.226
X167.749Y59.138
X167.683Y59.054
X167.616Y58.971
X167.563Y58.91
X167.513Y58.853
X167.467Y58.803
X167.415Y58.748
X167.364Y58.696
X167.316Y58.65
X167.264Y58.6
X167.208Y58.549
X167.157Y58.504
X167.103Y58.458
X167.047Y58.412
X166.991Y58.367
X166.931Y58.321
X166.876Y58.281
X166.814Y58.236
X166.756Y58.197
X166.698Y58.159
X166.637Y58.12
X166.576Y58.082
X166.514Y58.046
X166.451Y58.01
X166.388Y57.976
X166.325Y57.943
X166.257Y57.91
X166.195Y57.88
X166.127Y57.849
X166.064Y57.822
X165.998Y57.794
X165.926Y57.766
X165.861Y57.742
X165.796Y57.718
X165.724Y57.695
X165.659Y57.674
X165.59Y57.654
X165.517Y57.633
X165.447Y57.615
X165.377Y57.598
X165.308Y57.583
X165.241Y57.569
X165.165Y57.555
X165.1Y57.544
X165.042Y57.536
X149.536Y55.287
X149.53Y52.756
X149.525Y52.635
X149.515Y52.529
X149.504Y52.447
X149.483Y52.33
X149.458Y52.223
X149.424Y52.105
X149.398Y52.03
X149.359Y51.93
X149.309Y51.818
X149.251Y51.706
X149.177Y51.583
X149.107Y51.481
X149.01Y51.355
X148.962Y51.3
X148.908Y51.243
X148.843Y51.178
X148.778Y51.118
X148.721Y51.07
X148.66Y51.021
X148.598Y50.975
X148.536Y50.932
X148.444Y50.874
X148.37Y50.832
X148.273Y50.782
X148.217Y50.756
X148.143Y50.724
X148.075Y50.698
X147.999Y50.671
X147.926Y50.649
X147.852Y50.629
X147.776Y50.611
X147.701Y50.596
X147.624Y50.583
X140.536Y49.556
X140.515Y49.516
X140.496Y49.482
X140.476Y49.449
X140.456Y49.416
X140.434Y49.384
X140.412Y49.352
X140.389Y49.321
X140.366Y49.291
X140.341Y49.261
X140.316Y49.231
X140.29Y49.203
X140.264Y49.175
X140.237Y49.147
X140.209Y49.12
X140.18Y49.094
X140.151Y49.069
X140.12Y49.043
X140.09Y49.019
X140.059Y48.996
X140.028Y48.974
X139.996Y48.952
X139.963Y48.931
X139.93Y48.911
X139.897Y48.892
X139.863Y48.873
X139.828Y48.856
X139.793Y48.839
X139.758Y48.823
X139.723Y48.808
X139.687Y48.794
X139.65Y48.78
X139.614Y48.768
X139.577Y48.756
X139.54Y48.746
X139.502Y48.736
X139.465Y48.727
X139.427Y48.719
X139.389Y48.712
X139.351Y48.706
X139.312Y48.701
X139.274Y48.697
X139.236Y48.693
X139.197Y48.691
X139.158Y48.69
X139.12Y48.689
X132.445
X132.406Y48.69
X132.367Y48.691
X132.329Y48.693
X132.29Y48.697
X132.251Y48.701
X132.212Y48.706
X132.174Y48.712
X132.135Y48.72
X132.097Y48.728
X132.059Y48.737
X132.022Y48.747
X131.984Y48.757
X131.947Y48.769
X131.91Y48.782
X131.874Y48.795
X131.837Y48.81
X131.802Y48.825
X131.766Y48.841
X131.731Y48.859
X131.697Y48.876
X131.662Y48.895
X131.629Y48.915
X131.595Y48.935
X131.563Y48.957
X131.531Y48.979
X131.499Y49.001
X131.468Y49.025
X131.438Y49.049
X131.408Y49.074
X131.378Y49.1
X131.349Y49.128
X131.321Y49.155
X131.294Y49.183
X131.267Y49.211
X131.241Y49.241
X131.216Y49.27
X131.192Y49.301
X131.168Y49.332
X131.145Y49.363
X131.123Y49.396
X131.102Y49.428
X131.081Y49.462
X131.062Y49.495
X131.043Y49.529
X131.025Y49.564
X131.008Y49.599
X130.991Y49.635
X130.976Y49.67
X130.961Y49.707
Z-1.3F50
X130.948Y49.743F100
X130.935Y49.78
X130.923Y49.817
X130.912Y49.855
X130.902Y49.893
X130.893Y49.93
X130.885Y49.969
X130.878Y50.007
X130.872Y50.046
X130.866Y50.084
X130.862Y50.123
X130.859Y50.162
X130.856Y50.201
X130.855Y50.24
X130.854Y50.28
Y62.248
X130.856Y62.386
X130.86Y62.524
X130.866Y62.662
X130.875Y62.8
X130.886Y62.937
X130.899Y63.075
X130.915Y63.212
X130.933Y63.349
X130.954Y63.486
X130.977Y63.622
X131.002Y63.758
X131.03Y63.893
X131.06Y64.028
X131.092Y64.162
X131.127Y64.295
X131.164Y64.429
X131.203Y64.562
X131.244Y64.692
X131.289Y64.824
X131.335Y64.954
X131.383Y65.083
X131.434Y65.212
X131.487Y65.34
X131.542Y65.466
X131.599Y65.592
X131.659Y65.717
X131.72Y65.84
X131.784Y65.962
X131.85Y66.084
X131.918Y66.204
X131.988Y66.323
X132.06Y66.441
X132.134Y66.558
X132.21Y66.672
X132.289Y66.786
X132.369Y66.899
X132.451Y67.01
X132.535Y67.12
X132.621Y67.228
X132.709Y67.334
X132.798Y67.44
X132.89Y67.543
X132.983Y67.645
X133.078Y67.745
X133.175Y67.844
X133.273Y67.94
X133.373Y68.036
X133.475Y68.129
X133.578Y68.221
X133.683Y68.311
X133.789Y68.399
X133.898Y68.485
X134.007Y68.569
X134.118Y68.651
X134.23Y68.732
X134.344Y68.81
X134.459Y68.887
X134.575Y68.961
X134.693Y69.033
X134.811Y69.103
X134.932Y69.172
X135.053Y69.238
X135.176Y69.302
X135.299Y69.364
X135.423Y69.424
X135.549Y69.481
X135.675Y69.537
X135.803Y69.59
X135.932Y69.641
X136.06Y69.689
X136.191Y69.736
X136.309Y69.776
X147.443Y73.447
X147.486Y73.461
X147.53Y73.473
X147.574Y73.484
X147.607Y73.492
X147.641Y73.499
X147.675Y73.505
X147.79Y73.522
X163.87Y75.853
X163.941Y75.863
X164.012Y75.871
X164.089Y75.878
X164.157Y75.884
X164.227Y75.888
X164.298Y75.891
X164.37Y75.893
X164.44Y75.894
X164.513
X164.583Y75.892
X164.656Y75.889
X164.727Y75.885
X164.798Y75.879
X164.874Y75.872
X164.945Y75.864
X165.012Y75.856
X165.082Y75.845
X165.158Y75.833
X165.224Y75.821
X165.293Y75.807
X165.363Y75.792
X165.437Y75.774
X165.506Y75.757
X165.575Y75.738
X165.644Y75.718
X165.712Y75.696
X165.777Y75.675
X165.847Y75.65
X165.911Y75.627
X165.982Y75.599
X166.049Y75.572
X166.113Y75.544
X166.179Y75.514
X166.244Y75.484
X166.308Y75.452
X166.372Y75.419
X166.435Y75.385
X166.497Y75.351
X166.558Y75.315
X166.62Y75.278
X166.681Y75.24
X166.736Y75.203
X166.799Y75.16
X166.855Y75.121
X166.916Y75.077
X166.972Y75.034
X167.029Y74.99
X167.085Y74.944
X167.139Y74.899
X167.194Y74.851
X167.247Y74.803
X167.299Y74.754
X167.349Y74.705
X167.398Y74.656
X167.447Y74.605
X167.496Y74.553
X167.544Y74.5
X167.59Y74.446
X167.636Y74.391
X167.682Y74.335
X167.728Y74.276
X167.771Y74.219
X167.828Y74.14
X167.888Y74.052
X167.928Y73.992
X167.984Y73.902
X168.039Y73.808
X168.09Y73.715
X168.14Y73.619
X168.186Y73.524
X168.231Y73.425
X168.273Y73.327
X168.312Y73.227
X168.349Y73.126
X168.384Y73.023
X168.415Y72.92
X168.443Y72.818
X168.469Y72.714
X168.486Y72.643
X168.507Y72.54
X168.526Y72.433
X168.542Y72.326
X168.555Y72.221
X168.565Y72.114
X168.573Y72.006
X168.578Y71.9
X168.58Y71.792
Y61.581
X168.578Y61.475
X168.572Y61.367
X168.567Y61.293
X168.557Y61.185
X168.544Y61.079
X168.529Y60.972
X168.511Y60.867
X168.489Y60.761
X168.473Y60.69
X168.448Y60.586
X168.419Y60.48
X168.388Y60.38
X168.355Y60.277
X168.317Y60.173
X168.279Y60.074
X168.237Y59.974
X168.192Y59.875
X168.146Y59.78
X168.096Y59.683
X168.045Y59.59
X167.99Y59.496
X167.934Y59.405
X167.875Y59.315
X167.813Y59.226
X167.749Y59.138
X167.683Y59.054
X167.616Y58.971
X167.563Y58.91
X167.513Y58.853
X167.467Y58.803
X167.415Y58.748
X167.364Y58.696
X167.316Y58.65
X167.264Y58.6
X167.208Y58.549
X167.157Y58.504
X167.103Y58.458
X167.047Y58.412
X166.991Y58.367
X166.931Y58.321
X166.876Y58.281
X166.814Y58.236
X166.756Y58.197
X166.698Y58.159
X166.637Y58.12
X166.576Y58.082
X166.514Y58.046
X166.451Y58.01
X166.388Y57.976
X166.325Y57.943
X166.257Y57.91
X166.195Y57.88
X166.127Y57.849
X166.064Y57.822
X165.998Y57.794
X165.926Y57.766
X165.861Y57.742
X165.796Y57.718
X165.724Y57.695
X165.659Y57.674
X165.59Y57.654
X165.517Y57.633
X165.447Y57.615
X165.377Y57.598
X165.308Y57.583
X165.241Y57.569
X165.165Y57.555
X165.1Y57.544
X165.042Y57.536
X149.536Y55.287
X149.53Y52.756
X149.525Y52.635
X149.515Y52.529
X149.504Y52.447
X149.483Y52.33
X149.458Y52.223
X149.424Y52.105
X149.398Y52.03
X149.359Y51.93
X149.309Y51.818
X149.251Y51.706
X149.177Y51.583
X149.107Y51.481
X149.01Y51.355
X148.962Y51.3
X148.908Y51.243
X148.843Y51.178
X148.778Y51.118
X148.721Y51.07
X148.66Y51.021
X148.598Y50.975
X148.536Y50.932
X148.444Y50.874
X148.37Y50.832
X148.273Y50.782
X148.217Y50.756
X148.143Y50.724
X148.075Y50.698
X147.999Y50.671
X147.926Y50.649
X147.852Y50.629
X147.776Y50.611
X147.701Y50.596
X147.624Y50.583
X140.536Y49.556
X140.515Y49.516
X140.496Y49.482
X140.476Y49.449
X140.456Y49.416
X140.434Y49.384
X140.412Y49.352
X140.389Y49.321
X140.366Y49.291
X140.341Y49.261
X140.316Y49.231
X140.29Y49.203
X140.264Y49.175
X140.237Y49.147
X140.209Y49.12
X140.18Y49.094
X140.151Y49.069
X140.12Y49.043
X140.09Y49.019
X140.059Y48.996
X140.028Y48.974
X139.996Y48.952
X139.963Y48.931
X139.93Y48.911
X139.897Y48.892
X139.863Y48.873
X139.828Y48.856
X139.793Y48.839
X139.758Y48.823
X139.723Y48.808
X139.687Y48.794
X139.65Y48.78
X139.614Y48.768
X139.577Y48.756
X139.54Y48.746
X139.502Y48.736
X139.465Y48.727
X139.427Y48.719
X139.389Y48.712
X139.351Y48.706
X139.312Y48.701
X139.274Y48.697
X139.236Y48.693
X139.197Y48.691
X139.158Y48.69
X139.12Y48.689
X132.445
X132.406Y48.69
X132.367Y48.691
X132.329Y48.693
X132.29Y48.697
X132.251Y48.701
X132.212Y48.706
X132.174Y48.712
X132.135Y48.72
X132.097Y48.728
X132.059Y48.737
X132.022Y48.747
X131.984Y48.757
X131.947Y48.769
X131.91Y48.782
X131.874Y48.795
X131.837Y48.81
X131.802Y48.825
X131.766Y48.841
X131.731Y48.859
X131.697Y48.876
X131.662Y48.895
X131.629Y48.915
X131.595Y48.935
X131.563Y48.957
X131.531Y48.979
X131.499Y49.001
X131.468Y49.025
X131.438Y49.049
X131.408Y49.074
X131.378Y49.1
X131.349Y49.128
X131.321Y49.155
X131.294Y49.183
X131.267Y49.211
X131.241Y49.241
X131.216Y49.27
X131.192Y49.301
X131.168Y49.332
X131.145Y49.363
X131.123Y49.396
X131.102Y49.428
X131.081Y49.462
X131.062Y49.495
X131.043Y49.529
X131.025Y49.564
X131.008Y49.599
X130.991Y49.635
X130.976Y49.67
X130.961Y49.707
G0Z1
 
