(Created with grbl post processor 2025/01/12 12:43)
G21
(G-code generated with BlenderCAM and NC library)
G17G90
(Tool: D = 3.18 mm  type END flutes 2)
S1000M03
G00 Z1.0

G0X0Y0Z1
X188.626Y110.868
G1Z-0.1F50
X188.606Y110.902F100
X188.586Y110.937
X188.567Y110.974
X188.549Y111.011
X188.532Y111.048
X188.504Y111.117
X188.495Y111.139
X188.482Y111.178
X188.469Y111.217
X188.457Y111.257
X188.446Y111.297
X188.437Y111.338
X188.428Y111.378
X188.42Y111.419
X188.414Y111.458
X188.409Y111.496
X188.405Y111.534
X188.402Y111.573
X188.399Y111.612
X188.398Y111.65
X188.397Y111.689
Y121.973
X184.988
X184.95
X184.911Y121.975
X184.872Y121.977
X184.834Y121.981
X184.795Y121.985
X184.756Y121.99
X184.718Y121.996
X184.68Y122.003
X184.642Y122.011
X184.604Y122.02
X184.567Y122.03
X184.53Y122.041
X184.37Y122.089
X184.334Y122.1
X184.298Y122.112
X184.262Y122.125
X184.227Y122.139
X184.192Y122.154
X184.158Y122.169
X184.124Y122.186
X184.09Y122.203
X183.92Y122.292
X183.886Y122.311
X183.852Y122.331
X183.82Y122.351
X183.787Y122.372
X183.755Y122.394
X183.724Y122.417
X183.693Y122.44
X183.568Y122.538
X183.535Y122.564
X183.503Y122.592
X183.471Y122.62
X183.44Y122.649
X183.41Y122.679
X183.381Y122.71
X183.352Y122.742
X183.325Y122.774
X183.183Y122.945
X183.158Y122.976
X183.133Y123.007
X183.11Y123.039
X183.087Y123.072
X183.065Y123.106
X183.044Y123.139
X183.024Y123.174
X183.005Y123.209
X182.986Y123.244
X182.969Y123.28
X182.865Y123.497
X182.848Y123.534
X182.832Y123.571
X182.817Y123.609
X182.803Y123.647
X182.79Y123.686
X182.778Y123.724
X182.767Y123.763
X182.757Y123.802
X182.711Y123.99
X182.702Y124.03
X182.694Y124.071
X182.686Y124.112
X182.68Y124.153
X182.675Y124.194
X182.671Y124.235
X182.653Y124.457
X182.65Y124.49
X182.649Y124.523
X182.648Y124.556
X182.647Y124.589
Y141.564
X182.648Y141.605
X182.649Y141.645
X182.652Y141.686
X182.656Y141.726
X182.692Y142.087
X182.697Y142.124
X182.702Y142.161
X182.708Y142.199
X182.715Y142.236
X182.723Y142.273
X182.731Y142.31
X182.741Y142.346
X182.751Y142.382
X182.763Y142.418
X182.775Y142.454
X182.859Y142.694
X182.873Y142.73
X182.887Y142.767
X182.903Y142.803
X182.919Y142.839
X182.936Y142.875
X182.954Y142.91
X182.973Y142.944
X182.993Y142.978
X183.013Y143.012
X183.035Y143.045
X183.139Y143.201
X183.16Y143.233
X183.182Y143.264
X183.205Y143.294
X183.229Y143.324
X183.253Y143.353
X183.278Y143.382
X183.304Y143.41
X183.33Y143.437
X183.357Y143.464
X183.385Y143.49
X183.504Y143.6
X183.536Y143.629
X183.569Y143.657
X183.603Y143.684
X183.638Y143.71
X183.673Y143.736
X183.709Y143.76
X183.746Y143.783
X183.783Y143.806
X183.905Y143.876
X183.936Y143.894
X183.969Y143.911
X184.001Y143.928
X184.034Y143.944
X184.067Y143.959
X184.101Y143.973
X184.135Y143.986
X184.169Y143.999
X184.282Y144.039
X184.324Y144.054
X184.367Y144.067
X184.41Y144.079
X184.453Y144.09
X184.497Y144.099
X184.541Y144.108
X184.664Y144.129
X184.7Y144.135
X184.736Y144.14
X184.773Y144.144
X184.809Y144.148
X184.846Y144.15
X184.882Y144.152
X184.96Y144.155
X184.988
X192.988
X193.027
X193.066Y144.153
X193.105Y144.151
X193.144Y144.147
X193.183Y144.143
X193.222Y144.138
X193.26Y144.132
X193.298Y144.124
X193.337Y144.116
X193.375Y144.107
X193.412Y144.097
X193.45Y144.087
X193.487Y144.075
X193.524Y144.062
X193.561Y144.048
X193.597Y144.034
X193.633Y144.019
X193.668Y144.002
X193.703Y143.985
X193.738Y143.967
X193.772Y143.948
X193.806Y143.929
X193.839Y143.908
X193.872Y143.887
X193.904Y143.865
X193.935Y143.842
X193.967Y143.818
X193.997Y143.794
X194.027Y143.769
X194.056Y143.743
X194.085Y143.717
X194.114Y143.688
X194.141Y143.66
X194.167Y143.632
X194.193Y143.603
X194.218Y143.573
X194.243Y143.542
X194.266Y143.511
X194.289Y143.48
X194.311Y143.447
X194.333Y143.415
X194.353Y143.381
X194.373Y143.348
X194.392Y143.314
X194.41Y143.279
X194.427Y143.244
X194.443Y143.208
X194.458Y143.172
X194.473Y143.136
X194.486Y143.1
X194.499Y143.063
X194.511Y143.026
X194.522Y142.988
X194.532Y142.95
X194.541Y142.912
X194.549Y142.874
X194.556Y142.836
X194.562Y142.797
X194.567Y142.759
X194.572Y142.72
X194.575Y142.681
X194.577Y142.642
X194.579Y142.603
Y142.564
Y137.191
X196.96Y134.639
X199.636Y132.151
X201.832Y130.475
X202.733Y129.932
X203.55Y129.557
X205.986Y128.834
X208.611Y128.361
X212.156Y128.058
X216.192Y128.05
X220.907Y128.395
X222.781Y128.641
X222.815Y128.646
X222.85Y128.649
X222.884Y128.652
X222.919Y128.654
X222.954Y128.655
X222.988
X237.988
X238.032Y128.654
X238.076Y128.653
X238.12Y128.65
X238.163Y128.645
X242.538Y128.161
X246.927Y128.003
X250.664Y128.164
X254.103Y128.636
X255.808Y129.034
X257.384Y129.541
X258.708Y130.205
X260.726Y131.65
X263.207Y133.852
X265.769Y136.472
X266.397Y137.173
Y142.564
X266.398Y142.603
X266.399Y142.642
X266.402Y142.681
X266.405Y142.72
X266.409Y142.759
X266.415Y142.797
X266.421Y142.836
X266.428Y142.874
X266.436Y142.912
X266.445Y142.95
X266.455Y142.988
X266.466Y143.026
X266.478Y143.063
X266.49Y143.1
X266.504Y143.136
X266.518Y143.173
X266.534Y143.208
X266.55Y143.244
X266.567Y143.279
X266.585Y143.314
X266.604Y143.348
X266.624Y143.381
X266.644Y143.415
X266.665Y143.447
X266.687Y143.48
X266.71Y143.511
X266.734Y143.542
X266.758Y143.573
X266.783Y143.603
X266.809Y143.632
X266.836Y143.66
X266.864Y143.689
X266.892Y143.717
X266.921Y143.743
X266.95Y143.769
X266.98Y143.794
X267.01Y143.819
X267.041Y143.842
X267.073Y143.865
X267.105Y143.887
X267.138Y143.908
X267.171Y143.929
X267.205Y143.948
X267.239Y143.967
X267.273Y143.985
X267.308Y144.002
X267.344Y144.019
X267.38Y144.034
X267.416Y144.048
X267.453Y144.062
X267.49Y144.075
X267.527Y144.087
X267.564Y144.097
X267.602Y144.107
X267.64Y144.116
X267.678Y144.124
X267.716Y144.132
X267.755Y144.138
X267.794Y144.143
X267.832Y144.147
X267.871Y144.151
X267.91Y144.153
X267.949Y144.155
X267.988
X275.988
X276.025
X276.062Y144.153
X276.098Y144.151
X276.135Y144.148
X276.171Y144.144
X276.207Y144.14
X276.338Y144.122
X276.376Y144.116
X276.414Y144.109
X276.452Y144.102
X276.49Y144.093
X276.528Y144.083
X276.565Y144.073
X276.602Y144.062
X276.639Y144.05
X276.77Y144.004
X276.804Y143.992
X276.838Y143.979
X276.872Y143.965
X276.905Y143.951
X276.938Y143.935
X276.97Y143.92
X277.002Y143.903
X277.034Y143.885
X277.144Y143.823
X277.181Y143.802
X277.217Y143.779
X277.252Y143.756
X277.287Y143.732
X277.321Y143.707
X277.354Y143.681
X277.386Y143.655
X277.418Y143.627
X277.552Y143.508
X277.581Y143.482
X277.609Y143.455
X277.637Y143.427
X277.663Y143.399
X277.69Y143.37
X277.715Y143.34
X277.74Y143.31
X277.764Y143.279
X277.787Y143.248
X277.809Y143.216
X277.919Y143.054
X277.94Y143.023
X277.96Y142.992
X277.979Y142.96
X277.998Y142.928
X278.015Y142.895
X278.032Y142.861
X278.048Y142.828
X278.064Y142.794
X278.078Y142.759
X278.092Y142.725
X278.176Y142.505
X278.191Y142.462
X278.206Y142.419
X278.219Y142.375
X278.231Y142.331
X278.241Y142.287
X278.251Y142.243
X278.284Y142.071
X278.293Y142.025
X278.3Y141.979
X278.305Y141.932
X278.309Y141.886
X278.325Y141.685
X278.327Y141.655
X278.328Y141.624
X278.329Y141.594
Y141.564
Y124.589
Y124.555
X278.328Y124.521
X278.326Y124.486
X278.323Y124.452
X278.32Y124.418
X278.316Y124.384
X278.265Y123.987
X278.259Y123.948
X278.252Y123.909
X278.245Y123.87
X278.236Y123.831
X278.227Y123.793
X278.216Y123.754
X278.205Y123.716
X278.193Y123.679
X278.179Y123.642
X278.165Y123.605
X278.072Y123.371
X278.058Y123.335
X278.042Y123.3
X278.026Y123.265
X278.009Y123.231
X277.991Y123.196
X277.972Y123.163
X277.952Y123.13
X277.932Y123.097
X277.91Y123.065
X277.888Y123.033
X277.777Y122.877
X277.755Y122.847
X277.732Y122.818
X277.709Y122.789
X277.685Y122.761
X277.661Y122.733
X277.636Y122.706
X277.61Y122.68
X277.584Y122.654
X277.557Y122.629
X277.529Y122.604
X277.405Y122.496
X277.374Y122.469
X277.342Y122.443
X277.309Y122.418
X277.275Y122.393
X277.241Y122.37
X277.207Y122.347
X277.171Y122.326
X277.136Y122.305
X277.012Y122.236
X276.982Y122.219
X276.951Y122.204
X276.92Y122.188
X276.889Y122.174
X276.857Y122.16
X276.825Y122.147
X276.793Y122.134
X276.76Y122.122
X276.65Y122.084
X276.612Y122.071
X276.575Y122.06
X276.537Y122.049
X276.499Y122.039
X276.46Y122.03
X276.422Y122.022
X276.323Y122.004
X276.278Y121.996
X276.231Y121.989
X276.185Y121.984
X276.139Y121.98
X276.101Y121.977
X276.045Y121.974
X275.988Y121.973
X262.579
Y114.939
Y114.899
X262.577Y114.858
X262.575Y114.818
X262.571Y114.778
X262.566Y114.737
X262.561Y114.697
X262.554Y114.657
X262.547Y114.619
X262.538Y114.58
X262.529Y114.542
X262.519Y114.504
X262.508Y114.467
X262.495Y114.429
X262.482Y114.392
X262.468Y114.355
X262.454Y114.32
X262.436Y114.279
X262.425Y114.255
X262.413Y114.23
X262.396Y114.197
X262.378Y114.165
X262.36Y114.133
X262.341Y114.102
X262.321Y114.071
X262.301Y114.04
X262.28Y114.01
X262.256Y113.978
X262.232Y113.946
X262.206Y113.916
X262.18Y113.885
X262.154Y113.856
X262.126Y113.827
X262.098Y113.799
X262.069Y113.772
X262.04Y113.745
X262.01Y113.719
X261.979Y113.694
X261.947Y113.67
X261.915Y113.646
X261.883Y113.623
X261.849Y113.601
X261.816Y113.58
X261.781Y113.56
X261.747Y113.541
X261.713Y113.523
X261.679Y113.506
X261.644Y113.489
X261.609Y113.474
X261.573Y113.459
X261.537Y113.446
X261.501Y113.433
X261.464Y113.421
X261.427Y113.41
X261.39Y113.4
X261.353Y113.39
X261.315Y113.382
X261.277Y113.374
X261.239Y113.368
X261.201Y113.362
X261.163Y113.358
X261.124Y113.354
X261.086Y113.351
X261.048Y113.349
X261.009Y113.348
X260.971
X260.931Y113.349
X260.894Y113.351
X260.856Y113.354
X260.819Y113.357
X260.781Y113.362
X260.744Y113.367
X260.707Y113.373
X260.67Y113.38
X260.633Y113.388
X260.596Y113.397
X260.56Y113.407
X260.524Y113.417
X260.488Y113.429
X237.731Y120.973
X223.244
X190.486Y110.178
X190.448Y110.166
X190.41Y110.155
X190.371Y110.145
X190.332Y110.136
X190.293Y110.127
X190.254Y110.12
X190.214Y110.114
X190.174Y110.109
X190.135Y110.105
X190.095Y110.102
X190.055Y110.099
X190.015Y110.098
X189.974
X189.935Y110.099
X189.895Y110.101
X189.856Y110.104
X189.816Y110.107
X189.777Y110.112
X189.738Y110.118
X189.698Y110.125
X189.66Y110.132
X189.621Y110.141
X189.582Y110.151
X189.544Y110.161
X189.506Y110.173
X189.469Y110.185
X189.431Y110.199
X189.394Y110.213
X189.358Y110.228
X189.322Y110.244
X189.286Y110.261
X189.251Y110.279
X189.216Y110.298
X189.181Y110.318
X189.147Y110.339
X189.114Y110.36
X189.081Y110.382
X189.049Y110.405
X189.018Y110.428
X188.987Y110.453
X188.957Y110.478
X188.927Y110.504
X188.898Y110.53
X188.87Y110.558
X188.842Y110.586
X188.815Y110.614
X188.789Y110.644
X188.763Y110.674
X188.738Y110.705
X188.714Y110.736
X188.691Y110.768
X188.668Y110.801
X188.646Y110.834
X188.626Y110.868
Z-0.2F50
X188.606Y110.902F100
X188.586Y110.937
X188.567Y110.974
X188.549Y111.011
X188.532Y111.048
X188.504Y111.117
X188.495Y111.139
X188.482Y111.178
X188.469Y111.217
X188.457Y111.257
X188.446Y111.297
X188.437Y111.338
X188.428Y111.378
X188.42Y111.419
X188.414Y111.458
X188.409Y111.496
X188.405Y111.534
X188.402Y111.573
X188.399Y111.612
X188.398Y111.65
X188.397Y111.689
Y121.973
X184.988
X184.95
X184.911Y121.975
X184.872Y121.977
X184.834Y121.981
X184.795Y121.985
X184.756Y121.99
X184.718Y121.996
X184.68Y122.003
X184.642Y122.011
X184.604Y122.02
X184.567Y122.03
X184.53Y122.041
X184.37Y122.089
X184.334Y122.1
X184.298Y122.112
X184.262Y122.125
X184.227Y122.139
X184.192Y122.154
X184.158Y122.169
X184.124Y122.186
X184.09Y122.203
X183.92Y122.292
X183.886Y122.311
X183.852Y122.331
X183.82Y122.351
X183.787Y122.372
X183.755Y122.394
X183.724Y122.417
X183.693Y122.44
X183.568Y122.538
X183.535Y122.564
X183.503Y122.592
X183.471Y122.62
X183.44Y122.649
X183.41Y122.679
X183.381Y122.71
X183.352Y122.742
X183.325Y122.774
X183.183Y122.945
X183.158Y122.976
X183.133Y123.007
X183.11Y123.039
X183.087Y123.072
X183.065Y123.106
X183.044Y123.139
X183.024Y123.174
X183.005Y123.209
X182.986Y123.244
X182.969Y123.28
X182.865Y123.497
X182.848Y123.534
X182.832Y123.571
X182.817Y123.609
X182.803Y123.647
X182.79Y123.686
X182.778Y123.724
X182.767Y123.763
X182.757Y123.802
X182.711Y123.99
X182.702Y124.03
X182.694Y124.071
X182.686Y124.112
X182.68Y124.153
X182.675Y124.194
X182.671Y124.235
X182.653Y124.457
X182.65Y124.49
X182.649Y124.523
X182.648Y124.556
X182.647Y124.589
Y141.564
X182.648Y141.605
X182.649Y141.645
X182.652Y141.686
X182.656Y141.726
X182.692Y142.087
X182.697Y142.124
X182.702Y142.161
X182.708Y142.199
X182.715Y142.236
X182.723Y142.273
X182.731Y142.31
X182.741Y142.346
X182.751Y142.382
X182.763Y142.418
X182.775Y142.454
X182.859Y142.694
X182.873Y142.73
X182.887Y142.767
X182.903Y142.803
X182.919Y142.839
X182.936Y142.875
X182.954Y142.91
X182.973Y142.944
X182.993Y142.978
X183.013Y143.012
X183.035Y143.045
X183.139Y143.201
X183.16Y143.233
X183.182Y143.264
X183.205Y143.294
X183.229Y143.324
X183.253Y143.353
X183.278Y143.382
X183.304Y143.41
X183.33Y143.437
X183.357Y143.464
X183.385Y143.49
X183.504Y143.6
X183.536Y143.629
X183.569Y143.657
X183.603Y143.684
X183.638Y143.71
X183.673Y143.736
X183.709Y143.76
X183.746Y143.783
X183.783Y143.806
X183.905Y143.876
X183.936Y143.894
X183.969Y143.911
X184.001Y143.928
X184.034Y143.944
X184.067Y143.959
X184.101Y143.973
X184.135Y143.986
X184.169Y143.999
X184.282Y144.039
X184.324Y144.054
X184.367Y144.067
X184.41Y144.079
X184.453Y144.09
X184.497Y144.099
X184.541Y144.108
X184.664Y144.129
X184.7Y144.135
X184.736Y144.14
X184.773Y144.144
X184.809Y144.148
X184.846Y144.15
X184.882Y144.152
X184.96Y144.155
X184.988
X192.988
X193.027
X193.066Y144.153
X193.105Y144.151
X193.144Y144.147
X193.183Y144.143
X193.222Y144.138
X193.26Y144.132
X193.298Y144.124
X193.337Y144.116
X193.375Y144.107
X193.412Y144.097
X193.45Y144.087
X193.487Y144.075
X193.524Y144.062
X193.561Y144.048
X193.597Y144.034
X193.633Y144.019
X193.668Y144.002
X193.703Y143.985
X193.738Y143.967
X193.772Y143.948
X193.806Y143.929
X193.839Y143.908
X193.872Y143.887
X193.904Y143.865
X193.935Y143.842
X193.967Y143.818
X193.997Y143.794
X194.027Y143.769
X194.056Y143.743
X194.085Y143.717
X194.114Y143.688
X194.141Y143.66
X194.167Y143.632
X194.193Y143.603
X194.218Y143.573
X194.243Y143.542
X194.266Y143.511
X194.289Y143.48
X194.311Y143.447
X194.333Y143.415
X194.353Y143.381
X194.373Y143.348
X194.392Y143.314
X194.41Y143.279
X194.427Y143.244
X194.443Y143.208
X194.458Y143.172
X194.473Y143.136
X194.486Y143.1
X194.499Y143.063
X194.511Y143.026
X194.522Y142.988
X194.532Y142.95
X194.541Y142.912
X194.549Y142.874
X194.556Y142.836
X194.562Y142.797
X194.567Y142.759
X194.572Y142.72
X194.575Y142.681
X194.577Y142.642
X194.579Y142.603
Y142.564
Y137.191
X196.96Y134.639
X199.636Y132.151
X201.832Y130.475
X202.733Y129.932
X203.55Y129.557
X205.986Y128.834
X208.611Y128.361
X212.156Y128.058
X216.192Y128.05
X220.907Y128.395
X222.781Y128.641
X222.815Y128.646
X222.85Y128.649
X222.884Y128.652
X222.919Y128.654
X222.954Y128.655
X222.988
X237.988
X238.032Y128.654
X238.076Y128.653
X238.12Y128.65
X238.163Y128.645
X242.538Y128.161
X246.927Y128.003
X250.664Y128.164
X254.103Y128.636
X255.808Y129.034
X257.384Y129.541
X258.708Y130.205
X260.726Y131.65
X263.207Y133.852
X265.769Y136.472
X266.397Y137.173
Y142.564
X266.398Y142.603
X266.399Y142.642
X266.402Y142.681
X266.405Y142.72
X266.409Y142.759
X266.415Y142.797
X266.421Y142.836
X266.428Y142.874
X266.436Y142.912
X266.445Y142.95
X266.455Y142.988
X266.466Y143.026
X266.478Y143.063
X266.49Y143.1
X266.504Y143.136
X266.518Y143.173
X266.534Y143.208
X266.55Y143.244
X266.567Y143.279
X266.585Y143.314
X266.604Y143.348
X266.624Y143.381
X266.644Y143.415
X266.665Y143.447
X266.687Y143.48
X266.71Y143.511
X266.734Y143.542
X266.758Y143.573
X266.783Y143.603
X266.809Y143.632
X266.836Y143.66
X266.864Y143.689
X266.892Y143.717
X266.921Y143.743
X266.95Y143.769
X266.98Y143.794
X267.01Y143.819
X267.041Y143.842
X267.073Y143.865
X267.105Y143.887
X267.138Y143.908
X267.171Y143.929
X267.205Y143.948
X267.239Y143.967
X267.273Y143.985
X267.308Y144.002
X267.344Y144.019
X267.38Y144.034
X267.416Y144.048
X267.453Y144.062
X267.49Y144.075
X267.527Y144.087
X267.564Y144.097
X267.602Y144.107
X267.64Y144.116
X267.678Y144.124
X267.716Y144.132
X267.755Y144.138
X267.794Y144.143
X267.832Y144.147
X267.871Y144.151
X267.91Y144.153
X267.949Y144.155
X267.988
X275.988
X276.025
X276.062Y144.153
X276.098Y144.151
X276.135Y144.148
X276.171Y144.144
X276.207Y144.14
X276.338Y144.122
X276.376Y144.116
X276.414Y144.109
X276.452Y144.102
X276.49Y144.093
X276.528Y144.083
X276.565Y144.073
X276.602Y144.062
X276.639Y144.05
X276.77Y144.004
X276.804Y143.992
X276.838Y143.979
X276.872Y143.965
X276.905Y143.951
X276.938Y143.935
X276.97Y143.92
X277.002Y143.903
X277.034Y143.885
X277.144Y143.823
X277.181Y143.802
X277.217Y143.779
X277.252Y143.756
X277.287Y143.732
X277.321Y143.707
X277.354Y143.681
X277.386Y143.655
X277.418Y143.627
X277.552Y143.508
X277.581Y143.482
X277.609Y143.455
X277.637Y143.427
X277.663Y143.399
X277.69Y143.37
X277.715Y143.34
X277.74Y143.31
X277.764Y143.279
X277.787Y143.248
X277.809Y143.216
X277.919Y143.054
X277.94Y143.023
X277.96Y142.992
X277.979Y142.96
X277.998Y142.928
X278.015Y142.895
X278.032Y142.861
X278.048Y142.828
X278.064Y142.794
X278.078Y142.759
X278.092Y142.725
X278.176Y142.505
X278.191Y142.462
X278.206Y142.419
X278.219Y142.375
X278.231Y142.331
X278.241Y142.287
X278.251Y142.243
X278.284Y142.071
X278.293Y142.025
X278.3Y141.979
X278.305Y141.932
X278.309Y141.886
X278.325Y141.685
X278.327Y141.655
X278.328Y141.624
X278.329Y141.594
Y141.564
Y124.589
Y124.555
X278.328Y124.521
X278.326Y124.486
X278.323Y124.452
X278.32Y124.418
X278.316Y124.384
X278.265Y123.987
X278.259Y123.948
X278.252Y123.909
X278.245Y123.87
X278.236Y123.831
X278.227Y123.793
X278.216Y123.754
X278.205Y123.716
X278.193Y123.679
X278.179Y123.642
X278.165Y123.605
X278.072Y123.371
X278.058Y123.335
X278.042Y123.3
X278.026Y123.265
X278.009Y123.231
X277.991Y123.196
X277.972Y123.163
X277.952Y123.13
X277.932Y123.097
X277.91Y123.065
X277.888Y123.033
X277.777Y122.877
X277.755Y122.847
X277.732Y122.818
X277.709Y122.789
X277.685Y122.761
X277.661Y122.733
X277.636Y122.706
X277.61Y122.68
X277.584Y122.654
X277.557Y122.629
X277.529Y122.604
X277.405Y122.496
X277.374Y122.469
X277.342Y122.443
X277.309Y122.418
X277.275Y122.393
X277.241Y122.37
X277.207Y122.347
X277.171Y122.326
X277.136Y122.305
X277.012Y122.236
X276.982Y122.219
X276.951Y122.204
X276.92Y122.188
X276.889Y122.174
X276.857Y122.16
X276.825Y122.147
X276.793Y122.134
X276.76Y122.122
X276.65Y122.084
X276.612Y122.071
X276.575Y122.06
X276.537Y122.049
X276.499Y122.039
X276.46Y122.03
X276.422Y122.022
X276.323Y122.004
X276.278Y121.996
X276.231Y121.989
X276.185Y121.984
X276.139Y121.98
X276.101Y121.977
X276.045Y121.974
X275.988Y121.973
X262.579
Y114.939
Y114.899
X262.577Y114.858
X262.575Y114.818
X262.571Y114.778
X262.566Y114.737
X262.561Y114.697
X262.554Y114.657
X262.547Y114.619
X262.538Y114.58
X262.529Y114.542
X262.519Y114.504
X262.508Y114.467
X262.495Y114.429
X262.482Y114.392
X262.468Y114.355
X262.454Y114.32
X262.436Y114.279
X262.425Y114.255
X262.413Y114.23
X262.396Y114.197
X262.378Y114.165
X262.36Y114.133
X262.341Y114.102
X262.321Y114.071
X262.301Y114.04
X262.28Y114.01
X262.256Y113.978
X262.232Y113.946
X262.206Y113.916
X262.18Y113.885
X262.154Y113.856
X262.126Y113.827
X262.098Y113.799
X262.069Y113.772
X262.04Y113.745
X262.01Y113.719
X261.979Y113.694
X261.947Y113.67
X261.915Y113.646
X261.883Y113.623
X261.849Y113.601
X261.816Y113.58
X261.781Y113.56
X261.747Y113.541
X261.713Y113.523
X261.679Y113.506
X261.644Y113.489
X261.609Y113.474
X261.573Y113.459
X261.537Y113.446
X261.501Y113.433
X261.464Y113.421
X261.427Y113.41
X261.39Y113.4
X261.353Y113.39
X261.315Y113.382
X261.277Y113.374
X261.239Y113.368
X261.201Y113.362
X261.163Y113.358
X261.124Y113.354
X261.086Y113.351
X261.048Y113.349
X261.009Y113.348
X260.971
X260.931Y113.349
X260.894Y113.351
X260.856Y113.354
X260.819Y113.357
X260.781Y113.362
X260.744Y113.367
X260.707Y113.373
X260.67Y113.38
X260.633Y113.388
X260.596Y113.397
X260.56Y113.407
X260.524Y113.417
X260.488Y113.429
X237.731Y120.973
X223.244
X190.486Y110.178
X190.448Y110.166
X190.41Y110.155
X190.371Y110.145
X190.332Y110.136
X190.293Y110.127
X190.254Y110.12
X190.214Y110.114
X190.174Y110.109
X190.135Y110.105
X190.095Y110.102
X190.055Y110.099
X190.015Y110.098
X189.974
X189.935Y110.099
X189.895Y110.101
X189.856Y110.104
X189.816Y110.107
X189.777Y110.112
X189.738Y110.118
X189.698Y110.125
X189.66Y110.132
X189.621Y110.141
X189.582Y110.151
X189.544Y110.161
X189.506Y110.173
X189.469Y110.185
X189.431Y110.199
X189.394Y110.213
X189.358Y110.228
X189.322Y110.244
X189.286Y110.261
X189.251Y110.279
X189.216Y110.298
X189.181Y110.318
X189.147Y110.339
X189.114Y110.36
X189.081Y110.382
X189.049Y110.405
X189.018Y110.428
X188.987Y110.453
X188.957Y110.478
X188.927Y110.504
X188.898Y110.53
X188.87Y110.558
X188.842Y110.586
X188.815Y110.614
X188.789Y110.644
X188.763Y110.674
X188.738Y110.705
X188.714Y110.736
X188.691Y110.768
X188.668Y110.801
X188.646Y110.834
X188.626Y110.868
Z-0.3F50
X188.606Y110.902F100
X188.586Y110.937
X188.567Y110.974
X188.549Y111.011
X188.532Y111.048
X188.504Y111.117
X188.495Y111.139
X188.482Y111.178
X188.469Y111.217
X188.457Y111.257
X188.446Y111.297
X188.437Y111.338
X188.428Y111.378
X188.42Y111.419
X188.414Y111.458
X188.409Y111.496
X188.405Y111.534
X188.402Y111.573
X188.399Y111.612
X188.398Y111.65
X188.397Y111.689
Y121.973
X184.988
X184.95
X184.911Y121.975
X184.872Y121.977
X184.834Y121.981
X184.795Y121.985
X184.756Y121.99
X184.718Y121.996
X184.68Y122.003
X184.642Y122.011
X184.604Y122.02
X184.567Y122.03
X184.53Y122.041
X184.37Y122.089
X184.334Y122.1
X184.298Y122.112
X184.262Y122.125
X184.227Y122.139
X184.192Y122.154
X184.158Y122.169
X184.124Y122.186
X184.09Y122.203
X183.92Y122.292
X183.886Y122.311
X183.852Y122.331
X183.82Y122.351
X183.787Y122.372
X183.755Y122.394
X183.724Y122.417
X183.693Y122.44
X183.568Y122.538
X183.535Y122.564
X183.503Y122.592
X183.471Y122.62
X183.44Y122.649
X183.41Y122.679
X183.381Y122.71
X183.352Y122.742
X183.325Y122.774
X183.183Y122.945
X183.158Y122.976
X183.133Y123.007
X183.11Y123.039
X183.087Y123.072
X183.065Y123.106
X183.044Y123.139
X183.024Y123.174
X183.005Y123.209
X182.986Y123.244
X182.969Y123.28
X182.865Y123.497
X182.848Y123.534
X182.832Y123.571
X182.817Y123.609
X182.803Y123.647
X182.79Y123.686
X182.778Y123.724
X182.767Y123.763
X182.757Y123.802
X182.711Y123.99
X182.702Y124.03
X182.694Y124.071
X182.686Y124.112
X182.68Y124.153
X182.675Y124.194
X182.671Y124.235
X182.653Y124.457
X182.65Y124.49
X182.649Y124.523
X182.648Y124.556
X182.647Y124.589
Y141.564
X182.648Y141.605
X182.649Y141.645
X182.652Y141.686
X182.656Y141.726
X182.692Y142.087
X182.697Y142.124
X182.702Y142.161
X182.708Y142.199
X182.715Y142.236
X182.723Y142.273
X182.731Y142.31
X182.741Y142.346
X182.751Y142.382
X182.763Y142.418
X182.775Y142.454
X182.859Y142.694
X182.873Y142.73
X182.887Y142.767
X182.903Y142.803
X182.919Y142.839
X182.936Y142.875
X182.954Y142.91
X182.973Y142.944
X182.993Y142.978
X183.013Y143.012
X183.035Y143.045
X183.139Y143.201
X183.16Y143.233
X183.182Y143.264
X183.205Y143.294
X183.229Y143.324
X183.253Y143.353
X183.278Y143.382
X183.304Y143.41
X183.33Y143.437
X183.357Y143.464
X183.385Y143.49
X183.504Y143.6
X183.536Y143.629
X183.569Y143.657
X183.603Y143.684
X183.638Y143.71
X183.673Y143.736
X183.709Y143.76
X183.746Y143.783
X183.783Y143.806
X183.905Y143.876
X183.936Y143.894
X183.969Y143.911
X184.001Y143.928
X184.034Y143.944
X184.067Y143.959
X184.101Y143.973
X184.135Y143.986
X184.169Y143.999
X184.282Y144.039
X184.324Y144.054
X184.367Y144.067
X184.41Y144.079
X184.453Y144.09
X184.497Y144.099
X184.541Y144.108
X184.664Y144.129
X184.7Y144.135
X184.736Y144.14
X184.773Y144.144
X184.809Y144.148
X184.846Y144.15
X184.882Y144.152
X184.96Y144.155
X184.988
X192.988
X193.027
X193.066Y144.153
X193.105Y144.151
X193.144Y144.147
X193.183Y144.143
X193.222Y144.138
X193.26Y144.132
X193.298Y144.124
X193.337Y144.116
X193.375Y144.107
X193.412Y144.097
X193.45Y144.087
X193.487Y144.075
X193.524Y144.062
X193.561Y144.048
X193.597Y144.034
X193.633Y144.019
X193.668Y144.002
X193.703Y143.985
X193.738Y143.967
X193.772Y143.948
X193.806Y143.929
X193.839Y143.908
X193.872Y143.887
X193.904Y143.865
X193.935Y143.842
X193.967Y143.818
X193.997Y143.794
X194.027Y143.769
X194.056Y143.743
X194.085Y143.717
X194.114Y143.688
X194.141Y143.66
X194.167Y143.632
X194.193Y143.603
X194.218Y143.573
X194.243Y143.542
X194.266Y143.511
X194.289Y143.48
X194.311Y143.447
X194.333Y143.415
X194.353Y143.381
X194.373Y143.348
X194.392Y143.314
X194.41Y143.279
X194.427Y143.244
X194.443Y143.208
X194.458Y143.172
X194.473Y143.136
X194.486Y143.1
X194.499Y143.063
X194.511Y143.026
X194.522Y142.988
X194.532Y142.95
X194.541Y142.912
X194.549Y142.874
X194.556Y142.836
X194.562Y142.797
X194.567Y142.759
X194.572Y142.72
X194.575Y142.681
X194.577Y142.642
X194.579Y142.603
Y142.564
Y137.191
X196.96Y134.639
X199.636Y132.151
X201.832Y130.475
X202.733Y129.932
X203.55Y129.557
X205.986Y128.834
X208.611Y128.361
X212.156Y128.058
X216.192Y128.05
X220.907Y128.395
X222.781Y128.641
X222.815Y128.646
X222.85Y128.649
X222.884Y128.652
X222.919Y128.654
X222.954Y128.655
X222.988
X237.988
X238.032Y128.654
X238.076Y128.653
X238.12Y128.65
X238.163Y128.645
X242.538Y128.161
X246.927Y128.003
X250.664Y128.164
X254.103Y128.636
X255.808Y129.034
X257.384Y129.541
X258.708Y130.205
X260.726Y131.65
X263.207Y133.852
X265.769Y136.472
X266.397Y137.173
Y142.564
X266.398Y142.603
X266.399Y142.642
X266.402Y142.681
X266.405Y142.72
X266.409Y142.759
X266.415Y142.797
X266.421Y142.836
X266.428Y142.874
X266.436Y142.912
X266.445Y142.95
X266.455Y142.988
X266.466Y143.026
X266.478Y143.063
X266.49Y143.1
X266.504Y143.136
X266.518Y143.173
X266.534Y143.208
X266.55Y143.244
X266.567Y143.279
X266.585Y143.314
X266.604Y143.348
X266.624Y143.381
X266.644Y143.415
X266.665Y143.447
X266.687Y143.48
X266.71Y143.511
X266.734Y143.542
X266.758Y143.573
X266.783Y143.603
X266.809Y143.632
X266.836Y143.66
X266.864Y143.689
X266.892Y143.717
X266.921Y143.743
X266.95Y143.769
X266.98Y143.794
X267.01Y143.819
X267.041Y143.842
X267.073Y143.865
X267.105Y143.887
X267.138Y143.908
X267.171Y143.929
X267.205Y143.948
X267.239Y143.967
X267.273Y143.985
X267.308Y144.002
X267.344Y144.019
X267.38Y144.034
X267.416Y144.048
X267.453Y144.062
X267.49Y144.075
X267.527Y144.087
X267.564Y144.097
X267.602Y144.107
X267.64Y144.116
X267.678Y144.124
X267.716Y144.132
X267.755Y144.138
X267.794Y144.143
X267.832Y144.147
X267.871Y144.151
X267.91Y144.153
X267.949Y144.155
X267.988
X275.988
X276.025
X276.062Y144.153
X276.098Y144.151
X276.135Y144.148
X276.171Y144.144
X276.207Y144.14
X276.338Y144.122
X276.376Y144.116
X276.414Y144.109
X276.452Y144.102
X276.49Y144.093
X276.528Y144.083
X276.565Y144.073
X276.602Y144.062
X276.639Y144.05
X276.77Y144.004
X276.804Y143.992
X276.838Y143.979
X276.872Y143.965
X276.905Y143.951
X276.938Y143.935
X276.97Y143.92
X277.002Y143.903
X277.034Y143.885
X277.144Y143.823
X277.181Y143.802
X277.217Y143.779
X277.252Y143.756
X277.287Y143.732
X277.321Y143.707
X277.354Y143.681
X277.386Y143.655
X277.418Y143.627
X277.552Y143.508
X277.581Y143.482
X277.609Y143.455
X277.637Y143.427
X277.663Y143.399
X277.69Y143.37
X277.715Y143.34
X277.74Y143.31
X277.764Y143.279
X277.787Y143.248
X277.809Y143.216
X277.919Y143.054
X277.94Y143.023
X277.96Y142.992
X277.979Y142.96
X277.998Y142.928
X278.015Y142.895
X278.032Y142.861
X278.048Y142.828
X278.064Y142.794
X278.078Y142.759
X278.092Y142.725
X278.176Y142.505
X278.191Y142.462
X278.206Y142.419
X278.219Y142.375
X278.231Y142.331
X278.241Y142.287
X278.251Y142.243
X278.284Y142.071
X278.293Y142.025
X278.3Y141.979
X278.305Y141.932
X278.309Y141.886
X278.325Y141.685
X278.327Y141.655
X278.328Y141.624
X278.329Y141.594
Y141.564
Y124.589
Y124.555
X278.328Y124.521
X278.326Y124.486
X278.323Y124.452
X278.32Y124.418
X278.316Y124.384
X278.265Y123.987
X278.259Y123.948
X278.252Y123.909
X278.245Y123.87
X278.236Y123.831
X278.227Y123.793
X278.216Y123.754
X278.205Y123.716
X278.193Y123.679
X278.179Y123.642
X278.165Y123.605
X278.072Y123.371
X278.058Y123.335
X278.042Y123.3
X278.026Y123.265
X278.009Y123.231
X277.991Y123.196
X277.972Y123.163
X277.952Y123.13
X277.932Y123.097
X277.91Y123.065
X277.888Y123.033
X277.777Y122.877
X277.755Y122.847
X277.732Y122.818
X277.709Y122.789
X277.685Y122.761
X277.661Y122.733
X277.636Y122.706
X277.61Y122.68
X277.584Y122.654
X277.557Y122.629
X277.529Y122.604
X277.405Y122.496
X277.374Y122.469
X277.342Y122.443
X277.309Y122.418
X277.275Y122.393
X277.241Y122.37
X277.207Y122.347
X277.171Y122.326
X277.136Y122.305
X277.012Y122.236
X276.982Y122.219
X276.951Y122.204
X276.92Y122.188
X276.889Y122.174
X276.857Y122.16
X276.825Y122.147
X276.793Y122.134
X276.76Y122.122
X276.65Y122.084
X276.612Y122.071
X276.575Y122.06
X276.537Y122.049
X276.499Y122.039
X276.46Y122.03
X276.422Y122.022
X276.323Y122.004
X276.278Y121.996
X276.231Y121.989
X276.185Y121.984
X276.139Y121.98
X276.101Y121.977
X276.045Y121.974
X275.988Y121.973
X262.579
Y114.939
Y114.899
X262.577Y114.858
X262.575Y114.818
X262.571Y114.778
X262.566Y114.737
X262.561Y114.697
X262.554Y114.657
X262.547Y114.619
X262.538Y114.58
X262.529Y114.542
X262.519Y114.504
X262.508Y114.467
X262.495Y114.429
X262.482Y114.392
X262.468Y114.355
X262.454Y114.32
X262.436Y114.279
X262.425Y114.255
X262.413Y114.23
X262.396Y114.197
X262.378Y114.165
X262.36Y114.133
X262.341Y114.102
X262.321Y114.071
X262.301Y114.04
X262.28Y114.01
X262.256Y113.978
X262.232Y113.946
X262.206Y113.916
X262.18Y113.885
X262.154Y113.856
X262.126Y113.827
X262.098Y113.799
X262.069Y113.772
X262.04Y113.745
X262.01Y113.719
X261.979Y113.694
X261.947Y113.67
X261.915Y113.646
X261.883Y113.623
X261.849Y113.601
X261.816Y113.58
X261.781Y113.56
X261.747Y113.541
X261.713Y113.523
X261.679Y113.506
X261.644Y113.489
X261.609Y113.474
X261.573Y113.459
X261.537Y113.446
X261.501Y113.433
X261.464Y113.421
X261.427Y113.41
X261.39Y113.4
X261.353Y113.39
X261.315Y113.382
X261.277Y113.374
X261.239Y113.368
X261.201Y113.362
X261.163Y113.358
X261.124Y113.354
X261.086Y113.351
X261.048Y113.349
X261.009Y113.348
X260.971
X260.931Y113.349
X260.894Y113.351
X260.856Y113.354
X260.819Y113.357
X260.781Y113.362
X260.744Y113.367
X260.707Y113.373
X260.67Y113.38
X260.633Y113.388
X260.596Y113.397
X260.56Y113.407
X260.524Y113.417
X260.488Y113.429
X237.731Y120.973
X223.244
X190.486Y110.178
X190.448Y110.166
X190.41Y110.155
X190.371Y110.145
X190.332Y110.136
X190.293Y110.127
X190.254Y110.12
X190.214Y110.114
X190.174Y110.109
X190.135Y110.105
X190.095Y110.102
X190.055Y110.099
X190.015Y110.098
X189.974
X189.935Y110.099
X189.895Y110.101
X189.856Y110.104
X189.816Y110.107
X189.777Y110.112
X189.738Y110.118
X189.698Y110.125
X189.66Y110.132
X189.621Y110.141
X189.582Y110.151
X189.544Y110.161
X189.506Y110.173
X189.469Y110.185
X189.431Y110.199
X189.394Y110.213
X189.358Y110.228
X189.322Y110.244
X189.286Y110.261
X189.251Y110.279
X189.216Y110.298
X189.181Y110.318
X189.147Y110.339
X189.114Y110.36
X189.081Y110.382
X189.049Y110.405
X189.018Y110.428
X188.987Y110.453
X188.957Y110.478
X188.927Y110.504
X188.898Y110.53
X188.87Y110.558
X188.842Y110.586
X188.815Y110.614
X188.789Y110.644
X188.763Y110.674
X188.738Y110.705
X188.714Y110.736
X188.691Y110.768
X188.668Y110.801
X188.646Y110.834
X188.626Y110.868
Z-0.4F50
X188.606Y110.902F100
X188.586Y110.937
X188.567Y110.974
X188.549Y111.011
X188.532Y111.048
X188.504Y111.117
X188.495Y111.139
X188.482Y111.178
X188.469Y111.217
X188.457Y111.257
X188.446Y111.297
X188.437Y111.338
X188.428Y111.378
X188.42Y111.419
X188.414Y111.458
X188.409Y111.496
X188.405Y111.534
X188.402Y111.573
X188.399Y111.612
X188.398Y111.65
X188.397Y111.689
Y121.973
X184.988
X184.95
X184.911Y121.975
X184.872Y121.977
X184.834Y121.981
X184.795Y121.985
X184.756Y121.99
X184.718Y121.996
X184.68Y122.003
X184.642Y122.011
X184.604Y122.02
X184.567Y122.03
X184.53Y122.041
X184.37Y122.089
X184.334Y122.1
X184.298Y122.112
X184.262Y122.125
X184.227Y122.139
X184.192Y122.154
X184.158Y122.169
X184.124Y122.186
X184.09Y122.203
X183.92Y122.292
X183.886Y122.311
X183.852Y122.331
X183.82Y122.351
X183.787Y122.372
X183.755Y122.394
X183.724Y122.417
X183.693Y122.44
X183.568Y122.538
X183.535Y122.564
X183.503Y122.592
X183.471Y122.62
X183.44Y122.649
X183.41Y122.679
X183.381Y122.71
X183.352Y122.742
X183.325Y122.774
X183.183Y122.945
X183.158Y122.976
X183.133Y123.007
X183.11Y123.039
X183.087Y123.072
X183.065Y123.106
X183.044Y123.139
X183.024Y123.174
X183.005Y123.209
X182.986Y123.244
X182.969Y123.28
X182.865Y123.497
X182.848Y123.534
X182.832Y123.571
X182.817Y123.609
X182.803Y123.647
X182.79Y123.686
X182.778Y123.724
X182.767Y123.763
X182.757Y123.802
X182.711Y123.99
X182.702Y124.03
X182.694Y124.071
X182.686Y124.112
X182.68Y124.153
X182.675Y124.194
X182.671Y124.235
X182.653Y124.457
X182.65Y124.49
X182.649Y124.523
X182.648Y124.556
X182.647Y124.589
Y141.564
X182.648Y141.605
X182.649Y141.645
X182.652Y141.686
X182.656Y141.726
X182.692Y142.087
X182.697Y142.124
X182.702Y142.161
X182.708Y142.199
X182.715Y142.236
X182.723Y142.273
X182.731Y142.31
X182.741Y142.346
X182.751Y142.382
X182.763Y142.418
X182.775Y142.454
X182.859Y142.694
X182.873Y142.73
X182.887Y142.767
X182.903Y142.803
X182.919Y142.839
X182.936Y142.875
X182.954Y142.91
X182.973Y142.944
X182.993Y142.978
X183.013Y143.012
X183.035Y143.045
X183.139Y143.201
X183.16Y143.233
X183.182Y143.264
X183.205Y143.294
X183.229Y143.324
X183.253Y143.353
X183.278Y143.382
X183.304Y143.41
X183.33Y143.437
X183.357Y143.464
X183.385Y143.49
X183.504Y143.6
X183.536Y143.629
X183.569Y143.657
X183.603Y143.684
X183.638Y143.71
X183.673Y143.736
X183.709Y143.76
X183.746Y143.783
X183.783Y143.806
X183.905Y143.876
X183.936Y143.894
X183.969Y143.911
X184.001Y143.928
X184.034Y143.944
X184.067Y143.959
X184.101Y143.973
X184.135Y143.986
X184.169Y143.999
X184.282Y144.039
X184.324Y144.054
X184.367Y144.067
X184.41Y144.079
X184.453Y144.09
X184.497Y144.099
X184.541Y144.108
X184.664Y144.129
X184.7Y144.135
X184.736Y144.14
X184.773Y144.144
X184.809Y144.148
X184.846Y144.15
X184.882Y144.152
X184.96Y144.155
X184.988
X192.988
X193.027
X193.066Y144.153
X193.105Y144.151
X193.144Y144.147
X193.183Y144.143
X193.222Y144.138
X193.26Y144.132
X193.298Y144.124
X193.337Y144.116
X193.375Y144.107
X193.412Y144.097
X193.45Y144.087
X193.487Y144.075
X193.524Y144.062
X193.561Y144.048
X193.597Y144.034
X193.633Y144.019
X193.668Y144.002
X193.703Y143.985
X193.738Y143.967
X193.772Y143.948
X193.806Y143.929
X193.839Y143.908
X193.872Y143.887
X193.904Y143.865
X193.935Y143.842
X193.967Y143.818
X193.997Y143.794
X194.027Y143.769
X194.056Y143.743
X194.085Y143.717
X194.114Y143.688
X194.141Y143.66
X194.167Y143.632
X194.193Y143.603
X194.218Y143.573
X194.243Y143.542
X194.266Y143.511
X194.289Y143.48
X194.311Y143.447
X194.333Y143.415
X194.353Y143.381
X194.373Y143.348
X194.392Y143.314
X194.41Y143.279
X194.427Y143.244
X194.443Y143.208
X194.458Y143.172
X194.473Y143.136
X194.486Y143.1
X194.499Y143.063
X194.511Y143.026
X194.522Y142.988
X194.532Y142.95
X194.541Y142.912
X194.549Y142.874
X194.556Y142.836
X194.562Y142.797
X194.567Y142.759
X194.572Y142.72
X194.575Y142.681
X194.577Y142.642
X194.579Y142.603
Y142.564
Y137.191
X196.96Y134.639
X199.636Y132.151
X201.832Y130.475
X202.733Y129.932
X203.55Y129.557
X205.986Y128.834
X208.611Y128.361
X212.156Y128.058
X216.192Y128.05
X220.907Y128.395
X222.781Y128.641
X222.815Y128.646
X222.85Y128.649
X222.884Y128.652
X222.919Y128.654
X222.954Y128.655
X222.988
X237.988
X238.032Y128.654
X238.076Y128.653
X238.12Y128.65
X238.163Y128.645
X242.538Y128.161
X246.927Y128.003
X250.664Y128.164
X254.103Y128.636
X255.808Y129.034
X257.384Y129.541
X258.708Y130.205
X260.726Y131.65
X263.207Y133.852
X265.769Y136.472
X266.397Y137.173
Y142.564
X266.398Y142.603
X266.399Y142.642
X266.402Y142.681
X266.405Y142.72
X266.409Y142.759
X266.415Y142.797
X266.421Y142.836
X266.428Y142.874
X266.436Y142.912
X266.445Y142.95
X266.455Y142.988
X266.466Y143.026
X266.478Y143.063
X266.49Y143.1
X266.504Y143.136
X266.518Y143.173
X266.534Y143.208
X266.55Y143.244
X266.567Y143.279
X266.585Y143.314
X266.604Y143.348
X266.624Y143.381
X266.644Y143.415
X266.665Y143.447
X266.687Y143.48
X266.71Y143.511
X266.734Y143.542
X266.758Y143.573
X266.783Y143.603
X266.809Y143.632
X266.836Y143.66
X266.864Y143.689
X266.892Y143.717
X266.921Y143.743
X266.95Y143.769
X266.98Y143.794
X267.01Y143.819
X267.041Y143.842
X267.073Y143.865
X267.105Y143.887
X267.138Y143.908
X267.171Y143.929
X267.205Y143.948
X267.239Y143.967
X267.273Y143.985
X267.308Y144.002
X267.344Y144.019
X267.38Y144.034
X267.416Y144.048
X267.453Y144.062
X267.49Y144.075
X267.527Y144.087
X267.564Y144.097
X267.602Y144.107
X267.64Y144.116
X267.678Y144.124
X267.716Y144.132
X267.755Y144.138
X267.794Y144.143
X267.832Y144.147
X267.871Y144.151
X267.91Y144.153
X267.949Y144.155
X267.988
X275.988
X276.025
X276.062Y144.153
X276.098Y144.151
X276.135Y144.148
X276.171Y144.144
X276.207Y144.14
X276.338Y144.122
X276.376Y144.116
X276.414Y144.109
X276.452Y144.102
X276.49Y144.093
X276.528Y144.083
X276.565Y144.073
X276.602Y144.062
X276.639Y144.05
X276.77Y144.004
X276.804Y143.992
X276.838Y143.979
X276.872Y143.965
X276.905Y143.951
X276.938Y143.935
X276.97Y143.92
X277.002Y143.903
X277.034Y143.885
X277.144Y143.823
X277.181Y143.802
X277.217Y143.779
X277.252Y143.756
X277.287Y143.732
X277.321Y143.707
X277.354Y143.681
X277.386Y143.655
X277.418Y143.627
X277.552Y143.508
X277.581Y143.482
X277.609Y143.455
X277.637Y143.427
X277.663Y143.399
X277.69Y143.37
X277.715Y143.34
X277.74Y143.31
X277.764Y143.279
X277.787Y143.248
X277.809Y143.216
X277.919Y143.054
X277.94Y143.023
X277.96Y142.992
X277.979Y142.96
X277.998Y142.928
X278.015Y142.895
X278.032Y142.861
X278.048Y142.828
X278.064Y142.794
X278.078Y142.759
X278.092Y142.725
X278.176Y142.505
X278.191Y142.462
X278.206Y142.419
X278.219Y142.375
X278.231Y142.331
X278.241Y142.287
X278.251Y142.243
X278.284Y142.071
X278.293Y142.025
X278.3Y141.979
X278.305Y141.932
X278.309Y141.886
X278.325Y141.685
X278.327Y141.655
X278.328Y141.624
X278.329Y141.594
Y141.564
Y124.589
Y124.555
X278.328Y124.521
X278.326Y124.486
X278.323Y124.452
X278.32Y124.418
X278.316Y124.384
X278.265Y123.987
X278.259Y123.948
X278.252Y123.909
X278.245Y123.87
X278.236Y123.831
X278.227Y123.793
X278.216Y123.754
X278.205Y123.716
X278.193Y123.679
X278.179Y123.642
X278.165Y123.605
X278.072Y123.371
X278.058Y123.335
X278.042Y123.3
X278.026Y123.265
X278.009Y123.231
X277.991Y123.196
X277.972Y123.163
X277.952Y123.13
X277.932Y123.097
X277.91Y123.065
X277.888Y123.033
X277.777Y122.877
X277.755Y122.847
X277.732Y122.818
X277.709Y122.789
X277.685Y122.761
X277.661Y122.733
X277.636Y122.706
X277.61Y122.68
X277.584Y122.654
X277.557Y122.629
X277.529Y122.604
X277.405Y122.496
X277.374Y122.469
X277.342Y122.443
X277.309Y122.418
X277.275Y122.393
X277.241Y122.37
X277.207Y122.347
X277.171Y122.326
X277.136Y122.305
X277.012Y122.236
X276.982Y122.219
X276.951Y122.204
X276.92Y122.188
X276.889Y122.174
X276.857Y122.16
X276.825Y122.147
X276.793Y122.134
X276.76Y122.122
X276.65Y122.084
X276.612Y122.071
X276.575Y122.06
X276.537Y122.049
X276.499Y122.039
X276.46Y122.03
X276.422Y122.022
X276.323Y122.004
X276.278Y121.996
X276.231Y121.989
X276.185Y121.984
X276.139Y121.98
X276.101Y121.977
X276.045Y121.974
X275.988Y121.973
X262.579
Y114.939
Y114.899
X262.577Y114.858
X262.575Y114.818
X262.571Y114.778
X262.566Y114.737
X262.561Y114.697
X262.554Y114.657
X262.547Y114.619
X262.538Y114.58
X262.529Y114.542
X262.519Y114.504
X262.508Y114.467
X262.495Y114.429
X262.482Y114.392
X262.468Y114.355
X262.454Y114.32
X262.436Y114.279
X262.425Y114.255
X262.413Y114.23
X262.396Y114.197
X262.378Y114.165
X262.36Y114.133
X262.341Y114.102
X262.321Y114.071
X262.301Y114.04
X262.28Y114.01
X262.256Y113.978
X262.232Y113.946
X262.206Y113.916
X262.18Y113.885
X262.154Y113.856
X262.126Y113.827
X262.098Y113.799
X262.069Y113.772
X262.04Y113.745
X262.01Y113.719
X261.979Y113.694
X261.947Y113.67
X261.915Y113.646
X261.883Y113.623
X261.849Y113.601
X261.816Y113.58
X261.781Y113.56
X261.747Y113.541
X261.713Y113.523
X261.679Y113.506
X261.644Y113.489
X261.609Y113.474
X261.573Y113.459
X261.537Y113.446
X261.501Y113.433
X261.464Y113.421
X261.427Y113.41
X261.39Y113.4
X261.353Y113.39
X261.315Y113.382
X261.277Y113.374
X261.239Y113.368
X261.201Y113.362
X261.163Y113.358
X261.124Y113.354
X261.086Y113.351
X261.048Y113.349
X261.009Y113.348
X260.971
X260.931Y113.349
X260.894Y113.351
X260.856Y113.354
X260.819Y113.357
X260.781Y113.362
X260.744Y113.367
X260.707Y113.373
X260.67Y113.38
X260.633Y113.388
X260.596Y113.397
X260.56Y113.407
X260.524Y113.417
X260.488Y113.429
X237.731Y120.973
X223.244
X190.486Y110.178
X190.448Y110.166
X190.41Y110.155
X190.371Y110.145
X190.332Y110.136
X190.293Y110.127
X190.254Y110.12
X190.214Y110.114
X190.174Y110.109
X190.135Y110.105
X190.095Y110.102
X190.055Y110.099
X190.015Y110.098
X189.974
X189.935Y110.099
X189.895Y110.101
X189.856Y110.104
X189.816Y110.107
X189.777Y110.112
X189.738Y110.118
X189.698Y110.125
X189.66Y110.132
X189.621Y110.141
X189.582Y110.151
X189.544Y110.161
X189.506Y110.173
X189.469Y110.185
X189.431Y110.199
X189.394Y110.213
X189.358Y110.228
X189.322Y110.244
X189.286Y110.261
X189.251Y110.279
X189.216Y110.298
X189.181Y110.318
X189.147Y110.339
X189.114Y110.36
X189.081Y110.382
X189.049Y110.405
X189.018Y110.428
X188.987Y110.453
X188.957Y110.478
X188.927Y110.504
X188.898Y110.53
X188.87Y110.558
X188.842Y110.586
X188.815Y110.614
X188.789Y110.644
X188.763Y110.674
X188.738Y110.705
X188.714Y110.736
X188.691Y110.768
X188.668Y110.801
X188.646Y110.834
X188.626Y110.868
Z-0.5F50
X188.606Y110.902F100
X188.586Y110.937
X188.567Y110.974
X188.549Y111.011
X188.532Y111.048
X188.504Y111.117
X188.495Y111.139
X188.482Y111.178
X188.469Y111.217
X188.457Y111.257
X188.446Y111.297
X188.437Y111.338
X188.428Y111.378
X188.42Y111.419
X188.414Y111.458
X188.409Y111.496
X188.405Y111.534
X188.402Y111.573
X188.399Y111.612
X188.398Y111.65
X188.397Y111.689
Y121.973
X184.988
X184.95
X184.911Y121.975
X184.872Y121.977
X184.834Y121.981
X184.795Y121.985
X184.756Y121.99
X184.718Y121.996
X184.68Y122.003
X184.642Y122.011
X184.604Y122.02
X184.567Y122.03
X184.53Y122.041
X184.37Y122.089
X184.334Y122.1
X184.298Y122.112
X184.262Y122.125
X184.227Y122.139
X184.192Y122.154
X184.158Y122.169
X184.124Y122.186
X184.09Y122.203
X183.92Y122.292
X183.886Y122.311
X183.852Y122.331
X183.82Y122.351
X183.787Y122.372
X183.755Y122.394
X183.724Y122.417
X183.693Y122.44
X183.568Y122.538
X183.535Y122.564
X183.503Y122.592
X183.471Y122.62
X183.44Y122.649
X183.41Y122.679
X183.381Y122.71
X183.352Y122.742
X183.325Y122.774
X183.183Y122.945
X183.158Y122.976
X183.133Y123.007
X183.11Y123.039
X183.087Y123.072
X183.065Y123.106
X183.044Y123.139
X183.024Y123.174
X183.005Y123.209
X182.986Y123.244
X182.969Y123.28
X182.865Y123.497
X182.848Y123.534
X182.832Y123.571
X182.817Y123.609
X182.803Y123.647
X182.79Y123.686
X182.778Y123.724
X182.767Y123.763
X182.757Y123.802
X182.711Y123.99
X182.702Y124.03
X182.694Y124.071
X182.686Y124.112
X182.68Y124.153
X182.675Y124.194
X182.671Y124.235
X182.653Y124.457
X182.65Y124.49
X182.649Y124.523
X182.648Y124.556
X182.647Y124.589
Y141.564
X182.648Y141.605
X182.649Y141.645
X182.652Y141.686
X182.656Y141.726
X182.692Y142.087
X182.697Y142.124
X182.702Y142.161
X182.708Y142.199
X182.715Y142.236
X182.723Y142.273
X182.731Y142.31
X182.741Y142.346
X182.751Y142.382
X182.763Y142.418
X182.775Y142.454
X182.859Y142.694
X182.873Y142.73
X182.887Y142.767
X182.903Y142.803
X182.919Y142.839
X182.936Y142.875
X182.954Y142.91
X182.973Y142.944
X182.993Y142.978
X183.013Y143.012
X183.035Y143.045
X183.139Y143.201
X183.16Y143.233
X183.182Y143.264
X183.205Y143.294
X183.229Y143.324
X183.253Y143.353
X183.278Y143.382
X183.304Y143.41
X183.33Y143.437
X183.357Y143.464
X183.385Y143.49
X183.504Y143.6
X183.536Y143.629
X183.569Y143.657
X183.603Y143.684
X183.638Y143.71
X183.673Y143.736
X183.709Y143.76
X183.746Y143.783
X183.783Y143.806
X183.905Y143.876
X183.936Y143.894
X183.969Y143.911
X184.001Y143.928
X184.034Y143.944
X184.067Y143.959
X184.101Y143.973
X184.135Y143.986
X184.169Y143.999
X184.282Y144.039
X184.324Y144.054
X184.367Y144.067
X184.41Y144.079
X184.453Y144.09
X184.497Y144.099
X184.541Y144.108
X184.664Y144.129
X184.7Y144.135
X184.736Y144.14
X184.773Y144.144
X184.809Y144.148
X184.846Y144.15
X184.882Y144.152
X184.96Y144.155
X184.988
X192.988
X193.027
X193.066Y144.153
X193.105Y144.151
X193.144Y144.147
X193.183Y144.143
X193.222Y144.138
X193.26Y144.132
X193.298Y144.124
X193.337Y144.116
X193.375Y144.107
X193.412Y144.097
X193.45Y144.087
X193.487Y144.075
X193.524Y144.062
X193.561Y144.048
X193.597Y144.034
X193.633Y144.019
X193.668Y144.002
X193.703Y143.985
X193.738Y143.967
X193.772Y143.948
X193.806Y143.929
X193.839Y143.908
X193.872Y143.887
X193.904Y143.865
X193.935Y143.842
X193.967Y143.818
X193.997Y143.794
X194.027Y143.769
X194.056Y143.743
X194.085Y143.717
X194.114Y143.688
X194.141Y143.66
X194.167Y143.632
X194.193Y143.603
X194.218Y143.573
X194.243Y143.542
X194.266Y143.511
X194.289Y143.48
X194.311Y143.447
X194.333Y143.415
X194.353Y143.381
X194.373Y143.348
X194.392Y143.314
X194.41Y143.279
X194.427Y143.244
X194.443Y143.208
X194.458Y143.172
X194.473Y143.136
X194.486Y143.1
X194.499Y143.063
X194.511Y143.026
X194.522Y142.988
X194.532Y142.95
X194.541Y142.912
X194.549Y142.874
X194.556Y142.836
X194.562Y142.797
X194.567Y142.759
X194.572Y142.72
X194.575Y142.681
X194.577Y142.642
X194.579Y142.603
Y142.564
Y137.191
X196.96Y134.639
X199.636Y132.151
X201.832Y130.475
X202.733Y129.932
X203.55Y129.557
X205.986Y128.834
X208.611Y128.361
X212.156Y128.058
X216.192Y128.05
X220.907Y128.395
X222.781Y128.641
X222.815Y128.646
X222.85Y128.649
X222.884Y128.652
X222.919Y128.654
X222.954Y128.655
X222.988
X237.988
X238.032Y128.654
X238.076Y128.653
X238.12Y128.65
X238.163Y128.645
X242.538Y128.161
X246.927Y128.003
X250.664Y128.164
X254.103Y128.636
X255.808Y129.034
X257.384Y129.541
X258.708Y130.205
X260.726Y131.65
X263.207Y133.852
X265.769Y136.472
X266.397Y137.173
Y142.564
X266.398Y142.603
X266.399Y142.642
X266.402Y142.681
X266.405Y142.72
X266.409Y142.759
X266.415Y142.797
X266.421Y142.836
X266.428Y142.874
X266.436Y142.912
X266.445Y142.95
X266.455Y142.988
X266.466Y143.026
X266.478Y143.063
X266.49Y143.1
X266.504Y143.136
X266.518Y143.173
X266.534Y143.208
X266.55Y143.244
X266.567Y143.279
X266.585Y143.314
X266.604Y143.348
X266.624Y143.381
X266.644Y143.415
X266.665Y143.447
X266.687Y143.48
X266.71Y143.511
X266.734Y143.542
X266.758Y143.573
X266.783Y143.603
X266.809Y143.632
X266.836Y143.66
X266.864Y143.689
X266.892Y143.717
X266.921Y143.743
X266.95Y143.769
X266.98Y143.794
X267.01Y143.819
X267.041Y143.842
X267.073Y143.865
X267.105Y143.887
X267.138Y143.908
X267.171Y143.929
X267.205Y143.948
X267.239Y143.967
X267.273Y143.985
X267.308Y144.002
X267.344Y144.019
X267.38Y144.034
X267.416Y144.048
X267.453Y144.062
X267.49Y144.075
X267.527Y144.087
X267.564Y144.097
X267.602Y144.107
X267.64Y144.116
X267.678Y144.124
X267.716Y144.132
X267.755Y144.138
X267.794Y144.143
X267.832Y144.147
X267.871Y144.151
X267.91Y144.153
X267.949Y144.155
X267.988
X275.988
X276.025
X276.062Y144.153
X276.098Y144.151
X276.135Y144.148
X276.171Y144.144
X276.207Y144.14
X276.338Y144.122
X276.376Y144.116
X276.414Y144.109
X276.452Y144.102
X276.49Y144.093
X276.528Y144.083
X276.565Y144.073
X276.602Y144.062
X276.639Y144.05
X276.77Y144.004
X276.804Y143.992
X276.838Y143.979
X276.872Y143.965
X276.905Y143.951
X276.938Y143.935
X276.97Y143.92
X277.002Y143.903
X277.034Y143.885
X277.144Y143.823
X277.181Y143.802
X277.217Y143.779
X277.252Y143.756
X277.287Y143.732
X277.321Y143.707
X277.354Y143.681
X277.386Y143.655
X277.418Y143.627
X277.552Y143.508
X277.581Y143.482
X277.609Y143.455
X277.637Y143.427
X277.663Y143.399
X277.69Y143.37
X277.715Y143.34
X277.74Y143.31
X277.764Y143.279
X277.787Y143.248
X277.809Y143.216
X277.919Y143.054
X277.94Y143.023
X277.96Y142.992
X277.979Y142.96
X277.998Y142.928
X278.015Y142.895
X278.032Y142.861
X278.048Y142.828
X278.064Y142.794
X278.078Y142.759
X278.092Y142.725
X278.176Y142.505
X278.191Y142.462
X278.206Y142.419
X278.219Y142.375
X278.231Y142.331
X278.241Y142.287
X278.251Y142.243
X278.284Y142.071
X278.293Y142.025
X278.3Y141.979
X278.305Y141.932
X278.309Y141.886
X278.325Y141.685
X278.327Y141.655
X278.328Y141.624
X278.329Y141.594
Y141.564
Y124.589
Y124.555
X278.328Y124.521
X278.326Y124.486
X278.323Y124.452
X278.32Y124.418
X278.316Y124.384
X278.265Y123.987
X278.259Y123.948
X278.252Y123.909
X278.245Y123.87
X278.236Y123.831
X278.227Y123.793
X278.216Y123.754
X278.205Y123.716
X278.193Y123.679
X278.179Y123.642
X278.165Y123.605
X278.072Y123.371
X278.058Y123.335
X278.042Y123.3
X278.026Y123.265
X278.009Y123.231
X277.991Y123.196
X277.972Y123.163
X277.952Y123.13
X277.932Y123.097
X277.91Y123.065
X277.888Y123.033
X277.777Y122.877
X277.755Y122.847
X277.732Y122.818
X277.709Y122.789
X277.685Y122.761
X277.661Y122.733
X277.636Y122.706
X277.61Y122.68
X277.584Y122.654
X277.557Y122.629
X277.529Y122.604
X277.405Y122.496
X277.374Y122.469
X277.342Y122.443
X277.309Y122.418
X277.275Y122.393
X277.241Y122.37
X277.207Y122.347
X277.171Y122.326
X277.136Y122.305
X277.012Y122.236
X276.982Y122.219
X276.951Y122.204
X276.92Y122.188
X276.889Y122.174
X276.857Y122.16
X276.825Y122.147
X276.793Y122.134
X276.76Y122.122
X276.65Y122.084
X276.612Y122.071
X276.575Y122.06
X276.537Y122.049
X276.499Y122.039
X276.46Y122.03
X276.422Y122.022
X276.323Y122.004
X276.278Y121.996
X276.231Y121.989
X276.185Y121.984
X276.139Y121.98
X276.101Y121.977
X276.045Y121.974
X275.988Y121.973
X262.579
Y114.939
Y114.899
X262.577Y114.858
X262.575Y114.818
X262.571Y114.778
X262.566Y114.737
X262.561Y114.697
X262.554Y114.657
X262.547Y114.619
X262.538Y114.58
X262.529Y114.542
X262.519Y114.504
X262.508Y114.467
X262.495Y114.429
X262.482Y114.392
X262.468Y114.355
X262.454Y114.32
X262.436Y114.279
X262.425Y114.255
X262.413Y114.23
X262.396Y114.197
X262.378Y114.165
X262.36Y114.133
X262.341Y114.102
X262.321Y114.071
X262.301Y114.04
X262.28Y114.01
X262.256Y113.978
X262.232Y113.946
X262.206Y113.916
X262.18Y113.885
X262.154Y113.856
X262.126Y113.827
X262.098Y113.799
X262.069Y113.772
X262.04Y113.745
X262.01Y113.719
X261.979Y113.694
X261.947Y113.67
X261.915Y113.646
X261.883Y113.623
X261.849Y113.601
X261.816Y113.58
X261.781Y113.56
X261.747Y113.541
X261.713Y113.523
X261.679Y113.506
X261.644Y113.489
X261.609Y113.474
X261.573Y113.459
X261.537Y113.446
X261.501Y113.433
X261.464Y113.421
X261.427Y113.41
X261.39Y113.4
X261.353Y113.39
X261.315Y113.382
X261.277Y113.374
X261.239Y113.368
X261.201Y113.362
X261.163Y113.358
X261.124Y113.354
X261.086Y113.351
X261.048Y113.349
X261.009Y113.348
X260.971
X260.931Y113.349
X260.894Y113.351
X260.856Y113.354
X260.819Y113.357
X260.781Y113.362
X260.744Y113.367
X260.707Y113.373
X260.67Y113.38
X260.633Y113.388
X260.596Y113.397
X260.56Y113.407
X260.524Y113.417
X260.488Y113.429
X237.731Y120.973
X223.244
X190.486Y110.178
X190.448Y110.166
X190.41Y110.155
X190.371Y110.145
X190.332Y110.136
X190.293Y110.127
X190.254Y110.12
X190.214Y110.114
X190.174Y110.109
X190.135Y110.105
X190.095Y110.102
X190.055Y110.099
X190.015Y110.098
X189.974
X189.935Y110.099
X189.895Y110.101
X189.856Y110.104
X189.816Y110.107
X189.777Y110.112
X189.738Y110.118
X189.698Y110.125
X189.66Y110.132
X189.621Y110.141
X189.582Y110.151
X189.544Y110.161
X189.506Y110.173
X189.469Y110.185
X189.431Y110.199
X189.394Y110.213
X189.358Y110.228
X189.322Y110.244
X189.286Y110.261
X189.251Y110.279
X189.216Y110.298
X189.181Y110.318
X189.147Y110.339
X189.114Y110.36
X189.081Y110.382
X189.049Y110.405
X189.018Y110.428
X188.987Y110.453
X188.957Y110.478
X188.927Y110.504
X188.898Y110.53
X188.87Y110.558
X188.842Y110.586
X188.815Y110.614
X188.789Y110.644
X188.763Y110.674
X188.738Y110.705
X188.714Y110.736
X188.691Y110.768
X188.668Y110.801
X188.646Y110.834
X188.626Y110.868
Z-0.6F50
X188.606Y110.902F100
X188.586Y110.937
X188.567Y110.974
X188.549Y111.011
X188.532Y111.048
X188.504Y111.117
X188.495Y111.139
X188.482Y111.178
X188.469Y111.217
X188.457Y111.257
X188.446Y111.297
X188.437Y111.338
X188.428Y111.378
X188.42Y111.419
X188.414Y111.458
X188.409Y111.496
X188.405Y111.534
X188.402Y111.573
X188.399Y111.612
X188.398Y111.65
X188.397Y111.689
Y121.973
X184.988
X184.95
X184.911Y121.975
X184.872Y121.977
X184.834Y121.981
X184.795Y121.985
X184.756Y121.99
X184.718Y121.996
X184.68Y122.003
X184.642Y122.011
X184.604Y122.02
X184.567Y122.03
X184.53Y122.041
X184.37Y122.089
X184.334Y122.1
X184.298Y122.112
X184.262Y122.125
X184.227Y122.139
X184.192Y122.154
X184.158Y122.169
X184.124Y122.186
X184.09Y122.203
X183.92Y122.292
X183.886Y122.311
X183.852Y122.331
X183.82Y122.351
X183.787Y122.372
X183.755Y122.394
X183.724Y122.417
X183.693Y122.44
X183.568Y122.538
X183.535Y122.564
X183.503Y122.592
X183.471Y122.62
X183.44Y122.649
X183.41Y122.679
X183.381Y122.71
X183.352Y122.742
X183.325Y122.774
X183.183Y122.945
X183.158Y122.976
X183.133Y123.007
X183.11Y123.039
X183.087Y123.072
X183.065Y123.106
X183.044Y123.139
X183.024Y123.174
X183.005Y123.209
X182.986Y123.244
X182.969Y123.28
X182.865Y123.497
X182.848Y123.534
X182.832Y123.571
X182.817Y123.609
X182.803Y123.647
X182.79Y123.686
X182.778Y123.724
X182.767Y123.763
X182.757Y123.802
X182.711Y123.99
X182.702Y124.03
X182.694Y124.071
X182.686Y124.112
X182.68Y124.153
X182.675Y124.194
X182.671Y124.235
X182.653Y124.457
X182.65Y124.49
X182.649Y124.523
X182.648Y124.556
X182.647Y124.589
Y141.564
X182.648Y141.605
X182.649Y141.645
X182.652Y141.686
X182.656Y141.726
X182.692Y142.087
X182.697Y142.124
X182.702Y142.161
X182.708Y142.199
X182.715Y142.236
X182.723Y142.273
X182.731Y142.31
X182.741Y142.346
X182.751Y142.382
X182.763Y142.418
X182.775Y142.454
X182.859Y142.694
X182.873Y142.73
X182.887Y142.767
X182.903Y142.803
X182.919Y142.839
X182.936Y142.875
X182.954Y142.91
X182.973Y142.944
X182.993Y142.978
X183.013Y143.012
X183.035Y143.045
X183.139Y143.201
X183.16Y143.233
X183.182Y143.264
X183.205Y143.294
X183.229Y143.324
X183.253Y143.353
X183.278Y143.382
X183.304Y143.41
X183.33Y143.437
X183.357Y143.464
X183.385Y143.49
X183.504Y143.6
X183.536Y143.629
X183.569Y143.657
X183.603Y143.684
X183.638Y143.71
X183.673Y143.736
X183.709Y143.76
X183.746Y143.783
X183.783Y143.806
X183.905Y143.876
X183.936Y143.894
X183.969Y143.911
X184.001Y143.928
X184.034Y143.944
X184.067Y143.959
X184.101Y143.973
X184.135Y143.986
X184.169Y143.999
X184.282Y144.039
X184.324Y144.054
X184.367Y144.067
X184.41Y144.079
X184.453Y144.09
X184.497Y144.099
X184.541Y144.108
X184.664Y144.129
X184.7Y144.135
X184.736Y144.14
X184.773Y144.144
X184.809Y144.148
X184.846Y144.15
X184.882Y144.152
X184.96Y144.155
X184.988
X192.988
X193.027
X193.066Y144.153
X193.105Y144.151
X193.144Y144.147
X193.183Y144.143
X193.222Y144.138
X193.26Y144.132
X193.298Y144.124
X193.337Y144.116
X193.375Y144.107
X193.412Y144.097
X193.45Y144.087
X193.487Y144.075
X193.524Y144.062
X193.561Y144.048
X193.597Y144.034
X193.633Y144.019
X193.668Y144.002
X193.703Y143.985
X193.738Y143.967
X193.772Y143.948
X193.806Y143.929
X193.839Y143.908
X193.872Y143.887
X193.904Y143.865
X193.935Y143.842
X193.967Y143.818
X193.997Y143.794
X194.027Y143.769
X194.056Y143.743
X194.085Y143.717
X194.114Y143.688
X194.141Y143.66
X194.167Y143.632
X194.193Y143.603
X194.218Y143.573
X194.243Y143.542
X194.266Y143.511
X194.289Y143.48
X194.311Y143.447
X194.333Y143.415
X194.353Y143.381
X194.373Y143.348
X194.392Y143.314
X194.41Y143.279
X194.427Y143.244
X194.443Y143.208
X194.458Y143.172
X194.473Y143.136
X194.486Y143.1
X194.499Y143.063
X194.511Y143.026
X194.522Y142.988
X194.532Y142.95
X194.541Y142.912
X194.549Y142.874
X194.556Y142.836
X194.562Y142.797
X194.567Y142.759
X194.572Y142.72
X194.575Y142.681
X194.577Y142.642
X194.579Y142.603
Y142.564
Y137.191
X196.96Y134.639
X199.636Y132.151
X201.832Y130.475
X202.733Y129.932
X203.55Y129.557
X205.986Y128.834
X208.611Y128.361
X212.156Y128.058
X216.192Y128.05
X220.907Y128.395
X222.781Y128.641
X222.815Y128.646
X222.85Y128.649
X222.884Y128.652
X222.919Y128.654
X222.954Y128.655
X222.988
X237.988
X238.032Y128.654
X238.076Y128.653
X238.12Y128.65
X238.163Y128.645
X242.538Y128.161
X246.927Y128.003
X250.664Y128.164
X254.103Y128.636
X255.808Y129.034
X257.384Y129.541
X258.708Y130.205
X260.726Y131.65
X263.207Y133.852
X265.769Y136.472
X266.397Y137.173
Y142.564
X266.398Y142.603
X266.399Y142.642
X266.402Y142.681
X266.405Y142.72
X266.409Y142.759
X266.415Y142.797
X266.421Y142.836
X266.428Y142.874
X266.436Y142.912
X266.445Y142.95
X266.455Y142.988
X266.466Y143.026
X266.478Y143.063
X266.49Y143.1
X266.504Y143.136
X266.518Y143.173
X266.534Y143.208
X266.55Y143.244
X266.567Y143.279
X266.585Y143.314
X266.604Y143.348
X266.624Y143.381
X266.644Y143.415
X266.665Y143.447
X266.687Y143.48
X266.71Y143.511
X266.734Y143.542
X266.758Y143.573
X266.783Y143.603
X266.809Y143.632
X266.836Y143.66
X266.864Y143.689
X266.892Y143.717
X266.921Y143.743
X266.95Y143.769
X266.98Y143.794
X267.01Y143.819
X267.041Y143.842
X267.073Y143.865
X267.105Y143.887
X267.138Y143.908
X267.171Y143.929
X267.205Y143.948
X267.239Y143.967
X267.273Y143.985
X267.308Y144.002
X267.344Y144.019
X267.38Y144.034
X267.416Y144.048
X267.453Y144.062
X267.49Y144.075
X267.527Y144.087
X267.564Y144.097
X267.602Y144.107
X267.64Y144.116
X267.678Y144.124
X267.716Y144.132
X267.755Y144.138
X267.794Y144.143
X267.832Y144.147
X267.871Y144.151
X267.91Y144.153
X267.949Y144.155
X267.988
X275.988
X276.025
X276.062Y144.153
X276.098Y144.151
X276.135Y144.148
X276.171Y144.144
X276.207Y144.14
X276.338Y144.122
X276.376Y144.116
X276.414Y144.109
X276.452Y144.102
X276.49Y144.093
X276.528Y144.083
X276.565Y144.073
X276.602Y144.062
X276.639Y144.05
X276.77Y144.004
X276.804Y143.992
X276.838Y143.979
X276.872Y143.965
X276.905Y143.951
X276.938Y143.935
X276.97Y143.92
X277.002Y143.903
X277.034Y143.885
X277.144Y143.823
X277.181Y143.802
X277.217Y143.779
X277.252Y143.756
X277.287Y143.732
X277.321Y143.707
X277.354Y143.681
X277.386Y143.655
X277.418Y143.627
X277.552Y143.508
X277.581Y143.482
X277.609Y143.455
X277.637Y143.427
X277.663Y143.399
X277.69Y143.37
X277.715Y143.34
X277.74Y143.31
X277.764Y143.279
X277.787Y143.248
X277.809Y143.216
X277.919Y143.054
X277.94Y143.023
X277.96Y142.992
X277.979Y142.96
X277.998Y142.928
X278.015Y142.895
X278.032Y142.861
X278.048Y142.828
X278.064Y142.794
X278.078Y142.759
X278.092Y142.725
X278.176Y142.505
X278.191Y142.462
X278.206Y142.419
X278.219Y142.375
X278.231Y142.331
X278.241Y142.287
X278.251Y142.243
X278.284Y142.071
X278.293Y142.025
X278.3Y141.979
X278.305Y141.932
X278.309Y141.886
X278.325Y141.685
X278.327Y141.655
X278.328Y141.624
X278.329Y141.594
Y141.564
Y124.589
Y124.555
X278.328Y124.521
X278.326Y124.486
X278.323Y124.452
X278.32Y124.418
X278.316Y124.384
X278.265Y123.987
X278.259Y123.948
X278.252Y123.909
X278.245Y123.87
X278.236Y123.831
X278.227Y123.793
X278.216Y123.754
X278.205Y123.716
X278.193Y123.679
X278.179Y123.642
X278.165Y123.605
X278.072Y123.371
X278.058Y123.335
X278.042Y123.3
X278.026Y123.265
X278.009Y123.231
X277.991Y123.196
X277.972Y123.163
X277.952Y123.13
X277.932Y123.097
X277.91Y123.065
X277.888Y123.033
X277.777Y122.877
X277.755Y122.847
X277.732Y122.818
X277.709Y122.789
X277.685Y122.761
X277.661Y122.733
X277.636Y122.706
X277.61Y122.68
X277.584Y122.654
X277.557Y122.629
X277.529Y122.604
X277.405Y122.496
X277.374Y122.469
X277.342Y122.443
X277.309Y122.418
X277.275Y122.393
X277.241Y122.37
X277.207Y122.347
X277.171Y122.326
X277.136Y122.305
X277.012Y122.236
X276.982Y122.219
X276.951Y122.204
X276.92Y122.188
X276.889Y122.174
X276.857Y122.16
X276.825Y122.147
X276.793Y122.134
X276.76Y122.122
X276.65Y122.084
X276.612Y122.071
X276.575Y122.06
X276.537Y122.049
X276.499Y122.039
X276.46Y122.03
X276.422Y122.022
X276.323Y122.004
X276.278Y121.996
X276.231Y121.989
X276.185Y121.984
X276.139Y121.98
X276.101Y121.977
X276.045Y121.974
X275.988Y121.973
X262.579
Y114.939
Y114.899
X262.577Y114.858
X262.575Y114.818
X262.571Y114.778
X262.566Y114.737
X262.561Y114.697
X262.554Y114.657
X262.547Y114.619
X262.538Y114.58
X262.529Y114.542
X262.519Y114.504
X262.508Y114.467
X262.495Y114.429
X262.482Y114.392
X262.468Y114.355
X262.454Y114.32
X262.436Y114.279
X262.425Y114.255
X262.413Y114.23
X262.396Y114.197
X262.378Y114.165
X262.36Y114.133
X262.341Y114.102
X262.321Y114.071
X262.301Y114.04
X262.28Y114.01
X262.256Y113.978
X262.232Y113.946
X262.206Y113.916
X262.18Y113.885
X262.154Y113.856
X262.126Y113.827
X262.098Y113.799
X262.069Y113.772
X262.04Y113.745
X262.01Y113.719
X261.979Y113.694
X261.947Y113.67
X261.915Y113.646
X261.883Y113.623
X261.849Y113.601
X261.816Y113.58
X261.781Y113.56
X261.747Y113.541
X261.713Y113.523
X261.679Y113.506
X261.644Y113.489
X261.609Y113.474
X261.573Y113.459
X261.537Y113.446
X261.501Y113.433
X261.464Y113.421
X261.427Y113.41
X261.39Y113.4
X261.353Y113.39
X261.315Y113.382
X261.277Y113.374
X261.239Y113.368
X261.201Y113.362
X261.163Y113.358
X261.124Y113.354
X261.086Y113.351
X261.048Y113.349
X261.009Y113.348
X260.971
X260.931Y113.349
X260.894Y113.351
X260.856Y113.354
X260.819Y113.357
X260.781Y113.362
X260.744Y113.367
X260.707Y113.373
X260.67Y113.38
X260.633Y113.388
X260.596Y113.397
X260.56Y113.407
X260.524Y113.417
X260.488Y113.429
X237.731Y120.973
X223.244
X190.486Y110.178
X190.448Y110.166
X190.41Y110.155
X190.371Y110.145
X190.332Y110.136
X190.293Y110.127
X190.254Y110.12
X190.214Y110.114
X190.174Y110.109
X190.135Y110.105
X190.095Y110.102
X190.055Y110.099
X190.015Y110.098
X189.974
X189.935Y110.099
X189.895Y110.101
X189.856Y110.104
X189.816Y110.107
X189.777Y110.112
X189.738Y110.118
X189.698Y110.125
X189.66Y110.132
X189.621Y110.141
X189.582Y110.151
X189.544Y110.161
X189.506Y110.173
X189.469Y110.185
X189.431Y110.199
X189.394Y110.213
X189.358Y110.228
X189.322Y110.244
X189.286Y110.261
X189.251Y110.279
X189.216Y110.298
X189.181Y110.318
X189.147Y110.339
X189.114Y110.36
X189.081Y110.382
X189.049Y110.405
X189.018Y110.428
X188.987Y110.453
X188.957Y110.478
X188.927Y110.504
X188.898Y110.53
X188.87Y110.558
X188.842Y110.586
X188.815Y110.614
X188.789Y110.644
X188.763Y110.674
X188.738Y110.705
X188.714Y110.736
X188.691Y110.768
X188.668Y110.801
X188.646Y110.834
X188.626Y110.868
Z-0.7F50
X188.606Y110.902F100
X188.586Y110.937
X188.567Y110.974
X188.549Y111.011
X188.532Y111.048
X188.504Y111.117
X188.495Y111.139
X188.482Y111.178
X188.469Y111.217
X188.457Y111.257
X188.446Y111.297
X188.437Y111.338
X188.428Y111.378
X188.42Y111.419
X188.414Y111.458
X188.409Y111.496
X188.405Y111.534
X188.402Y111.573
X188.399Y111.612
X188.398Y111.65
X188.397Y111.689
Y121.973
X184.988
X184.95
X184.911Y121.975
X184.872Y121.977
X184.834Y121.981
X184.795Y121.985
X184.756Y121.99
X184.718Y121.996
X184.68Y122.003
X184.642Y122.011
X184.604Y122.02
X184.567Y122.03
X184.53Y122.041
X184.37Y122.089
X184.334Y122.1
X184.298Y122.112
X184.262Y122.125
X184.227Y122.139
X184.192Y122.154
X184.158Y122.169
X184.124Y122.186
X184.09Y122.203
X183.92Y122.292
X183.886Y122.311
X183.852Y122.331
X183.82Y122.351
X183.787Y122.372
X183.755Y122.394
X183.724Y122.417
X183.693Y122.44
X183.568Y122.538
X183.535Y122.564
X183.503Y122.592
X183.471Y122.62
X183.44Y122.649
X183.41Y122.679
X183.381Y122.71
X183.352Y122.742
X183.325Y122.774
X183.183Y122.945
X183.158Y122.976
X183.133Y123.007
X183.11Y123.039
X183.087Y123.072
X183.065Y123.106
X183.044Y123.139
X183.024Y123.174
X183.005Y123.209
X182.986Y123.244
X182.969Y123.28
X182.865Y123.497
X182.848Y123.534
X182.832Y123.571
X182.817Y123.609
X182.803Y123.647
X182.79Y123.686
X182.778Y123.724
X182.767Y123.763
X182.757Y123.802
X182.711Y123.99
X182.702Y124.03
X182.694Y124.071
X182.686Y124.112
X182.68Y124.153
X182.675Y124.194
X182.671Y124.235
X182.653Y124.457
X182.65Y124.49
X182.649Y124.523
X182.648Y124.556
X182.647Y124.589
Y141.564
X182.648Y141.605
X182.649Y141.645
X182.652Y141.686
X182.656Y141.726
X182.692Y142.087
X182.697Y142.124
X182.702Y142.161
X182.708Y142.199
X182.715Y142.236
X182.723Y142.273
X182.731Y142.31
X182.741Y142.346
X182.751Y142.382
X182.763Y142.418
X182.775Y142.454
X182.859Y142.694
X182.873Y142.73
X182.887Y142.767
X182.903Y142.803
X182.919Y142.839
X182.936Y142.875
X182.954Y142.91
X182.973Y142.944
X182.993Y142.978
X183.013Y143.012
X183.035Y143.045
X183.139Y143.201
X183.16Y143.233
X183.182Y143.264
X183.205Y143.294
X183.229Y143.324
X183.253Y143.353
X183.278Y143.382
X183.304Y143.41
X183.33Y143.437
X183.357Y143.464
X183.385Y143.49
X183.504Y143.6
X183.536Y143.629
X183.569Y143.657
X183.603Y143.684
X183.638Y143.71
X183.673Y143.736
X183.709Y143.76
X183.746Y143.783
X183.783Y143.806
X183.905Y143.876
X183.936Y143.894
X183.969Y143.911
X184.001Y143.928
X184.034Y143.944
X184.067Y143.959
X184.101Y143.973
X184.135Y143.986
X184.169Y143.999
X184.282Y144.039
X184.324Y144.054
X184.367Y144.067
X184.41Y144.079
X184.453Y144.09
X184.497Y144.099
X184.541Y144.108
X184.664Y144.129
X184.7Y144.135
X184.736Y144.14
X184.773Y144.144
X184.809Y144.148
X184.846Y144.15
X184.882Y144.152
X184.96Y144.155
X184.988
X192.988
X193.027
X193.066Y144.153
X193.105Y144.151
X193.144Y144.147
X193.183Y144.143
X193.222Y144.138
X193.26Y144.132
X193.298Y144.124
X193.337Y144.116
X193.375Y144.107
X193.412Y144.097
X193.45Y144.087
X193.487Y144.075
X193.524Y144.062
X193.561Y144.048
X193.597Y144.034
X193.633Y144.019
X193.668Y144.002
X193.703Y143.985
X193.738Y143.967
X193.772Y143.948
X193.806Y143.929
X193.839Y143.908
X193.872Y143.887
X193.904Y143.865
X193.935Y143.842
X193.967Y143.818
X193.997Y143.794
X194.027Y143.769
X194.056Y143.743
X194.085Y143.717
X194.114Y143.688
X194.141Y143.66
X194.167Y143.632
X194.193Y143.603
X194.218Y143.573
X194.243Y143.542
X194.266Y143.511
X194.289Y143.48
X194.311Y143.447
X194.333Y143.415
X194.353Y143.381
X194.373Y143.348
X194.392Y143.314
X194.41Y143.279
X194.427Y143.244
X194.443Y143.208
X194.458Y143.172
X194.473Y143.136
X194.486Y143.1
X194.499Y143.063
X194.511Y143.026
X194.522Y142.988
X194.532Y142.95
X194.541Y142.912
X194.549Y142.874
X194.556Y142.836
X194.562Y142.797
X194.567Y142.759
X194.572Y142.72
X194.575Y142.681
X194.577Y142.642
X194.579Y142.603
Y142.564
Y137.191
X196.96Y134.639
X199.636Y132.151
X201.832Y130.475
X202.733Y129.932
X203.55Y129.557
X205.986Y128.834
X208.611Y128.361
X212.156Y128.058
X216.192Y128.05
X220.907Y128.395
X222.781Y128.641
X222.815Y128.646
X222.85Y128.649
X222.884Y128.652
X222.919Y128.654
X222.954Y128.655
X222.988
X237.988
X238.032Y128.654
X238.076Y128.653
X238.12Y128.65
X238.163Y128.645
X242.538Y128.161
X246.927Y128.003
X250.664Y128.164
X254.103Y128.636
X255.808Y129.034
X257.384Y129.541
X258.708Y130.205
X260.726Y131.65
X263.207Y133.852
X265.769Y136.472
X266.397Y137.173
Y142.564
X266.398Y142.603
X266.399Y142.642
X266.402Y142.681
X266.405Y142.72
X266.409Y142.759
X266.415Y142.797
X266.421Y142.836
X266.428Y142.874
X266.436Y142.912
X266.445Y142.95
X266.455Y142.988
X266.466Y143.026
X266.478Y143.063
X266.49Y143.1
X266.504Y143.136
X266.518Y143.173
X266.534Y143.208
X266.55Y143.244
X266.567Y143.279
X266.585Y143.314
X266.604Y143.348
X266.624Y143.381
X266.644Y143.415
X266.665Y143.447
X266.687Y143.48
X266.71Y143.511
X266.734Y143.542
X266.758Y143.573
X266.783Y143.603
X266.809Y143.632
X266.836Y143.66
X266.864Y143.689
X266.892Y143.717
X266.921Y143.743
X266.95Y143.769
X266.98Y143.794
X267.01Y143.819
X267.041Y143.842
X267.073Y143.865
X267.105Y143.887
X267.138Y143.908
X267.171Y143.929
X267.205Y143.948
X267.239Y143.967
X267.273Y143.985
X267.308Y144.002
X267.344Y144.019
X267.38Y144.034
X267.416Y144.048
X267.453Y144.062
X267.49Y144.075
X267.527Y144.087
X267.564Y144.097
X267.602Y144.107
X267.64Y144.116
X267.678Y144.124
X267.716Y144.132
X267.755Y144.138
X267.794Y144.143
X267.832Y144.147
X267.871Y144.151
X267.91Y144.153
X267.949Y144.155
X267.988
X275.988
X276.025
X276.062Y144.153
X276.098Y144.151
X276.135Y144.148
X276.171Y144.144
X276.207Y144.14
X276.338Y144.122
X276.376Y144.116
X276.414Y144.109
X276.452Y144.102
X276.49Y144.093
X276.528Y144.083
X276.565Y144.073
X276.602Y144.062
X276.639Y144.05
X276.77Y144.004
X276.804Y143.992
X276.838Y143.979
X276.872Y143.965
X276.905Y143.951
X276.938Y143.935
X276.97Y143.92
X277.002Y143.903
X277.034Y143.885
X277.144Y143.823
X277.181Y143.802
X277.217Y143.779
X277.252Y143.756
X277.287Y143.732
X277.321Y143.707
X277.354Y143.681
X277.386Y143.655
X277.418Y143.627
X277.552Y143.508
X277.581Y143.482
X277.609Y143.455
X277.637Y143.427
X277.663Y143.399
X277.69Y143.37
X277.715Y143.34
X277.74Y143.31
X277.764Y143.279
X277.787Y143.248
X277.809Y143.216
X277.919Y143.054
X277.94Y143.023
X277.96Y142.992
X277.979Y142.96
X277.998Y142.928
X278.015Y142.895
X278.032Y142.861
X278.048Y142.828
X278.064Y142.794
X278.078Y142.759
X278.092Y142.725
X278.176Y142.505
X278.191Y142.462
X278.206Y142.419
X278.219Y142.375
X278.231Y142.331
X278.241Y142.287
X278.251Y142.243
X278.284Y142.071
X278.293Y142.025
X278.3Y141.979
X278.305Y141.932
X278.309Y141.886
X278.325Y141.685
X278.327Y141.655
X278.328Y141.624
X278.329Y141.594
Y141.564
Y124.589
Y124.555
X278.328Y124.521
X278.326Y124.486
X278.323Y124.452
X278.32Y124.418
X278.316Y124.384
X278.265Y123.987
X278.259Y123.948
X278.252Y123.909
X278.245Y123.87
X278.236Y123.831
X278.227Y123.793
X278.216Y123.754
X278.205Y123.716
X278.193Y123.679
X278.179Y123.642
X278.165Y123.605
X278.072Y123.371
X278.058Y123.335
X278.042Y123.3
X278.026Y123.265
X278.009Y123.231
X277.991Y123.196
X277.972Y123.163
X277.952Y123.13
X277.932Y123.097
X277.91Y123.065
X277.888Y123.033
X277.777Y122.877
X277.755Y122.847
X277.732Y122.818
X277.709Y122.789
X277.685Y122.761
X277.661Y122.733
X277.636Y122.706
X277.61Y122.68
X277.584Y122.654
X277.557Y122.629
X277.529Y122.604
X277.405Y122.496
X277.374Y122.469
X277.342Y122.443
X277.309Y122.418
X277.275Y122.393
X277.241Y122.37
X277.207Y122.347
X277.171Y122.326
X277.136Y122.305
X277.012Y122.236
X276.982Y122.219
X276.951Y122.204
X276.92Y122.188
X276.889Y122.174
X276.857Y122.16
X276.825Y122.147
X276.793Y122.134
X276.76Y122.122
X276.65Y122.084
X276.612Y122.071
X276.575Y122.06
X276.537Y122.049
X276.499Y122.039
X276.46Y122.03
X276.422Y122.022
X276.323Y122.004
X276.278Y121.996
X276.231Y121.989
X276.185Y121.984
X276.139Y121.98
X276.101Y121.977
X276.045Y121.974
X275.988Y121.973
X262.579
Y114.939
Y114.899
X262.577Y114.858
X262.575Y114.818
X262.571Y114.778
X262.566Y114.737
X262.561Y114.697
X262.554Y114.657
X262.547Y114.619
X262.538Y114.58
X262.529Y114.542
X262.519Y114.504
X262.508Y114.467
X262.495Y114.429
X262.482Y114.392
X262.468Y114.355
X262.454Y114.32
X262.436Y114.279
X262.425Y114.255
X262.413Y114.23
X262.396Y114.197
X262.378Y114.165
X262.36Y114.133
X262.341Y114.102
X262.321Y114.071
X262.301Y114.04
X262.28Y114.01
X262.256Y113.978
X262.232Y113.946
X262.206Y113.916
X262.18Y113.885
X262.154Y113.856
X262.126Y113.827
X262.098Y113.799
X262.069Y113.772
X262.04Y113.745
X262.01Y113.719
X261.979Y113.694
X261.947Y113.67
X261.915Y113.646
X261.883Y113.623
X261.849Y113.601
X261.816Y113.58
X261.781Y113.56
X261.747Y113.541
X261.713Y113.523
X261.679Y113.506
X261.644Y113.489
X261.609Y113.474
X261.573Y113.459
X261.537Y113.446
X261.501Y113.433
X261.464Y113.421
X261.427Y113.41
X261.39Y113.4
X261.353Y113.39
X261.315Y113.382
X261.277Y113.374
X261.239Y113.368
X261.201Y113.362
X261.163Y113.358
X261.124Y113.354
X261.086Y113.351
X261.048Y113.349
X261.009Y113.348
X260.971
X260.931Y113.349
X260.894Y113.351
X260.856Y113.354
X260.819Y113.357
X260.781Y113.362
X260.744Y113.367
X260.707Y113.373
X260.67Y113.38
X260.633Y113.388
X260.596Y113.397
X260.56Y113.407
X260.524Y113.417
X260.488Y113.429
X237.731Y120.973
X223.244
X190.486Y110.178
X190.448Y110.166
X190.41Y110.155
X190.371Y110.145
X190.332Y110.136
X190.293Y110.127
X190.254Y110.12
X190.214Y110.114
X190.174Y110.109
X190.135Y110.105
X190.095Y110.102
X190.055Y110.099
X190.015Y110.098
X189.974
X189.935Y110.099
X189.895Y110.101
X189.856Y110.104
X189.816Y110.107
X189.777Y110.112
X189.738Y110.118
X189.698Y110.125
X189.66Y110.132
X189.621Y110.141
X189.582Y110.151
X189.544Y110.161
X189.506Y110.173
X189.469Y110.185
X189.431Y110.199
X189.394Y110.213
X189.358Y110.228
X189.322Y110.244
X189.286Y110.261
X189.251Y110.279
X189.216Y110.298
X189.181Y110.318
X189.147Y110.339
X189.114Y110.36
X189.081Y110.382
X189.049Y110.405
X189.018Y110.428
X188.987Y110.453
X188.957Y110.478
X188.927Y110.504
X188.898Y110.53
X188.87Y110.558
X188.842Y110.586
X188.815Y110.614
X188.789Y110.644
X188.763Y110.674
X188.738Y110.705
X188.714Y110.736
X188.691Y110.768
X188.668Y110.801
X188.646Y110.834
X188.626Y110.868
Z-0.8F50
X188.606Y110.902F100
X188.586Y110.937
X188.567Y110.974
X188.549Y111.011
X188.532Y111.048
X188.504Y111.117
X188.495Y111.139
X188.482Y111.178
X188.469Y111.217
X188.457Y111.257
X188.446Y111.297
X188.437Y111.338
X188.428Y111.378
X188.42Y111.419
X188.414Y111.458
X188.409Y111.496
X188.405Y111.534
X188.402Y111.573
X188.399Y111.612
X188.398Y111.65
X188.397Y111.689
Y121.973
X184.988
X184.95
X184.911Y121.975
X184.872Y121.977
X184.834Y121.981
X184.795Y121.985
X184.756Y121.99
X184.718Y121.996
X184.68Y122.003
X184.642Y122.011
X184.604Y122.02
X184.567Y122.03
X184.53Y122.041
X184.37Y122.089
X184.334Y122.1
X184.298Y122.112
X184.262Y122.125
X184.227Y122.139
X184.192Y122.154
X184.158Y122.169
X184.124Y122.186
X184.09Y122.203
X183.92Y122.292
X183.886Y122.311
X183.852Y122.331
X183.82Y122.351
X183.787Y122.372
X183.755Y122.394
X183.724Y122.417
X183.693Y122.44
X183.568Y122.538
X183.535Y122.564
X183.503Y122.592
X183.471Y122.62
X183.44Y122.649
X183.41Y122.679
X183.381Y122.71
X183.352Y122.742
X183.325Y122.774
X183.183Y122.945
X183.158Y122.976
X183.133Y123.007
X183.11Y123.039
X183.087Y123.072
X183.065Y123.106
X183.044Y123.139
X183.024Y123.174
X183.005Y123.209
X182.986Y123.244
X182.969Y123.28
X182.865Y123.497
X182.848Y123.534
X182.832Y123.571
X182.817Y123.609
X182.803Y123.647
X182.79Y123.686
X182.778Y123.724
X182.767Y123.763
X182.757Y123.802
X182.711Y123.99
X182.702Y124.03
X182.694Y124.071
X182.686Y124.112
X182.68Y124.153
X182.675Y124.194
X182.671Y124.235
X182.653Y124.457
X182.65Y124.49
X182.649Y124.523
X182.648Y124.556
X182.647Y124.589
Y141.564
X182.648Y141.605
X182.649Y141.645
X182.652Y141.686
X182.656Y141.726
X182.692Y142.087
X182.697Y142.124
X182.702Y142.161
X182.708Y142.199
X182.715Y142.236
X182.723Y142.273
X182.731Y142.31
X182.741Y142.346
X182.751Y142.382
X182.763Y142.418
X182.775Y142.454
X182.859Y142.694
X182.873Y142.73
X182.887Y142.767
X182.903Y142.803
X182.919Y142.839
X182.936Y142.875
X182.954Y142.91
X182.973Y142.944
X182.993Y142.978
X183.013Y143.012
X183.035Y143.045
X183.139Y143.201
X183.16Y143.233
X183.182Y143.264
X183.205Y143.294
X183.229Y143.324
X183.253Y143.353
X183.278Y143.382
X183.304Y143.41
X183.33Y143.437
X183.357Y143.464
X183.385Y143.49
X183.504Y143.6
X183.536Y143.629
X183.569Y143.657
X183.603Y143.684
X183.638Y143.71
X183.673Y143.736
X183.709Y143.76
X183.746Y143.783
X183.783Y143.806
X183.905Y143.876
X183.936Y143.894
X183.969Y143.911
X184.001Y143.928
X184.034Y143.944
X184.067Y143.959
X184.101Y143.973
X184.135Y143.986
X184.169Y143.999
X184.282Y144.039
X184.324Y144.054
X184.367Y144.067
X184.41Y144.079
X184.453Y144.09
X184.497Y144.099
X184.541Y144.108
X184.664Y144.129
X184.7Y144.135
X184.736Y144.14
X184.773Y144.144
X184.809Y144.148
X184.846Y144.15
X184.882Y144.152
X184.96Y144.155
X184.988
X192.988
X193.027
X193.066Y144.153
X193.105Y144.151
X193.144Y144.147
X193.183Y144.143
X193.222Y144.138
X193.26Y144.132
X193.298Y144.124
X193.337Y144.116
X193.375Y144.107
X193.412Y144.097
X193.45Y144.087
X193.487Y144.075
X193.524Y144.062
X193.561Y144.048
X193.597Y144.034
X193.633Y144.019
X193.668Y144.002
X193.703Y143.985
X193.738Y143.967
X193.772Y143.948
X193.806Y143.929
X193.839Y143.908
X193.872Y143.887
X193.904Y143.865
X193.935Y143.842
X193.967Y143.818
X193.997Y143.794
X194.027Y143.769
X194.056Y143.743
X194.085Y143.717
X194.114Y143.688
X194.141Y143.66
X194.167Y143.632
X194.193Y143.603
X194.218Y143.573
X194.243Y143.542
X194.266Y143.511
X194.289Y143.48
X194.311Y143.447
X194.333Y143.415
X194.353Y143.381
X194.373Y143.348
X194.392Y143.314
X194.41Y143.279
X194.427Y143.244
X194.443Y143.208
X194.458Y143.172
X194.473Y143.136
X194.486Y143.1
X194.499Y143.063
X194.511Y143.026
X194.522Y142.988
X194.532Y142.95
X194.541Y142.912
X194.549Y142.874
X194.556Y142.836
X194.562Y142.797
X194.567Y142.759
X194.572Y142.72
X194.575Y142.681
X194.577Y142.642
X194.579Y142.603
Y142.564
Y137.191
X196.96Y134.639
X199.636Y132.151
X201.832Y130.475
X202.733Y129.932
X203.55Y129.557
X205.986Y128.834
X208.611Y128.361
X212.156Y128.058
X216.192Y128.05
X220.907Y128.395
X222.781Y128.641
X222.815Y128.646
X222.85Y128.649
X222.884Y128.652
X222.919Y128.654
X222.954Y128.655
X222.988
X237.988
X238.032Y128.654
X238.076Y128.653
X238.12Y128.65
X238.163Y128.645
X242.538Y128.161
X246.927Y128.003
X250.664Y128.164
X254.103Y128.636
X255.808Y129.034
X257.384Y129.541
X258.708Y130.205
X260.726Y131.65
X263.207Y133.852
X265.769Y136.472
X266.397Y137.173
Y142.564
X266.398Y142.603
X266.399Y142.642
X266.402Y142.681
X266.405Y142.72
X266.409Y142.759
X266.415Y142.797
X266.421Y142.836
X266.428Y142.874
X266.436Y142.912
X266.445Y142.95
X266.455Y142.988
X266.466Y143.026
X266.478Y143.063
X266.49Y143.1
X266.504Y143.136
X266.518Y143.173
X266.534Y143.208
X266.55Y143.244
X266.567Y143.279
X266.585Y143.314
X266.604Y143.348
X266.624Y143.381
X266.644Y143.415
X266.665Y143.447
X266.687Y143.48
X266.71Y143.511
X266.734Y143.542
X266.758Y143.573
X266.783Y143.603
X266.809Y143.632
X266.836Y143.66
X266.864Y143.689
X266.892Y143.717
X266.921Y143.743
X266.95Y143.769
X266.98Y143.794
X267.01Y143.819
X267.041Y143.842
X267.073Y143.865
X267.105Y143.887
X267.138Y143.908
X267.171Y143.929
X267.205Y143.948
X267.239Y143.967
X267.273Y143.985
X267.308Y144.002
X267.344Y144.019
X267.38Y144.034
X267.416Y144.048
X267.453Y144.062
X267.49Y144.075
X267.527Y144.087
X267.564Y144.097
X267.602Y144.107
X267.64Y144.116
X267.678Y144.124
X267.716Y144.132
X267.755Y144.138
X267.794Y144.143
X267.832Y144.147
X267.871Y144.151
X267.91Y144.153
X267.949Y144.155
X267.988
X275.988
X276.025
X276.062Y144.153
X276.098Y144.151
X276.135Y144.148
X276.171Y144.144
X276.207Y144.14
X276.338Y144.122
X276.376Y144.116
X276.414Y144.109
X276.452Y144.102
X276.49Y144.093
X276.528Y144.083
X276.565Y144.073
X276.602Y144.062
X276.639Y144.05
X276.77Y144.004
X276.804Y143.992
X276.838Y143.979
X276.872Y143.965
X276.905Y143.951
X276.938Y143.935
X276.97Y143.92
X277.002Y143.903
X277.034Y143.885
X277.144Y143.823
X277.181Y143.802
X277.217Y143.779
X277.252Y143.756
X277.287Y143.732
X277.321Y143.707
X277.354Y143.681
X277.386Y143.655
X277.418Y143.627
X277.552Y143.508
X277.581Y143.482
X277.609Y143.455
X277.637Y143.427
X277.663Y143.399
X277.69Y143.37
X277.715Y143.34
X277.74Y143.31
X277.764Y143.279
X277.787Y143.248
X277.809Y143.216
X277.919Y143.054
X277.94Y143.023
X277.96Y142.992
X277.979Y142.96
X277.998Y142.928
X278.015Y142.895
X278.032Y142.861
X278.048Y142.828
X278.064Y142.794
X278.078Y142.759
X278.092Y142.725
X278.176Y142.505
X278.191Y142.462
X278.206Y142.419
X278.219Y142.375
X278.231Y142.331
X278.241Y142.287
X278.251Y142.243
X278.284Y142.071
X278.293Y142.025
X278.3Y141.979
X278.305Y141.932
X278.309Y141.886
X278.325Y141.685
X278.327Y141.655
X278.328Y141.624
X278.329Y141.594
Y141.564
Y124.589
Y124.555
X278.328Y124.521
X278.326Y124.486
X278.323Y124.452
X278.32Y124.418
X278.316Y124.384
X278.265Y123.987
X278.259Y123.948
X278.252Y123.909
X278.245Y123.87
X278.236Y123.831
X278.227Y123.793
X278.216Y123.754
X278.205Y123.716
X278.193Y123.679
X278.179Y123.642
X278.165Y123.605
X278.072Y123.371
X278.058Y123.335
X278.042Y123.3
X278.026Y123.265
X278.009Y123.231
X277.991Y123.196
X277.972Y123.163
X277.952Y123.13
X277.932Y123.097
X277.91Y123.065
X277.888Y123.033
X277.777Y122.877
X277.755Y122.847
X277.732Y122.818
X277.709Y122.789
X277.685Y122.761
X277.661Y122.733
X277.636Y122.706
X277.61Y122.68
X277.584Y122.654
X277.557Y122.629
X277.529Y122.604
X277.405Y122.496
X277.374Y122.469
X277.342Y122.443
X277.309Y122.418
X277.275Y122.393
X277.241Y122.37
X277.207Y122.347
X277.171Y122.326
X277.136Y122.305
X277.012Y122.236
X276.982Y122.219
X276.951Y122.204
X276.92Y122.188
X276.889Y122.174
X276.857Y122.16
X276.825Y122.147
X276.793Y122.134
X276.76Y122.122
X276.65Y122.084
X276.612Y122.071
X276.575Y122.06
X276.537Y122.049
X276.499Y122.039
X276.46Y122.03
X276.422Y122.022
X276.323Y122.004
X276.278Y121.996
X276.231Y121.989
X276.185Y121.984
X276.139Y121.98
X276.101Y121.977
X276.045Y121.974
X275.988Y121.973
X262.579
Y114.939
Y114.899
X262.577Y114.858
X262.575Y114.818
X262.571Y114.778
X262.566Y114.737
X262.561Y114.697
X262.554Y114.657
X262.547Y114.619
X262.538Y114.58
X262.529Y114.542
X262.519Y114.504
X262.508Y114.467
X262.495Y114.429
X262.482Y114.392
X262.468Y114.355
X262.454Y114.32
X262.436Y114.279
X262.425Y114.255
X262.413Y114.23
X262.396Y114.197
X262.378Y114.165
X262.36Y114.133
X262.341Y114.102
X262.321Y114.071
X262.301Y114.04
X262.28Y114.01
X262.256Y113.978
X262.232Y113.946
X262.206Y113.916
X262.18Y113.885
X262.154Y113.856
X262.126Y113.827
X262.098Y113.799
X262.069Y113.772
X262.04Y113.745
X262.01Y113.719
X261.979Y113.694
X261.947Y113.67
X261.915Y113.646
X261.883Y113.623
X261.849Y113.601
X261.816Y113.58
X261.781Y113.56
X261.747Y113.541
X261.713Y113.523
X261.679Y113.506
X261.644Y113.489
X261.609Y113.474
X261.573Y113.459
X261.537Y113.446
X261.501Y113.433
X261.464Y113.421
X261.427Y113.41
X261.39Y113.4
X261.353Y113.39
X261.315Y113.382
X261.277Y113.374
X261.239Y113.368
X261.201Y113.362
X261.163Y113.358
X261.124Y113.354
X261.086Y113.351
X261.048Y113.349
X261.009Y113.348
X260.971
X260.931Y113.349
X260.894Y113.351
X260.856Y113.354
X260.819Y113.357
X260.781Y113.362
X260.744Y113.367
X260.707Y113.373
X260.67Y113.38
X260.633Y113.388
X260.596Y113.397
X260.56Y113.407
X260.524Y113.417
X260.488Y113.429
X237.731Y120.973
X223.244
X190.486Y110.178
X190.448Y110.166
X190.41Y110.155
X190.371Y110.145
X190.332Y110.136
X190.293Y110.127
X190.254Y110.12
X190.214Y110.114
X190.174Y110.109
X190.135Y110.105
X190.095Y110.102
X190.055Y110.099
X190.015Y110.098
X189.974
X189.935Y110.099
X189.895Y110.101
X189.856Y110.104
X189.816Y110.107
X189.777Y110.112
X189.738Y110.118
X189.698Y110.125
X189.66Y110.132
X189.621Y110.141
X189.582Y110.151
X189.544Y110.161
X189.506Y110.173
X189.469Y110.185
X189.431Y110.199
X189.394Y110.213
X189.358Y110.228
X189.322Y110.244
X189.286Y110.261
X189.251Y110.279
X189.216Y110.298
X189.181Y110.318
X189.147Y110.339
X189.114Y110.36
X189.081Y110.382
X189.049Y110.405
X189.018Y110.428
X188.987Y110.453
X188.957Y110.478
X188.927Y110.504
X188.898Y110.53
X188.87Y110.558
X188.842Y110.586
X188.815Y110.614
X188.789Y110.644
X188.763Y110.674
X188.738Y110.705
X188.714Y110.736
X188.691Y110.768
X188.668Y110.801
X188.646Y110.834
X188.626Y110.868
Z-0.9F50
X188.606Y110.902F100
X188.586Y110.937
X188.567Y110.974
X188.549Y111.011
X188.532Y111.048
X188.504Y111.117
X188.495Y111.139
X188.482Y111.178
X188.469Y111.217
X188.457Y111.257
X188.446Y111.297
X188.437Y111.338
X188.428Y111.378
X188.42Y111.419
X188.414Y111.458
X188.409Y111.496
X188.405Y111.534
X188.402Y111.573
X188.399Y111.612
X188.398Y111.65
X188.397Y111.689
Y121.973
X184.988
X184.95
X184.911Y121.975
X184.872Y121.977
X184.834Y121.981
X184.795Y121.985
X184.756Y121.99
X184.718Y121.996
X184.68Y122.003
X184.642Y122.011
X184.604Y122.02
X184.567Y122.03
X184.53Y122.041
X184.37Y122.089
X184.334Y122.1
X184.298Y122.112
X184.262Y122.125
X184.227Y122.139
X184.192Y122.154
X184.158Y122.169
X184.124Y122.186
X184.09Y122.203
X183.92Y122.292
X183.886Y122.311
X183.852Y122.331
X183.82Y122.351
X183.787Y122.372
X183.755Y122.394
X183.724Y122.417
X183.693Y122.44
X183.568Y122.538
X183.535Y122.564
X183.503Y122.592
X183.471Y122.62
X183.44Y122.649
X183.41Y122.679
X183.381Y122.71
X183.352Y122.742
X183.325Y122.774
X183.183Y122.945
X183.158Y122.976
X183.133Y123.007
X183.11Y123.039
X183.087Y123.072
X183.065Y123.106
X183.044Y123.139
X183.024Y123.174
X183.005Y123.209
X182.986Y123.244
X182.969Y123.28
X182.865Y123.497
X182.848Y123.534
X182.832Y123.571
X182.817Y123.609
X182.803Y123.647
X182.79Y123.686
X182.778Y123.724
X182.767Y123.763
X182.757Y123.802
X182.711Y123.99
X182.702Y124.03
X182.694Y124.071
X182.686Y124.112
X182.68Y124.153
X182.675Y124.194
X182.671Y124.235
X182.653Y124.457
X182.65Y124.49
X182.649Y124.523
X182.648Y124.556
X182.647Y124.589
Y141.564
X182.648Y141.605
X182.649Y141.645
X182.652Y141.686
X182.656Y141.726
X182.692Y142.087
X182.697Y142.124
X182.702Y142.161
X182.708Y142.199
X182.715Y142.236
X182.723Y142.273
X182.731Y142.31
X182.741Y142.346
X182.751Y142.382
X182.763Y142.418
X182.775Y142.454
X182.859Y142.694
X182.873Y142.73
X182.887Y142.767
X182.903Y142.803
X182.919Y142.839
X182.936Y142.875
X182.954Y142.91
X182.973Y142.944
X182.993Y142.978
X183.013Y143.012
X183.035Y143.045
X183.139Y143.201
X183.16Y143.233
X183.182Y143.264
X183.205Y143.294
X183.229Y143.324
X183.253Y143.353
X183.278Y143.382
X183.304Y143.41
X183.33Y143.437
X183.357Y143.464
X183.385Y143.49
X183.504Y143.6
X183.536Y143.629
X183.569Y143.657
X183.603Y143.684
X183.638Y143.71
X183.673Y143.736
X183.709Y143.76
X183.746Y143.783
X183.783Y143.806
X183.905Y143.876
X183.936Y143.894
X183.969Y143.911
X184.001Y143.928
X184.034Y143.944
X184.067Y143.959
X184.101Y143.973
X184.135Y143.986
X184.169Y143.999
X184.282Y144.039
X184.324Y144.054
X184.367Y144.067
X184.41Y144.079
X184.453Y144.09
X184.497Y144.099
X184.541Y144.108
X184.664Y144.129
X184.7Y144.135
X184.736Y144.14
X184.773Y144.144
X184.809Y144.148
X184.846Y144.15
X184.882Y144.152
X184.96Y144.155
X184.988
X192.988
X193.027
X193.066Y144.153
X193.105Y144.151
X193.144Y144.147
X193.183Y144.143
X193.222Y144.138
X193.26Y144.132
X193.298Y144.124
X193.337Y144.116
X193.375Y144.107
X193.412Y144.097
X193.45Y144.087
X193.487Y144.075
X193.524Y144.062
X193.561Y144.048
X193.597Y144.034
X193.633Y144.019
X193.668Y144.002
X193.703Y143.985
X193.738Y143.967
X193.772Y143.948
X193.806Y143.929
X193.839Y143.908
X193.872Y143.887
X193.904Y143.865
X193.935Y143.842
X193.967Y143.818
X193.997Y143.794
X194.027Y143.769
X194.056Y143.743
X194.085Y143.717
X194.114Y143.688
X194.141Y143.66
X194.167Y143.632
X194.193Y143.603
X194.218Y143.573
X194.243Y143.542
X194.266Y143.511
X194.289Y143.48
X194.311Y143.447
X194.333Y143.415
X194.353Y143.381
X194.373Y143.348
X194.392Y143.314
X194.41Y143.279
X194.427Y143.244
X194.443Y143.208
X194.458Y143.172
X194.473Y143.136
X194.486Y143.1
X194.499Y143.063
X194.511Y143.026
X194.522Y142.988
X194.532Y142.95
X194.541Y142.912
X194.549Y142.874
X194.556Y142.836
X194.562Y142.797
X194.567Y142.759
X194.572Y142.72
X194.575Y142.681
X194.577Y142.642
X194.579Y142.603
Y142.564
Y137.191
X196.96Y134.639
X199.636Y132.151
X201.832Y130.475
X202.733Y129.932
X203.55Y129.557
X205.986Y128.834
X208.611Y128.361
X212.156Y128.058
X216.192Y128.05
X220.907Y128.395
X222.781Y128.641
X222.815Y128.646
X222.85Y128.649
X222.884Y128.652
X222.919Y128.654
X222.954Y128.655
X222.988
X237.988
X238.032Y128.654
X238.076Y128.653
X238.12Y128.65
X238.163Y128.645
X242.538Y128.161
X246.927Y128.003
X250.664Y128.164
X254.103Y128.636
X255.808Y129.034
X257.384Y129.541
X258.708Y130.205
X260.726Y131.65
X263.207Y133.852
X265.769Y136.472
X266.397Y137.173
Y142.564
X266.398Y142.603
X266.399Y142.642
X266.402Y142.681
X266.405Y142.72
X266.409Y142.759
X266.415Y142.797
X266.421Y142.836
X266.428Y142.874
X266.436Y142.912
X266.445Y142.95
X266.455Y142.988
X266.466Y143.026
X266.478Y143.063
X266.49Y143.1
X266.504Y143.136
X266.518Y143.173
X266.534Y143.208
X266.55Y143.244
X266.567Y143.279
X266.585Y143.314
X266.604Y143.348
X266.624Y143.381
X266.644Y143.415
X266.665Y143.447
X266.687Y143.48
X266.71Y143.511
X266.734Y143.542
X266.758Y143.573
X266.783Y143.603
X266.809Y143.632
X266.836Y143.66
X266.864Y143.689
X266.892Y143.717
X266.921Y143.743
X266.95Y143.769
X266.98Y143.794
X267.01Y143.819
X267.041Y143.842
X267.073Y143.865
X267.105Y143.887
X267.138Y143.908
X267.171Y143.929
X267.205Y143.948
X267.239Y143.967
X267.273Y143.985
X267.308Y144.002
X267.344Y144.019
X267.38Y144.034
X267.416Y144.048
X267.453Y144.062
X267.49Y144.075
X267.527Y144.087
X267.564Y144.097
X267.602Y144.107
X267.64Y144.116
X267.678Y144.124
X267.716Y144.132
X267.755Y144.138
X267.794Y144.143
X267.832Y144.147
X267.871Y144.151
X267.91Y144.153
X267.949Y144.155
X267.988
X275.988
X276.025
X276.062Y144.153
X276.098Y144.151
X276.135Y144.148
X276.171Y144.144
X276.207Y144.14
X276.338Y144.122
X276.376Y144.116
X276.414Y144.109
X276.452Y144.102
X276.49Y144.093
X276.528Y144.083
X276.565Y144.073
X276.602Y144.062
X276.639Y144.05
X276.77Y144.004
X276.804Y143.992
X276.838Y143.979
X276.872Y143.965
X276.905Y143.951
X276.938Y143.935
X276.97Y143.92
X277.002Y143.903
X277.034Y143.885
X277.144Y143.823
X277.181Y143.802
X277.217Y143.779
X277.252Y143.756
X277.287Y143.732
X277.321Y143.707
X277.354Y143.681
X277.386Y143.655
X277.418Y143.627
X277.552Y143.508
X277.581Y143.482
X277.609Y143.455
X277.637Y143.427
X277.663Y143.399
X277.69Y143.37
X277.715Y143.34
X277.74Y143.31
X277.764Y143.279
X277.787Y143.248
X277.809Y143.216
X277.919Y143.054
X277.94Y143.023
X277.96Y142.992
X277.979Y142.96
X277.998Y142.928
X278.015Y142.895
X278.032Y142.861
X278.048Y142.828
X278.064Y142.794
X278.078Y142.759
X278.092Y142.725
X278.176Y142.505
X278.191Y142.462
X278.206Y142.419
X278.219Y142.375
X278.231Y142.331
X278.241Y142.287
X278.251Y142.243
X278.284Y142.071
X278.293Y142.025
X278.3Y141.979
X278.305Y141.932
X278.309Y141.886
X278.325Y141.685
X278.327Y141.655
X278.328Y141.624
X278.329Y141.594
Y141.564
Y124.589
Y124.555
X278.328Y124.521
X278.326Y124.486
X278.323Y124.452
X278.32Y124.418
X278.316Y124.384
X278.265Y123.987
X278.259Y123.948
X278.252Y123.909
X278.245Y123.87
X278.236Y123.831
X278.227Y123.793
X278.216Y123.754
X278.205Y123.716
X278.193Y123.679
X278.179Y123.642
X278.165Y123.605
X278.072Y123.371
X278.058Y123.335
X278.042Y123.3
X278.026Y123.265
X278.009Y123.231
X277.991Y123.196
X277.972Y123.163
X277.952Y123.13
X277.932Y123.097
X277.91Y123.065
X277.888Y123.033
X277.777Y122.877
X277.755Y122.847
X277.732Y122.818
X277.709Y122.789
X277.685Y122.761
X277.661Y122.733
X277.636Y122.706
X277.61Y122.68
X277.584Y122.654
X277.557Y122.629
X277.529Y122.604
X277.405Y122.496
X277.374Y122.469
X277.342Y122.443
X277.309Y122.418
X277.275Y122.393
X277.241Y122.37
X277.207Y122.347
X277.171Y122.326
X277.136Y122.305
X277.012Y122.236
X276.982Y122.219
X276.951Y122.204
X276.92Y122.188
X276.889Y122.174
X276.857Y122.16
X276.825Y122.147
X276.793Y122.134
X276.76Y122.122
X276.65Y122.084
X276.612Y122.071
X276.575Y122.06
X276.537Y122.049
X276.499Y122.039
X276.46Y122.03
X276.422Y122.022
X276.323Y122.004
X276.278Y121.996
X276.231Y121.989
X276.185Y121.984
X276.139Y121.98
X276.101Y121.977
X276.045Y121.974
X275.988Y121.973
X262.579
Y114.939
Y114.899
X262.577Y114.858
X262.575Y114.818
X262.571Y114.778
X262.566Y114.737
X262.561Y114.697
X262.554Y114.657
X262.547Y114.619
X262.538Y114.58
X262.529Y114.542
X262.519Y114.504
X262.508Y114.467
X262.495Y114.429
X262.482Y114.392
X262.468Y114.355
X262.454Y114.32
X262.436Y114.279
X262.425Y114.255
X262.413Y114.23
X262.396Y114.197
X262.378Y114.165
X262.36Y114.133
X262.341Y114.102
X262.321Y114.071
X262.301Y114.04
X262.28Y114.01
X262.256Y113.978
X262.232Y113.946
X262.206Y113.916
X262.18Y113.885
X262.154Y113.856
X262.126Y113.827
X262.098Y113.799
X262.069Y113.772
X262.04Y113.745
X262.01Y113.719
X261.979Y113.694
X261.947Y113.67
X261.915Y113.646
X261.883Y113.623
X261.849Y113.601
X261.816Y113.58
X261.781Y113.56
X261.747Y113.541
X261.713Y113.523
X261.679Y113.506
X261.644Y113.489
X261.609Y113.474
X261.573Y113.459
X261.537Y113.446
X261.501Y113.433
X261.464Y113.421
X261.427Y113.41
X261.39Y113.4
X261.353Y113.39
X261.315Y113.382
X261.277Y113.374
X261.239Y113.368
X261.201Y113.362
X261.163Y113.358
X261.124Y113.354
X261.086Y113.351
X261.048Y113.349
X261.009Y113.348
X260.971
X260.931Y113.349
X260.894Y113.351
X260.856Y113.354
X260.819Y113.357
X260.781Y113.362
X260.744Y113.367
X260.707Y113.373
X260.67Y113.38
X260.633Y113.388
X260.596Y113.397
X260.56Y113.407
X260.524Y113.417
X260.488Y113.429
X237.731Y120.973
X223.244
X190.486Y110.178
X190.448Y110.166
X190.41Y110.155
X190.371Y110.145
X190.332Y110.136
X190.293Y110.127
X190.254Y110.12
X190.214Y110.114
X190.174Y110.109
X190.135Y110.105
X190.095Y110.102
X190.055Y110.099
X190.015Y110.098
X189.974
X189.935Y110.099
X189.895Y110.101
X189.856Y110.104
X189.816Y110.107
X189.777Y110.112
X189.738Y110.118
X189.698Y110.125
X189.66Y110.132
X189.621Y110.141
X189.582Y110.151
X189.544Y110.161
X189.506Y110.173
X189.469Y110.185
X189.431Y110.199
X189.394Y110.213
X189.358Y110.228
X189.322Y110.244
X189.286Y110.261
X189.251Y110.279
X189.216Y110.298
X189.181Y110.318
X189.147Y110.339
X189.114Y110.36
X189.081Y110.382
X189.049Y110.405
X189.018Y110.428
X188.987Y110.453
X188.957Y110.478
X188.927Y110.504
X188.898Y110.53
X188.87Y110.558
X188.842Y110.586
X188.815Y110.614
X188.789Y110.644
X188.763Y110.674
X188.738Y110.705
X188.714Y110.736
X188.691Y110.768
X188.668Y110.801
X188.646Y110.834
X188.626Y110.868
Z-1F50
X188.606Y110.902F100
X188.586Y110.937
X188.567Y110.974
X188.549Y111.011
X188.532Y111.048
X188.504Y111.117
X188.495Y111.139
X188.482Y111.178
X188.469Y111.217
X188.457Y111.257
X188.446Y111.297
X188.437Y111.338
X188.428Y111.378
X188.42Y111.419
X188.414Y111.458
X188.409Y111.496
X188.405Y111.534
X188.402Y111.573
X188.399Y111.612
X188.398Y111.65
X188.397Y111.689
Y121.973
X184.988
X184.95
X184.911Y121.975
X184.872Y121.977
X184.834Y121.981
X184.795Y121.985
X184.756Y121.99
X184.718Y121.996
X184.68Y122.003
X184.642Y122.011
X184.604Y122.02
X184.567Y122.03
X184.53Y122.041
X184.37Y122.089
X184.334Y122.1
X184.298Y122.112
X184.262Y122.125
X184.227Y122.139
X184.192Y122.154
X184.158Y122.169
X184.124Y122.186
X184.09Y122.203
X183.92Y122.292
X183.886Y122.311
X183.852Y122.331
X183.82Y122.351
X183.787Y122.372
X183.755Y122.394
X183.724Y122.417
X183.693Y122.44
X183.568Y122.538
X183.535Y122.564
X183.503Y122.592
X183.471Y122.62
X183.44Y122.649
X183.41Y122.679
X183.381Y122.71
X183.352Y122.742
X183.325Y122.774
X183.183Y122.945
X183.158Y122.976
X183.133Y123.007
X183.11Y123.039
X183.087Y123.072
X183.065Y123.106
X183.044Y123.139
X183.024Y123.174
X183.005Y123.209
X182.986Y123.244
X182.969Y123.28
X182.865Y123.497
X182.848Y123.534
X182.832Y123.571
X182.817Y123.609
X182.803Y123.647
X182.79Y123.686
X182.778Y123.724
X182.767Y123.763
X182.757Y123.802
X182.711Y123.99
X182.702Y124.03
X182.694Y124.071
X182.686Y124.112
X182.68Y124.153
X182.675Y124.194
X182.671Y124.235
X182.653Y124.457
X182.65Y124.49
X182.649Y124.523
X182.648Y124.556
X182.647Y124.589
Y141.564
X182.648Y141.605
X182.649Y141.645
X182.652Y141.686
X182.656Y141.726
X182.692Y142.087
X182.697Y142.124
X182.702Y142.161
X182.708Y142.199
X182.715Y142.236
X182.723Y142.273
X182.731Y142.31
X182.741Y142.346
X182.751Y142.382
X182.763Y142.418
X182.775Y142.454
X182.859Y142.694
X182.873Y142.73
X182.887Y142.767
X182.903Y142.803
X182.919Y142.839
X182.936Y142.875
X182.954Y142.91
X182.973Y142.944
X182.993Y142.978
X183.013Y143.012
X183.035Y143.045
X183.139Y143.201
X183.16Y143.233
X183.182Y143.264
X183.205Y143.294
X183.229Y143.324
X183.253Y143.353
X183.278Y143.382
X183.304Y143.41
X183.33Y143.437
X183.357Y143.464
X183.385Y143.49
X183.504Y143.6
X183.536Y143.629
X183.569Y143.657
X183.603Y143.684
X183.638Y143.71
X183.673Y143.736
X183.709Y143.76
X183.746Y143.783
X183.783Y143.806
X183.905Y143.876
X183.936Y143.894
X183.969Y143.911
X184.001Y143.928
X184.034Y143.944
X184.067Y143.959
X184.101Y143.973
X184.135Y143.986
X184.169Y143.999
X184.282Y144.039
X184.324Y144.054
X184.367Y144.067
X184.41Y144.079
X184.453Y144.09
X184.497Y144.099
X184.541Y144.108
X184.664Y144.129
X184.7Y144.135
X184.736Y144.14
X184.773Y144.144
X184.809Y144.148
X184.846Y144.15
X184.882Y144.152
X184.96Y144.155
X184.988
X192.988
X193.027
X193.066Y144.153
X193.105Y144.151
X193.144Y144.147
X193.183Y144.143
X193.222Y144.138
X193.26Y144.132
X193.298Y144.124
X193.337Y144.116
X193.375Y144.107
X193.412Y144.097
X193.45Y144.087
X193.487Y144.075
X193.524Y144.062
X193.561Y144.048
X193.597Y144.034
X193.633Y144.019
X193.668Y144.002
X193.703Y143.985
X193.738Y143.967
X193.772Y143.948
X193.806Y143.929
X193.839Y143.908
X193.872Y143.887
X193.904Y143.865
X193.935Y143.842
X193.967Y143.818
X193.997Y143.794
X194.027Y143.769
X194.056Y143.743
X194.085Y143.717
X194.114Y143.688
X194.141Y143.66
X194.167Y143.632
X194.193Y143.603
X194.218Y143.573
X194.243Y143.542
X194.266Y143.511
X194.289Y143.48
X194.311Y143.447
X194.333Y143.415
X194.353Y143.381
X194.373Y143.348
X194.392Y143.314
X194.41Y143.279
X194.427Y143.244
X194.443Y143.208
X194.458Y143.172
X194.473Y143.136
X194.486Y143.1
X194.499Y143.063
X194.511Y143.026
X194.522Y142.988
X194.532Y142.95
X194.541Y142.912
X194.549Y142.874
X194.556Y142.836
X194.562Y142.797
X194.567Y142.759
X194.572Y142.72
X194.575Y142.681
X194.577Y142.642
X194.579Y142.603
Y142.564
Y137.191
X196.96Y134.639
X199.636Y132.151
X201.832Y130.475
X202.733Y129.932
X203.55Y129.557
X205.986Y128.834
X208.611Y128.361
X212.156Y128.058
X216.192Y128.05
X220.907Y128.395
X222.781Y128.641
X222.815Y128.646
X222.85Y128.649
X222.884Y128.652
X222.919Y128.654
X222.954Y128.655
X222.988
X237.988
X238.032Y128.654
X238.076Y128.653
X238.12Y128.65
X238.163Y128.645
X242.538Y128.161
X246.927Y128.003
X250.664Y128.164
X254.103Y128.636
X255.808Y129.034
X257.384Y129.541
X258.708Y130.205
X260.726Y131.65
X263.207Y133.852
X265.769Y136.472
X266.397Y137.173
Y142.564
X266.398Y142.603
X266.399Y142.642
X266.402Y142.681
X266.405Y142.72
X266.409Y142.759
X266.415Y142.797
X266.421Y142.836
X266.428Y142.874
X266.436Y142.912
X266.445Y142.95
X266.455Y142.988
X266.466Y143.026
X266.478Y143.063
X266.49Y143.1
X266.504Y143.136
X266.518Y143.173
X266.534Y143.208
X266.55Y143.244
X266.567Y143.279
X266.585Y143.314
X266.604Y143.348
X266.624Y143.381
X266.644Y143.415
X266.665Y143.447
X266.687Y143.48
X266.71Y143.511
X266.734Y143.542
X266.758Y143.573
X266.783Y143.603
X266.809Y143.632
X266.836Y143.66
X266.864Y143.689
X266.892Y143.717
X266.921Y143.743
X266.95Y143.769
X266.98Y143.794
X267.01Y143.819
X267.041Y143.842
X267.073Y143.865
X267.105Y143.887
X267.138Y143.908
X267.171Y143.929
X267.205Y143.948
X267.239Y143.967
X267.273Y143.985
X267.308Y144.002
X267.344Y144.019
X267.38Y144.034
X267.416Y144.048
X267.453Y144.062
X267.49Y144.075
X267.527Y144.087
X267.564Y144.097
X267.602Y144.107
X267.64Y144.116
X267.678Y144.124
X267.716Y144.132
X267.755Y144.138
X267.794Y144.143
X267.832Y144.147
X267.871Y144.151
X267.91Y144.153
X267.949Y144.155
X267.988
X275.988
X276.025
X276.062Y144.153
X276.098Y144.151
X276.135Y144.148
X276.171Y144.144
X276.207Y144.14
X276.338Y144.122
X276.376Y144.116
X276.414Y144.109
X276.452Y144.102
X276.49Y144.093
X276.528Y144.083
X276.565Y144.073
X276.602Y144.062
X276.639Y144.05
X276.77Y144.004
X276.804Y143.992
X276.838Y143.979
X276.872Y143.965
X276.905Y143.951
X276.938Y143.935
X276.97Y143.92
X277.002Y143.903
X277.034Y143.885
X277.144Y143.823
X277.181Y143.802
X277.217Y143.779
X277.252Y143.756
X277.287Y143.732
X277.321Y143.707
X277.354Y143.681
X277.386Y143.655
X277.418Y143.627
X277.552Y143.508
X277.581Y143.482
X277.609Y143.455
X277.637Y143.427
X277.663Y143.399
X277.69Y143.37
X277.715Y143.34
X277.74Y143.31
X277.764Y143.279
X277.787Y143.248
X277.809Y143.216
X277.919Y143.054
X277.94Y143.023
X277.96Y142.992
X277.979Y142.96
X277.998Y142.928
X278.015Y142.895
X278.032Y142.861
X278.048Y142.828
X278.064Y142.794
X278.078Y142.759
X278.092Y142.725
X278.176Y142.505
X278.191Y142.462
X278.206Y142.419
X278.219Y142.375
X278.231Y142.331
X278.241Y142.287
X278.251Y142.243
X278.284Y142.071
X278.293Y142.025
X278.3Y141.979
X278.305Y141.932
X278.309Y141.886
X278.325Y141.685
X278.327Y141.655
X278.328Y141.624
X278.329Y141.594
Y141.564
Y124.589
Y124.555
X278.328Y124.521
X278.326Y124.486
X278.323Y124.452
X278.32Y124.418
X278.316Y124.384
X278.265Y123.987
X278.259Y123.948
X278.252Y123.909
X278.245Y123.87
X278.236Y123.831
X278.227Y123.793
X278.216Y123.754
X278.205Y123.716
X278.193Y123.679
X278.179Y123.642
X278.165Y123.605
X278.072Y123.371
X278.058Y123.335
X278.042Y123.3
X278.026Y123.265
X278.009Y123.231
X277.991Y123.196
X277.972Y123.163
X277.952Y123.13
X277.932Y123.097
X277.91Y123.065
X277.888Y123.033
X277.777Y122.877
X277.755Y122.847
X277.732Y122.818
X277.709Y122.789
X277.685Y122.761
X277.661Y122.733
X277.636Y122.706
X277.61Y122.68
X277.584Y122.654
X277.557Y122.629
X277.529Y122.604
X277.405Y122.496
X277.374Y122.469
X277.342Y122.443
X277.309Y122.418
X277.275Y122.393
X277.241Y122.37
X277.207Y122.347
X277.171Y122.326
X277.136Y122.305
X277.012Y122.236
X276.982Y122.219
X276.951Y122.204
X276.92Y122.188
X276.889Y122.174
X276.857Y122.16
X276.825Y122.147
X276.793Y122.134
X276.76Y122.122
X276.65Y122.084
X276.612Y122.071
X276.575Y122.06
X276.537Y122.049
X276.499Y122.039
X276.46Y122.03
X276.422Y122.022
X276.323Y122.004
X276.278Y121.996
X276.231Y121.989
X276.185Y121.984
X276.139Y121.98
X276.101Y121.977
X276.045Y121.974
X275.988Y121.973
X262.579
Y114.939
Y114.899
X262.577Y114.858
X262.575Y114.818
X262.571Y114.778
X262.566Y114.737
X262.561Y114.697
X262.554Y114.657
X262.547Y114.619
X262.538Y114.58
X262.529Y114.542
X262.519Y114.504
X262.508Y114.467
X262.495Y114.429
X262.482Y114.392
X262.468Y114.355
X262.454Y114.32
X262.436Y114.279
X262.425Y114.255
X262.413Y114.23
X262.396Y114.197
X262.378Y114.165
X262.36Y114.133
X262.341Y114.102
X262.321Y114.071
X262.301Y114.04
X262.28Y114.01
X262.256Y113.978
X262.232Y113.946
X262.206Y113.916
X262.18Y113.885
X262.154Y113.856
X262.126Y113.827
X262.098Y113.799
X262.069Y113.772
X262.04Y113.745
X262.01Y113.719
X261.979Y113.694
X261.947Y113.67
X261.915Y113.646
X261.883Y113.623
X261.849Y113.601
X261.816Y113.58
X261.781Y113.56
X261.747Y113.541
X261.713Y113.523
X261.679Y113.506
X261.644Y113.489
X261.609Y113.474
X261.573Y113.459
X261.537Y113.446
X261.501Y113.433
X261.464Y113.421
X261.427Y113.41
X261.39Y113.4
X261.353Y113.39
X261.315Y113.382
X261.277Y113.374
X261.239Y113.368
X261.201Y113.362
X261.163Y113.358
X261.124Y113.354
X261.086Y113.351
X261.048Y113.349
X261.009Y113.348
X260.971
X260.931Y113.349
X260.894Y113.351
X260.856Y113.354
X260.819Y113.357
X260.781Y113.362
