(Created with grbl post processor 2025/02/04 15:31)
G21
(G-code generated with BlenderCAM and NC library)
G17G90
(Tool: D = 3.18 mm  type END flutes 2)
S1000M03
G00 Z1.0

G0X0Y0Z1
X45.58Y155.304
G1Z-0.05F50
X45.634Y155.289F100
X45.661Y155.283
X45.687Y155.277
X45.716Y155.271
X45.771Y155.262
X45.798Y155.257
X45.826Y155.254
X45.853Y155.251
X45.898Y155.247
X45.944Y155.244
X45.965Y155.243
X45.992Y155.242
X46.02
X46.048
X46.076Y155.243
X46.132Y155.246
X46.16Y155.248
X46.187Y155.251
X46.215Y155.254
X46.242Y155.257
X46.298Y155.266
X46.325Y155.271
X46.352Y155.277
X46.379Y155.283
X46.406Y155.289
X46.434Y155.296
X46.46Y155.304
X46.487Y155.312
X46.514Y155.32
X46.54Y155.329
X46.566Y155.338
X46.592Y155.348
X46.618Y155.358
X46.644Y155.369
X46.67Y155.38
X46.695Y155.392
X46.72Y155.404
X46.745Y155.416
X46.77Y155.429
X46.794Y155.442
X46.818Y155.456
X46.843Y155.47
X46.867Y155.485
X46.89Y155.5
X46.913Y155.515
X46.936Y155.531
X46.959Y155.547
X46.981Y155.563
X47.003Y155.58
X47.025Y155.598
X47.046Y155.615
X47.081Y155.645
X47.113Y155.674
X47.129Y155.69
X47.162Y155.723
X47.19Y155.752
X47.207Y155.77
X47.225Y155.791
X47.243Y155.812
X47.261Y155.834
X47.278Y155.856
X47.295Y155.878
X47.328Y155.923
X47.344Y155.946
X47.369Y155.985
X47.39Y156.018
X47.403Y156.04
X47.417Y156.064
X47.43Y156.089
X47.443Y156.114
X47.455Y156.139
X47.467Y156.164
X47.49Y156.215
X47.501Y156.24
X47.512Y156.27
X47.521Y156.293
X47.53Y156.319
X47.539Y156.345
X47.547Y156.372
X47.555Y156.398
X47.562Y156.425
X47.569Y156.452
X47.576Y156.479
X47.582Y156.507
X47.588Y156.534
X47.593Y156.561
X47.597Y156.589
X47.601Y156.616
X47.605Y156.644
X47.608Y156.672
X47.611Y156.699
X47.613Y156.727
X47.615Y156.755
X47.616Y156.783
X47.617Y156.811
Y156.839
Y156.867
X47.616Y156.894
X47.615Y156.922
X47.613Y156.95
X47.611Y156.978
X47.608Y157.006
X47.605Y157.033
X47.601Y157.061
X47.597Y157.088
X47.593Y157.116
X47.588Y157.143
X47.582Y157.171
X47.576Y157.198
X47.57Y157.225
X47.562Y157.252
X47.555Y157.279
X47.547Y157.305
X47.539Y157.332
X47.53Y157.358
X47.521Y157.385
X47.511Y157.411
X47.501Y157.437
X47.49Y157.463
X47.479Y157.488
X47.467Y157.513
X47.455Y157.539
X47.443Y157.563
X47.43Y157.588
X47.417Y157.613
X47.403Y157.637
X47.389Y157.661
X47.374Y157.685
X47.359Y157.708
X47.344Y157.731
X47.328Y157.754
X47.312Y157.777
X47.295Y157.8
X47.278Y157.822
X47.261Y157.843
X47.243Y157.865
X47.225Y157.886
X47.207Y157.907
X47.188Y157.927
X47.169Y157.948
X47.149Y157.968
X47.129Y157.987
X47.109Y158.006
X47.089Y158.025
X47.068Y158.043
X47.047Y158.062
X47.025Y158.08
X47.003Y158.097
X46.981Y158.114
X46.959Y158.13
X46.936Y158.147
X46.913Y158.162
X46.89Y158.178
X46.866Y158.193
X46.843Y158.207
X46.819Y158.221
X46.794Y158.235
X46.77Y158.248
X46.745Y158.261
X46.72Y158.274
X46.695Y158.286
X46.669Y158.297
X46.644Y158.308
X46.619Y158.319
X46.592Y158.329
X46.566Y158.339
X46.54Y158.348
X46.514Y158.357
X46.487Y158.365
X46.46Y158.373
X46.434Y158.381
X46.406Y158.388
X46.379Y158.394
X46.352Y158.4
X46.325Y158.406
X46.298Y158.411
X46.27Y158.416
X46.242Y158.42
X46.215Y158.423
X46.187Y158.426
X46.159Y158.429
X46.132Y158.431
X46.104Y158.433
X46.076Y158.434
X46.048Y158.435
X46.02
X45.997
X45.937Y158.433
X45.909Y158.431
X45.881Y158.429
X45.856Y158.427
X45.825Y158.423
X45.798Y158.42
X45.77Y158.416
X45.743Y158.411
X45.716Y158.406
X45.688Y158.4
X45.661Y158.394
X45.634Y158.388
X45.607Y158.381
X45.58Y158.373
X45.553Y158.365
X45.527Y158.357
X45.5Y158.348
X45.474Y158.339
X45.448Y158.329
X45.422Y158.319
X45.396Y158.308
X45.371Y158.297
X45.345Y158.286
X45.32Y158.274
X45.295Y158.261
X45.257Y158.241
X45.219Y158.22
X45.174Y158.193
X45.151Y158.178
X45.127Y158.162
X45.104Y158.147
X45.082Y158.13
X45.059Y158.114
X45.037Y158.097
X45.016Y158.08
X44.994Y158.062
X44.973Y158.043
X44.952Y158.025
X44.931Y158.006
X44.911Y157.987
X44.891Y157.968
X44.872Y157.948
X44.852Y157.927
X44.834Y157.907
X44.815Y157.886
X44.797Y157.865
X44.779Y157.843
X44.762Y157.822
X44.745Y157.8
X44.729Y157.777
X44.712Y157.754
X44.697Y157.731
X44.681Y157.708
X44.656Y157.668
X44.636Y157.635
X44.624Y157.613
X44.61Y157.588
X44.585Y157.539
X44.573Y157.513
X44.56Y157.484
X44.551Y157.462
X44.54Y157.437
X44.53Y157.411
X44.52Y157.385
X44.511Y157.358
X44.502Y157.333
X44.493Y157.305
X44.485Y157.279
X44.478Y157.252
X44.471Y157.225
X44.465Y157.198
X44.459Y157.171
X44.453Y157.143
X44.448Y157.116
X44.443Y157.088
X44.439Y157.061
X44.436Y157.033
X44.432Y157.006
X44.43Y156.978
X44.428Y156.95
X44.426Y156.922
X44.425Y156.894
X44.424Y156.839
Y156.811
X44.425Y156.783
X44.426Y156.755
X44.428Y156.727
X44.43Y156.699
X44.432Y156.672
X44.436Y156.644
X44.439Y156.616
X44.443Y156.589
X44.448Y156.561
X44.453Y156.534
X44.459Y156.507
X44.465Y156.479
X44.471Y156.452
X44.478Y156.425
X44.485Y156.398
X44.493Y156.372
X44.502Y156.345
X44.511Y156.319
X44.52Y156.293
X44.53Y156.266
X44.54Y156.24
X44.551Y156.215
X44.562Y156.189
X44.573Y156.164
X44.585Y156.139
X44.598Y156.114
X44.611Y156.089
X44.624Y156.065
X44.638Y156.04
X44.652Y156.016
X44.666Y155.993
X44.681Y155.969
X44.697Y155.946
X44.712Y155.923
X44.729Y155.9
X44.762Y155.856
X44.797Y155.812
X44.815Y155.791
X44.834Y155.77
X44.853Y155.75
X44.872Y155.73
X44.891Y155.71
X44.911Y155.69
X44.952Y155.652
X44.973Y155.634
X44.994Y155.615
X45.016Y155.598
X45.037Y155.58
X45.059Y155.563
X45.082Y155.547
X45.104Y155.531
X45.128Y155.515
X45.151Y155.499
X45.174Y155.485
X45.198Y155.47
X45.222Y155.456
X45.246Y155.442
X45.271Y155.429
X45.295Y155.416
X45.32Y155.404
X45.346Y155.392
X45.371Y155.38
X45.396Y155.369
X45.422Y155.358
X45.448Y155.348
X45.5Y155.329
X45.527Y155.32
X45.553Y155.312
X45.58Y155.304
G0Z1
X59.422Y156.647
G1Z-0.05F50
X59.473Y156.478F100
X59.557Y156.322
X59.669Y156.186
X59.805Y156.074
X59.961Y155.99
X60.13Y155.939
X60.306Y155.922
X60.482Y155.939
X60.651Y155.99
X60.807Y156.074
X60.943Y156.186
X61.055Y156.322
X61.139Y156.478
X61.19Y156.647
X61.207Y156.823
X61.19Y156.999
X61.139Y157.168
X61.055Y157.324
X60.943Y157.46
X60.807Y157.573
X60.651Y157.656
X60.482Y157.707
X60.306Y157.724
X60.13Y157.707
X59.961Y157.656
X59.805Y157.573
X59.669Y157.46
X59.557Y157.324
X59.473Y157.168
X59.422Y156.999
X59.405Y156.823
X59.422Y156.647
G0Z1
X75.309Y156.823
G1Z-0.05F50
X75.326Y156.647F100
X75.377Y156.478
X75.461Y156.322
X75.573Y156.186
X75.709Y156.074
X75.865Y155.99
X76.034Y155.939
X76.21Y155.922
X76.386Y155.939
X76.555Y155.99
X76.711Y156.074
X76.847Y156.186
X76.959Y156.322
X77.043Y156.478
X77.094Y156.647
X77.111Y156.823
X77.094Y156.999
X77.043Y157.168
X76.959Y157.324
X76.847Y157.46
X76.711Y157.573
X76.555Y157.656
X76.386Y157.707
X76.21Y157.724
X76.034Y157.707
X75.865Y157.656
X75.709Y157.573
X75.573Y157.46
X75.461Y157.324
X75.377Y157.168
X75.326Y156.999
X75.309Y156.823
G0Z1
X78.812Y148.898
G1Z-0.05F50
X52.357F100
X51.703Y148.903
X51.049Y148.92
X50.396Y148.947
X49.743Y148.985
X49.091Y149.034
X48.439Y149.094
X47.789Y149.165
X47.14Y149.247
X46.493Y149.339
X45.847Y149.442
X45.203Y149.556
X44.56Y149.68
X44.436Y149.706
X44.313Y149.735
X44.19Y149.766
X44.068Y149.798
X43.946Y149.833
X43.825Y149.87
X43.705Y149.909
X43.585Y149.95
X43.466Y149.994
X43.348Y150.039
X43.231Y150.086
X43.114Y150.136
X42.998Y150.187
X42.884Y150.24
X42.77Y150.296
X42.657Y150.353
X42.545Y150.412
X42.434Y150.473
X42.324Y150.536
X42.216Y150.601
X42.108Y150.668
X42.002Y150.737
X41.897Y150.807
X41.793Y150.88
X41.69Y150.954
X41.589Y151.03
X41.489Y151.108
X41.39Y151.187
X41.293Y151.268
X41.198Y151.351
X41.103Y151.435
X41.01Y151.521
X40.919Y151.609
X40.829Y151.698
X40.741Y151.788
X40.654Y151.881
X40.569Y151.974
X40.485Y152.07
X40.404Y152.166
X40.304Y152.288
X40.206Y152.412
X40.111Y152.537
X40.016Y152.665
X39.925Y152.794
X39.836Y152.924
X39.749Y153.056
X39.664Y153.189
X39.582Y153.324
X39.502Y153.46
X39.424Y153.598
X39.349Y153.737
X39.276Y153.877
X39.205Y154.018
X39.137Y154.161
X39.072Y154.304
X39.008Y154.449
X38.948Y154.595
X38.889Y154.742
X38.834Y154.89
X38.781Y155.038
X38.73Y155.188
X38.682Y155.339
X38.637Y155.49
X38.594Y155.642
X38.554Y155.795
X38.516Y155.948
X38.481Y156.102
X38.449Y156.257
X38.419Y156.412
X38.392Y156.567
X38.368Y156.723
X38.346Y156.88
X38.328Y157.037
X38.311Y157.194
X38.298Y157.351
X38.287Y157.509
X38.279Y157.667
X38.273Y157.824
X38.271Y157.982
Y158.14
X38.273Y158.298
X38.279Y158.456
X38.287Y158.614
X38.297Y158.771
X38.311Y158.929
X38.327Y159.086
X38.346Y159.243
X38.366Y159.386
X38.785Y162.277
X38.799Y162.352
X38.815Y162.428
X38.834Y162.504
X38.856Y162.577
X38.88Y162.651
X38.907Y162.725
X38.936Y162.796
X38.968Y162.866
X39.002Y162.935
X39.039Y163.004
X39.077Y163.071
X39.119Y163.137
X39.162Y163.201
X39.208Y163.263
X39.256Y163.325
X39.306Y163.383
X39.357Y163.44
X39.402Y163.487
X39.457Y163.54
X39.515Y163.593
X39.574Y163.643
X39.634Y163.69
X39.698Y163.737
X39.761Y163.78
X39.827Y163.821
X39.894Y163.86
X39.961Y163.896
X40.032Y163.931
X40.102Y163.963
X40.174Y163.993
X40.246Y164.019
X40.32Y164.044
X40.395Y164.066
X40.482Y164.088
X40.559Y164.104
X40.635Y164.117
X40.712Y164.128
X40.788Y164.136
X40.866Y164.142
X40.943Y164.144
X40.982Y164.145
X46.033
X46.15Y164.143
X46.267Y164.14
X46.384Y164.136
X46.5Y164.129
X47.755Y164.038
X48.908Y163.974
X50.062Y163.928
X51.216Y163.9
X52.377Y163.891
X55.93
X55.968Y163.894
X56.006Y163.896
X56.044Y163.898
X56.082
X84.082
X84.122
X84.162Y163.896
X84.201Y163.894
X84.241Y163.89
X84.28Y163.886
X84.32Y163.88
X84.359Y163.874
X84.398Y163.866
X84.437Y163.858
X84.476Y163.849
X84.514Y163.838
X84.552Y163.827
X84.59Y163.815
X84.628Y163.802
X84.665Y163.787
X84.702Y163.772
X84.738Y163.757
X84.774Y163.74
X84.81Y163.722
X84.845Y163.703
X84.88Y163.684
X84.914Y163.663
X84.949Y163.641
X84.982Y163.619
X85.015Y163.596
X85.048Y163.571
X85.08Y163.546
X85.111Y163.521
X85.126Y163.508
X85.155Y163.481
X85.177Y163.461
X85.199Y163.44
X85.227Y163.411
X85.255Y163.382
X85.287Y163.346
X85.318Y163.309
X85.34Y163.282
X85.361Y163.254
X85.382Y163.225
X85.402Y163.196
X85.421Y163.166
X85.44Y163.136
X85.457Y163.108
X85.473Y163.079
X85.489Y163.05
X85.508Y163.013
X85.526Y162.975
X85.539Y162.946
X85.552Y162.916
X85.568Y162.876
X85.576Y162.854
X85.59Y162.814
X85.603Y162.773
X85.616Y162.731
X85.627Y162.689
X85.637Y162.646
X85.645Y162.606
X85.652Y162.565
X85.66Y162.514
X85.666Y162.458
X85.669Y162.424
X85.671Y162.39
X85.672Y162.357
X85.673Y162.307
Y162.075
X85.684Y162.013
X85.695Y161.937
X85.703Y161.858
X85.708Y161.781
X85.711Y161.703
Y161.665
Y150.831
Y150.792
X85.709Y150.752
X85.707Y150.713
X85.703Y150.673
X85.699Y150.634
X85.694Y150.595
X85.687Y150.556
X85.68Y150.517
X85.673Y150.484
X85.672Y150.442
X85.669Y150.399
X85.666Y150.356
X85.661Y150.313
X85.655Y150.27
X85.648Y150.228
X85.64Y150.186
X85.631Y150.143
X85.621Y150.102
X85.611Y150.067
X85.601Y150.033
X85.59Y149.999
X85.578Y149.965
X85.565Y149.931
X85.549Y149.89
X85.531Y149.849
X85.512Y149.809
X85.49Y149.765
X85.473Y149.735
X85.457Y149.706
X85.435Y149.67
X85.412Y149.634
X85.391Y149.602
X85.368Y149.571
X85.345Y149.54
X85.321Y149.509
X85.297Y149.48
X85.272Y149.45
X85.246Y149.422
X85.219Y149.394
X85.192Y149.367
X85.164Y149.34
X85.135Y149.314
X85.106Y149.289
X85.076Y149.265
X85.046Y149.241
X85.015Y149.218
X84.983Y149.196
X84.951Y149.174
X84.919Y149.154
X84.886Y149.134
X84.852Y149.115
X84.817Y149.096
X84.783Y149.079
X84.749Y149.062
X84.714Y149.047
X84.679Y149.032
X84.643Y149.018
X84.607Y149.005
X84.571Y148.993
X84.534Y148.982
X84.498Y148.971
X84.461Y148.962
X84.423Y148.953
X84.386Y148.945
X84.348Y148.938
X84.311Y148.933
X84.273Y148.927
X84.235Y148.923
X84.197Y148.92
X84.159Y148.918
X84.12Y148.916
X84.082
X80.146
X79.556Y148.903
X78.812Y148.898
G0Z1
X45.58Y155.304
G1Z-0.1F50
X45.634Y155.289F100
X45.661Y155.283
X45.687Y155.277
X45.716Y155.271
X45.771Y155.262
X45.798Y155.257
X45.826Y155.254
X45.853Y155.251
X45.898Y155.247
X45.944Y155.244
X45.965Y155.243
X45.992Y155.242
X46.02
X46.048
X46.076Y155.243
X46.132Y155.246
X46.16Y155.248
X46.187Y155.251
X46.215Y155.254
X46.242Y155.257
X46.298Y155.266
X46.325Y155.271
X46.352Y155.277
X46.379Y155.283
X46.406Y155.289
X46.434Y155.296
X46.46Y155.304
X46.487Y155.312
X46.514Y155.32
X46.54Y155.329
X46.566Y155.338
X46.592Y155.348
X46.618Y155.358
X46.644Y155.369
X46.67Y155.38
X46.695Y155.392
X46.72Y155.404
X46.745Y155.416
X46.77Y155.429
X46.794Y155.442
X46.818Y155.456
X46.843Y155.47
X46.867Y155.485
X46.89Y155.5
X46.913Y155.515
X46.936Y155.531
X46.959Y155.547
X46.981Y155.563
X47.003Y155.58
X47.025Y155.598
X47.046Y155.615
X47.081Y155.645
X47.113Y155.674
X47.129Y155.69
X47.162Y155.723
X47.19Y155.752
X47.207Y155.77
X47.225Y155.791
X47.243Y155.812
X47.261Y155.834
X47.278Y155.856
X47.295Y155.878
X47.328Y155.923
X47.344Y155.946
X47.369Y155.985
X47.39Y156.018
X47.403Y156.04
X47.417Y156.064
X47.43Y156.089
X47.443Y156.114
X47.455Y156.139
X47.467Y156.164
X47.49Y156.215
X47.501Y156.24
X47.512Y156.27
X47.521Y156.293
X47.53Y156.319
X47.539Y156.345
X47.547Y156.372
X47.555Y156.398
X47.562Y156.425
X47.569Y156.452
X47.576Y156.479
X47.582Y156.507
X47.588Y156.534
X47.593Y156.561
X47.597Y156.589
X47.601Y156.616
X47.605Y156.644
X47.608Y156.672
X47.611Y156.699
X47.613Y156.727
X47.615Y156.755
X47.616Y156.783
X47.617Y156.811
Y156.839
Y156.867
X47.616Y156.894
X47.615Y156.922
X47.613Y156.95
X47.611Y156.978
X47.608Y157.006
X47.605Y157.033
X47.601Y157.061
X47.597Y157.088
X47.593Y157.116
X47.588Y157.143
X47.582Y157.171
X47.576Y157.198
X47.57Y157.225
X47.562Y157.252
X47.555Y157.279
X47.547Y157.305
X47.539Y157.332
X47.53Y157.358
X47.521Y157.385
X47.511Y157.411
X47.501Y157.437
X47.49Y157.463
X47.479Y157.488
X47.467Y157.513
X47.455Y157.539
X47.443Y157.563
X47.43Y157.588
X47.417Y157.613
X47.403Y157.637
X47.389Y157.661
X47.374Y157.685
X47.359Y157.708
X47.344Y157.731
X47.328Y157.754
X47.312Y157.777
X47.295Y157.8
X47.278Y157.822
X47.261Y157.843
X47.243Y157.865
X47.225Y157.886
X47.207Y157.907
X47.188Y157.927
X47.169Y157.948
X47.149Y157.968
X47.129Y157.987
X47.109Y158.006
X47.089Y158.025
X47.068Y158.043
X47.047Y158.062
X47.025Y158.08
X47.003Y158.097
X46.981Y158.114
X46.959Y158.13
X46.936Y158.147
X46.913Y158.162
X46.89Y158.178
X46.866Y158.193
X46.843Y158.207
X46.819Y158.221
X46.794Y158.235
X46.77Y158.248
X46.745Y158.261
X46.72Y158.274
X46.695Y158.286
X46.669Y158.297
X46.644Y158.308
X46.619Y158.319
X46.592Y158.329
X46.566Y158.339
X46.54Y158.348
X46.514Y158.357
X46.487Y158.365
X46.46Y158.373
X46.434Y158.381
X46.406Y158.388
X46.379Y158.394
X46.352Y158.4
X46.325Y158.406
X46.298Y158.411
X46.27Y158.416
X46.242Y158.42
X46.215Y158.423
X46.187Y158.426
X46.159Y158.429
X46.132Y158.431
X46.104Y158.433
X46.076Y158.434
X46.048Y158.435
X46.02
X45.997
X45.937Y158.433
X45.909Y158.431
X45.881Y158.429
X45.856Y158.427
X45.825Y158.423
X45.798Y158.42
X45.77Y158.416
X45.743Y158.411
X45.716Y158.406
X45.688Y158.4
X45.661Y158.394
X45.634Y158.388
X45.607Y158.381
X45.58Y158.373
X45.553Y158.365
X45.527Y158.357
X45.5Y158.348
X45.474Y158.339
X45.448Y158.329
X45.422Y158.319
X45.396Y158.308
X45.371Y158.297
X45.345Y158.286
X45.32Y158.274
X45.295Y158.261
X45.257Y158.241
X45.219Y158.22
X45.174Y158.193
X45.151Y158.178
X45.127Y158.162
X45.104Y158.147
X45.082Y158.13
X45.059Y158.114
X45.037Y158.097
X45.016Y158.08
X44.994Y158.062
X44.973Y158.043
X44.952Y158.025
X44.931Y158.006
X44.911Y157.987
X44.891Y157.968
X44.872Y157.948
X44.852Y157.927
X44.834Y157.907
X44.815Y157.886
X44.797Y157.865
X44.779Y157.843
X44.762Y157.822
X44.745Y157.8
X44.729Y157.777
X44.712Y157.754
X44.697Y157.731
X44.681Y157.708
X44.656Y157.668
X44.636Y157.635
X44.624Y157.613
X44.61Y157.588
X44.585Y157.539
X44.573Y157.513
X44.56Y157.484
X44.551Y157.462
X44.54Y157.437
X44.53Y157.411
X44.52Y157.385
X44.511Y157.358
X44.502Y157.333
X44.493Y157.305
X44.485Y157.279
X44.478Y157.252
X44.471Y157.225
X44.465Y157.198
X44.459Y157.171
X44.453Y157.143
X44.448Y157.116
X44.443Y157.088
X44.439Y157.061
X44.436Y157.033
X44.432Y157.006
X44.43Y156.978
X44.428Y156.95
X44.426Y156.922
X44.425Y156.894
X44.424Y156.839
Y156.811
X44.425Y156.783
X44.426Y156.755
X44.428Y156.727
X44.43Y156.699
X44.432Y156.672
X44.436Y156.644
X44.439Y156.616
X44.443Y156.589
X44.448Y156.561
X44.453Y156.534
X44.459Y156.507
X44.465Y156.479
X44.471Y156.452
X44.478Y156.425
X44.485Y156.398
X44.493Y156.372
X44.502Y156.345
X44.511Y156.319
X44.52Y156.293
X44.53Y156.266
X44.54Y156.24
X44.551Y156.215
X44.562Y156.189
X44.573Y156.164
X44.585Y156.139
X44.598Y156.114
X44.611Y156.089
X44.624Y156.065
X44.638Y156.04
X44.652Y156.016
X44.666Y155.993
X44.681Y155.969
X44.697Y155.946
X44.712Y155.923
X44.729Y155.9
X44.762Y155.856
X44.797Y155.812
X44.815Y155.791
X44.834Y155.77
X44.853Y155.75
X44.872Y155.73
X44.891Y155.71
X44.911Y155.69
X44.952Y155.652
X44.973Y155.634
X44.994Y155.615
X45.016Y155.598
X45.037Y155.58
X45.059Y155.563
X45.082Y155.547
X45.104Y155.531
X45.128Y155.515
X45.151Y155.499
X45.174Y155.485
X45.198Y155.47
X45.222Y155.456
X45.246Y155.442
X45.271Y155.429
X45.295Y155.416
X45.32Y155.404
X45.346Y155.392
X45.371Y155.38
X45.396Y155.369
X45.422Y155.358
X45.448Y155.348
X45.5Y155.329
X45.527Y155.32
X45.553Y155.312
X45.58Y155.304
G0Z1
X59.422Y156.647
G1Z-0.1F50
X59.473Y156.478F100
X59.557Y156.322
X59.669Y156.186
X59.805Y156.074
X59.961Y155.99
X60.13Y155.939
X60.306Y155.922
X60.482Y155.939
X60.651Y155.99
X60.807Y156.074
X60.943Y156.186
X61.055Y156.322
X61.139Y156.478
X61.19Y156.647
X61.207Y156.823
X61.19Y156.999
X61.139Y157.168
X61.055Y157.324
X60.943Y157.46
X60.807Y157.573
X60.651Y157.656
X60.482Y157.707
X60.306Y157.724
X60.13Y157.707
X59.961Y157.656
X59.805Y157.573
X59.669Y157.46
X59.557Y157.324
X59.473Y157.168
X59.422Y156.999
X59.405Y156.823
X59.422Y156.647
G0Z1
X75.309Y156.823
G1Z-0.1F50
X75.326Y156.647F100
X75.377Y156.478
X75.461Y156.322
X75.573Y156.186
X75.709Y156.074
X75.865Y155.99
X76.034Y155.939
X76.21Y155.922
X76.386Y155.939
X76.555Y155.99
X76.711Y156.074
X76.847Y156.186
X76.959Y156.322
X77.043Y156.478
X77.094Y156.647
X77.111Y156.823
X77.094Y156.999
X77.043Y157.168
X76.959Y157.324
X76.847Y157.46
X76.711Y157.573
X76.555Y157.656
X76.386Y157.707
X76.21Y157.724
X76.034Y157.707
X75.865Y157.656
X75.709Y157.573
X75.573Y157.46
X75.461Y157.324
X75.377Y157.168
X75.326Y156.999
X75.309Y156.823
G0Z1
X78.812Y148.898
G1Z-0.1F50
X52.357F100
X51.703Y148.903
X51.049Y148.92
X50.396Y148.947
X49.743Y148.985
X49.091Y149.034
X48.439Y149.094
X47.789Y149.165
X47.14Y149.247
X46.493Y149.339
X45.847Y149.442
X45.203Y149.556
X44.56Y149.68
X44.436Y149.706
X44.313Y149.735
X44.19Y149.766
X44.068Y149.798
X43.946Y149.833
X43.825Y149.87
X43.705Y149.909
X43.585Y149.95
X43.466Y149.994
X43.348Y150.039
X43.231Y150.086
X43.114Y150.136
X42.998Y150.187
X42.884Y150.24
X42.77Y150.296
X42.657Y150.353
X42.545Y150.412
X42.434Y150.473
X42.324Y150.536
X42.216Y150.601
X42.108Y150.668
X42.002Y150.737
X41.897Y150.807
X41.793Y150.88
X41.69Y150.954
X41.589Y151.03
X41.489Y151.108
X41.39Y151.187
X41.293Y151.268
X41.198Y151.351
X41.103Y151.435
X41.01Y151.521
X40.919Y151.609
X40.829Y151.698
X40.741Y151.788
X40.654Y151.881
X40.569Y151.974
X40.485Y152.07
X40.404Y152.166
X40.304Y152.288
X40.206Y152.412
X40.111Y152.537
X40.016Y152.665
X39.925Y152.794
X39.836Y152.924
X39.749Y153.056
X39.664Y153.189
X39.582Y153.324
X39.502Y153.46
X39.424Y153.598
X39.349Y153.737
X39.276Y153.877
X39.205Y154.018
X39.137Y154.161
X39.072Y154.304
X39.008Y154.449
X38.948Y154.595
X38.889Y154.742
X38.834Y154.89
X38.781Y155.038
X38.73Y155.188
X38.682Y155.339
X38.637Y155.49
X38.594Y155.642
X38.554Y155.795
X38.516Y155.948
X38.481Y156.102
X38.449Y156.257
X38.419Y156.412
X38.392Y156.567
X38.368Y156.723
X38.346Y156.88
X38.328Y157.037
X38.311Y157.194
X38.298Y157.351
X38.287Y157.509
X38.279Y157.667
X38.273Y157.824
X38.271Y157.982
Y158.14
X38.273Y158.298
X38.279Y158.456
X38.287Y158.614
X38.297Y158.771
X38.311Y158.929
X38.327Y159.086
X38.346Y159.243
X38.366Y159.386
X38.785Y162.277
X38.799Y162.352
X38.815Y162.428
X38.834Y162.504
X38.856Y162.577
X38.88Y162.651
X38.907Y162.725
X38.936Y162.796
X38.968Y162.866
X39.002Y162.935
X39.039Y163.004
X39.077Y163.071
X39.119Y163.137
X39.162Y163.201
X39.208Y163.263
X39.256Y163.325
X39.306Y163.383
X39.357Y163.44
X39.402Y163.487
X39.457Y163.54
X39.515Y163.593
X39.574Y163.643
X39.634Y163.69
X39.698Y163.737
X39.761Y163.78
X39.827Y163.821
X39.894Y163.86
X39.961Y163.896
X40.032Y163.931
X40.102Y163.963
X40.174Y163.993
X40.246Y164.019
X40.32Y164.044
X40.395Y164.066
X40.482Y164.088
X40.559Y164.104
X40.635Y164.117
X40.712Y164.128
X40.788Y164.136
X40.866Y164.142
X40.943Y164.144
X40.982Y164.145
X46.033
X46.15Y164.143
X46.267Y164.14
X46.384Y164.136
X46.5Y164.129
X47.755Y164.038
X48.908Y163.974
X50.062Y163.928
X51.216Y163.9
X52.377Y163.891
X55.93
X55.968Y163.894
X56.006Y163.896
X56.044Y163.898
X56.082
X84.082
X84.122
X84.162Y163.896
X84.201Y163.894
X84.241Y163.89
X84.28Y163.886
X84.32Y163.88
X84.359Y163.874
X84.398Y163.866
X84.437Y163.858
X84.476Y163.849
X84.514Y163.838
X84.552Y163.827
X84.59Y163.815
X84.628Y163.802
X84.665Y163.787
X84.702Y163.772
X84.738Y163.757
X84.774Y163.74
X84.81Y163.722
X84.845Y163.703
X84.88Y163.684
X84.914Y163.663
X84.949Y163.641
X84.982Y163.619
X85.015Y163.596
X85.048Y163.571
X85.08Y163.546
X85.111Y163.521
X85.126Y163.508
X85.155Y163.481
X85.177Y163.461
X85.199Y163.44
X85.227Y163.411
X85.255Y163.382
X85.287Y163.346
X85.318Y163.309
X85.34Y163.282
X85.361Y163.254
X85.382Y163.225
X85.402Y163.196
X85.421Y163.166
X85.44Y163.136
X85.457Y163.108
X85.473Y163.079
X85.489Y163.05
X85.508Y163.013
X85.526Y162.975
X85.539Y162.946
X85.552Y162.916
X85.568Y162.876
X85.576Y162.854
X85.59Y162.814
X85.603Y162.773
X85.616Y162.731
X85.627Y162.689
X85.637Y162.646
X85.645Y162.606
X85.652Y162.565
X85.66Y162.514
X85.666Y162.458
X85.669Y162.424
X85.671Y162.39
X85.672Y162.357
X85.673Y162.307
Y162.075
X85.684Y162.013
X85.695Y161.937
X85.703Y161.858
X85.708Y161.781
X85.711Y161.703
Y161.665
Y150.831
Y150.792
X85.709Y150.752
X85.707Y150.713
X85.703Y150.673
X85.699Y150.634
X85.694Y150.595
X85.687Y150.556
X85.68Y150.517
X85.673Y150.484
X85.672Y150.442
X85.669Y150.399
X85.666Y150.356
X85.661Y150.313
X85.655Y150.27
X85.648Y150.228
X85.64Y150.186
X85.631Y150.143
X85.621Y150.102
X85.611Y150.067
X85.601Y150.033
X85.59Y149.999
X85.578Y149.965
X85.565Y149.931
X85.549Y149.89
X85.531Y149.849
X85.512Y149.809
X85.49Y149.765
X85.473Y149.735
X85.457Y149.706
X85.435Y149.67
X85.412Y149.634
X85.391Y149.602
X85.368Y149.571
X85.345Y149.54
X85.321Y149.509
X85.297Y149.48
X85.272Y149.45
X85.246Y149.422
X85.219Y149.394
X85.192Y149.367
X85.164Y149.34
X85.135Y149.314
X85.106Y149.289
X85.076Y149.265
X85.046Y149.241
X85.015Y149.218
X84.983Y149.196
X84.951Y149.174
X84.919Y149.154
X84.886Y149.134
X84.852Y149.115
X84.817Y149.096
X84.783Y149.079
X84.749Y149.062
X84.714Y149.047
X84.679Y149.032
X84.643Y149.018
X84.607Y149.005
X84.571Y148.993
X84.534Y148.982
X84.498Y148.971
X84.461Y148.962
X84.423Y148.953
X84.386Y148.945
X84.348Y148.938
X84.311Y148.933
X84.273Y148.927
X84.235Y148.923
X84.197Y148.92
X84.159Y148.918
X84.12Y148.916
X84.082
X80.146
X79.556Y148.903
X78.812Y148.898
G0Z1
X45.58Y155.304
G1Z-0.15F50
X45.634Y155.289F100
X45.661Y155.283
X45.687Y155.277
X45.716Y155.271
X45.771Y155.262
X45.798Y155.257
X45.826Y155.254
X45.853Y155.251
X45.898Y155.247
X45.944Y155.244
X45.965Y155.243
X45.992Y155.242
X46.02
X46.048
X46.076Y155.243
X46.132Y155.246
X46.16Y155.248
X46.187Y155.251
X46.215Y155.254
X46.242Y155.257
X46.298Y155.266
X46.325Y155.271
X46.352Y155.277
X46.379Y155.283
X46.406Y155.289
X46.434Y155.296
X46.46Y155.304
X46.487Y155.312
X46.514Y155.32
X46.54Y155.329
X46.566Y155.338
X46.592Y155.348
X46.618Y155.358
X46.644Y155.369
X46.67Y155.38
X46.695Y155.392
X46.72Y155.404
X46.745Y155.416
X46.77Y155.429
X46.794Y155.442
X46.818Y155.456
X46.843Y155.47
X46.867Y155.485
X46.89Y155.5
X46.913Y155.515
X46.936Y155.531
X46.959Y155.547
X46.981Y155.563
X47.003Y155.58
X47.025Y155.598
X47.046Y155.615
X47.081Y155.645
X47.113Y155.674
X47.129Y155.69
X47.162Y155.723
X47.19Y155.752
X47.207Y155.77
X47.225Y155.791
X47.243Y155.812
X47.261Y155.834
X47.278Y155.856
X47.295Y155.878
X47.328Y155.923
X47.344Y155.946
X47.369Y155.985
X47.39Y156.018
X47.403Y156.04
X47.417Y156.064
X47.43Y156.089
X47.443Y156.114
X47.455Y156.139
X47.467Y156.164
X47.49Y156.215
X47.501Y156.24
X47.512Y156.27
X47.521Y156.293
X47.53Y156.319
X47.539Y156.345
X47.547Y156.372
X47.555Y156.398
X47.562Y156.425
X47.569Y156.452
X47.576Y156.479
X47.582Y156.507
X47.588Y156.534
X47.593Y156.561
X47.597Y156.589
X47.601Y156.616
X47.605Y156.644
X47.608Y156.672
X47.611Y156.699
X47.613Y156.727
X47.615Y156.755
X47.616Y156.783
X47.617Y156.811
Y156.839
Y156.867
X47.616Y156.894
X47.615Y156.922
X47.613Y156.95
X47.611Y156.978
X47.608Y157.006
X47.605Y157.033
X47.601Y157.061
X47.597Y157.088
X47.593Y157.116
X47.588Y157.143
X47.582Y157.171
X47.576Y157.198
X47.57Y157.225
X47.562Y157.252
X47.555Y157.279
X47.547Y157.305
X47.539Y157.332
X47.53Y157.358
X47.521Y157.385
X47.511Y157.411
X47.501Y157.437
X47.49Y157.463
X47.479Y157.488
X47.467Y157.513
X47.455Y157.539
X47.443Y157.563
X47.43Y157.588
X47.417Y157.613
X47.403Y157.637
X47.389Y157.661
X47.374Y157.685
X47.359Y157.708
X47.344Y157.731
X47.328Y157.754
X47.312Y157.777
X47.295Y157.8
X47.278Y157.822
X47.261Y157.843
X47.243Y157.865
X47.225Y157.886
X47.207Y157.907
X47.188Y157.927
X47.169Y157.948
X47.149Y157.968
X47.129Y157.987
X47.109Y158.006
X47.089Y158.025
X47.068Y158.043
X47.047Y158.062
X47.025Y158.08
X47.003Y158.097
X46.981Y158.114
X46.959Y158.13
X46.936Y158.147
X46.913Y158.162
X46.89Y158.178
X46.866Y158.193
X46.843Y158.207
X46.819Y158.221
X46.794Y158.235
X46.77Y158.248
X46.745Y158.261
X46.72Y158.274
X46.695Y158.286
X46.669Y158.297
X46.644Y158.308
X46.619Y158.319
X46.592Y158.329
X46.566Y158.339
X46.54Y158.348
X46.514Y158.357
X46.487Y158.365
X46.46Y158.373
X46.434Y158.381
X46.406Y158.388
X46.379Y158.394
X46.352Y158.4
X46.325Y158.406
X46.298Y158.411
X46.27Y158.416
X46.242Y158.42
X46.215Y158.423
X46.187Y158.426
X46.159Y158.429
X46.132Y158.431
X46.104Y158.433
X46.076Y158.434
X46.048Y158.435
X46.02
X45.997
X45.937Y158.433
X45.909Y158.431
X45.881Y158.429
X45.856Y158.427
X45.825Y158.423
X45.798Y158.42
X45.77Y158.416
X45.743Y158.411
X45.716Y158.406
X45.688Y158.4
X45.661Y158.394
X45.634Y158.388
X45.607Y158.381
X45.58Y158.373
X45.553Y158.365
X45.527Y158.357
X45.5Y158.348
X45.474Y158.339
X45.448Y158.329
X45.422Y158.319
X45.396Y158.308
X45.371Y158.297
X45.345Y158.286
X45.32Y158.274
X45.295Y158.261
X45.257Y158.241
X45.219Y158.22
X45.174Y158.193
X45.151Y158.178
X45.127Y158.162
X45.104Y158.147
X45.082Y158.13
X45.059Y158.114
X45.037Y158.097
X45.016Y158.08
X44.994Y158.062
X44.973Y158.043
X44.952Y158.025
X44.931Y158.006
X44.911Y157.987
X44.891Y157.968
X44.872Y157.948
X44.852Y157.927
X44.834Y157.907
X44.815Y157.886
X44.797Y157.865
X44.779Y157.843
X44.762Y157.822
X44.745Y157.8
X44.729Y157.777
X44.712Y157.754
X44.697Y157.731
X44.681Y157.708
X44.656Y157.668
X44.636Y157.635
X44.624Y157.613
X44.61Y157.588
X44.585Y157.539
X44.573Y157.513
X44.56Y157.484
X44.551Y157.462
X44.54Y157.437
X44.53Y157.411
X44.52Y157.385
X44.511Y157.358
X44.502Y157.333
X44.493Y157.305
X44.485Y157.279
X44.478Y157.252
X44.471Y157.225
X44.465Y157.198
X44.459Y157.171
X44.453Y157.143
X44.448Y157.116
X44.443Y157.088
X44.439Y157.061
X44.436Y157.033
X44.432Y157.006
X44.43Y156.978
X44.428Y156.95
X44.426Y156.922
X44.425Y156.894
X44.424Y156.839
Y156.811
X44.425Y156.783
X44.426Y156.755
X44.428Y156.727
X44.43Y156.699
X44.432Y156.672
X44.436Y156.644
X44.439Y156.616
X44.443Y156.589
X44.448Y156.561
X44.453Y156.534
X44.459Y156.507
X44.465Y156.479
X44.471Y156.452
X44.478Y156.425
X44.485Y156.398
X44.493Y156.372
X44.502Y156.345
X44.511Y156.319
X44.52Y156.293
X44.53Y156.266
X44.54Y156.24
X44.551Y156.215
X44.562Y156.189
X44.573Y156.164
X44.585Y156.139
X44.598Y156.114
X44.611Y156.089
X44.624Y156.065
X44.638Y156.04
X44.652Y156.016
X44.666Y155.993
X44.681Y155.969
X44.697Y155.946
X44.712Y155.923
X44.729Y155.9
X44.762Y155.856
X44.797Y155.812
X44.815Y155.791
X44.834Y155.77
X44.853Y155.75
X44.872Y155.73
X44.891Y155.71
X44.911Y155.69
X44.952Y155.652
X44.973Y155.634
X44.994Y155.615
X45.016Y155.598
X45.037Y155.58
X45.059Y155.563
X45.082Y155.547
X45.104Y155.531
X45.128Y155.515
X45.151Y155.499
X45.174Y155.485
X45.198Y155.47
X45.222Y155.456
X45.246Y155.442
X45.271Y155.429
X45.295Y155.416
X45.32Y155.404
X45.346Y155.392
X45.371Y155.38
X45.396Y155.369
X45.422Y155.358
X45.448Y155.348
X45.5Y155.329
X45.527Y155.32
X45.553Y155.312
X45.58Y155.304
G0Z1
X59.422Y156.647
G1Z-0.15F50
X59.473Y156.478F100
X59.557Y156.322
X59.669Y156.186
X59.805Y156.074
X59.961Y155.99
X60.13Y155.939
X60.306Y155.922
X60.482Y155.939
X60.651Y155.99
X60.807Y156.074
X60.943Y156.186
X61.055Y156.322
X61.139Y156.478
X61.19Y156.647
X61.207Y156.823
X61.19Y156.999
X61.139Y157.168
X61.055Y157.324
X60.943Y157.46
X60.807Y157.573
X60.651Y157.656
X60.482Y157.707
X60.306Y157.724
X60.13Y157.707
X59.961Y157.656
X59.805Y157.573
X59.669Y157.46
X59.557Y157.324
X59.473Y157.168
X59.422Y156.999
X59.405Y156.823
X59.422Y156.647
G0Z1
X75.309Y156.823
G1Z-0.15F50
X75.326Y156.647F100
X75.377Y156.478
X75.461Y156.322
X75.573Y156.186
X75.709Y156.074
X75.865Y155.99
X76.034Y155.939
X76.21Y155.922
X76.386Y155.939
X76.555Y155.99
X76.711Y156.074
X76.847Y156.186
X76.959Y156.322
X77.043Y156.478
X77.094Y156.647
X77.111Y156.823
X77.094Y156.999
X77.043Y157.168
X76.959Y157.324
X76.847Y157.46
X76.711Y157.573
X76.555Y157.656
X76.386Y157.707
X76.21Y157.724
X76.034Y157.707
X75.865Y157.656
X75.709Y157.573
X75.573Y157.46
X75.461Y157.324
X75.377Y157.168
X75.326Y156.999
X75.309Y156.823
G0Z1
X78.812Y148.898
G1Z-0.15F50
X52.357F100
X51.703Y148.903
X51.049Y148.92
X50.396Y148.947
X49.743Y148.985
X49.091Y149.034
X48.439Y149.094
X47.789Y149.165
X47.14Y149.247
X46.493Y149.339
X45.847Y149.442
X45.203Y149.556
X44.56Y149.68
X44.436Y149.706
X44.313Y149.735
X44.19Y149.766
X44.068Y149.798
X43.946Y149.833
X43.825Y149.87
X43.705Y149.909
X43.585Y149.95
X43.466Y149.994
X43.348Y150.039
X43.231Y150.086
X43.114Y150.136
X42.998Y150.187
X42.884Y150.24
X42.77Y150.296
X42.657Y150.353
X42.545Y150.412
X42.434Y150.473
X42.324Y150.536
X42.216Y150.601
X42.108Y150.668
X42.002Y150.737
X41.897Y150.807
X41.793Y150.88
X41.69Y150.954
X41.589Y151.03
X41.489Y151.108
X41.39Y151.187
X41.293Y151.268
X41.198Y151.351
X41.103Y151.435
X41.01Y151.521
X40.919Y151.609
X40.829Y151.698
X40.741Y151.788
X40.654Y151.881
X40.569Y151.974
X40.485Y152.07
X40.404Y152.166
X40.304Y152.288
X40.206Y152.412
X40.111Y152.537
X40.016Y152.665
X39.925Y152.794
X39.836Y152.924
X39.749Y153.056
X39.664Y153.189
X39.582Y153.324
X39.502Y153.46
X39.424Y153.598
X39.349Y153.737
X39.276Y153.877
X39.205Y154.018
X39.137Y154.161
X39.072Y154.304
X39.008Y154.449
X38.948Y154.595
X38.889Y154.742
X38.834Y154.89
X38.781Y155.038
X38.73Y155.188
X38.682Y155.339
X38.637Y155.49
X38.594Y155.642
X38.554Y155.795
X38.516Y155.948
X38.481Y156.102
X38.449Y156.257
X38.419Y156.412
X38.392Y156.567
X38.368Y156.723
X38.346Y156.88
X38.328Y157.037
X38.311Y157.194
X38.298Y157.351
X38.287Y157.509
X38.279Y157.667
X38.273Y157.824
X38.271Y157.982
Y158.14
X38.273Y158.298
X38.279Y158.456
X38.287Y158.614
X38.297Y158.771
X38.311Y158.929
X38.327Y159.086
X38.346Y159.243
X38.366Y159.386
X38.785Y162.277
X38.799Y162.352
X38.815Y162.428
X38.834Y162.504
X38.856Y162.577
X38.88Y162.651
X38.907Y162.725
X38.936Y162.796
X38.968Y162.866
X39.002Y162.935
X39.039Y163.004
X39.077Y163.071
X39.119Y163.137
X39.162Y163.201
X39.208Y163.263
X39.256Y163.325
X39.306Y163.383
X39.357Y163.44
X39.402Y163.487
X39.457Y163.54
X39.515Y163.593
X39.574Y163.643
X39.634Y163.69
X39.698Y163.737
X39.761Y163.78
X39.827Y163.821
X39.894Y163.86
X39.961Y163.896
X40.032Y163.931
X40.102Y163.963
X40.174Y163.993
X40.246Y164.019
X40.32Y164.044
X40.395Y164.066
X40.482Y164.088
X40.559Y164.104
X40.635Y164.117
X40.712Y164.128
X40.788Y164.136
X40.866Y164.142
X40.943Y164.144
X40.982Y164.145
X46.033
X46.15Y164.143
X46.267Y164.14
X46.384Y164.136
X46.5Y164.129
X47.755Y164.038
X48.908Y163.974
X50.062Y163.928
X51.216Y163.9
X52.377Y163.891
X55.93
X55.968Y163.894
X56.006Y163.896
X56.044Y163.898
X56.082
X84.082
X84.122
X84.162Y163.896
X84.201Y163.894
X84.241Y163.89
X84.28Y163.886
X84.32Y163.88
X84.359Y163.874
X84.398Y163.866
X84.437Y163.858
X84.476Y163.849
X84.514Y163.838
X84.552Y163.827
X84.59Y163.815
X84.628Y163.802
X84.665Y163.787
X84.702Y163.772
X84.738Y163.757
X84.774Y163.74
X84.81Y163.722
X84.845Y163.703
X84.88Y163.684
X84.914Y163.663
X84.949Y163.641
X84.982Y163.619
X85.015Y163.596
X85.048Y163.571
X85.08Y163.546
X85.111Y163.521
X85.126Y163.508
X85.155Y163.481
X85.177Y163.461
X85.199Y163.44
X85.227Y163.411
X85.255Y163.382
X85.287Y163.346
X85.318Y163.309
X85.34Y163.282
X85.361Y163.254
X85.382Y163.225
X85.402Y163.196
X85.421Y163.166
X85.44Y163.136
X85.457Y163.108
X85.473Y163.079
X85.489Y163.05
X85.508Y163.013
X85.526Y162.975
X85.539Y162.946
X85.552Y162.916
X85.568Y162.876
X85.576Y162.854
X85.59Y162.814
X85.603Y162.773
X85.616Y162.731
X85.627Y162.689
X85.637Y162.646
X85.645Y162.606
X85.652Y162.565
X85.66Y162.514
X85.666Y162.458
X85.669Y162.424
X85.671Y162.39
X85.672Y162.357
X85.673Y162.307
Y162.075
X85.684Y162.013
X85.695Y161.937
X85.703Y161.858
X85.708Y161.781
X85.711Y161.703
Y161.665
Y150.831
Y150.792
X85.709Y150.752
X85.707Y150.713
X85.703Y150.673
X85.699Y150.634
X85.694Y150.595
X85.687Y150.556
X85.68Y150.517
X85.673Y150.484
X85.672Y150.442
X85.669Y150.399
X85.666Y150.356
X85.661Y150.313
X85.655Y150.27
X85.648Y150.228
X85.64Y150.186
X85.631Y150.143
X85.621Y150.102
X85.611Y150.067
X85.601Y150.033
X85.59Y149.999
X85.578Y149.965
X85.565Y149.931
X85.549Y149.89
X85.531Y149.849
X85.512Y149.809
X85.49Y149.765
X85.473Y149.735
X85.457Y149.706
X85.435Y149.67
X85.412Y149.634
X85.391Y149.602
X85.368Y149.571
X85.345Y149.54
X85.321Y149.509
X85.297Y149.48
X85.272Y149.45
X85.246Y149.422
X85.219Y149.394
X85.192Y149.367
X85.164Y149.34
X85.135Y149.314
X85.106Y149.289
X85.076Y149.265
X85.046Y149.241
X85.015Y149.218
X84.983Y149.196
X84.951Y149.174
X84.919Y149.154
X84.886Y149.134
X84.852Y149.115
X84.817Y149.096
X84.783Y149.079
X84.749Y149.062
X84.714Y149.047
X84.679Y149.032
X84.643Y149.018
X84.607Y149.005
X84.571Y148.993
X84.534Y148.982
X84.498Y148.971
X84.461Y148.962
X84.423Y148.953
X84.386Y148.945
X84.348Y148.938
X84.311Y148.933
X84.273Y148.927
X84.235Y148.923
X84.197Y148.92
X84.159Y148.918
X84.12Y148.916
X84.082
X80.146
X79.556Y148.903
X78.812Y148.898
G0Z1
X45.58Y155.304
G1Z-0.2F50
X45.634Y155.289F100
X45.661Y155.283
X45.687Y155.277
X45.716Y155.271
X45.771Y155.262
X45.798Y155.257
X45.826Y155.254
X45.853Y155.251
X45.898Y155.247
X45.944Y155.244
X45.965Y155.243
X45.992Y155.242
X46.02
X46.048
X46.076Y155.243
X46.132Y155.246
X46.16Y155.248
X46.187Y155.251
X46.215Y155.254
X46.242Y155.257
X46.298Y155.266
X46.325Y155.271
X46.352Y155.277
X46.379Y155.283
X46.406Y155.289
X46.434Y155.296
X46.46Y155.304
X46.487Y155.312
X46.514Y155.32
X46.54Y155.329
X46.566Y155.338
X46.592Y155.348
X46.618Y155.358
X46.644Y155.369
X46.67Y155.38
X46.695Y155.392
X46.72Y155.404
X46.745Y155.416
X46.77Y155.429
X46.794Y155.442
X46.818Y155.456
X46.843Y155.47
X46.867Y155.485
X46.89Y155.5
X46.913Y155.515
X46.936Y155.531
X46.959Y155.547
X46.981Y155.563
X47.003Y155.58
X47.025Y155.598
X47.046Y155.615
X47.081Y155.645
X47.113Y155.674
X47.129Y155.69
X47.162Y155.723
X47.19Y155.752
X47.207Y155.77
X47.225Y155.791
X47.243Y155.812
X47.261Y155.834
X47.278Y155.856
X47.295Y155.878
X47.328Y155.923
X47.344Y155.946
X47.369Y155.985
X47.39Y156.018
X47.403Y156.04
X47.417Y156.064
X47.43Y156.089
X47.443Y156.114
X47.455Y156.139
X47.467Y156.164
X47.49Y156.215
X47.501Y156.24
X47.512Y156.27
X47.521Y156.293
X47.53Y156.319
X47.539Y156.345
X47.547Y156.372
X47.555Y156.398
X47.562Y156.425
X47.569Y156.452
X47.576Y156.479
X47.582Y156.507
X47.588Y156.534
X47.593Y156.561
X47.597Y156.589
X47.601Y156.616
X47.605Y156.644
X47.608Y156.672
X47.611Y156.699
X47.613Y156.727
X47.615Y156.755
X47.616Y156.783
X47.617Y156.811
Y156.839
Y156.867
X47.616Y156.894
X47.615Y156.922
X47.613Y156.95
X47.611Y156.978
X47.608Y157.006
X47.605Y157.033
X47.601Y157.061
X47.597Y157.088
X47.593Y157.116
X47.588Y157.143
X47.582Y157.171
X47.576Y157.198
X47.57Y157.225
X47.562Y157.252
X47.555Y157.279
X47.547Y157.305
X47.539Y157.332
X47.53Y157.358
X47.521Y157.385
X47.511Y157.411
X47.501Y157.437
X47.49Y157.463
X47.479Y157.488
X47.467Y157.513
X47.455Y157.539
X47.443Y157.563
X47.43Y157.588
X47.417Y157.613
X47.403Y157.637
X47.389Y157.661
X47.374Y157.685
X47.359Y157.708
X47.344Y157.731
X47.328Y157.754
X47.312Y157.777
X47.295Y157.8
X47.278Y157.822
X47.261Y157.843
X47.243Y157.865
X47.225Y157.886
X47.207Y157.907
X47.188Y157.927
X47.169Y157.948
X47.149Y157.968
X47.129Y157.987
X47.109Y158.006
X47.089Y158.025
X47.068Y158.043
X47.047Y158.062
X47.025Y158.08
X47.003Y158.097
X46.981Y158.114
X46.959Y158.13
X46.936Y158.147
X46.913Y158.162
X46.89Y158.178
X46.866Y158.193
X46.843Y158.207
X46.819Y158.221
X46.794Y158.235
X46.77Y158.248
X46.745Y158.261
X46.72Y158.274
X46.695Y158.286
X46.669Y158.297
X46.644Y158.308
X46.619Y158.319
X46.592Y158.329
X46.566Y158.339
X46.54Y158.348
X46.514Y158.357
X46.487Y158.365
X46.46Y158.373
X46.434Y158.381
X46.406Y158.388
X46.379Y158.394
X46.352Y158.4
X46.325Y158.406
X46.298Y158.411
X46.27Y158.416
X46.242Y158.42
X46.215Y158.423
X46.187Y158.426
X46.159Y158.429
X46.132Y158.431
X46.104Y158.433
X46.076Y158.434
X46.048Y158.435
X46.02
X45.997
X45.937Y158.433
X45.909Y158.431
X45.881Y158.429
X45.856Y158.427
X45.825Y158.423
X45.798Y158.42
X45.77Y158.416
X45.743Y158.411
X45.716Y158.406
X45.688Y158.4
X45.661Y158.394
X45.634Y158.388
X45.607Y158.381
X45.58Y158.373
X45.553Y158.365
X45.527Y158.357
X45.5Y158.348
X45.474Y158.339
X45.448Y158.329
X45.422Y158.319
X45.396Y158.308
X45.371Y158.297
X45.345Y158.286
X45.32Y158.274
X45.295Y158.261
X45.257Y158.241
X45.219Y158.22
X45.174Y158.193
X45.151Y158.178
X45.127Y158.162
X45.104Y158.147
X45.082Y158.13
X45.059Y158.114
X45.037Y158.097
X45.016Y158.08
X44.994Y158.062
X44.973Y158.043
X44.952Y158.025
X44.931Y158.006
X44.911Y157.987
X44.891Y157.968
X44.872Y157.948
X44.852Y157.927
X44.834Y157.907
X44.815Y157.886
X44.797Y157.865
X44.779Y157.843
X44.762Y157.822
X44.745Y157.8
X44.729Y157.777
X44.712Y157.754
X44.697Y157.731
X44.681Y157.708
X44.656Y157.668
X44.636Y157.635
X44.624Y157.613
X44.61Y157.588
X44.585Y157.539
X44.573Y157.513
X44.56Y157.484
X44.551Y157.462
X44.54Y157.437
X44.53Y157.411
X44.52Y157.385
X44.511Y157.358
X44.502Y157.333
X44.493Y157.305
X44.485Y157.279
X44.478Y157.252
X44.471Y157.225
X44.465Y157.198
X44.459Y157.171
X44.453Y157.143
X44.448Y157.116
X44.443Y157.088
X44.439Y157.061
X44.436Y157.033
X44.432Y157.006
X44.43Y156.978
X44.428Y156.95
X44.426Y156.922
X44.425Y156.894
X44.424Y156.839
Y156.811
X44.425Y156.783
X44.426Y156.755
X44.428Y156.727
X44.43Y156.699
X44.432Y156.672
X44.436Y156.644
X44.439Y156.616
X44.443Y156.589
X44.448Y156.561
X44.453Y156.534
X44.459Y156.507
X44.465Y156.479
X44.471Y156.452
X44.478Y156.425
X44.485Y156.398
X44.493Y156.372
X44.502Y156.345
X44.511Y156.319
X44.52Y156.293
X44.53Y156.266
X44.54Y156.24
X44.551Y156.215
X44.562Y156.189
X44.573Y156.164
X44.585Y156.139
X44.598Y156.114
X44.611Y156.089
X44.624Y156.065
X44.638Y156.04
X44.652Y156.016
X44.666Y155.993
X44.681Y155.969
X44.697Y155.946
X44.712Y155.923
X44.729Y155.9
X44.762Y155.856
X44.797Y155.812
X44.815Y155.791
X44.834Y155.77
X44.853Y155.75
X44.872Y155.73
X44.891Y155.71
X44.911Y155.69
X44.952Y155.652
X44.973Y155.634
X44.994Y155.615
X45.016Y155.598
X45.037Y155.58
X45.059Y155.563
X45.082Y155.547
X45.104Y155.531
X45.128Y155.515
X45.151Y155.499
X45.174Y155.485
X45.198Y155.47
X45.222Y155.456
X45.246Y155.442
X45.271Y155.429
X45.295Y155.416
X45.32Y155.404
X45.346Y155.392
X45.371Y155.38
X45.396Y155.369
X45.422Y155.358
X45.448Y155.348
X45.5Y155.329
X45.527Y155.32
X45.553Y155.312
X45.58Y155.304
G0Z1
X59.422Y156.647
G1Z-0.2F50
X59.473Y156.478F100
X59.557Y156.322
X59.669Y156.186
X59.805Y156.074
X59.961Y155.99
X60.13Y155.939
X60.306Y155.922
X60.482Y155.939
X60.651Y155.99
X60.807Y156.074
X60.943Y156.186
X61.055Y156.322
X61.139Y156.478
X61.19Y156.647
X61.207Y156.823
X61.19Y156.999
X61.139Y157.168
X61.055Y157.324
X60.943Y157.46
X60.807Y157.573
X60.651Y157.656
X60.482Y157.707
X60.306Y157.724
X60.13Y157.707
X59.961Y157.656
X59.805Y157.573
X59.669Y157.46
X59.557Y157.324
X59.473Y157.168
X59.422Y156.999
X59.405Y156.823
X59.422Y156.647
G0Z1
X75.309Y156.823
G1Z-0.2F50
X75.326Y156.647F100
X75.377Y156.478
X75.461Y156.322
X75.573Y156.186
X75.709Y156.074
X75.865Y155.99
X76.034Y155.939
X76.21Y155.922
X76.386Y155.939
X76.555Y155.99
X76.711Y156.074
X76.847Y156.186
X76.959Y156.322
X77.043Y156.478
X77.094Y156.647
X77.111Y156.823
X77.094Y156.999
X77.043Y157.168
X76.959Y157.324
X76.847Y157.46
X76.711Y157.573
X76.555Y157.656
X76.386Y157.707
X76.21Y157.724
X76.034Y157.707
X75.865Y157.656
X75.709Y157.573
X75.573Y157.46
X75.461Y157.324
X75.377Y157.168
X75.326Y156.999
X75.309Y156.823
G0Z1
X78.812Y148.898
G1Z-0.2F50
X52.357F100
X51.703Y148.903
X51.049Y148.92
X50.396Y148.947
X49.743Y148.985
X49.091Y149.034
X48.439Y149.094
X47.789Y149.165
X47.14Y149.247
X46.493Y149.339
X45.847Y149.442
X45.203Y149.556
X44.56Y149.68
X44.436Y149.706
X44.313Y149.735
X44.19Y149.766
X44.068Y149.798
X43.946Y149.833
X43.825Y149.87
X43.705Y149.909
X43.585Y149.95
X43.466Y149.994
X43.348Y150.039
X43.231Y150.086
X43.114Y150.136
X42.998Y150.187
X42.884Y150.24
X42.77Y150.296
X42.657Y150.353
X42.545Y150.412
X42.434Y150.473
X42.324Y150.536
X42.216Y150.601
X42.108Y150.668
X42.002Y150.737
X41.897Y150.807
X41.793Y150.88
X41.69Y150.954
X41.589Y151.03
X41.489Y151.108
X41.39Y151.187
X41.293Y151.268
X41.198Y151.351
X41.103Y151.435
X41.01Y151.521
X40.919Y151.609
X40.829Y151.698
X40.741Y151.788
X40.654Y151.881
X40.569Y151.974
X40.485Y152.07
X40.404Y152.166
X40.304Y152.288
X40.206Y152.412
X40.111Y152.537
X40.016Y152.665
X39.925Y152.794
X39.836Y152.924
X39.749Y153.056
X39.664Y153.189
X39.582Y153.324
X39.502Y153.46
X39.424Y153.598
X39.349Y153.737
X39.276Y153.877
X39.205Y154.018
X39.137Y154.161
X39.072Y154.304
X39.008Y154.449
X38.948Y154.595
X38.889Y154.742
X38.834Y154.89
X38.781Y155.038
X38.73Y155.188
X38.682Y155.339
X38.637Y155.49
X38.594Y155.642
X38.554Y155.795
X38.516Y155.948
X38.481Y156.102
X38.449Y156.257
X38.419Y156.412
X38.392Y156.567
X38.368Y156.723
X38.346Y156.88
X38.328Y157.037
X38.311Y157.194
X38.298Y157.351
X38.287Y157.509
X38.279Y157.667
X38.273Y157.824
X38.271Y157.982
Y158.14
X38.273Y158.298
X38.279Y158.456
X38.287Y158.614
X38.297Y158.771
X38.311Y158.929
X38.327Y159.086
X38.346Y159.243
X38.366Y159.386
X38.785Y162.277
X38.799Y162.352
X38.815Y162.428
X38.834Y162.504
X38.856Y162.577
X38.88Y162.651
X38.907Y162.725
X38.936Y162.796
X38.968Y162.866
X39.002Y162.935
X39.039Y163.004
X39.077Y163.071
X39.119Y163.137
X39.162Y163.201
X39.208Y163.263
X39.256Y163.325
X39.306Y163.383
X39.357Y163.44
X39.402Y163.487
X39.457Y163.54
X39.515Y163.593
X39.574Y163.643
X39.634Y163.69
X39.698Y163.737
X39.761Y163.78
X39.827Y163.821
X39.894Y163.86
X39.961Y163.896
X40.032Y163.931
X40.102Y163.963
X40.174Y163.993
X40.246Y164.019
X40.32Y164.044
X40.395Y164.066
X40.482Y164.088
X40.559Y164.104
X40.635Y164.117
X40.712Y164.128
X40.788Y164.136
X40.866Y164.142
X40.943Y164.144
X40.982Y164.145
X46.033
X46.15Y164.143
X46.267Y164.14
X46.384Y164.136
X46.5Y164.129
X47.755Y164.038
X48.908Y163.974
X50.062Y163.928
X51.216Y163.9
X52.377Y163.891
X55.93
X55.968Y163.894
X56.006Y163.896
X56.044Y163.898
X56.082
X84.082
X84.122
X84.162Y163.896
X84.201Y163.894
X84.241Y163.89
X84.28Y163.886
X84.32Y163.88
X84.359Y163.874
X84.398Y163.866
X84.437Y163.858
X84.476Y163.849
X84.514Y163.838
X84.552Y163.827
X84.59Y163.815
X84.628Y163.802
X84.665Y163.787
X84.702Y163.772
X84.738Y163.757
X84.774Y163.74
X84.81Y163.722
X84.845Y163.703
X84.88Y163.684
X84.914Y163.663
X84.949Y163.641
X84.982Y163.619
X85.015Y163.596
X85.048Y163.571
X85.08Y163.546
X85.111Y163.521
X85.126Y163.508
X85.155Y163.481
X85.177Y163.461
X85.199Y163.44
X85.227Y163.411
X85.255Y163.382
X85.287Y163.346
X85.318Y163.309
X85.34Y163.282
X85.361Y163.254
X85.382Y163.225
X85.402Y163.196
X85.421Y163.166
X85.44Y163.136
X85.457Y163.108
X85.473Y163.079
X85.489Y163.05
X85.508Y163.013
X85.526Y162.975
X85.539Y162.946
X85.552Y162.916
X85.568Y162.876
X85.576Y162.854
X85.59Y162.814
X85.603Y162.773
X85.616Y162.731
X85.627Y162.689
X85.637Y162.646
X85.645Y162.606
X85.652Y162.565
X85.66Y162.514
X85.666Y162.458
X85.669Y162.424
X85.671Y162.39
X85.672Y162.357
X85.673Y162.307
Y162.075
X85.684Y162.013
X85.695Y161.937
X85.703Y161.858
X85.708Y161.781
X85.711Y161.703
Y161.665
Y150.831
Y150.792
X85.709Y150.752
X85.707Y150.713
X85.703Y150.673
X85.699Y150.634
X85.694Y150.595
X85.687Y150.556
X85.68Y150.517
X85.673Y150.484
X85.672Y150.442
X85.669Y150.399
X85.666Y150.356
X85.661Y150.313
X85.655Y150.27
X85.648Y150.228
X85.64Y150.186
X85.631Y150.143
X85.621Y150.102
X85.611Y150.067
X85.601Y150.033
X85.59Y149.999
X85.578Y149.965
X85.565Y149.931
X85.549Y149.89
X85.531Y149.849
X85.512Y149.809
X85.49Y149.765
X85.473Y149.735
X85.457Y149.706
X85.435Y149.67
X85.412Y149.634
X85.391Y149.602
X85.368Y149.571
X85.345Y149.54
X85.321Y149.509
X85.297Y149.48
X85.272Y149.45
X85.246Y149.422
X85.219Y149.394
X85.192Y149.367
X85.164Y149.34
X85.135Y149.314
X85.106Y149.289
X85.076Y149.265
X85.046Y149.241
X85.015Y149.218
X84.983Y149.196
X84.951Y149.174
X84.919Y149.154
X84.886Y149.134
X84.852Y149.115
X84.817Y149.096
X84.783Y149.079
X84.749Y149.062
X84.714Y149.047
X84.679Y149.032
X84.643Y149.018
X84.607Y149.005
X84.571Y148.993
X84.534Y148.982
X84.498Y148.971
X84.461Y148.962
X84.423Y148.953
X84.386Y148.945
X84.348Y148.938
X84.311Y148.933
X84.273Y148.927
X84.235Y148.923
X84.197Y148.92
X84.159Y148.918
X84.12Y148.916
X84.082
X80.146
X79.556Y148.903
X78.812Y148.898
G0Z1
X45.58Y155.304
G1Z-0.25F50
X45.634Y155.289F100
X45.661Y155.283
X45.687Y155.277
X45.716Y155.271
X45.771Y155.262
X45.798Y155.257
X45.826Y155.254
X45.853Y155.251
X45.898Y155.247
X45.944Y155.244
X45.965Y155.243
X45.992Y155.242
X46.02
X46.048
X46.076Y155.243
X46.132Y155.246
X46.16Y155.248
X46.187Y155.251
X46.215Y155.254
X46.242Y155.257
X46.298Y155.266
X46.325Y155.271
X46.352Y155.277
X46.379Y155.283
X46.406Y155.289
X46.434Y155.296
X46.46Y155.304
X46.487Y155.312
X46.514Y155.32
X46.54Y155.329
X46.566Y155.338
X46.592Y155.348
X46.618Y155.358
X46.644Y155.369
X46.67Y155.38
X46.695Y155.392
X46.72Y155.404
X46.745Y155.416
X46.77Y155.429
X46.794Y155.442
X46.818Y155.456
X46.843Y155.47
X46.867Y155.485
X46.89Y155.5
X46.913Y155.515
X46.936Y155.531
X46.959Y155.547
X46.981Y155.563
X47.003Y155.58
X47.025Y155.598
X47.046Y155.615
X47.081Y155.645
X47.113Y155.674
X47.129Y155.69
X47.162Y155.723
X47.19Y155.752
X47.207Y155.77
X47.225Y155.791
X47.243Y155.812
X47.261Y155.834
X47.278Y155.856
X47.295Y155.878
X47.328Y155.923
X47.344Y155.946
X47.369Y155.985
X47.39Y156.018
X47.403Y156.04
X47.417Y156.064
X47.43Y156.089
X47.443Y156.114
X47.455Y156.139
X47.467Y156.164
X47.49Y156.215
X47.501Y156.24
X47.512Y156.27
X47.521Y156.293
X47.53Y156.319
X47.539Y156.345
X47.547Y156.372
X47.555Y156.398
X47.562Y156.425
X47.569Y156.452
X47.576Y156.479
X47.582Y156.507
X47.588Y156.534
X47.593Y156.561
X47.597Y156.589
X47.601Y156.616
X47.605Y156.644
X47.608Y156.672
X47.611Y156.699
X47.613Y156.727
X47.615Y156.755
X47.616Y156.783
X47.617Y156.811
Y156.839
Y156.867
X47.616Y156.894
X47.615Y156.922
X47.613Y156.95
X47.611Y156.978
X47.608Y157.006
X47.605Y157.033
X47.601Y157.061
X47.597Y157.088
X47.593Y157.116
X47.588Y157.143
X47.582Y157.171
X47.576Y157.198
X47.57Y157.225
X47.562Y157.252
X47.555Y157.279
X47.547Y157.305
X47.539Y157.332
X47.53Y157.358
X47.521Y157.385
X47.511Y157.411
X47.501Y157.437
X47.49Y157.463
X47.479Y157.488
X47.467Y157.513
X47.455Y157.539
X47.443Y157.563
X47.43Y157.588
X47.417Y157.613
X47.403Y157.637
X47.389Y157.661
X47.374Y157.685
X47.359Y157.708
X47.344Y157.731
X47.328Y157.754
X47.312Y157.777
X47.295Y157.8
X47.278Y157.822
X47.261Y157.843
X47.243Y157.865
X47.225Y157.886
X47.207Y157.907
X47.188Y157.927
X47.169Y157.948
X47.149Y157.968
X47.129Y157.987
X47.109Y158.006
X47.089Y158.025
X47.068Y158.043
X47.047Y158.062
X47.025Y158.08
X47.003Y158.097
X46.981Y158.114
X46.959Y158.13
X46.936Y158.147
X46.913Y158.162
X46.89Y158.178
X46.866Y158.193
X46.843Y158.207
X46.819Y158.221
X46.794Y158.235
X46.77Y158.248
X46.745Y158.261
X46.72Y158.274
X46.695Y158.286
X46.669Y158.297
X46.644Y158.308
X46.619Y158.319
X46.592Y158.329
X46.566Y158.339
X46.54Y158.348
X46.514Y158.357
X46.487Y158.365
X46.46Y158.373
X46.434Y158.381
X46.406Y158.388
X46.379Y158.394
X46.352Y158.4
X46.325Y158.406
X46.298Y158.411
X46.27Y158.416
X46.242Y158.42
X46.215Y158.423
X46.187Y158.426
X46.159Y158.429
X46.132Y158.431
X46.104Y158.433
X46.076Y158.434
X46.048Y158.435
X46.02
X45.997
X45.937Y158.433
X45.909Y158.431
X45.881Y158.429
X45.856Y158.427
X45.825Y158.423
X45.798Y158.42
X45.77Y158.416
X45.743Y158.411
X45.716Y158.406
X45.688Y158.4
X45.661Y158.394
X45.634Y158.388
X45.607Y158.381
X45.58Y158.373
X45.553Y158.365
X45.527Y158.357
X45.5Y158.348
X45.474Y158.339
X45.448Y158.329
X45.422Y158.319
X45.396Y158.308
X45.371Y158.297
X45.345Y158.286
X45.32Y158.274
X45.295Y158.261
X45.257Y158.241
X45.219Y158.22
X45.174Y158.193
X45.151Y158.178
X45.127Y158.162
X45.104Y158.147
X45.082Y158.13
X45.059Y158.114
X45.037Y158.097
X45.016Y158.08
X44.994Y158.062
X44.973Y158.043
X44.952Y158.025
X44.931Y158.006
X44.911Y157.987
X44.891Y157.968
X44.872Y157.948
X44.852Y157.927
X44.834Y157.907
X44.815Y157.886
X44.797Y157.865
X44.779Y157.843
X44.762Y157.822
X44.745Y157.8
X44.729Y157.777
X44.712Y157.754
X44.697Y157.731
X44.681Y157.708
X44.656Y157.668
X44.636Y157.635
X44.624Y157.613
X44.61Y157.588
X44.585Y157.539
X44.573Y157.513
X44.56Y157.484
X44.551Y157.462
X44.54Y157.437
X44.53Y157.411
X44.52Y157.385
X44.511Y157.358
X44.502Y157.333
X44.493Y157.305
X44.485Y157.279
X44.478Y157.252
X44.471Y157.225
X44.465Y157.198
X44.459Y157.171
X44.453Y157.143
X44.448Y157.116
X44.443Y157.088
X44.439Y157.061
X44.436Y157.033
X44.432Y157.006
X44.43Y156.978
X44.428Y156.95
X44.426Y156.922
X44.425Y156.894
X44.424Y156.839
Y156.811
X44.425Y156.783
X44.426Y156.755
X44.428Y156.727
X44.43Y156.699
X44.432Y156.672
X44.436Y156.644
X44.439Y156.616
X44.443Y156.589
X44.448Y156.561
X44.453Y156.534
X44.459Y156.507
X44.465Y156.479
X44.471Y156.452
X44.478Y156.425
X44.485Y156.398
X44.493Y156.372
X44.502Y156.345
X44.511Y156.319
X44.52Y156.293
X44.53Y156.266
X44.54Y156.24
X44.551Y156.215
X44.562Y156.189
X44.573Y156.164
X44.585Y156.139
X44.598Y156.114
X44.611Y156.089
X44.624Y156.065
X44.638Y156.04
X44.652Y156.016
X44.666Y155.993
X44.681Y155.969
X44.697Y155.946
X44.712Y155.923
X44.729Y155.9
X44.762Y155.856
X44.797Y155.812
X44.815Y155.791
X44.834Y155.77
X44.853Y155.75
X44.872Y155.73
X44.891Y155.71
X44.911Y155.69
X44.952Y155.652
X44.973Y155.634
X44.994Y155.615
X45.016Y155.598
X45.037Y155.58
X45.059Y155.563
X45.082Y155.547
X45.104Y155.531
X45.128Y155.515
X45.151Y155.499
X45.174Y155.485
X45.198Y155.47
X45.222Y155.456
X45.246Y155.442
X45.271Y155.429
X45.295Y155.416
X45.32Y155.404
X45.346Y155.392
X45.371Y155.38
X45.396Y155.369
X45.422Y155.358
X45.448Y155.348
X45.5Y155.329
X45.527Y155.32
X45.553Y155.312
X45.58Y155.304
G0Z1
X59.422Y156.647
G1Z-0.25F50
X59.473Y156.478F100
X59.557Y156.322
X59.669Y156.186
X59.805Y156.074
X59.961Y155.99
X60.13Y155.939
X60.306Y155.922
X60.482Y155.939
X60.651Y155.99
X60.807Y156.074
X60.943Y156.186
X61.055Y156.322
X61.139Y156.478
X61.19Y156.647
X61.207Y156.823
X61.19Y156.999
X61.139Y157.168
X61.055Y157.324
X60.943Y157.46
X60.807Y157.573
X60.651Y157.656
X60.482Y157.707
X60.306Y157.724
X60.13Y157.707
X59.961Y157.656
X59.805Y157.573
X59.669Y157.46
X59.557Y157.324
X59.473Y157.168
X59.422Y156.999
X59.405Y156.823
X59.422Y156.647
G0Z1
X75.309Y156.823
G1Z-0.25F50
X75.326Y156.647F100
X75.377Y156.478
X75.461Y156.322
X75.573Y156.186
X75.709Y156.074
X75.865Y155.99
X76.034Y155.939
X76.21Y155.922
X76.386Y155.939
X76.555Y155.99
X76.711Y156.074
X76.847Y156.186
X76.959Y156.322
X77.043Y156.478
X77.094Y156.647
X77.111Y156.823
X77.094Y156.999
X77.043Y157.168
X76.959Y157.324
X76.847Y157.46
X76.711Y157.573
X76.555Y157.656
X76.386Y157.707
X76.21Y157.724
X76.034Y157.707
X75.865Y157.656
X75.709Y157.573
X75.573Y157.46
X75.461Y157.324
X75.377Y157.168
X75.326Y156.999
X75.309Y156.823
G0Z1
X78.812Y148.898
G1Z-0.25F50
X52.357F100
X51.703Y148.903
X51.049Y148.92
X50.396Y148.947
X49.743Y148.985
X49.091Y149.034
X48.439Y149.094
X47.789Y149.165
X47.14Y149.247
X46.493Y149.339
X45.847Y149.442
X45.203Y149.556
X44.56Y149.68
X44.436Y149.706
X44.313Y149.735
X44.19Y149.766
X44.068Y149.798
X43.946Y149.833
X43.825Y149.87
X43.705Y149.909
X43.585Y149.95
X43.466Y149.994
X43.348Y150.039
X43.231Y150.086
X43.114Y150.136
X42.998Y150.187
X42.884Y150.24
X42.77Y150.296
X42.657Y150.353
X42.545Y150.412
X42.434Y150.473
X42.324Y150.536
X42.216Y150.601
X42.108Y150.668
X42.002Y150.737
X41.897Y150.807
X41.793Y150.88
X41.69Y150.954
X41.589Y151.03
X41.489Y151.108
X41.39Y151.187
X41.293Y151.268
X41.198Y151.351
X41.103Y151.435
X41.01Y151.521
X40.919Y151.609
X40.829Y151.698
X40.741Y151.788
X40.654Y151.881
X40.569Y151.974
X40.485Y152.07
X40.404Y152.166
X40.304Y152.288
X40.206Y152.412
X40.111Y152.537
X40.016Y152.665
X39.925Y152.794
X39.836Y152.924
X39.749Y153.056
X39.664Y153.189
X39.582Y153.324
X39.502Y153.46
X39.424Y153.598
X39.349Y153.737
X39.276Y153.877
X39.205Y154.018
X39.137Y154.161
X39.072Y154.304
X39.008Y154.449
X38.948Y154.595
X38.889Y154.742
X38.834Y154.89
X38.781Y155.038
X38.73Y155.188
X38.682Y155.339
X38.637Y155.49
X38.594Y155.642
X38.554Y155.795
X38.516Y155.948
X38.481Y156.102
X38.449Y156.257
X38.419Y156.412
X38.392Y156.567
X38.368Y156.723
X38.346Y156.88
X38.328Y157.037
X38.311Y157.194
X38.298Y157.351
X38.287Y157.509
X38.279Y157.667
X38.273Y157.824
X38.271Y157.982
Y158.14
X38.273Y158.298
X38.279Y158.456
X38.287Y158.614
X38.297Y158.771
X38.311Y158.929
X38.327Y159.086
X38.346Y159.243
X38.366Y159.386
X38.785Y162.277
X38.799Y162.352
X38.815Y162.428
X38.834Y162.504
X38.856Y162.577
X38.88Y162.651
X38.907Y162.725
X38.936Y162.796
X38.968Y162.866
X39.002Y162.935
X39.039Y163.004
X39.077Y163.071
X39.119Y163.137
X39.162Y163.201
X39.208Y163.263
X39.256Y163.325
X39.306Y163.383
X39.357Y163.44
X39.402Y163.487
X39.457Y163.54
X39.515Y163.593
X39.574Y163.643
X39.634Y163.69
X39.698Y163.737
X39.761Y163.78
X39.827Y163.821
X39.894Y163.86
X39.961Y163.896
X40.032Y163.931
X40.102Y163.963
X40.174Y163.993
X40.246Y164.019
X40.32Y164.044
X40.395Y164.066
X40.482Y164.088
X40.559Y164.104
X40.635Y164.117
X40.712Y164.128
X40.788Y164.136
X40.866Y164.142
X40.943Y164.144
X40.982Y164.145
X46.033
X46.15Y164.143
X46.267Y164.14
X46.384Y164.136
X46.5Y164.129
X47.755Y164.038
X48.908Y163.974
X50.062Y163.928
X51.216Y163.9
X52.377Y163.891
X55.93
X55.968Y163.894
X56.006Y163.896
X56.044Y163.898
X56.082
X84.082
X84.122
X84.162Y163.896
X84.201Y163.894
X84.241Y163.89
X84.28Y163.886
X84.32Y163.88
X84.359Y163.874
X84.398Y163.866
X84.437Y163.858
X84.476Y163.849
X84.514Y163.838
X84.552Y163.827
X84.59Y163.815
X84.628Y163.802
X84.665Y163.787
X84.702Y163.772
X84.738Y163.757
X84.774Y163.74
X84.81Y163.722
X84.845Y163.703
X84.88Y163.684
X84.914Y163.663
X84.949Y163.641
X84.982Y163.619
X85.015Y163.596
X85.048Y163.571
X85.08Y163.546
X85.111Y163.521
X85.126Y163.508
X85.155Y163.481
X85.177Y163.461
X85.199Y163.44
X85.227Y163.411
X85.255Y163.382
X85.287Y163.346
X85.318Y163.309
X85.34Y163.282
X85.361Y163.254
X85.382Y163.225
X85.402Y163.196
X85.421Y163.166
X85.44Y163.136
X85.457Y163.108
X85.473Y163.079
X85.489Y163.05
X85.508Y163.013
X85.526Y162.975
X85.539Y162.946
X85.552Y162.916
X85.568Y162.876
X85.576Y162.854
X85.59Y162.814
X85.603Y162.773
X85.616Y162.731
X85.627Y162.689
X85.637Y162.646
X85.645Y162.606
X85.652Y162.565
X85.66Y162.514
X85.666Y162.458
X85.669Y162.424
X85.671Y162.39
X85.672Y162.357
X85.673Y162.307
Y162.075
X85.684Y162.013
X85.695Y161.937
X85.703Y161.858
X85.708Y161.781
X85.711Y161.703
Y161.665
Y150.831
Y150.792
X85.709Y150.752
X85.707Y150.713
X85.703Y150.673
X85.699Y150.634
X85.694Y150.595
X85.687Y150.556
X85.68Y150.517
X85.673Y150.484
X85.672Y150.442
X85.669Y150.399
X85.666Y150.356
X85.661Y150.313
X85.655Y150.27
X85.648Y150.228
X85.64Y150.186
X85.631Y150.143
X85.621Y150.102
X85.611Y150.067
X85.601Y150.033
X85.59Y149.999
X85.578Y149.965
X85.565Y149.931
X85.549Y149.89
X85.531Y149.849
X85.512Y149.809
X85.49Y149.765
X85.473Y149.735
X85.457Y149.706
X85.435Y149.67
X85.412Y149.634
X85.391Y149.602
X85.368Y149.571
X85.345Y149.54
X85.321Y149.509
X85.297Y149.48
X85.272Y149.45
X85.246Y149.422
X85.219Y149.394
X85.192Y149.367
X85.164Y149.34
X85.135Y149.314
X85.106Y149.289
X85.076Y149.265
X85.046Y149.241
X85.015Y149.218
X84.983Y149.196
X84.951Y149.174
X84.919Y149.154
X84.886Y149.134
X84.852Y149.115
X84.817Y149.096
X84.783Y149.079
X84.749Y149.062
X84.714Y149.047
X84.679Y149.032
X84.643Y149.018
X84.607Y149.005
X84.571Y148.993
X84.534Y148.982
X84.498Y148.971
X84.461Y148.962
X84.423Y148.953
X84.386Y148.945
X84.348Y148.938
X84.311Y148.933
X84.273Y148.927
X84.235Y148.923
X84.197Y148.92
X84.159Y148.918
X84.12Y148.916
X84.082
X80.146
X79.556Y148.903
X78.812Y148.898
G0Z1
X45.58Y155.304
G1Z-0.3F50
X45.634Y155.289F100
X45.661Y155.283
X45.687Y155.277
X45.716Y155.271
X45.771Y155.262
X45.798Y155.257
X45.826Y155.254
X45.853Y155.251
X45.898Y155.247
X45.944Y155.244
X45.965Y155.243
X45.992Y155.242
X46.02
X46.048
X46.076Y155.243
X46.132Y155.246
X46.16Y155.248
X46.187Y155.251
X46.215Y155.254
X46.242Y155.257
X46.298Y155.266
X46.325Y155.271
X46.352Y155.277
X46.379Y155.283
X46.406Y155.289
X46.434Y155.296
X46.46Y155.304
X46.487Y155.312
X46.514Y155.32
X46.54Y155.329
X46.566Y155.338
X46.592Y155.348
X46.618Y155.358
X46.644Y155.369
X46.67Y155.38
X46.695Y155.392
X46.72Y155.404
X46.745Y155.416
X46.77Y155.429
X46.794Y155.442
X46.818Y155.456
X46.843Y155.47
X46.867Y155.485
X46.89Y155.5
X46.913Y155.515
X46.936Y155.531
X46.959Y155.547
X46.981Y155.563
X47.003Y155.58
X47.025Y155.598
X47.046Y155.615
X47.081Y155.645
X47.113Y155.674
X47.129Y155.69
X47.162Y155.723
X47.19Y155.752
X47.207Y155.77
X47.225Y155.791
X47.243Y155.812
X47.261Y155.834
X47.278Y155.856
X47.295Y155.878
X47.328Y155.923
X47.344Y155.946
X47.369Y155.985
X47.39Y156.018
X47.403Y156.04
X47.417Y156.064
X47.43Y156.089
X47.443Y156.114
X47.455Y156.139
X47.467Y156.164
X47.49Y156.215
X47.501Y156.24
X47.512Y156.27
X47.521Y156.293
X47.53Y156.319
X47.539Y156.345
X47.547Y156.372
X47.555Y156.398
X47.562Y156.425
X47.569Y156.452
X47.576Y156.479
X47.582Y156.507
X47.588Y156.534
X47.593Y156.561
X47.597Y156.589
X47.601Y156.616
X47.605Y156.644
X47.608Y156.672
X47.611Y156.699
X47.613Y156.727
X47.615Y156.755
X47.616Y156.783
X47.617Y156.811
Y156.839
Y156.867
X47.616Y156.894
X47.615Y156.922
X47.613Y156.95
X47.611Y156.978
X47.608Y157.006
X47.605Y157.033
X47.601Y157.061
X47.597Y157.088
X47.593Y157.116
X47.588Y157.143
X47.582Y157.171
X47.576Y157.198
X47.57Y157.225
X47.562Y157.252
X47.555Y157.279
X47.547Y157.305
X47.539Y157.332
X47.53Y157.358
X47.521Y157.385
X47.511Y157.411
X47.501Y157.437
X47.49Y157.463
X47.479Y157.488
X47.467Y157.513
X47.455Y157.539
X47.443Y157.563
X47.43Y157.588
X47.417Y157.613
X47.403Y157.637
X47.389Y157.661
X47.374Y157.685
X47.359Y157.708
X47.344Y157.731
X47.328Y157.754
X47.312Y157.777
X47.295Y157.8
X47.278Y157.822
X47.261Y157.843
X47.243Y157.865
X47.225Y157.886
X47.207Y157.907
X47.188Y157.927
X47.169Y157.948
X47.149Y157.968
X47.129Y157.987
X47.109Y158.006
X47.089Y158.025
X47.068Y158.043
X47.047Y158.062
X47.025Y158.08
X47.003Y158.097
X46.981Y158.114
X46.959Y158.13
X46.936Y158.147
X46.913Y158.162
X46.89Y158.178
X46.866Y158.193
X46.843Y158.207
X46.819Y158.221
X46.794Y158.235
X46.77Y158.248
X46.745Y158.261
X46.72Y158.274
X46.695Y158.286
X46.669Y158.297
X46.644Y158.308
X46.619Y158.319
X46.592Y158.329
X46.566Y158.339
X46.54Y158.348
X46.514Y158.357
X46.487Y158.365
X46.46Y158.373
X46.434Y158.381
X46.406Y158.388
X46.379Y158.394
X46.352Y158.4
X46.325Y158.406
X46.298Y158.411
X46.27Y158.416
X46.242Y158.42
X46.215Y158.423
X46.187Y158.426
X46.159Y158.429
X46.132Y158.431
X46.104Y158.433
X46.076Y158.434
X46.048Y158.435
X46.02
X45.997
X45.937Y158.433
X45.909Y158.431
X45.881Y158.429
X45.856Y158.427
X45.825Y158.423
X45.798Y158.42
X45.77Y158.416
X45.743Y158.411
X45.716Y158.406
X45.688Y158.4
X45.661Y158.394
X45.634Y158.388
X45.607Y158.381
X45.58Y158.373
X45.553Y158.365
X45.527Y158.357
X45.5Y158.348
X45.474Y158.339
X45.448Y158.329
X45.422Y158.319
X45.396Y158.308
X45.371Y158.297
X45.345Y158.286
X45.32Y158.274
X45.295Y158.261
X45.257Y158.241
X45.219Y158.22
X45.174Y158.193
X45.151Y158.178
X45.127Y158.162
X45.104Y158.147
X45.082Y158.13
X45.059Y158.114
X45.037Y158.097
X45.016Y158.08
X44.994Y158.062
X44.973Y158.043
X44.952Y158.025
X44.931Y158.006
X44.911Y157.987
X44.891Y157.968
X44.872Y157.948
X44.852Y157.927
X44.834Y157.907
X44.815Y157.886
X44.797Y157.865
X44.779Y157.843
X44.762Y157.822
X44.745Y157.8
X44.729Y157.777
X44.712Y157.754
X44.697Y157.731
X44.681Y157.708
X44.656Y157.668
X44.636Y157.635
X44.624Y157.613
X44.61Y157.588
X44.585Y157.539
X44.573Y157.513
X44.56Y157.484
X44.551Y157.462
X44.54Y157.437
X44.53Y157.411
X44.52Y157.385
X44.511Y157.358
X44.502Y157.333
X44.493Y157.305
X44.485Y157.279
X44.478Y157.252
X44.471Y157.225
X44.465Y157.198
X44.459Y157.171
X44.453Y157.143
X44.448Y157.116
X44.443Y157.088
X44.439Y157.061
X44.436Y157.033
X44.432Y157.006
X44.43Y156.978
X44.428Y156.95
X44.426Y156.922
X44.425Y156.894
X44.424Y156.839
Y156.811
X44.425Y156.783
X44.426Y156.755
X44.428Y156.727
X44.43Y156.699
X44.432Y156.672
X44.436Y156.644
X44.439Y156.616
X44.443Y156.589
X44.448Y156.561
X44.453Y156.534
X44.459Y156.507
X44.465Y156.479
X44.471Y156.452
X44.478Y156.425
X44.485Y156.398
X44.493Y156.372
X44.502Y156.345
X44.511Y156.319
X44.52Y156.293
X44.53Y156.266
X44.54Y156.24
X44.551Y156.215
X44.562Y156.189
X44.573Y156.164
X44.585Y156.139
X44.598Y156.114
X44.611Y156.089
X44.624Y156.065
X44.638Y156.04
X44.652Y156.016
X44.666Y155.993
X44.681Y155.969
X44.697Y155.946
X44.712Y155.923
X44.729Y155.9
X44.762Y155.856
X44.797Y155.812
X44.815Y155.791
X44.834Y155.77
X44.853Y155.75
X44.872Y155.73
X44.891Y155.71
X44.911Y155.69
X44.952Y155.652
X44.973Y155.634
X44.994Y155.615
X45.016Y155.598
X45.037Y155.58
X45.059Y155.563
X45.082Y155.547
X45.104Y155.531
X45.128Y155.515
X45.151Y155.499
X45.174Y155.485
X45.198Y155.47
X45.222Y155.456
X45.246Y155.442
X45.271Y155.429
X45.295Y155.416
X45.32Y155.404
X45.346Y155.392
X45.371Y155.38
X45.396Y155.369
X45.422Y155.358
X45.448Y155.348
X45.5Y155.329
X45.527Y155.32
X45.553Y155.312
X45.58Y155.304
G0Z1
X59.422Y156.647
G1Z-0.3F50
X59.473Y156.478F100
X59.557Y156.322
X59.669Y156.186
X59.805Y156.074
X59.961Y155.99
X60.13Y155.939
X60.306Y155.922
X60.482Y155.939
X60.651Y155.99
X60.807Y156.074
X60.943Y156.186
X61.055Y156.322
X61.139Y156.478
X61.19Y156.647
X61.207Y156.823
X61.19Y156.999
X61.139Y157.168
X61.055Y157.324
X60.943Y157.46
X60.807Y157.573
X60.651Y157.656
X60.482Y157.707
X60.306Y157.724
X60.13Y157.707
X59.961Y157.656
X59.805Y157.573
X59.669Y157.46
X59.557Y157.324
X59.473Y157.168
X59.422Y156.999
X59.405Y156.823
X59.422Y156.647
G0Z1
X75.309Y156.823
G1Z-0.3F50
X75.326Y156.647F100
X75.377Y156.478
X75.461Y156.322
X75.573Y156.186
X75.709Y156.074
X75.865Y155.99
X76.034Y155.939
X76.21Y155.922
X76.386Y155.939
X76.555Y155.99
X76.711Y156.074
X76.847Y156.186
X76.959Y156.322
X77.043Y156.478
X77.094Y156.647
X77.111Y156.823
X77.094Y156.999
X77.043Y157.168
X76.959Y157.324
X76.847Y157.46
X76.711Y157.573
X76.555Y157.656
X76.386Y157.707
X76.21Y157.724
X76.034Y157.707
X75.865Y157.656
X75.709Y157.573
X75.573Y157.46
X75.461Y157.324
X75.377Y157.168
X75.326Y156.999
X75.309Y156.823
G0Z1
X78.812Y148.898
G1Z-0.3F50
X52.357F100
X51.703Y148.903
X51.049Y148.92
X50.396Y148.947
X49.743Y148.985
X49.091Y149.034
X48.439Y149.094
X47.789Y149.165
X47.14Y149.247
X46.493Y149.339
X45.847Y149.442
X45.203Y149.556
X44.56Y149.68
X44.436Y149.706
X44.313Y149.735
X44.19Y149.766
X44.068Y149.798
X43.946Y149.833
X43.825Y149.87
X43.705Y149.909
X43.585Y149.95
X43.466Y149.994
X43.348Y150.039
X43.231Y150.086
X43.114Y150.136
X42.998Y150.187
X42.884Y150.24
X42.77Y150.296
X42.657Y150.353
X42.545Y150.412
X42.434Y150.473
X42.324Y150.536
X42.216Y150.601
X42.108Y150.668
X42.002Y150.737
X41.897Y150.807
X41.793Y150.88
X41.69Y150.954
X41.589Y151.03
X41.489Y151.108
X41.39Y151.187
X41.293Y151.268
X41.198Y151.351
X41.103Y151.435
X41.01Y151.521
X40.919Y151.609
X40.829Y151.698
X40.741Y151.788
X40.654Y151.881
X40.569Y151.974
X40.485Y152.07
X40.404Y152.166
X40.304Y152.288
X40.206Y152.412
X40.111Y152.537
X40.016Y152.665
X39.925Y152.794
X39.836Y152.924
X39.749Y153.056
X39.664Y153.189
X39.582Y153.324
X39.502Y153.46
X39.424Y153.598
X39.349Y153.737
X39.276Y153.877
X39.205Y154.018
X39.137Y154.161
X39.072Y154.304
X39.008Y154.449
X38.948Y154.595
X38.889Y154.742
X38.834Y154.89
X38.781Y155.038
X38.73Y155.188
X38.682Y155.339
X38.637Y155.49
X38.594Y155.642
X38.554Y155.795
X38.516Y155.948
X38.481Y156.102
X38.449Y156.257
X38.419Y156.412
X38.392Y156.567
X38.368Y156.723
X38.346Y156.88
X38.328Y157.037
X38.311Y157.194
X38.298Y157.351
X38.287Y157.509
X38.279Y157.667
X38.273Y157.824
X38.271Y157.982
Y158.14
X38.273Y158.298
X38.279Y158.456
X38.287Y158.614
X38.297Y158.771
X38.311Y158.929
X38.327Y159.086
X38.346Y159.243
X38.366Y159.386
X38.785Y162.277
X38.799Y162.352
X38.815Y162.428
X38.834Y162.504
X38.856Y162.577
X38.88Y162.651
X38.907Y162.725
X38.936Y162.796
X38.968Y162.866
X39.002Y162.935
X39.039Y163.004
X39.077Y163.071
X39.119Y163.137
X39.162Y163.201
X39.208Y163.263
X39.256Y163.325
X39.306Y163.383
X39.357Y163.44
X39.402Y163.487
X39.457Y163.54
X39.515Y163.593
X39.574Y163.643
X39.634Y163.69
X39.698Y163.737
X39.761Y163.78
X39.827Y163.821
X39.894Y163.86
X39.961Y163.896
X40.032Y163.931
X40.102Y163.963
X40.174Y163.993
X40.246Y164.019
X40.32Y164.044
X40.395Y164.066
X40.482Y164.088
X40.559Y164.104
X40.635Y164.117
X40.712Y164.128
X40.788Y164.136
X40.866Y164.142
X40.943Y164.144
X40.982Y164.145
X46.033
X46.15Y164.143
X46.267Y164.14
X46.384Y164.136
X46.5Y164.129
X47.755Y164.038
X48.908Y163.974
X50.062Y163.928
X51.216Y163.9
X52.377Y163.891
X55.93
X55.968Y163.894
X56.006Y163.896
X56.044Y163.898
X56.082
X84.082
X84.122
X84.162Y163.896
X84.201Y163.894
X84.241Y163.89
X84.28Y163.886
X84.32Y163.88
X84.359Y163.874
X84.398Y163.866
X84.437Y163.858
X84.476Y163.849
X84.514Y163.838
X84.552Y163.827
X84.59Y163.815
X84.628Y163.802
X84.665Y163.787
X84.702Y163.772
X84.738Y163.757
X84.774Y163.74
X84.81Y163.722
X84.845Y163.703
X84.88Y163.684
X84.914Y163.663
X84.949Y163.641
X84.982Y163.619
X85.015Y163.596
X85.048Y163.571
X85.08Y163.546
X85.111Y163.521
X85.126Y163.508
X85.155Y163.481
X85.177Y163.461
X85.199Y163.44
X85.227Y163.411
X85.255Y163.382
X85.287Y163.346
X85.318Y163.309
X85.34Y163.282
X85.361Y163.254
X85.382Y163.225
X85.402Y163.196
X85.421Y163.166
X85.44Y163.136
X85.457Y163.108
X85.473Y163.079
X85.489Y163.05
X85.508Y163.013
X85.526Y162.975
X85.539Y162.946
X85.552Y162.916
X85.568Y162.876
X85.576Y162.854
X85.59Y162.814
X85.603Y162.773
X85.616Y162.731
X85.627Y162.689
X85.637Y162.646
X85.645Y162.606
X85.652Y162.565
X85.66Y162.514
X85.666Y162.458
X85.669Y162.424
X85.671Y162.39
X85.672Y162.357
X85.673Y162.307
Y162.075
X85.684Y162.013
X85.695Y161.937
X85.703Y161.858
X85.708Y161.781
X85.711Y161.703
Y161.665
Y150.831
Y150.792
X85.709Y150.752
X85.707Y150.713
X85.703Y150.673
X85.699Y150.634
X85.694Y150.595
X85.687Y150.556
X85.68Y150.517
X85.673Y150.484
X85.672Y150.442
X85.669Y150.399
X85.666Y150.356
X85.661Y150.313
X85.655Y150.27
X85.648Y150.228
X85.64Y150.186
X85.631Y150.143
X85.621Y150.102
X85.611Y150.067
X85.601Y150.033
X85.59Y149.999
X85.578Y149.965
X85.565Y149.931
X85.549Y149.89
X85.531Y149.849
X85.512Y149.809
X85.49Y149.765
X85.473Y149.735
X85.457Y149.706
X85.435Y149.67
X85.412Y149.634
X85.391Y149.602
X85.368Y149.571
X85.345Y149.54
X85.321Y149.509
X85.297Y149.48
X85.272Y149.45
X85.246Y149.422
X85.219Y149.394
X85.192Y149.367
X85.164Y149.34
X85.135Y149.314
X85.106Y149.289
X85.076Y149.265
X85.046Y149.241
X85.015Y149.218
X84.983Y149.196
X84.951Y149.174
X84.919Y149.154
X84.886Y149.134
X84.852Y149.115
X84.817Y149.096
X84.783Y149.079
X84.749Y149.062
X84.714Y149.047
X84.679Y149.032
X84.643Y149.018
X84.607Y149.005
X84.571Y148.993
X84.534Y148.982
X84.498Y148.971
X84.461Y148.962
X84.423Y148.953
X84.386Y148.945
X84.348Y148.938
X84.311Y148.933
X84.273Y148.927
X84.235Y148.923
X84.197Y148.92
X84.159Y148.918
X84.12Y148.916
X84.082
X80.146
X79.556Y148.903
X78.812Y148.898
G0Z1
X45.58Y155.304
G1Z-0.35F50
X45.634Y155.289F100
X45.661Y155.283
X45.687Y155.277
X45.716Y155.271
X45.771Y155.262
X45.798Y155.257
X45.826Y155.254
X45.853Y155.251
X45.898Y155.247
X45.944Y155.244
X45.965Y155.243
X45.992Y155.242
X46.02
X46.048
X46.076Y155.243
X46.132Y155.246
X46.16Y155.248
X46.187Y155.251
X46.215Y155.254
X46.242Y155.257
X46.298Y155.266
X46.325Y155.271
X46.352Y155.277
X46.379Y155.283
X46.406Y155.289
X46.434Y155.296
X46.46Y155.304
X46.487Y155.312
X46.514Y155.32
X46.54Y155.329
X46.566Y155.338
X46.592Y155.348
X46.618Y155.358
X46.644Y155.369
X46.67Y155.38
X46.695Y155.392
X46.72Y155.404
X46.745Y155.416
X46.77Y155.429
X46.794Y155.442
X46.818Y155.456
X46.843Y155.47
X46.867Y155.485
X46.89Y155.5
X46.913Y155.515
X46.936Y155.531
X46.959Y155.547
X46.981Y155.563
X47.003Y155.58
X47.025Y155.598
X47.046Y155.615
X47.081Y155.645
X47.113Y155.674
X47.129Y155.69
X47.162Y155.723
X47.19Y155.752
X47.207Y155.77
X47.225Y155.791
X47.243Y155.812
X47.261Y155.834
X47.278Y155.856
X47.295Y155.878
X47.328Y155.923
X47.344Y155.946
X47.369Y155.985
X47.39Y156.018
X47.403Y156.04
X47.417Y156.064
X47.43Y156.089
X47.443Y156.114
X47.455Y156.139
X47.467Y156.164
X47.49Y156.215
X47.501Y156.24
X47.512Y156.27
X47.521Y156.293
X47.53Y156.319
X47.539Y156.345
X47.547Y156.372
X47.555Y156.398
X47.562Y156.425
X47.569Y156.452
X47.576Y156.479
X47.582Y156.507
X47.588Y156.534
X47.593Y156.561
X47.597Y156.589
X47.601Y156.616
X47.605Y156.644
X47.608Y156.672
X47.611Y156.699
X47.613Y156.727
X47.615Y156.755
X47.616Y156.783
X47.617Y156.811
Y156.839
Y156.867
X47.616Y156.894
X47.615Y156.922
X47.613Y156.95
X47.611Y156.978
X47.608Y157.006
X47.605Y157.033
X47.601Y157.061
X47.597Y157.088
X47.593Y157.116
X47.588Y157.143
X47.582Y157.171
X47.576Y157.198
X47.57Y157.225
X47.562Y157.252
X47.555Y157.279
X47.547Y157.305
X47.539Y157.332
X47.53Y157.358
X47.521Y157.385
X47.511Y157.411
X47.501Y157.437
X47.49Y157.463
X47.479Y157.488
X47.467Y157.513
X47.455Y157.539
X47.443Y157.563
X47.43Y157.588
X47.417Y157.613
X47.403Y157.637
X47.389Y157.661
X47.374Y157.685
X47.359Y157.708
X47.344Y157.731
X47.328Y157.754
X47.312Y157.777
X47.295Y157.8
X47.278Y157.822
X47.261Y157.843
X47.243Y157.865
X47.225Y157.886
X47.207Y157.907
X47.188Y157.927
X47.169Y157.948
X47.149Y157.968
X47.129Y157.987
X47.109Y158.006
X47.089Y158.025
X47.068Y158.043
X47.047Y158.062
X47.025Y158.08
X47.003Y158.097
X46.981Y158.114
X46.959Y158.13
X46.936Y158.147
X46.913Y158.162
X46.89Y158.178
X46.866Y158.193
X46.843Y158.207
X46.819Y158.221
X46.794Y158.235
X46.77Y158.248
X46.745Y158.261
X46.72Y158.274
X46.695Y158.286
X46.669Y158.297
X46.644Y158.308
X46.619Y158.319
X46.592Y158.329
X46.566Y158.339
X46.54Y158.348
X46.514Y158.357
X46.487Y158.365
X46.46Y158.373
X46.434Y158.381
X46.406Y158.388
X46.379Y158.394
X46.352Y158.4
X46.325Y158.406
X46.298Y158.411
X46.27Y158.416
X46.242Y158.42
X46.215Y158.423
X46.187Y158.426
X46.159Y158.429
X46.132Y158.431
X46.104Y158.433
X46.076Y158.434
X46.048Y158.435
X46.02
X45.997
X45.937Y158.433
X45.909Y158.431
X45.881Y158.429
X45.856Y158.427
X45.825Y158.423
X45.798Y158.42
X45.77Y158.416
X45.743Y158.411
X45.716Y158.406
X45.688Y158.4
X45.661Y158.394
X45.634Y158.388
X45.607Y158.381
X45.58Y158.373
X45.553Y158.365
X45.527Y158.357
X45.5Y158.348
X45.474Y158.339
X45.448Y158.329
X45.422Y158.319
X45.396Y158.308
X45.371Y158.297
X45.345Y158.286
X45.32Y158.274
X45.295Y158.261
X45.257Y158.241
X45.219Y158.22
X45.174Y158.193
X45.151Y158.178
X45.127Y158.162
X45.104Y158.147
X45.082Y158.13
X45.059Y158.114
X45.037Y158.097
X45.016Y158.08
X44.994Y158.062
X44.973Y158.043
X44.952Y158.025
X44.931Y158.006
X44.911Y157.987
X44.891Y157.968
X44.872Y157.948
X44.852Y157.927
X44.834Y157.907
X44.815Y157.886
X44.797Y157.865
X44.779Y157.843
X44.762Y157.822
X44.745Y157.8
X44.729Y157.777
X44.712Y157.754
X44.697Y157.731
X44.681Y157.708
X44.656Y157.668
X44.636Y157.635
X44.624Y157.613
X44.61Y157.588
X44.585Y157.539
X44.573Y157.513
X44.56Y157.484
X44.551Y157.462
X44.54Y157.437
X44.53Y157.411
X44.52Y157.385
X44.511Y157.358
X44.502Y157.333
X44.493Y157.305
X44.485Y157.279
X44.478Y157.252
X44.471Y157.225
X44.465Y157.198
X44.459Y157.171
X44.453Y157.143
X44.448Y157.116
X44.443Y157.088
X44.439Y157.061
X44.436Y157.033
X44.432Y157.006
X44.43Y156.978
X44.428Y156.95
X44.426Y156.922
X44.425Y156.894
X44.424Y156.839
Y156.811
X44.425Y156.783
X44.426Y156.755
X44.428Y156.727
X44.43Y156.699
X44.432Y156.672
X44.436Y156.644
X44.439Y156.616
X44.443Y156.589
X44.448Y156.561
X44.453Y156.534
X44.459Y156.507
X44.465Y156.479
X44.471Y156.452
X44.478Y156.425
X44.485Y156.398
X44.493Y156.372
X44.502Y156.345
X44.511Y156.319
X44.52Y156.293
X44.53Y156.266
X44.54Y156.24
X44.551Y156.215
X44.562Y156.189
X44.573Y156.164
X44.585Y156.139
X44.598Y156.114
X44.611Y156.089
X44.624Y156.065
X44.638Y156.04
X44.652Y156.016
X44.666Y155.993
X44.681Y155.969
X44.697Y155.946
X44.712Y155.923
X44.729Y155.9
X44.762Y155.856
X44.797Y155.812
X44.815Y155.791
X44.834Y155.77
X44.853Y155.75
X44.872Y155.73
X44.891Y155.71
X44.911Y155.69
X44.952Y155.652
X44.973Y155.634
X44.994Y155.615
X45.016Y155.598
X45.037Y155.58
X45.059Y155.563
X45.082Y155.547
X45.104Y155.531
X45.128Y155.515
X45.151Y155.499
X45.174Y155.485
X45.198Y155.47
X45.222Y155.456
X45.246Y155.442
X45.271Y155.429
X45.295Y155.416
X45.32Y155.404
X45.346Y155.392
X45.371Y155.38
X45.396Y155.369
X45.422Y155.358
X45.448Y155.348
X45.5Y155.329
X45.527Y155.32
X45.553Y155.312
X45.58Y155.304
G0Z1
X59.422Y156.647
G1Z-0.35F50
X59.473Y156.478F100
X59.557Y156.322
X59.669Y156.186
X59.805Y156.074
X59.961Y155.99
X60.13Y155.939
X60.306Y155.922
X60.482Y155.939
X60.651Y155.99
X60.807Y156.074
X60.943Y156.186
X61.055Y156.322
X61.139Y156.478
X61.19Y156.647
X61.207Y156.823
X61.19Y156.999
X61.139Y157.168
X61.055Y157.324
X60.943Y157.46
X60.807Y157.573
X60.651Y157.656
X60.482Y157.707
X60.306Y157.724
X60.13Y157.707
X59.961Y157.656
X59.805Y157.573
X59.669Y157.46
X59.557Y157.324
X59.473Y157.168
X59.422Y156.999
X59.405Y156.823
X59.422Y156.647
G0Z1
X75.309Y156.823
G1Z-0.35F50
X75.326Y156.647F100
X75.377Y156.478
X75.461Y156.322
X75.573Y156.186
X75.709Y156.074
X75.865Y155.99
X76.034Y155.939
X76.21Y155.922
X76.386Y155.939
X76.555Y155.99
X76.711Y156.074
X76.847Y156.186
X76.959Y156.322
X77.043Y156.478
X77.094Y156.647
X77.111Y156.823
X77.094Y156.999
X77.043Y157.168
X76.959Y157.324
X76.847Y157.46
X76.711Y157.573
X76.555Y157.656
X76.386Y157.707
X76.21Y157.724
X76.034Y157.707
X75.865Y157.656
X75.709Y157.573
X75.573Y157.46
X75.461Y157.324
X75.377Y157.168
X75.326Y156.999
X75.309Y156.823
G0Z1
X78.812Y148.898
G1Z-0.35F50
X52.357F100
X51.703Y148.903
X51.049Y148.92
X50.396Y148.947
X49.743Y148.985
X49.091Y149.034
X48.439Y149.094
X47.789Y149.165
X47.14Y149.247
X46.493Y149.339
X45.847Y149.442
X45.203Y149.556
X44.56Y149.68
X44.436Y149.706
X44.313Y149.735
X44.19Y149.766
X44.068Y149.798
X43.946Y149.833
X43.825Y149.87
X43.705Y149.909
X43.585Y149.95
X43.466Y149.994
X43.348Y150.039
X43.231Y150.086
X43.114Y150.136
X42.998Y150.187
X42.884Y150.24
X42.77Y150.296
X42.657Y150.353
X42.545Y150.412
X42.434Y150.473
X42.324Y150.536
X42.216Y150.601
X42.108Y150.668
X42.002Y150.737
X41.897Y150.807
X41.793Y150.88
X41.69Y150.954
X41.589Y151.03
X41.489Y151.108
X41.39Y151.187
X41.293Y151.268
X41.198Y151.351
X41.103Y151.435
X41.01Y151.521
X40.919Y151.609
X40.829Y151.698
X40.741Y151.788
X40.654Y151.881
X40.569Y151.974
X40.485Y152.07
X40.404Y152.166
X40.304Y152.288
X40.206Y152.412
X40.111Y152.537
X40.016Y152.665
X39.925Y152.794
X39.836Y152.924
X39.749Y153.056
X39.664Y153.189
X39.582Y153.324
X39.502Y153.46
X39.424Y153.598
X39.349Y153.737
X39.276Y153.877
X39.205Y154.018
X39.137Y154.161
X39.072Y154.304
X39.008Y154.449
X38.948Y154.595
X38.889Y154.742
X38.834Y154.89
X38.781Y155.038
X38.73Y155.188
X38.682Y155.339
X38.637Y155.49
X38.594Y155.642
X38.554Y155.795
X38.516Y155.948
X38.481Y156.102
X38.449Y156.257
X38.419Y156.412
X38.392Y156.567
X38.368Y156.723
X38.346Y156.88
X38.328Y157.037
X38.311Y157.194
X38.298Y157.351
X38.287Y157.509
X38.279Y157.667
X38.273Y157.824
X38.271Y157.982
Y158.14
X38.273Y158.298
X38.279Y158.456
X38.287Y158.614
X38.297Y158.771
X38.311Y158.929
X38.327Y159.086
X38.346Y159.243
X38.366Y159.386
X38.785Y162.277
X38.799Y162.352
X38.815Y162.428
X38.834Y162.504
X38.856Y162.577
X38.88Y162.651
X38.907Y162.725
X38.936Y162.796
X38.968Y162.866
X39.002Y162.935
X39.039Y163.004
X39.077Y163.071
X39.119Y163.137
X39.162Y163.201
X39.208Y163.263
X39.256Y163.325
X39.306Y163.383
X39.357Y163.44
X39.402Y163.487
X39.457Y163.54
X39.515Y163.593
X39.574Y163.643
X39.634Y163.69
X39.698Y163.737
X39.761Y163.78
X39.827Y163.821
X39.894Y163.86
X39.961Y163.896
X40.032Y163.931
X40.102Y163.963
X40.174Y163.993
X40.246Y164.019
X40.32Y164.044
X40.395Y164.066
X40.482Y164.088
X40.559Y164.104
X40.635Y164.117
X40.712Y164.128
X40.788Y164.136
X40.866Y164.142
X40.943Y164.144
X40.982Y164.145
X46.033
X46.15Y164.143
X46.267Y164.14
X46.384Y164.136
X46.5Y164.129
X47.755Y164.038
X48.908Y163.974
X50.062Y163.928
X51.216Y163.9
X52.377Y163.891
X55.93
X55.968Y163.894
X56.006Y163.896
X56.044Y163.898
X56.082
X84.082
X84.122
X84.162Y163.896
X84.201Y163.894
X84.241Y163.89
X84.28Y163.886
X84.32Y163.88
X84.359Y163.874
X84.398Y163.866
X84.437Y163.858
X84.476Y163.849
X84.514Y163.838
X84.552Y163.827
X84.59Y163.815
X84.628Y163.802
X84.665Y163.787
X84.702Y163.772
X84.738Y163.757
X84.774Y163.74
X84.81Y163.722
X84.845Y163.703
X84.88Y163.684
X84.914Y163.663
X84.949Y163.641
X84.982Y163.619
X85.015Y163.596
X85.048Y163.571
X85.08Y163.546
X85.111Y163.521
X85.126Y163.508
X85.155Y163.481
X85.177Y163.461
X85.199Y163.44
X85.227Y163.411
X85.255Y163.382
X85.287Y163.346
X85.318Y163.309
X85.34Y163.282
X85.361Y163.254
X85.382Y163.225
X85.402Y163.196
X85.421Y163.166
X85.44Y163.136
X85.457Y163.108
X85.473Y163.079
X85.489Y163.05
X85.508Y163.013
X85.526Y162.975
X85.539Y162.946
X85.552Y162.916
X85.568Y162.876
X85.576Y162.854
X85.59Y162.814
X85.603Y162.773
X85.616Y162.731
X85.627Y162.689
X85.637Y162.646
X85.645Y162.606
X85.652Y162.565
X85.66Y162.514
X85.666Y162.458
X85.669Y162.424
X85.671Y162.39
X85.672Y162.357
X85.673Y162.307
Y162.075
X85.684Y162.013
X85.695Y161.937
X85.703Y161.858
X85.708Y161.781
X85.711Y161.703
Y161.665
Y150.831
Y150.792
X85.709Y150.752
X85.707Y150.713
X85.703Y150.673
X85.699Y150.634
X85.694Y150.595
X85.687Y150.556
X85.68Y150.517
X85.673Y150.484
X85.672Y150.442
X85.669Y150.399
X85.666Y150.356
X85.661Y150.313
X85.655Y150.27
X85.648Y150.228
X85.64Y150.186
X85.631Y150.143
X85.621Y150.102
X85.611Y150.067
X85.601Y150.033
X85.59Y149.999
X85.578Y149.965
X85.565Y149.931
X85.549Y149.89
X85.531Y149.849
X85.512Y149.809
X85.49Y149.765
X85.473Y149.735
X85.457Y149.706
X85.435Y149.67
X85.412Y149.634
X85.391Y149.602
X85.368Y149.571
X85.345Y149.54
X85.321Y149.509
X85.297Y149.48
X85.272Y149.45
X85.246Y149.422
X85.219Y149.394
X85.192Y149.367
X85.164Y149.34
X85.135Y149.314
X85.106Y149.289
X85.076Y149.265
X85.046Y149.241
X85.015Y149.218
X84.983Y149.196
X84.951Y149.174
X84.919Y149.154
X84.886Y149.134
X84.852Y149.115
X84.817Y149.096
X84.783Y149.079
X84.749Y149.062
X84.714Y149.047
X84.679Y149.032
X84.643Y149.018
X84.607Y149.005
X84.571Y148.993
X84.534Y148.982
X84.498Y148.971
X84.461Y148.962
X84.423Y148.953
X84.386Y148.945
X84.348Y148.938
X84.311Y148.933
X84.273Y148.927
X84.235Y148.923
X84.197Y148.92
X84.159Y148.918
X84.12Y148.916
X84.082
X80.146
X79.556Y148.903
X78.812Y148.898
G0Z1
X45.58Y155.304
G1Z-0.4F50
X45.634Y155.289F100
X45.661Y155.283
X45.687Y155.277
X45.716Y155.271
X45.771Y155.262
X45.798Y155.257
X45.826Y155.254
X45.853Y155.251
X45.898Y155.247
X45.944Y155.244
X45.965Y155.243
X45.992Y155.242
X46.02
X46.048
X46.076Y155.243
X46.132Y155.246
X46.16Y155.248
X46.187Y155.251
X46.215Y155.254
X46.242Y155.257
X46.298Y155.266
X46.325Y155.271
X46.352Y155.277
X46.379Y155.283
X46.406Y155.289
X46.434Y155.296
X46.46Y155.304
X46.487Y155.312
X46.514Y155.32
X46.54Y155.329
X46.566Y155.338
X46.592Y155.348
X46.618Y155.358
X46.644Y155.369
X46.67Y155.38
X46.695Y155.392
X46.72Y155.404
X46.745Y155.416
X46.77Y155.429
X46.794Y155.442
X46.818Y155.456
X46.843Y155.47
X46.867Y155.485
X46.89Y155.5
X46.913Y155.515
X46.936Y155.531
X46.959Y155.547
X46.981Y155.563
X47.003Y155.58
X47.025Y155.598
X47.046Y155.615
X47.081Y155.645
X47.113Y155.674
X47.129Y155.69
X47.162Y155.723
X47.19Y155.752
X47.207Y155.77
X47.225Y155.791
X47.243Y155.812
X47.261Y155.834
X47.278Y155.856
X47.295Y155.878
X47.328Y155.923
X47.344Y155.946
X47.369Y155.985
X47.39Y156.018
X47.403Y156.04
X47.417Y156.064
X47.43Y156.089
X47.443Y156.114
X47.455Y156.139
X47.467Y156.164
X47.49Y156.215
X47.501Y156.24
X47.512Y156.27
X47.521Y156.293
X47.53Y156.319
X47.539Y156.345
X47.547Y156.372
X47.555Y156.398
X47.562Y156.425
X47.569Y156.452
X47.576Y156.479
X47.582Y156.507
X47.588Y156.534
X47.593Y156.561
X47.597Y156.589
X47.601Y156.616
X47.605Y156.644
X47.608Y156.672
X47.611Y156.699
X47.613Y156.727
X47.615Y156.755
X47.616Y156.783
X47.617Y156.811
Y156.839
Y156.867
X47.616Y156.894
X47.615Y156.922
X47.613Y156.95
X47.611Y156.978
X47.608Y157.006
X47.605Y157.033
X47.601Y157.061
X47.597Y157.088
X47.593Y157.116
X47.588Y157.143
X47.582Y157.171
X47.576Y157.198
X47.57Y157.225
X47.562Y157.252
X47.555Y157.279
X47.547Y157.305
X47.539Y157.332
X47.53Y157.358
X47.521Y157.385
X47.511Y157.411
X47.501Y157.437
X47.49Y157.463
X47.479Y157.488
X47.467Y157.513
X47.455Y157.539
X47.443Y157.563
X47.43Y157.588
X47.417Y157.613
X47.403Y157.637
X47.389Y157.661
X47.374Y157.685
X47.359Y157.708
X47.344Y157.731
X47.328Y157.754
X47.312Y157.777
X47.295Y157.8
X47.278Y157.822
X47.261Y157.843
X47.243Y157.865
X47.225Y157.886
X47.207Y157.907
X47.188Y157.927
X47.169Y157.948
X47.149Y157.968
X47.129Y157.987
X47.109Y158.006
X47.089Y158.025
X47.068Y158.043
X47.047Y158.062
X47.025Y158.08
X47.003Y158.097
X46.981Y158.114
X46.959Y158.13
X46.936Y158.147
X46.913Y158.162
X46.89Y158.178
X46.866Y158.193
X46.843Y158.207
X46.819Y158.221
X46.794Y158.235
X46.77Y158.248
X46.745Y158.261
X46.72Y158.274
X46.695Y158.286
X46.669Y158.297
X46.644Y158.308
X46.619Y158.319
X46.592Y158.329
X46.566Y158.339
X46.54Y158.348
X46.514Y158.357
X46.487Y158.365
X46.46Y158.373
X46.434Y158.381
X46.406Y158.388
X46.379Y158.394
X46.352Y158.4
X46.325Y158.406
X46.298Y158.411
X46.27Y158.416
X46.242Y158.42
X46.215Y158.423
X46.187Y158.426
X46.159Y158.429
X46.132Y158.431
X46.104Y158.433
X46.076Y158.434
X46.048Y158.435
X46.02
X45.997
X45.937Y158.433
X45.909Y158.431
X45.881Y158.429
X45.856Y158.427
X45.825Y158.423
X45.798Y158.42
X45.77Y158.416
X45.743Y158.411
X45.716Y158.406
X45.688Y158.4
X45.661Y158.394
X45.634Y158.388
X45.607Y158.381
X45.58Y158.373
X45.553Y158.365
X45.527Y158.357
X45.5Y158.348
X45.474Y158.339
X45.448Y158.329
X45.422Y158.319
X45.396Y158.308
X45.371Y158.297
X45.345Y158.286
X45.32Y158.274
X45.295Y158.261
X45.257Y158.241
X45.219Y158.22
X45.174Y158.193
X45.151Y158.178
X45.127Y158.162
X45.104Y158.147
X45.082Y158.13
X45.059Y158.114
X45.037Y158.097
X45.016Y158.08
X44.994Y158.062
X44.973Y158.043
X44.952Y158.025
X44.931Y158.006
X44.911Y157.987
X44.891Y157.968
X44.872Y157.948
X44.852Y157.927
X44.834Y157.907
X44.815Y157.886
X44.797Y157.865
X44.779Y157.843
X44.762Y157.822
X44.745Y157.8
X44.729Y157.777
X44.712Y157.754
X44.697Y157.731
X44.681Y157.708
X44.656Y157.668
X44.636Y157.635
X44.624Y157.613
X44.61Y157.588
X44.585Y157.539
X44.573Y157.513
X44.56Y157.484
X44.551Y157.462
X44.54Y157.437
X44.53Y157.411
X44.52Y157.385
X44.511Y157.358
X44.502Y157.333
X44.493Y157.305
X44.485Y157.279
X44.478Y157.252
X44.471Y157.225
X44.465Y157.198
X44.459Y157.171
X44.453Y157.143
X44.448Y157.116
X44.443Y157.088
X44.439Y157.061
X44.436Y157.033
X44.432Y157.006
X44.43Y156.978
X44.428Y156.95
X44.426Y156.922
X44.425Y156.894
X44.424Y156.839
Y156.811
X44.425Y156.783
X44.426Y156.755
X44.428Y156.727
X44.43Y156.699
X44.432Y156.672
X44.436Y156.644
X44.439Y156.616
X44.443Y156.589
X44.448Y156.561
X44.453Y156.534
X44.459Y156.507
X44.465Y156.479
X44.471Y156.452
X44.478Y156.425
X44.485Y156.398
X44.493Y156.372
X44.502Y156.345
X44.511Y156.319
X44.52Y156.293
X44.53Y156.266
X44.54Y156.24
X44.551Y156.215
X44.562Y156.189
X44.573Y156.164
X44.585Y156.139
X44.598Y156.114
X44.611Y156.089
X44.624Y156.065
X44.638Y156.04
X44.652Y156.016
X44.666Y155.993
X44.681Y155.969
X44.697Y155.946
X44.712Y155.923
X44.729Y155.9
X44.762Y155.856
X44.797Y155.812
X44.815Y155.791
X44.834Y155.77
X44.853Y155.75
X44.872Y155.73
X44.891Y155.71
X44.911Y155.69
X44.952Y155.652
X44.973Y155.634
X44.994Y155.615
X45.016Y155.598
X45.037Y155.58
X45.059Y155.563
X45.082Y155.547
X45.104Y155.531
X45.128Y155.515
X45.151Y155.499
X45.174Y155.485
X45.198Y155.47
X45.222Y155.456
X45.246Y155.442
X45.271Y155.429
X45.295Y155.416
X45.32Y155.404
X45.346Y155.392
X45.371Y155.38
X45.396Y155.369
X45.422Y155.358
X45.448Y155.348
X45.5Y155.329
X45.527Y155.32
X45.553Y155.312
X45.58Y155.304
G0Z1
X59.422Y156.647
G1Z-0.4F50
X59.473Y156.478F100
X59.557Y156.322
X59.669Y156.186
X59.805Y156.074
X59.961Y155.99
X60.13Y155.939
X60.306Y155.922
X60.482Y155.939
X60.651Y155.99
X60.807Y156.074
X60.943Y156.186
X61.055Y156.322
X61.139Y156.478
X61.19Y156.647
X61.207Y156.823
X61.19Y156.999
X61.139Y157.168
X61.055Y157.324
X60.943Y157.46
X60.807Y157.573
X60.651Y157.656
X60.482Y157.707
X60.306Y157.724
X60.13Y157.707
X59.961Y157.656
X59.805Y157.573
X59.669Y157.46
X59.557Y157.324
X59.473Y157.168
X59.422Y156.999
X59.405Y156.823
X59.422Y156.647
G0Z1
X75.309Y156.823
G1Z-0.4F50
X75.326Y156.647F100
X75.377Y156.478
X75.461Y156.322
X75.573Y156.186
X75.709Y156.074
X75.865Y155.99
X76.034Y155.939
X76.21Y155.922
X76.386Y155.939
X76.555Y155.99
X76.711Y156.074
X76.847Y156.186
X76.959Y156.322
X77.043Y156.478
X77.094Y156.647
X77.111Y156.823
X77.094Y156.999
X77.043Y157.168
X76.959Y157.324
X76.847Y157.46
X76.711Y157.573
X76.555Y157.656
X76.386Y157.707
X76.21Y157.724
X76.034Y157.707
X75.865Y157.656
X75.709Y157.573
X75.573Y157.46
X75.461Y157.324
X75.377Y157.168
X75.326Y156.999
X75.309Y156.823
G0Z1
X78.812Y148.898
G1Z-0.4F50
X52.357F100
X51.703Y148.903
X51.049Y148.92
X50.396Y148.947
X49.743Y148.985
X49.091Y149.034
X48.439Y149.094
X47.789Y149.165
X47.14Y149.247
X46.493Y149.339
X45.847Y149.442
X45.203Y149.556
X44.56Y149.68
X44.436Y149.706
X44.313Y149.735
X44.19Y149.766
X44.068Y149.798
X43.946Y149.833
X43.825Y149.87
X43.705Y149.909
X43.585Y149.95
X43.466Y149.994
X43.348Y150.039
X43.231Y150.086
X43.114Y150.136
X42.998Y150.187
X42.884Y150.24
X42.77Y150.296
X42.657Y150.353
X42.545Y150.412
X42.434Y150.473
X42.324Y150.536
X42.216Y150.601
X42.108Y150.668
X42.002Y150.737
X41.897Y150.807
X41.793Y150.88
X41.69Y150.954
X41.589Y151.03
X41.489Y151.108
X41.39Y151.187
X41.293Y151.268
X41.198Y151.351
X41.103Y151.435
X41.01Y151.521
X40.919Y151.609
X40.829Y151.698
X40.741Y151.788
X40.654Y151.881
X40.569Y151.974
X40.485Y152.07
X40.404Y152.166
X40.304Y152.288
X40.206Y152.412
X40.111Y152.537
X40.016Y152.665
X39.925Y152.794
X39.836Y152.924
X39.749Y153.056
X39.664Y153.189
X39.582Y153.324
X39.502Y153.46
X39.424Y153.598
X39.349Y153.737
X39.276Y153.877
X39.205Y154.018
X39.137Y154.161
X39.072Y154.304
X39.008Y154.449
X38.948Y154.595
X38.889Y154.742
X38.834Y154.89
X38.781Y155.038
X38.73Y155.188
X38.682Y155.339
X38.637Y155.49
X38.594Y155.642
X38.554Y155.795
X38.516Y155.948
X38.481Y156.102
X38.449Y156.257
X38.419Y156.412
X38.392Y156.567
X38.368Y156.723
X38.346Y156.88
X38.328Y157.037
X38.311Y157.194
X38.298Y157.351
X38.287Y157.509
X38.279Y157.667
X38.273Y157.824
X38.271Y157.982
Y158.14
X38.273Y158.298
X38.279Y158.456
X38.287Y158.614
X38.297Y158.771
X38.311Y158.929
X38.327Y159.086
X38.346Y159.243
X38.366Y159.386
X38.785Y162.277
X38.799Y162.352
X38.815Y162.428
X38.834Y162.504
X38.856Y162.577
X38.88Y162.651
X38.907Y162.725
X38.936Y162.796
X38.968Y162.866
X39.002Y162.935
X39.039Y163.004
X39.077Y163.071
X39.119Y163.137
X39.162Y163.201
X39.208Y163.263
X39.256Y163.325
X39.306Y163.383
X39.357Y163.44
X39.402Y163.487
X39.457Y163.54
X39.515Y163.593
X39.574Y163.643
X39.634Y163.69
X39.698Y163.737
X39.761Y163.78
X39.827Y163.821
X39.894Y163.86
X39.961Y163.896
X40.032Y163.931
X40.102Y163.963
X40.174Y163.993
X40.246Y164.019
X40.32Y164.044
X40.395Y164.066
X40.482Y164.088
X40.559Y164.104
X40.635Y164.117
X40.712Y164.128
X40.788Y164.136
X40.866Y164.142
X40.943Y164.144
X40.982Y164.145
X46.033
X46.15Y164.143
X46.267Y164.14
X46.384Y164.136
X46.5Y164.129
X47.755Y164.038
X48.908Y163.974
X50.062Y163.928
X51.216Y163.9
X52.377Y163.891
X55.93
X55.968Y163.894
X56.006Y163.896
X56.044Y163.898
X56.082
X84.082
X84.122
X84.162Y163.896
X84.201Y163.894
X84.241Y163.89
X84.28Y163.886
X84.32Y163.88
X84.359Y163.874
X84.398Y163.866
X84.437Y163.858
X84.476Y163.849
X84.514Y163.838
X84.552Y163.827
X84.59Y163.815
X84.628Y163.802
X84.665Y163.787
X84.702Y163.772
X84.738Y163.757
X84.774Y163.74
X84.81Y163.722
X84.845Y163.703
X84.88Y163.684
X84.914Y163.663
X84.949Y163.641
X84.982Y163.619
X85.015Y163.596
X85.048Y163.571
X85.08Y163.546
X85.111Y163.521
X85.126Y163.508
X85.155Y163.481
X85.177Y163.461
X85.199Y163.44
X85.227Y163.411
X85.255Y163.382
X85.287Y163.346
X85.318Y163.309
X85.34Y163.282
X85.361Y163.254
X85.382Y163.225
X85.402Y163.196
X85.421Y163.166
X85.44Y163.136
X85.457Y163.108
X85.473Y163.079
X85.489Y163.05
X85.508Y163.013
X85.526Y162.975
X85.539Y162.946
X85.552Y162.916
X85.568Y162.876
X85.576Y162.854
X85.59Y162.814
X85.603Y162.773
X85.616Y162.731
X85.627Y162.689
X85.637Y162.646
X85.645Y162.606
X85.652Y162.565
X85.66Y162.514
X85.666Y162.458
X85.669Y162.424
X85.671Y162.39
X85.672Y162.357
X85.673Y162.307
Y162.075
X85.684Y162.013
X85.695Y161.937
X85.703Y161.858
X85.708Y161.781
X85.711Y161.703
Y161.665
Y150.831
Y150.792
X85.709Y150.752
X85.707Y150.713
X85.703Y150.673
X85.699Y150.634
X85.694Y150.595
X85.687Y150.556
X85.68Y150.517
X85.673Y150.484
X85.672Y150.442
X85.669Y150.399
X85.666Y150.356
X85.661Y150.313
X85.655Y150.27
X85.648Y150.228
X85.64Y150.186
X85.631Y150.143
X85.621Y150.102
X85.611Y150.067
X85.601Y150.033
X85.59Y149.999
X85.578Y149.965
X85.565Y149.931
X85.549Y149.89
X85.531Y149.849
X85.512Y149.809
X85.49Y149.765
X85.473Y149.735
X85.457Y149.706
X85.435Y149.67
X85.412Y149.634
X85.391Y149.602
X85.368Y149.571
X85.345Y149.54
X85.321Y149.509
X85.297Y149.48
X85.272Y149.45
X85.246Y149.422
X85.219Y149.394
X85.192Y149.367
X85.164Y149.34
X85.135Y149.314
X85.106Y149.289
X85.076Y149.265
X85.046Y149.241
X85.015Y149.218
X84.983Y149.196
X84.951Y149.174
X84.919Y149.154
X84.886Y149.134
X84.852Y149.115
X84.817Y149.096
X84.783Y149.079
X84.749Y149.062
X84.714Y149.047
X84.679Y149.032
X84.643Y149.018
X84.607Y149.005
X84.571Y148.993
X84.534Y148.982
X84.498Y148.971
X84.461Y148.962
X84.423Y148.953
X84.386Y148.945
X84.348Y148.938
X84.311Y148.933
X84.273Y148.927
X84.235Y148.923
X84.197Y148.92
X84.159Y148.918
X84.12Y148.916
X84.082
X80.146
X79.556Y148.903
X78.812Y148.898
G0Z1
X45.58Y155.304
G1Z-0.45F50
X45.634Y155.289F100
X45.661Y155.283
X45.687Y155.277
X45.716Y155.271
X45.771Y155.262
X45.798Y155.257
X45.826Y155.254
X45.853Y155.251
X45.898Y155.247
X45.944Y155.244
X45.965Y155.243
X45.992Y155.242
X46.02
X46.048
X46.076Y155.243
X46.132Y155.246
X46.16Y155.248
X46.187Y155.251
X46.215Y155.254
X46.242Y155.257
X46.298Y155.266
X46.325Y155.271
X46.352Y155.277
X46.379Y155.283
X46.406Y155.289
X46.434Y155.296
X46.46Y155.304
X46.487Y155.312
X46.514Y155.32
X46.54Y155.329
X46.566Y155.338
X46.592Y155.348
X46.618Y155.358
X46.644Y155.369
X46.67Y155.38
X46.695Y155.392
X46.72Y155.404
X46.745Y155.416
X46.77Y155.429
X46.794Y155.442
X46.818Y155.456
X46.843Y155.47
X46.867Y155.485
X46.89Y155.5
X46.913Y155.515
X46.936Y155.531
X46.959Y155.547
X46.981Y155.563
X47.003Y155.58
X47.025Y155.598
X47.046Y155.615
X47.081Y155.645
X47.113Y155.674
X47.129Y155.69
X47.162Y155.723
X47.19Y155.752
X47.207Y155.77
X47.225Y155.791
X47.243Y155.812
X47.261Y155.834
X47.278Y155.856
X47.295Y155.878
X47.328Y155.923
X47.344Y155.946
X47.369Y155.985
X47.39Y156.018
X47.403Y156.04
X47.417Y156.064
X47.43Y156.089
X47.443Y156.114
X47.455Y156.139
X47.467Y156.164
X47.49Y156.215
X47.501Y156.24
X47.512Y156.27
X47.521Y156.293
X47.53Y156.319
X47.539Y156.345
X47.547Y156.372
X47.555Y156.398
X47.562Y156.425
X47.569Y156.452
X47.576Y156.479
X47.582Y156.507
X47.588Y156.534
X47.593Y156.561
X47.597Y156.589
X47.601Y156.616
X47.605Y156.644
X47.608Y156.672
X47.611Y156.699
X47.613Y156.727
X47.615Y156.755
X47.616Y156.783
X47.617Y156.811
Y156.839
Y156.867
X47.616Y156.894
X47.615Y156.922
X47.613Y156.95
X47.611Y156.978
X47.608Y157.006
X47.605Y157.033
X47.601Y157.061
X47.597Y157.088
X47.593Y157.116
X47.588Y157.143
X47.582Y157.171
X47.576Y157.198
X47.57Y157.225
X47.562Y157.252
X47.555Y157.279
X47.547Y157.305
X47.539Y157.332
X47.53Y157.358
X47.521Y157.385
X47.511Y157.411
X47.501Y157.437
X47.49Y157.463
X47.479Y157.488
X47.467Y157.513
X47.455Y157.539
X47.443Y157.563
X47.43Y157.588
X47.417Y157.613
X47.403Y157.637
X47.389Y157.661
X47.374Y157.685
X47.359Y157.708
X47.344Y157.731
X47.328Y157.754
X47.312Y157.777
X47.295Y157.8
X47.278Y157.822
X47.261Y157.843
X47.243Y157.865
X47.225Y157.886
X47.207Y157.907
X47.188Y157.927
X47.169Y157.948
X47.149Y157.968
X47.129Y157.987
X47.109Y158.006
X47.089Y158.025
X47.068Y158.043
X47.047Y158.062
X47.025Y158.08
X47.003Y158.097
X46.981Y158.114
X46.959Y158.13
X46.936Y158.147
X46.913Y158.162
X46.89Y158.178
X46.866Y158.193
X46.843Y158.207
X46.819Y158.221
X46.794Y158.235
X46.77Y158.248
X46.745Y158.261
X46.72Y158.274
X46.695Y158.286
X46.669Y158.297
X46.644Y158.308
X46.619Y158.319
X46.592Y158.329
X46.566Y158.339
X46.54Y158.348
X46.514Y158.357
X46.487Y158.365
X46.46Y158.373
X46.434Y158.381
X46.406Y158.388
X46.379Y158.394
X46.352Y158.4
X46.325Y158.406
X46.298Y158.411
X46.27Y158.416
X46.242Y158.42
X46.215Y158.423
X46.187Y158.426
X46.159Y158.429
X46.132Y158.431
X46.104Y158.433
X46.076Y158.434
X46.048Y158.435
X46.02
X45.997
X45.937Y158.433
X45.909Y158.431
X45.881Y158.429
X45.856Y158.427
X45.825Y158.423
X45.798Y158.42
X45.77Y158.416
X45.743Y158.411
X45.716Y158.406
X45.688Y158.4
X45.661Y158.394
X45.634Y158.388
X45.607Y158.381
X45.58Y158.373
X45.553Y158.365
X45.527Y158.357
X45.5Y158.348
X45.474Y158.339
X45.448Y158.329
X45.422Y158.319
X45.396Y158.308
X45.371Y158.297
X45.345Y158.286
X45.32Y158.274
X45.295Y158.261
X45.257Y158.241
X45.219Y158.22
X45.174Y158.193
X45.151Y158.178
X45.127Y158.162
X45.104Y158.147
X45.082Y158.13
X45.059Y158.114
X45.037Y158.097
X45.016Y158.08
X44.994Y158.062
X44.973Y158.043
X44.952Y158.025
X44.931Y158.006
X44.911Y157.987
X44.891Y157.968
X44.872Y157.948
X44.852Y157.927
X44.834Y157.907
X44.815Y157.886
X44.797Y157.865
X44.779Y157.843
X44.762Y157.822
X44.745Y157.8
X44.729Y157.777
X44.712Y157.754
X44.697Y157.731
X44.681Y157.708
X44.656Y157.668
X44.636Y157.635
X44.624Y157.613
X44.61Y157.588
X44.585Y157.539
X44.573Y157.513
X44.56Y157.484
X44.551Y157.462
X44.54Y157.437
X44.53Y157.411
X44.52Y157.385
X44.511Y157.358
X44.502Y157.333
X44.493Y157.305
X44.485Y157.279
X44.478Y157.252
X44.471Y157.225
X44.465Y157.198
X44.459Y157.171
X44.453Y157.143
X44.448Y157.116
X44.443Y157.088
X44.439Y157.061
X44.436Y157.033
X44.432Y157.006
X44.43Y156.978
X44.428Y156.95
X44.426Y156.922
X44.425Y156.894
X44.424Y156.839
Y156.811
X44.425Y156.783
X44.426Y156.755
X44.428Y156.727
X44.43Y156.699
X44.432Y156.672
X44.436Y156.644
X44.439Y156.616
X44.443Y156.589
X44.448Y156.561
X44.453Y156.534
X44.459Y156.507
X44.465Y156.479
X44.471Y156.452
X44.478Y156.425
X44.485Y156.398
X44.493Y156.372
X44.502Y156.345
X44.511Y156.319
X44.52Y156.293
X44.53Y156.266
X44.54Y156.24
X44.551Y156.215
X44.562Y156.189
X44.573Y156.164
X44.585Y156.139
X44.598Y156.114
X44.611Y156.089
X44.624Y156.065
X44.638Y156.04
X44.652Y156.016
X44.666Y155.993
X44.681Y155.969
X44.697Y155.946
X44.712Y155.923
X44.729Y155.9
X44.762Y155.856
X44.797Y155.812
X44.815Y155.791
X44.834Y155.77
X44.853Y155.75
X44.872Y155.73
X44.891Y155.71
X44.911Y155.69
X44.952Y155.652
X44.973Y155.634
X44.994Y155.615
X45.016Y155.598
X45.037Y155.58
X45.059Y155.563
X45.082Y155.547
X45.104Y155.531
X45.128Y155.515
X45.151Y155.499
X45.174Y155.485
X45.198Y155.47
X45.222Y155.456
X45.246Y155.442
X45.271Y155.429
X45.295Y155.416
X45.32Y155.404
X45.346Y155.392
X45.371Y155.38
X45.396Y155.369
X45.422Y155.358
X45.448Y155.348
X45.5Y155.329
X45.527Y155.32
X45.553Y155.312
X45.58Y155.304
G0Z1
X59.422Y156.647
G1Z-0.45F50
X59.473Y156.478F100
X59.557Y156.322
X59.669Y156.186
X59.805Y156.074
X59.961Y155.99
X60.13Y155.939
X60.306Y155.922
X60.482Y155.939
X60.651Y155.99
X60.807Y156.074
X60.943Y156.186
X61.055Y156.322
X61.139Y156.478
X61.19Y156.647
X61.207Y156.823
X61.19Y156.999
X61.139Y157.168
X61.055Y157.324
X60.943Y157.46
X60.807Y157.573
X60.651Y157.656
X60.482Y157.707
X60.306Y157.724
X60.13Y157.707
X59.961Y157.656
X59.805Y157.573
X59.669Y157.46
X59.557Y157.324
X59.473Y157.168
X59.422Y156.999
X59.405Y156.823
X59.422Y156.647
G0Z1
X75.309Y156.823
G1Z-0.45F50
X75.326Y156.647F100
X75.377Y156.478
X75.461Y156.322
X75.573Y156.186
X75.709Y156.074
X75.865Y155.99
X76.034Y155.939
X76.21Y155.922
X76.386Y155.939
X76.555Y155.99
X76.711Y156.074
X76.847Y156.186
X76.959Y156.322
X77.043Y156.478
X77.094Y156.647
X77.111Y156.823
X77.094Y156.999
X77.043Y157.168
X76.959Y157.324
X76.847Y157.46
X76.711Y157.573
X76.555Y157.656
X76.386Y157.707
X76.21Y157.724
X76.034Y157.707
X75.865Y157.656
X75.709Y157.573
X75.573Y157.46
X75.461Y157.324
X75.377Y157.168
X75.326Y156.999
X75.309Y156.823
G0Z1
X78.812Y148.898
G1Z-0.45F50
X52.357F100
X51.703Y148.903
X51.049Y148.92
X50.396Y148.947
X49.743Y148.985
X49.091Y149.034
X48.439Y149.094
X47.789Y149.165
X47.14Y149.247
X46.493Y149.339
X45.847Y149.442
X45.203Y149.556
X44.56Y149.68
X44.436Y149.706
X44.313Y149.735
X44.19Y149.766
X44.068Y149.798
X43.946Y149.833
X43.825Y149.87
X43.705Y149.909
X43.585Y149.95
X43.466Y149.994
X43.348Y150.039
X43.231Y150.086
X43.114Y150.136
X42.998Y150.187
X42.884Y150.24
X42.77Y150.296
X42.657Y150.353
X42.545Y150.412
X42.434Y150.473
X42.324Y150.536
X42.216Y150.601
X42.108Y150.668
X42.002Y150.737
X41.897Y150.807
X41.793Y150.88
X41.69Y150.954
X41.589Y151.03
X41.489Y151.108
X41.39Y151.187
X41.293Y151.268
X41.198Y151.351
X41.103Y151.435
X41.01Y151.521
X40.919Y151.609
X40.829Y151.698
X40.741Y151.788
X40.654Y151.881
X40.569Y151.974
X40.485Y152.07
X40.404Y152.166
X40.304Y152.288
X40.206Y152.412
X40.111Y152.537
X40.016Y152.665
X39.925Y152.794
X39.836Y152.924
X39.749Y153.056
X39.664Y153.189
X39.582Y153.324
X39.502Y153.46
X39.424Y153.598
X39.349Y153.737
X39.276Y153.877
X39.205Y154.018
X39.137Y154.161
X39.072Y154.304
X39.008Y154.449
X38.948Y154.595
X38.889Y154.742
X38.834Y154.89
X38.781Y155.038
X38.73Y155.188
X38.682Y155.339
X38.637Y155.49
X38.594Y155.642
X38.554Y155.795
X38.516Y155.948
X38.481Y156.102
X38.449Y156.257
X38.419Y156.412
X38.392Y156.567
X38.368Y156.723
X38.346Y156.88
X38.328Y157.037
X38.311Y157.194
X38.298Y157.351
X38.287Y157.509
X38.279Y157.667
X38.273Y157.824
X38.271Y157.982
Y158.14
X38.273Y158.298
X38.279Y158.456
X38.287Y158.614
X38.297Y158.771
X38.311Y158.929
X38.327Y159.086
X38.346Y159.243
X38.366Y159.386
X38.785Y162.277
X38.799Y162.352
X38.815Y162.428
X38.834Y162.504
X38.856Y162.577
X38.88Y162.651
X38.907Y162.725
X38.936Y162.796
X38.968Y162.866
X39.002Y162.935
X39.039Y163.004
X39.077Y163.071
X39.119Y163.137
X39.162Y163.201
X39.208Y163.263
X39.256Y163.325
X39.306Y163.383
X39.357Y163.44
X39.402Y163.487
X39.457Y163.54
X39.515Y163.593
X39.574Y163.643
X39.634Y163.69
X39.698Y163.737
X39.761Y163.78
X39.827Y163.821
X39.894Y163.86
X39.961Y163.896
X40.032Y163.931
X40.102Y163.963
X40.174Y163.993
X40.246Y164.019
X40.32Y164.044
X40.395Y164.066
X40.482Y164.088
X40.559Y164.104
X40.635Y164.117
X40.712Y164.128
X40.788Y164.136
X40.866Y164.142
X40.943Y164.144
X40.982Y164.145
X46.033
X46.15Y164.143
X46.267Y164.14
X46.384Y164.136
X46.5Y164.129
X47.755Y164.038
X48.908Y163.974
X50.062Y163.928
X51.216Y163.9
X52.377Y163.891
X55.93
X55.968Y163.894
X56.006Y163.896
X56.044Y163.898
X56.082
X84.082
X84.122
X84.162Y163.896
X84.201Y163.894
X84.241Y163.89
X84.28Y163.886
X84.32Y163.88
X84.359Y163.874
X84.398Y163.866
X84.437Y163.858
X84.476Y163.849
X84.514Y163.838
X84.552Y163.827
X84.59Y163.815
X84.628Y163.802
X84.665Y163.787
X84.702Y163.772
X84.738Y163.757
X84.774Y163.74
X84.81Y163.722
X84.845Y163.703
X84.88Y163.684
X84.914Y163.663
X84.949Y163.641
X84.982Y163.619
X85.015Y163.596
X85.048Y163.571
X85.08Y163.546
X85.111Y163.521
X85.126Y163.508
X85.155Y163.481
X85.177Y163.461
X85.199Y163.44
X85.227Y163.411
X85.255Y163.382
X85.287Y163.346
X85.318Y163.309
X85.34Y163.282
X85.361Y163.254
X85.382Y163.225
X85.402Y163.196
X85.421Y163.166
X85.44Y163.136
X85.457Y163.108
X85.473Y163.079
X85.489Y163.05
X85.508Y163.013
X85.526Y162.975
X85.539Y162.946
X85.552Y162.916
X85.568Y162.876
X85.576Y162.854
X85.59Y162.814
X85.603Y162.773
X85.616Y162.731
X85.627Y162.689
X85.637Y162.646
X85.645Y162.606
X85.652Y162.565
X85.66Y162.514
X85.666Y162.458
X85.669Y162.424
X85.671Y162.39
X85.672Y162.357
X85.673Y162.307
Y162.075
X85.684Y162.013
X85.695Y161.937
X85.703Y161.858
X85.708Y161.781
X85.711Y161.703
Y161.665
Y150.831
Y150.792
X85.709Y150.752
X85.707Y150.713
X85.703Y150.673
X85.699Y150.634
X85.694Y150.595
X85.687Y150.556
X85.68Y150.517
X85.673Y150.484
X85.672Y150.442
X85.669Y150.399
X85.666Y150.356
X85.661Y150.313
X85.655Y150.27
X85.648Y150.228
X85.64Y150.186
X85.631Y150.143
