(Created with grbl post processor 2025/02/04 15:31)
G21
(G-code generated with BlenderCAM and NC library)
G17G90
(Tool: D = 3.18 mm  type END flutes 2)
S1000M03
G00 Z1.0

G0X0Y0Z1
X170.851Y134.502
G1Z-0.05F50
X170.875Y134.471F100
X170.896Y134.446
X170.911Y134.429
X170.929Y134.408
X170.967Y134.367
X170.987Y134.347
X171.007Y134.327
X171.027Y134.308
X171.044Y134.292
X171.069Y134.27
X171.09Y134.253
X171.111Y134.235
X171.133Y134.218
X171.155Y134.201
X171.177Y134.184
X171.2Y134.168
X171.223Y134.152
X171.246Y134.137
X171.27Y134.122
X171.293Y134.107
X171.318Y134.093
X171.342Y134.079
X171.366Y134.066
X171.391Y134.053
X171.416Y134.041
X171.441Y134.029
X171.494Y134.005
X171.518Y133.996
X171.544Y133.985
X171.57Y133.976
X171.596Y133.966
X171.649Y133.949
X171.676Y133.941
X171.703Y133.934
X171.731Y133.926
X171.757Y133.92
X171.784Y133.914
X171.811Y133.909
X171.838Y133.904
X171.894Y133.895
X171.921Y133.891
X171.949Y133.888
X172.004Y133.883
X172.033Y133.881
X172.06Y133.88
X172.088
X172.116Y133.879
X172.144Y133.88
X172.171
X172.227Y133.883
X172.255Y133.885
X172.283Y133.888
X172.31Y133.891
X172.338Y133.895
X172.365Y133.899
X172.393Y133.904
X172.421Y133.909
X172.448Y133.914
X172.475Y133.92
X172.502Y133.927
X172.529Y133.934
X172.556Y133.941
X172.583Y133.949
X172.609Y133.957
X172.636Y133.966
X172.662Y133.976
X172.688Y133.985
X172.714Y133.996
X172.74Y134.006
X172.765Y134.017
X172.791Y134.029
X172.816Y134.041
X172.841Y134.053
X172.865Y134.066
X172.89Y134.079
X172.914Y134.093
X172.938Y134.107
X172.962Y134.122
X172.985Y134.137
X173.009Y134.152
X173.032Y134.168
X173.054Y134.184
X173.077Y134.201
X173.099Y134.218
X173.121Y134.235
X173.142Y134.253
X173.178Y134.284
X173.206Y134.31
X173.225Y134.327
X173.245Y134.347
X173.264Y134.367
X173.284Y134.387
X173.313Y134.42
X173.341Y134.452
X173.357Y134.471
X173.374Y134.493
X173.391Y134.515
X173.408Y134.537
X173.424Y134.56
X173.439Y134.583
X173.455Y134.607
X173.47Y134.63
X173.484Y134.654
X173.499Y134.678
X173.512Y134.702
X173.526Y134.726
X173.538Y134.751
X173.551Y134.776
X173.563Y134.801
X173.575Y134.827
X173.586Y134.852
X173.596Y134.878
X173.616Y134.93
X173.625Y134.956
X173.634Y134.982
X173.643Y135.009
X173.651Y135.036
X173.658Y135.063
X173.665Y135.09
X173.672Y135.117
X173.678Y135.144
X173.683Y135.171
X173.688Y135.199
X173.693Y135.226
X173.697Y135.254
X173.701Y135.281
X173.704Y135.309
X173.706Y135.337
X173.709Y135.365
X173.71Y135.392
X173.712Y135.42
Y135.448
Y135.476
Y135.504
Y135.532
X173.71Y135.559
X173.709Y135.587
X173.706Y135.615
X173.704Y135.643
X173.701Y135.671
X173.697Y135.698
X173.693Y135.726
X173.688Y135.753
X173.683Y135.781
X173.678Y135.808
X173.672Y135.835
X173.665Y135.862
X173.658Y135.889
X173.651Y135.916
X173.643Y135.943
X173.634Y135.969
X173.625Y135.996
X173.616Y136.022
X173.607Y136.048
X173.596Y136.074
X173.586Y136.1
X173.575Y136.125
X173.563Y136.151
X173.551Y136.176
X173.538Y136.201
X173.526Y136.225
X173.512Y136.25
X173.499Y136.274
X173.484Y136.298
X173.47Y136.322
X173.455Y136.345
X173.439Y136.369
X173.424Y136.392
X173.408Y136.414
X173.391Y136.437
X173.374Y136.459
X173.357Y136.481
X173.339Y136.502
X173.321Y136.523
X173.302Y136.544
X173.284Y136.565
X173.264Y136.585
X173.245Y136.605
X173.225Y136.625
X173.205Y136.644
X173.184Y136.662
X173.163Y136.681
X173.142Y136.699
X173.12Y136.717
X173.099Y136.734
X173.077Y136.751
X173.054Y136.768
X173.032Y136.784
X173.009Y136.8
X172.985Y136.815
X172.962Y136.83
X172.938Y136.844
X172.914Y136.859
X172.89Y136.872
X172.865Y136.886
X172.841Y136.899
X172.816Y136.911
X172.791Y136.923
X172.765Y136.935
X172.74Y136.946
X172.714Y136.956
X172.688Y136.967
X172.662Y136.976
X172.636Y136.986
X172.609Y136.994
X172.583Y137.003
X172.556Y137.011
X172.529Y137.018
X172.502Y137.025
X172.475Y137.032
X172.448Y137.038
X172.42Y137.043
X172.393Y137.048
X172.366Y137.053
X172.338Y137.057
X172.31Y137.061
X172.283Y137.064
X172.255Y137.066
X172.227Y137.069
X172.199Y137.07
X172.171Y137.072
X172.144
X172.116Y137.073
X172.088Y137.072
X172.06
X172.032Y137.07
X172.004Y137.069
X171.959Y137.065
X171.919Y137.06
X171.894Y137.057
X171.866Y137.053
X171.838Y137.048
X171.811Y137.043
X171.784Y137.038
X171.757Y137.032
X171.73Y137.025
X171.703Y137.018
X171.649Y137.003
X171.622Y136.994
X171.596Y136.986
X171.57Y136.976
X171.544Y136.967
X171.517Y136.956
X171.492Y136.946
X171.467Y136.935
X171.441Y136.923
X171.416Y136.911
X171.391Y136.899
X171.366Y136.886
X171.342Y136.872
X171.317Y136.859
X171.27Y136.83
X171.246Y136.815
X171.223Y136.8
X171.2Y136.784
X171.177Y136.768
X171.151Y136.748
X171.133Y136.734
X171.111Y136.717
X171.089Y136.699
X171.068Y136.681
X171.048Y136.663
X171.027Y136.644
X171.007Y136.624
X170.987Y136.605
X170.967Y136.585
X170.948Y136.565
X170.929Y136.544
X170.911Y136.523
X170.893Y136.502
X170.875Y136.481
X170.858Y136.459
X170.841Y136.437
X170.824Y136.414
X170.808Y136.392
X170.792Y136.369
X170.777Y136.345
X170.747Y136.298
X170.733Y136.274
X170.722Y136.254
X170.705Y136.224
X170.693Y136.201
X170.681Y136.176
X170.669Y136.151
X170.656Y136.122
X170.646Y136.1
X170.635Y136.074
X170.625Y136.048
X170.616Y136.022
X170.606Y135.996
X170.589Y135.943
X170.581Y135.916
X170.574Y135.889
X170.567Y135.862
X170.56Y135.835
X170.549Y135.781
X170.539Y135.726
X170.535Y135.698
X170.531Y135.671
X170.528Y135.643
X170.525Y135.615
X170.523Y135.587
X170.521Y135.559
X170.519Y135.504
Y135.476
Y135.448
X170.52Y135.421
X170.521Y135.392
X170.523Y135.365
X170.525Y135.337
X170.528Y135.309
X170.531Y135.28
X170.535Y135.254
X170.539Y135.226
X170.543Y135.199
X170.549Y135.171
X170.554Y135.144
X170.56Y135.117
X170.567Y135.09
X170.579Y135.044
X170.59Y135.007
X170.597Y134.982
X170.606Y134.956
X170.616Y134.93
X170.635Y134.878
X170.646Y134.852
X170.657Y134.827
X170.669Y134.801
X170.681Y134.776
X170.693Y134.751
X170.706Y134.726
X170.719Y134.702
X170.733Y134.678
X170.747Y134.654
X170.762Y134.63
X170.777Y134.606
X170.792Y134.583
X170.808Y134.56
X170.824Y134.537
X170.851Y134.502
G0Z1
X185.5Y135.461
G1Z-0.05F50
X185.518Y135.285F100
X185.569Y135.116
X185.652Y134.96
X185.764Y134.823
X185.901Y134.711
X186.057Y134.628
X186.226Y134.577
X186.402Y134.559
X186.577Y134.577
X186.747Y134.628
X186.902Y134.711
X187.039Y134.823
X187.151Y134.96
X187.234Y135.116
X187.286Y135.285
X187.303Y135.461
X187.286Y135.636
X187.234Y135.805
X187.151Y135.961
X187.039Y136.098
X186.902Y136.21
X186.747Y136.293
X186.577Y136.344
X186.402Y136.362
X186.226Y136.344
X186.057Y136.293
X185.901Y136.21
X185.764Y136.098
X185.652Y135.961
X185.569Y135.805
X185.518Y135.636
X185.5Y135.461
G0Z1
X201.404
G1Z-0.05F50
X201.422Y135.285F100
X201.473Y135.116
X201.556Y134.96
X201.668Y134.823
X201.805Y134.711
X201.961Y134.628
X202.13Y134.577
X202.306Y134.559
X202.481Y134.577
X202.65Y134.628
X202.806Y134.711
X202.943Y134.823
X203.055Y134.96
X203.138Y135.116
X203.19Y135.285
X203.207Y135.461
X203.19Y135.636
X203.138Y135.805
X203.055Y135.961
X202.943Y136.098
X202.806Y136.21
X202.65Y136.293
X202.481Y136.344
X202.306Y136.362
X202.13Y136.344
X201.961Y136.293
X201.805Y136.21
X201.668Y136.098
X201.556Y135.961
X201.473Y135.805
X201.422Y135.636
X201.404Y135.461
G0Z1
X204.907Y127.535
G1Z-0.05F50
X178.453F100
X177.799Y127.541
X177.145Y127.557
X176.491Y127.585
X175.838Y127.623
X175.186Y127.672
X174.535Y127.732
X173.885Y127.802
X173.236Y127.884
X172.588Y127.976
X171.942Y128.079
X171.298Y128.193
X170.656Y128.317
X170.532Y128.344
X170.408Y128.372
X170.286Y128.403
X170.163Y128.436
X170.042Y128.471
X169.92Y128.508
X169.8Y128.547
X169.681Y128.588
X169.562Y128.631
X169.443Y128.676
X169.326Y128.724
X169.209Y128.773
X169.094Y128.824
X168.979Y128.878
X168.865Y128.933
X168.752Y128.99
X168.64Y129.05
X168.53Y129.111
X168.42Y129.174
X168.311Y129.239
X168.204Y129.306
X168.098Y129.374
X167.992Y129.445
X167.888Y129.517
X167.786Y129.591
X167.685Y129.667
X167.585Y129.745
X167.486Y129.824
X167.389Y129.905
X167.293Y129.988
X167.199Y130.072
X167.106Y130.159
X167.014Y130.246
X166.925Y130.335
X166.836Y130.426
X166.749Y130.518
X166.665Y130.612
X166.581Y130.707
X166.499Y130.804
X166.399Y130.926
X166.301Y131.05
X166.206Y131.175
X166.112Y131.303
X166.021Y131.431
X165.931Y131.562
X165.844Y131.694
X165.76Y131.827
X165.677Y131.962
X165.597Y132.098
X165.52Y132.235
X165.444Y132.374
X165.371Y132.514
X165.301Y132.655
X165.233Y132.798
X165.167Y132.942
X165.104Y133.087
X165.043Y133.232
X164.985Y133.379
X164.929Y133.527
X164.876Y133.676
X164.826Y133.825
X164.778Y133.976
X164.732Y134.127
X164.69Y134.279
X164.649Y134.432
X164.612Y134.585
X164.577Y134.739
X164.545Y134.894
X164.515Y135.049
X164.488Y135.205
X164.464Y135.361
X164.442Y135.517
X164.423Y135.674
X164.407Y135.831
X164.393Y135.989
X164.382Y136.146
X164.374Y136.304
X164.369Y136.462
X164.366Y136.62
Y136.778
X164.369Y136.936
X164.374Y137.093
X164.382Y137.251
X164.393Y137.409
X164.407Y137.566
X164.423Y137.723
X164.442Y137.88
X164.461Y138.023
X164.881Y140.914
X164.894Y140.989
X164.911Y141.066
X164.926Y141.126
X164.947Y141.201
X164.971Y141.276
X164.997Y141.348
X165.026Y141.42
X165.058Y141.492
X165.092Y141.562
X165.128Y141.63
X165.166Y141.696
X165.194Y141.742
X165.236Y141.806
X165.281Y141.87
X165.327Y141.931
X165.376Y141.991
X165.427Y142.05
X165.48Y142.106
X165.535Y142.161
X165.592Y142.213
X165.651Y142.265
X165.711Y142.313
X165.773Y142.359
X165.836Y142.403
X165.902Y142.446
X165.968Y142.486
X166.035Y142.523
X166.105Y142.558
X166.175Y142.591
X166.246Y142.621
X166.318Y142.648
X166.391Y142.674
X166.466Y142.696
X166.541Y142.716
X166.616Y142.733
X166.692Y142.748
X166.768Y142.76
X166.846Y142.77
X166.923Y142.777
X167Y142.781
X167.078Y142.782
X172.129
X172.245Y142.781
X172.362Y142.778
X172.479Y142.773
X172.596Y142.766
X173.851Y142.676
X175.004Y142.611
X176.157Y142.565
X177.311Y142.537
X178.472Y142.528
X182.025
X182.063Y142.531
X182.101Y142.534
X182.14Y142.535
X182.178
X210.178
X210.217
X210.257Y142.533
X210.297Y142.531
X210.336Y142.527
X210.376Y142.523
X210.415Y142.518
X210.455Y142.511
X210.494Y142.504
X210.533Y142.495
X210.571Y142.486
X210.61Y142.476
X210.648Y142.464
X210.686Y142.452
X210.723Y142.439
X210.76Y142.425
X210.797Y142.41
X210.834Y142.394
X210.87Y142.377
X210.905Y142.359
X210.94Y142.341
X210.975Y142.321
X211.01Y142.3
X211.044Y142.279
X211.078Y142.256
X211.111Y142.233
X211.144Y142.209
X211.175Y142.184
X211.207Y142.158
X211.221Y142.145
X211.251Y142.119
X211.273Y142.098
X211.295Y142.077
X211.323Y142.049
X211.35Y142.02
X211.382Y141.984
X211.413Y141.947
X211.435Y141.919
X211.456Y141.891
X211.477Y141.862
X211.497Y141.833
X211.517Y141.804
X211.536Y141.773
X211.553Y141.745
X211.569Y141.717
X211.584Y141.688
X211.604Y141.65
X211.622Y141.613
X211.635Y141.583
X211.647Y141.554
X211.664Y141.513
X211.672Y141.491
X211.686Y141.451
X211.699Y141.41
X211.711Y141.368
X211.722Y141.326
X211.732Y141.283
X211.74Y141.243
X211.748Y141.202
X211.755Y141.151
X211.762Y141.095
X211.764Y141.061
X211.767Y141.028
X211.768Y140.994
X211.769Y140.944
Y140.712
X211.779Y140.65
X211.79Y140.574
X211.798Y140.495
X211.804Y140.419
X211.807Y140.341
Y140.302
Y129.468
X211.806Y129.429
X211.805Y129.389
X211.802Y129.35
X211.799Y129.311
X211.795Y129.272
X211.789Y129.232
X211.783Y129.194
X211.776Y129.155
X211.769Y129.121
X211.767Y129.079
X211.765Y129.036
X211.762Y128.993
X211.757Y128.95
X211.751Y128.908
X211.744Y128.865
X211.736Y128.823
X211.727Y128.781
X211.716Y128.739
X211.707Y128.704
X211.696Y128.67
X211.685Y128.636
X211.673Y128.602
X211.661Y128.568
X211.644Y128.527
X211.626Y128.486
X211.607Y128.446
X211.585Y128.402
X211.569Y128.373
X211.552Y128.343
X211.531Y128.307
X211.508Y128.271
X211.486Y128.239
X211.464Y128.208
X211.441Y128.177
X211.417Y128.147
X211.393Y128.117
X211.367Y128.088
X211.341Y128.059
X211.315Y128.031
X211.287Y128.004
X211.259Y127.978
X211.231Y127.952
X211.202Y127.927
X211.172Y127.902
X211.141Y127.878
X211.11Y127.855
X211.079Y127.833
X211.047Y127.812
X211.014Y127.791
X210.981Y127.771
X210.948Y127.752
X210.913Y127.733
X210.879Y127.716
X210.844Y127.7
X210.809Y127.684
X210.774Y127.669
X210.739Y127.656
X210.703Y127.642
X210.666Y127.63
X210.63Y127.619
X210.593Y127.609
X210.556Y127.599
X210.519Y127.59
X210.482Y127.583
X210.444Y127.576
X210.406Y127.57
X210.368Y127.565
X210.33Y127.561
X210.292Y127.557
X210.254Y127.555
X210.216Y127.554
X210.178Y127.553
X206.241
X205.651Y127.54
X204.907Y127.535
G0Z1
X170.851Y134.502
G1Z-0.1F50
X170.875Y134.471F100
X170.896Y134.446
X170.911Y134.429
X170.929Y134.408
X170.967Y134.367
X170.987Y134.347
X171.007Y134.327
X171.027Y134.308
X171.044Y134.292
X171.069Y134.27
X171.09Y134.253
X171.111Y134.235
X171.133Y134.218
X171.155Y134.201
X171.177Y134.184
X171.2Y134.168
X171.223Y134.152
X171.246Y134.137
X171.27Y134.122
X171.293Y134.107
X171.318Y134.093
X171.342Y134.079
X171.366Y134.066
X171.391Y134.053
X171.416Y134.041
X171.441Y134.029
X171.494Y134.005
X171.518Y133.996
X171.544Y133.985
X171.57Y133.976
X171.596Y133.966
X171.649Y133.949
X171.676Y133.941
X171.703Y133.934
X171.731Y133.926
X171.757Y133.92
X171.784Y133.914
X171.811Y133.909
X171.838Y133.904
X171.894Y133.895
X171.921Y133.891
X171.949Y133.888
X172.004Y133.883
X172.033Y133.881
X172.06Y133.88
X172.088
X172.116Y133.879
X172.144Y133.88
X172.171
X172.227Y133.883
X172.255Y133.885
X172.283Y133.888
X172.31Y133.891
X172.338Y133.895
X172.365Y133.899
X172.393Y133.904
X172.421Y133.909
X172.448Y133.914
X172.475Y133.92
X172.502Y133.927
X172.529Y133.934
X172.556Y133.941
X172.583Y133.949
X172.609Y133.957
X172.636Y133.966
X172.662Y133.976
X172.688Y133.985
X172.714Y133.996
X172.74Y134.006
X172.765Y134.017
X172.791Y134.029
X172.816Y134.041
X172.841Y134.053
X172.865Y134.066
X172.89Y134.079
X172.914Y134.093
X172.938Y134.107
X172.962Y134.122
X172.985Y134.137
X173.009Y134.152
X173.032Y134.168
X173.054Y134.184
X173.077Y134.201
X173.099Y134.218
X173.121Y134.235
X173.142Y134.253
X173.178Y134.284
X173.206Y134.31
X173.225Y134.327
X173.245Y134.347
X173.264Y134.367
X173.284Y134.387
X173.313Y134.42
X173.341Y134.452
X173.357Y134.471
X173.374Y134.493
X173.391Y134.515
X173.408Y134.537
X173.424Y134.56
X173.439Y134.583
X173.455Y134.607
X173.47Y134.63
X173.484Y134.654
X173.499Y134.678
X173.512Y134.702
X173.526Y134.726
X173.538Y134.751
X173.551Y134.776
X173.563Y134.801
X173.575Y134.827
X173.586Y134.852
X173.596Y134.878
X173.616Y134.93
X173.625Y134.956
X173.634Y134.982
X173.643Y135.009
X173.651Y135.036
X173.658Y135.063
X173.665Y135.09
X173.672Y135.117
X173.678Y135.144
X173.683Y135.171
X173.688Y135.199
X173.693Y135.226
X173.697Y135.254
X173.701Y135.281
X173.704Y135.309
X173.706Y135.337
X173.709Y135.365
X173.71Y135.392
X173.712Y135.42
Y135.448
Y135.476
Y135.504
Y135.532
X173.71Y135.559
X173.709Y135.587
X173.706Y135.615
X173.704Y135.643
X173.701Y135.671
X173.697Y135.698
X173.693Y135.726
X173.688Y135.753
X173.683Y135.781
X173.678Y135.808
X173.672Y135.835
X173.665Y135.862
X173.658Y135.889
X173.651Y135.916
X173.643Y135.943
X173.634Y135.969
X173.625Y135.996
X173.616Y136.022
X173.607Y136.048
X173.596Y136.074
X173.586Y136.1
X173.575Y136.125
X173.563Y136.151
X173.551Y136.176
X173.538Y136.201
X173.526Y136.225
X173.512Y136.25
X173.499Y136.274
X173.484Y136.298
X173.47Y136.322
X173.455Y136.345
X173.439Y136.369
X173.424Y136.392
X173.408Y136.414
X173.391Y136.437
X173.374Y136.459
X173.357Y136.481
X173.339Y136.502
X173.321Y136.523
X173.302Y136.544
X173.284Y136.565
X173.264Y136.585
X173.245Y136.605
X173.225Y136.625
X173.205Y136.644
X173.184Y136.662
X173.163Y136.681
X173.142Y136.699
X173.12Y136.717
X173.099Y136.734
X173.077Y136.751
X173.054Y136.768
X173.032Y136.784
X173.009Y136.8
X172.985Y136.815
X172.962Y136.83
X172.938Y136.844
X172.914Y136.859
X172.89Y136.872
X172.865Y136.886
X172.841Y136.899
X172.816Y136.911
X172.791Y136.923
X172.765Y136.935
X172.74Y136.946
X172.714Y136.956
X172.688Y136.967
X172.662Y136.976
X172.636Y136.986
X172.609Y136.994
X172.583Y137.003
X172.556Y137.011
X172.529Y137.018
X172.502Y137.025
X172.475Y137.032
X172.448Y137.038
X172.42Y137.043
X172.393Y137.048
X172.366Y137.053
X172.338Y137.057
X172.31Y137.061
X172.283Y137.064
X172.255Y137.066
X172.227Y137.069
X172.199Y137.07
X172.171Y137.072
X172.144
X172.116Y137.073
X172.088Y137.072
X172.06
X172.032Y137.07
X172.004Y137.069
X171.959Y137.065
X171.919Y137.06
X171.894Y137.057
X171.866Y137.053
X171.838Y137.048
X171.811Y137.043
X171.784Y137.038
X171.757Y137.032
X171.73Y137.025
X171.703Y137.018
X171.649Y137.003
X171.622Y136.994
X171.596Y136.986
X171.57Y136.976
X171.544Y136.967
X171.517Y136.956
X171.492Y136.946
X171.467Y136.935
X171.441Y136.923
X171.416Y136.911
X171.391Y136.899
X171.366Y136.886
X171.342Y136.872
X171.317Y136.859
X171.27Y136.83
X171.246Y136.815
X171.223Y136.8
X171.2Y136.784
X171.177Y136.768
X171.151Y136.748
X171.133Y136.734
X171.111Y136.717
X171.089Y136.699
X171.068Y136.681
X171.048Y136.663
X171.027Y136.644
X171.007Y136.624
X170.987Y136.605
X170.967Y136.585
X170.948Y136.565
X170.929Y136.544
X170.911Y136.523
X170.893Y136.502
X170.875Y136.481
X170.858Y136.459
X170.841Y136.437
X170.824Y136.414
X170.808Y136.392
X170.792Y136.369
X170.777Y136.345
X170.747Y136.298
X170.733Y136.274
X170.722Y136.254
X170.705Y136.224
X170.693Y136.201
X170.681Y136.176
X170.669Y136.151
X170.656Y136.122
X170.646Y136.1
X170.635Y136.074
X170.625Y136.048
X170.616Y136.022
X170.606Y135.996
X170.589Y135.943
X170.581Y135.916
X170.574Y135.889
X170.567Y135.862
X170.56Y135.835
X170.549Y135.781
X170.539Y135.726
X170.535Y135.698
X170.531Y135.671
X170.528Y135.643
X170.525Y135.615
X170.523Y135.587
X170.521Y135.559
X170.519Y135.504
Y135.476
Y135.448
X170.52Y135.421
X170.521Y135.392
X170.523Y135.365
X170.525Y135.337
X170.528Y135.309
X170.531Y135.28
X170.535Y135.254
X170.539Y135.226
X170.543Y135.199
X170.549Y135.171
X170.554Y135.144
X170.56Y135.117
X170.567Y135.09
X170.579Y135.044
X170.59Y135.007
X170.597Y134.982
X170.606Y134.956
X170.616Y134.93
X170.635Y134.878
X170.646Y134.852
X170.657Y134.827
X170.669Y134.801
X170.681Y134.776
X170.693Y134.751
X170.706Y134.726
X170.719Y134.702
X170.733Y134.678
X170.747Y134.654
X170.762Y134.63
X170.777Y134.606
X170.792Y134.583
X170.808Y134.56
X170.824Y134.537
X170.851Y134.502
G0Z1
X185.5Y135.461
G1Z-0.1F50
X185.518Y135.285F100
X185.569Y135.116
X185.652Y134.96
X185.764Y134.823
X185.901Y134.711
X186.057Y134.628
X186.226Y134.577
X186.402Y134.559
X186.577Y134.577
X186.747Y134.628
X186.902Y134.711
X187.039Y134.823
X187.151Y134.96
X187.234Y135.116
X187.286Y135.285
X187.303Y135.461
X187.286Y135.636
X187.234Y135.805
X187.151Y135.961
X187.039Y136.098
X186.902Y136.21
X186.747Y136.293
X186.577Y136.344
X186.402Y136.362
X186.226Y136.344
X186.057Y136.293
X185.901Y136.21
X185.764Y136.098
X185.652Y135.961
X185.569Y135.805
X185.518Y135.636
X185.5Y135.461
G0Z1
X201.404
G1Z-0.1F50
X201.422Y135.285F100
X201.473Y135.116
X201.556Y134.96
X201.668Y134.823
X201.805Y134.711
X201.961Y134.628
X202.13Y134.577
X202.306Y134.559
X202.481Y134.577
X202.65Y134.628
X202.806Y134.711
X202.943Y134.823
X203.055Y134.96
X203.138Y135.116
X203.19Y135.285
X203.207Y135.461
X203.19Y135.636
X203.138Y135.805
X203.055Y135.961
X202.943Y136.098
X202.806Y136.21
X202.65Y136.293
X202.481Y136.344
X202.306Y136.362
X202.13Y136.344
X201.961Y136.293
X201.805Y136.21
X201.668Y136.098
X201.556Y135.961
X201.473Y135.805
X201.422Y135.636
X201.404Y135.461
G0Z1
X204.907Y127.535
G1Z-0.1F50
X178.453F100
X177.799Y127.541
X177.145Y127.557
X176.491Y127.585
X175.838Y127.623
X175.186Y127.672
X174.535Y127.732
X173.885Y127.802
X173.236Y127.884
X172.588Y127.976
X171.942Y128.079
X171.298Y128.193
X170.656Y128.317
X170.532Y128.344
X170.408Y128.372
X170.286Y128.403
X170.163Y128.436
X170.042Y128.471
X169.92Y128.508
X169.8Y128.547
X169.681Y128.588
X169.562Y128.631
X169.443Y128.676
X169.326Y128.724
X169.209Y128.773
X169.094Y128.824
X168.979Y128.878
X168.865Y128.933
X168.752Y128.99
X168.64Y129.05
X168.53Y129.111
X168.42Y129.174
X168.311Y129.239
X168.204Y129.306
X168.098Y129.374
X167.992Y129.445
X167.888Y129.517
X167.786Y129.591
X167.685Y129.667
X167.585Y129.745
X167.486Y129.824
X167.389Y129.905
X167.293Y129.988
X167.199Y130.072
X167.106Y130.159
X167.014Y130.246
X166.925Y130.335
X166.836Y130.426
X166.749Y130.518
X166.665Y130.612
X166.581Y130.707
X166.499Y130.804
X166.399Y130.926
X166.301Y131.05
X166.206Y131.175
X166.112Y131.303
X166.021Y131.431
X165.931Y131.562
X165.844Y131.694
X165.76Y131.827
X165.677Y131.962
X165.597Y132.098
X165.52Y132.235
X165.444Y132.374
X165.371Y132.514
X165.301Y132.655
X165.233Y132.798
X165.167Y132.942
X165.104Y133.087
X165.043Y133.232
X164.985Y133.379
X164.929Y133.527
X164.876Y133.676
X164.826Y133.825
X164.778Y133.976
X164.732Y134.127
X164.69Y134.279
X164.649Y134.432
X164.612Y134.585
X164.577Y134.739
X164.545Y134.894
X164.515Y135.049
X164.488Y135.205
X164.464Y135.361
X164.442Y135.517
X164.423Y135.674
X164.407Y135.831
X164.393Y135.989
X164.382Y136.146
X164.374Y136.304
X164.369Y136.462
X164.366Y136.62
Y136.778
X164.369Y136.936
X164.374Y137.093
X164.382Y137.251
X164.393Y137.409
X164.407Y137.566
X164.423Y137.723
X164.442Y137.88
X164.461Y138.023
X164.881Y140.914
X164.894Y140.989
X164.911Y141.066
X164.926Y141.126
X164.947Y141.201
X164.971Y141.276
X164.997Y141.348
X165.026Y141.42
X165.058Y141.492
X165.092Y141.562
X165.128Y141.63
X165.166Y141.696
X165.194Y141.742
X165.236Y141.806
X165.281Y141.87
X165.327Y141.931
X165.376Y141.991
X165.427Y142.05
X165.48Y142.106
X165.535Y142.161
X165.592Y142.213
X165.651Y142.265
X165.711Y142.313
X165.773Y142.359
X165.836Y142.403
X165.902Y142.446
X165.968Y142.486
X166.035Y142.523
X166.105Y142.558
X166.175Y142.591
X166.246Y142.621
X166.318Y142.648
X166.391Y142.674
X166.466Y142.696
X166.541Y142.716
X166.616Y142.733
X166.692Y142.748
X166.768Y142.76
X166.846Y142.77
X166.923Y142.777
X167Y142.781
X167.078Y142.782
X172.129
X172.245Y142.781
X172.362Y142.778
X172.479Y142.773
X172.596Y142.766
X173.851Y142.676
X175.004Y142.611
X176.157Y142.565
X177.311Y142.537
X178.472Y142.528
X182.025
X182.063Y142.531
X182.101Y142.534
X182.14Y142.535
X182.178
X210.178
X210.217
X210.257Y142.533
X210.297Y142.531
X210.336Y142.527
X210.376Y142.523
X210.415Y142.518
X210.455Y142.511
X210.494Y142.504
X210.533Y142.495
X210.571Y142.486
X210.61Y142.476
X210.648Y142.464
X210.686Y142.452
X210.723Y142.439
X210.76Y142.425
X210.797Y142.41
X210.834Y142.394
X210.87Y142.377
X210.905Y142.359
X210.94Y142.341
X210.975Y142.321
X211.01Y142.3
X211.044Y142.279
X211.078Y142.256
X211.111Y142.233
X211.144Y142.209
X211.175Y142.184
X211.207Y142.158
X211.221Y142.145
X211.251Y142.119
X211.273Y142.098
X211.295Y142.077
X211.323Y142.049
X211.35Y142.02
X211.382Y141.984
X211.413Y141.947
X211.435Y141.919
X211.456Y141.891
X211.477Y141.862
X211.497Y141.833
X211.517Y141.804
X211.536Y141.773
X211.553Y141.745
X211.569Y141.717
X211.584Y141.688
X211.604Y141.65
X211.622Y141.613
X211.635Y141.583
X211.647Y141.554
X211.664Y141.513
X211.672Y141.491
X211.686Y141.451
X211.699Y141.41
X211.711Y141.368
X211.722Y141.326
X211.732Y141.283
X211.74Y141.243
X211.748Y141.202
X211.755Y141.151
X211.762Y141.095
X211.764Y141.061
X211.767Y141.028
X211.768Y140.994
X211.769Y140.944
Y140.712
X211.779Y140.65
X211.79Y140.574
X211.798Y140.495
X211.804Y140.419
X211.807Y140.341
Y140.302
Y129.468
X211.806Y129.429
X211.805Y129.389
X211.802Y129.35
X211.799Y129.311
X211.795Y129.272
X211.789Y129.232
X211.783Y129.194
X211.776Y129.155
X211.769Y129.121
X211.767Y129.079
X211.765Y129.036
X211.762Y128.993
X211.757Y128.95
X211.751Y128.908
X211.744Y128.865
X211.736Y128.823
X211.727Y128.781
X211.716Y128.739
X211.707Y128.704
X211.696Y128.67
X211.685Y128.636
X211.673Y128.602
X211.661Y128.568
X211.644Y128.527
X211.626Y128.486
X211.607Y128.446
X211.585Y128.402
X211.569Y128.373
X211.552Y128.343
X211.531Y128.307
X211.508Y128.271
X211.486Y128.239
X211.464Y128.208
X211.441Y128.177
X211.417Y128.147
X211.393Y128.117
X211.367Y128.088
X211.341Y128.059
X211.315Y128.031
X211.287Y128.004
X211.259Y127.978
X211.231Y127.952
X211.202Y127.927
X211.172Y127.902
X211.141Y127.878
X211.11Y127.855
X211.079Y127.833
X211.047Y127.812
X211.014Y127.791
X210.981Y127.771
X210.948Y127.752
X210.913Y127.733
X210.879Y127.716
X210.844Y127.7
X210.809Y127.684
X210.774Y127.669
X210.739Y127.656
X210.703Y127.642
X210.666Y127.63
X210.63Y127.619
X210.593Y127.609
X210.556Y127.599
X210.519Y127.59
X210.482Y127.583
X210.444Y127.576
X210.406Y127.57
X210.368Y127.565
X210.33Y127.561
X210.292Y127.557
X210.254Y127.555
X210.216Y127.554
X210.178Y127.553
X206.241
X205.651Y127.54
X204.907Y127.535
G0Z1
X170.851Y134.502
G1Z-0.15F50
X170.875Y134.471F100
X170.896Y134.446
X170.911Y134.429
X170.929Y134.408
X170.967Y134.367
X170.987Y134.347
X171.007Y134.327
X171.027Y134.308
X171.044Y134.292
X171.069Y134.27
X171.09Y134.253
X171.111Y134.235
X171.133Y134.218
X171.155Y134.201
X171.177Y134.184
X171.2Y134.168
X171.223Y134.152
X171.246Y134.137
X171.27Y134.122
X171.293Y134.107
X171.318Y134.093
X171.342Y134.079
X171.366Y134.066
X171.391Y134.053
X171.416Y134.041
X171.441Y134.029
X171.494Y134.005
X171.518Y133.996
X171.544Y133.985
X171.57Y133.976
X171.596Y133.966
X171.649Y133.949
X171.676Y133.941
X171.703Y133.934
X171.731Y133.926
X171.757Y133.92
X171.784Y133.914
X171.811Y133.909
X171.838Y133.904
X171.894Y133.895
X171.921Y133.891
X171.949Y133.888
X172.004Y133.883
X172.033Y133.881
X172.06Y133.88
X172.088
X172.116Y133.879
X172.144Y133.88
X172.171
X172.227Y133.883
X172.255Y133.885
X172.283Y133.888
X172.31Y133.891
X172.338Y133.895
X172.365Y133.899
X172.393Y133.904
X172.421Y133.909
X172.448Y133.914
X172.475Y133.92
X172.502Y133.927
X172.529Y133.934
X172.556Y133.941
X172.583Y133.949
X172.609Y133.957
X172.636Y133.966
X172.662Y133.976
X172.688Y133.985
X172.714Y133.996
X172.74Y134.006
X172.765Y134.017
X172.791Y134.029
X172.816Y134.041
X172.841Y134.053
X172.865Y134.066
X172.89Y134.079
X172.914Y134.093
X172.938Y134.107
X172.962Y134.122
X172.985Y134.137
X173.009Y134.152
X173.032Y134.168
X173.054Y134.184
X173.077Y134.201
X173.099Y134.218
X173.121Y134.235
X173.142Y134.253
X173.178Y134.284
X173.206Y134.31
X173.225Y134.327
X173.245Y134.347
X173.264Y134.367
X173.284Y134.387
X173.313Y134.42
X173.341Y134.452
X173.357Y134.471
X173.374Y134.493
X173.391Y134.515
X173.408Y134.537
X173.424Y134.56
X173.439Y134.583
X173.455Y134.607
X173.47Y134.63
X173.484Y134.654
X173.499Y134.678
X173.512Y134.702
X173.526Y134.726
X173.538Y134.751
X173.551Y134.776
X173.563Y134.801
X173.575Y134.827
X173.586Y134.852
X173.596Y134.878
X173.616Y134.93
X173.625Y134.956
X173.634Y134.982
X173.643Y135.009
X173.651Y135.036
X173.658Y135.063
X173.665Y135.09
X173.672Y135.117
X173.678Y135.144
X173.683Y135.171
X173.688Y135.199
X173.693Y135.226
X173.697Y135.254
X173.701Y135.281
X173.704Y135.309
X173.706Y135.337
X173.709Y135.365
X173.71Y135.392
X173.712Y135.42
Y135.448
Y135.476
Y135.504
Y135.532
X173.71Y135.559
X173.709Y135.587
X173.706Y135.615
X173.704Y135.643
X173.701Y135.671
X173.697Y135.698
X173.693Y135.726
X173.688Y135.753
X173.683Y135.781
X173.678Y135.808
X173.672Y135.835
X173.665Y135.862
X173.658Y135.889
X173.651Y135.916
X173.643Y135.943
X173.634Y135.969
X173.625Y135.996
X173.616Y136.022
X173.607Y136.048
X173.596Y136.074
X173.586Y136.1
X173.575Y136.125
X173.563Y136.151
X173.551Y136.176
X173.538Y136.201
X173.526Y136.225
X173.512Y136.25
X173.499Y136.274
X173.484Y136.298
X173.47Y136.322
X173.455Y136.345
X173.439Y136.369
X173.424Y136.392
X173.408Y136.414
X173.391Y136.437
X173.374Y136.459
X173.357Y136.481
X173.339Y136.502
X173.321Y136.523
X173.302Y136.544
X173.284Y136.565
X173.264Y136.585
X173.245Y136.605
X173.225Y136.625
X173.205Y136.644
X173.184Y136.662
X173.163Y136.681
X173.142Y136.699
X173.12Y136.717
X173.099Y136.734
X173.077Y136.751
X173.054Y136.768
X173.032Y136.784
X173.009Y136.8
X172.985Y136.815
X172.962Y136.83
X172.938Y136.844
X172.914Y136.859
X172.89Y136.872
X172.865Y136.886
X172.841Y136.899
X172.816Y136.911
X172.791Y136.923
X172.765Y136.935
X172.74Y136.946
X172.714Y136.956
X172.688Y136.967
X172.662Y136.976
X172.636Y136.986
X172.609Y136.994
X172.583Y137.003
X172.556Y137.011
X172.529Y137.018
X172.502Y137.025
X172.475Y137.032
X172.448Y137.038
X172.42Y137.043
X172.393Y137.048
X172.366Y137.053
X172.338Y137.057
X172.31Y137.061
X172.283Y137.064
X172.255Y137.066
X172.227Y137.069
X172.199Y137.07
X172.171Y137.072
X172.144
X172.116Y137.073
X172.088Y137.072
X172.06
X172.032Y137.07
X172.004Y137.069
X171.959Y137.065
X171.919Y137.06
X171.894Y137.057
X171.866Y137.053
X171.838Y137.048
X171.811Y137.043
X171.784Y137.038
X171.757Y137.032
X171.73Y137.025
X171.703Y137.018
X171.649Y137.003
X171.622Y136.994
X171.596Y136.986
X171.57Y136.976
X171.544Y136.967
X171.517Y136.956
X171.492Y136.946
X171.467Y136.935
X171.441Y136.923
X171.416Y136.911
X171.391Y136.899
X171.366Y136.886
X171.342Y136.872
X171.317Y136.859
X171.27Y136.83
X171.246Y136.815
X171.223Y136.8
X171.2Y136.784
X171.177Y136.768
X171.151Y136.748
X171.133Y136.734
X171.111Y136.717
X171.089Y136.699
X171.068Y136.681
X171.048Y136.663
X171.027Y136.644
X171.007Y136.624
X170.987Y136.605
X170.967Y136.585
X170.948Y136.565
X170.929Y136.544
X170.911Y136.523
X170.893Y136.502
X170.875Y136.481
X170.858Y136.459
X170.841Y136.437
X170.824Y136.414
X170.808Y136.392
X170.792Y136.369
X170.777Y136.345
X170.747Y136.298
X170.733Y136.274
X170.722Y136.254
X170.705Y136.224
X170.693Y136.201
X170.681Y136.176
X170.669Y136.151
X170.656Y136.122
X170.646Y136.1
X170.635Y136.074
X170.625Y136.048
X170.616Y136.022
X170.606Y135.996
X170.589Y135.943
X170.581Y135.916
X170.574Y135.889
X170.567Y135.862
X170.56Y135.835
X170.549Y135.781
X170.539Y135.726
X170.535Y135.698
X170.531Y135.671
X170.528Y135.643
X170.525Y135.615
X170.523Y135.587
X170.521Y135.559
X170.519Y135.504
Y135.476
Y135.448
X170.52Y135.421
X170.521Y135.392
X170.523Y135.365
X170.525Y135.337
X170.528Y135.309
X170.531Y135.28
X170.535Y135.254
X170.539Y135.226
X170.543Y135.199
X170.549Y135.171
X170.554Y135.144
X170.56Y135.117
X170.567Y135.09
X170.579Y135.044
X170.59Y135.007
X170.597Y134.982
X170.606Y134.956
X170.616Y134.93
X170.635Y134.878
X170.646Y134.852
X170.657Y134.827
X170.669Y134.801
X170.681Y134.776
X170.693Y134.751
X170.706Y134.726
X170.719Y134.702
X170.733Y134.678
X170.747Y134.654
X170.762Y134.63
X170.777Y134.606
X170.792Y134.583
X170.808Y134.56
X170.824Y134.537
X170.851Y134.502
G0Z1
X185.5Y135.461
G1Z-0.15F50
X185.518Y135.285F100
X185.569Y135.116
X185.652Y134.96
X185.764Y134.823
X185.901Y134.711
X186.057Y134.628
X186.226Y134.577
X186.402Y134.559
X186.577Y134.577
X186.747Y134.628
X186.902Y134.711
X187.039Y134.823
X187.151Y134.96
X187.234Y135.116
X187.286Y135.285
X187.303Y135.461
X187.286Y135.636
X187.234Y135.805
X187.151Y135.961
X187.039Y136.098
X186.902Y136.21
X186.747Y136.293
X186.577Y136.344
X186.402Y136.362
X186.226Y136.344
X186.057Y136.293
X185.901Y136.21
X185.764Y136.098
X185.652Y135.961
X185.569Y135.805
X185.518Y135.636
X185.5Y135.461
G0Z1
X201.404
G1Z-0.15F50
X201.422Y135.285F100
X201.473Y135.116
X201.556Y134.96
X201.668Y134.823
X201.805Y134.711
X201.961Y134.628
X202.13Y134.577
X202.306Y134.559
X202.481Y134.577
X202.65Y134.628
X202.806Y134.711
X202.943Y134.823
X203.055Y134.96
X203.138Y135.116
X203.19Y135.285
X203.207Y135.461
X203.19Y135.636
X203.138Y135.805
X203.055Y135.961
X202.943Y136.098
X202.806Y136.21
X202.65Y136.293
X202.481Y136.344
X202.306Y136.362
X202.13Y136.344
X201.961Y136.293
X201.805Y136.21
X201.668Y136.098
X201.556Y135.961
X201.473Y135.805
X201.422Y135.636
X201.404Y135.461
G0Z1
X204.907Y127.535
G1Z-0.15F50
X178.453F100
X177.799Y127.541
X177.145Y127.557
X176.491Y127.585
X175.838Y127.623
X175.186Y127.672
X174.535Y127.732
X173.885Y127.802
X173.236Y127.884
X172.588Y127.976
X171.942Y128.079
X171.298Y128.193
X170.656Y128.317
X170.532Y128.344
X170.408Y128.372
X170.286Y128.403
X170.163Y128.436
X170.042Y128.471
X169.92Y128.508
X169.8Y128.547
X169.681Y128.588
X169.562Y128.631
X169.443Y128.676
X169.326Y128.724
X169.209Y128.773
X169.094Y128.824
X168.979Y128.878
X168.865Y128.933
X168.752Y128.99
X168.64Y129.05
X168.53Y129.111
X168.42Y129.174
X168.311Y129.239
X168.204Y129.306
X168.098Y129.374
X167.992Y129.445
X167.888Y129.517
X167.786Y129.591
X167.685Y129.667
X167.585Y129.745
X167.486Y129.824
X167.389Y129.905
X167.293Y129.988
X167.199Y130.072
X167.106Y130.159
X167.014Y130.246
X166.925Y130.335
X166.836Y130.426
X166.749Y130.518
X166.665Y130.612
X166.581Y130.707
X166.499Y130.804
X166.399Y130.926
X166.301Y131.05
X166.206Y131.175
X166.112Y131.303
X166.021Y131.431
X165.931Y131.562
X165.844Y131.694
X165.76Y131.827
X165.677Y131.962
X165.597Y132.098
X165.52Y132.235
X165.444Y132.374
X165.371Y132.514
X165.301Y132.655
X165.233Y132.798
X165.167Y132.942
X165.104Y133.087
X165.043Y133.232
X164.985Y133.379
X164.929Y133.527
X164.876Y133.676
X164.826Y133.825
X164.778Y133.976
X164.732Y134.127
X164.69Y134.279
X164.649Y134.432
X164.612Y134.585
X164.577Y134.739
X164.545Y134.894
X164.515Y135.049
X164.488Y135.205
X164.464Y135.361
X164.442Y135.517
X164.423Y135.674
X164.407Y135.831
X164.393Y135.989
X164.382Y136.146
X164.374Y136.304
X164.369Y136.462
X164.366Y136.62
Y136.778
X164.369Y136.936
X164.374Y137.093
X164.382Y137.251
X164.393Y137.409
X164.407Y137.566
X164.423Y137.723
X164.442Y137.88
X164.461Y138.023
X164.881Y140.914
X164.894Y140.989
X164.911Y141.066
X164.926Y141.126
X164.947Y141.201
X164.971Y141.276
X164.997Y141.348
X165.026Y141.42
X165.058Y141.492
X165.092Y141.562
X165.128Y141.63
X165.166Y141.696
X165.194Y141.742
X165.236Y141.806
X165.281Y141.87
X165.327Y141.931
X165.376Y141.991
X165.427Y142.05
X165.48Y142.106
X165.535Y142.161
X165.592Y142.213
X165.651Y142.265
X165.711Y142.313
X165.773Y142.359
X165.836Y142.403
X165.902Y142.446
X165.968Y142.486
X166.035Y142.523
X166.105Y142.558
X166.175Y142.591
X166.246Y142.621
X166.318Y142.648
X166.391Y142.674
X166.466Y142.696
X166.541Y142.716
X166.616Y142.733
X166.692Y142.748
X166.768Y142.76
X166.846Y142.77
X166.923Y142.777
X167Y142.781
X167.078Y142.782
X172.129
X172.245Y142.781
X172.362Y142.778
X172.479Y142.773
X172.596Y142.766
X173.851Y142.676
X175.004Y142.611
X176.157Y142.565
X177.311Y142.537
X178.472Y142.528
X182.025
X182.063Y142.531
X182.101Y142.534
X182.14Y142.535
X182.178
X210.178
X210.217
X210.257Y142.533
X210.297Y142.531
X210.336Y142.527
X210.376Y142.523
X210.415Y142.518
X210.455Y142.511
X210.494Y142.504
X210.533Y142.495
X210.571Y142.486
X210.61Y142.476
X210.648Y142.464
X210.686Y142.452
X210.723Y142.439
X210.76Y142.425
X210.797Y142.41
X210.834Y142.394
X210.87Y142.377
X210.905Y142.359
X210.94Y142.341
X210.975Y142.321
X211.01Y142.3
X211.044Y142.279
X211.078Y142.256
X211.111Y142.233
X211.144Y142.209
X211.175Y142.184
X211.207Y142.158
X211.221Y142.145
X211.251Y142.119
X211.273Y142.098
X211.295Y142.077
X211.323Y142.049
X211.35Y142.02
X211.382Y141.984
X211.413Y141.947
X211.435Y141.919
X211.456Y141.891
X211.477Y141.862
X211.497Y141.833
X211.517Y141.804
X211.536Y141.773
X211.553Y141.745
X211.569Y141.717
X211.584Y141.688
X211.604Y141.65
X211.622Y141.613
X211.635Y141.583
X211.647Y141.554
X211.664Y141.513
X211.672Y141.491
X211.686Y141.451
X211.699Y141.41
X211.711Y141.368
X211.722Y141.326
X211.732Y141.283
X211.74Y141.243
X211.748Y141.202
X211.755Y141.151
X211.762Y141.095
X211.764Y141.061
X211.767Y141.028
X211.768Y140.994
X211.769Y140.944
Y140.712
X211.779Y140.65
X211.79Y140.574
X211.798Y140.495
X211.804Y140.419
X211.807Y140.341
Y140.302
Y129.468
X211.806Y129.429
X211.805Y129.389
X211.802Y129.35
X211.799Y129.311
X211.795Y129.272
X211.789Y129.232
X211.783Y129.194
X211.776Y129.155
X211.769Y129.121
X211.767Y129.079
X211.765Y129.036
X211.762Y128.993
X211.757Y128.95
X211.751Y128.908
X211.744Y128.865
X211.736Y128.823
X211.727Y128.781
X211.716Y128.739
X211.707Y128.704
X211.696Y128.67
X211.685Y128.636
X211.673Y128.602
X211.661Y128.568
X211.644Y128.527
X211.626Y128.486
X211.607Y128.446
X211.585Y128.402
X211.569Y128.373
X211.552Y128.343
X211.531Y128.307
X211.508Y128.271
X211.486Y128.239
X211.464Y128.208
X211.441Y128.177
X211.417Y128.147
X211.393Y128.117
X211.367Y128.088
X211.341Y128.059
X211.315Y128.031
X211.287Y128.004
X211.259Y127.978
X211.231Y127.952
X211.202Y127.927
X211.172Y127.902
X211.141Y127.878
X211.11Y127.855
X211.079Y127.833
X211.047Y127.812
X211.014Y127.791
X210.981Y127.771
X210.948Y127.752
X210.913Y127.733
X210.879Y127.716
X210.844Y127.7
X210.809Y127.684
X210.774Y127.669
X210.739Y127.656
X210.703Y127.642
X210.666Y127.63
X210.63Y127.619
X210.593Y127.609
X210.556Y127.599
X210.519Y127.59
X210.482Y127.583
X210.444Y127.576
X210.406Y127.57
X210.368Y127.565
X210.33Y127.561
X210.292Y127.557
X210.254Y127.555
X210.216Y127.554
X210.178Y127.553
X206.241
X205.651Y127.54
X204.907Y127.535
G0Z1
X170.851Y134.502
G1Z-0.2F50
X170.875Y134.471F100
X170.896Y134.446
X170.911Y134.429
X170.929Y134.408
X170.967Y134.367
X170.987Y134.347
X171.007Y134.327
X171.027Y134.308
X171.044Y134.292
X171.069Y134.27
X171.09Y134.253
X171.111Y134.235
X171.133Y134.218
X171.155Y134.201
X171.177Y134.184
X171.2Y134.168
X171.223Y134.152
X171.246Y134.137
X171.27Y134.122
X171.293Y134.107
X171.318Y134.093
X171.342Y134.079
X171.366Y134.066
X171.391Y134.053
X171.416Y134.041
X171.441Y134.029
X171.494Y134.005
X171.518Y133.996
X171.544Y133.985
X171.57Y133.976
X171.596Y133.966
X171.649Y133.949
X171.676Y133.941
X171.703Y133.934
X171.731Y133.926
X171.757Y133.92
X171.784Y133.914
X171.811Y133.909
X171.838Y133.904
X171.894Y133.895
X171.921Y133.891
X171.949Y133.888
X172.004Y133.883
X172.033Y133.881
X172.06Y133.88
X172.088
X172.116Y133.879
X172.144Y133.88
X172.171
X172.227Y133.883
X172.255Y133.885
X172.283Y133.888
X172.31Y133.891
X172.338Y133.895
X172.365Y133.899
X172.393Y133.904
X172.421Y133.909
X172.448Y133.914
X172.475Y133.92
X172.502Y133.927
X172.529Y133.934
X172.556Y133.941
X172.583Y133.949
X172.609Y133.957
X172.636Y133.966
X172.662Y133.976
X172.688Y133.985
X172.714Y133.996
X172.74Y134.006
X172.765Y134.017
X172.791Y134.029
X172.816Y134.041
X172.841Y134.053
X172.865Y134.066
X172.89Y134.079
X172.914Y134.093
X172.938Y134.107
X172.962Y134.122
X172.985Y134.137
X173.009Y134.152
X173.032Y134.168
X173.054Y134.184
X173.077Y134.201
X173.099Y134.218
X173.121Y134.235
X173.142Y134.253
X173.178Y134.284
X173.206Y134.31
X173.225Y134.327
X173.245Y134.347
X173.264Y134.367
X173.284Y134.387
X173.313Y134.42
X173.341Y134.452
X173.357Y134.471
X173.374Y134.493
X173.391Y134.515
X173.408Y134.537
X173.424Y134.56
X173.439Y134.583
X173.455Y134.607
X173.47Y134.63
X173.484Y134.654
X173.499Y134.678
X173.512Y134.702
X173.526Y134.726
X173.538Y134.751
X173.551Y134.776
X173.563Y134.801
X173.575Y134.827
X173.586Y134.852
X173.596Y134.878
X173.616Y134.93
X173.625Y134.956
X173.634Y134.982
X173.643Y135.009
X173.651Y135.036
X173.658Y135.063
X173.665Y135.09
X173.672Y135.117
X173.678Y135.144
X173.683Y135.171
X173.688Y135.199
X173.693Y135.226
X173.697Y135.254
X173.701Y135.281
X173.704Y135.309
X173.706Y135.337
X173.709Y135.365
X173.71Y135.392
X173.712Y135.42
Y135.448
Y135.476
Y135.504
Y135.532
X173.71Y135.559
X173.709Y135.587
X173.706Y135.615
X173.704Y135.643
X173.701Y135.671
X173.697Y135.698
X173.693Y135.726
X173.688Y135.753
X173.683Y135.781
X173.678Y135.808
X173.672Y135.835
X173.665Y135.862
X173.658Y135.889
X173.651Y135.916
X173.643Y135.943
X173.634Y135.969
X173.625Y135.996
X173.616Y136.022
X173.607Y136.048
X173.596Y136.074
X173.586Y136.1
X173.575Y136.125
X173.563Y136.151
X173.551Y136.176
X173.538Y136.201
X173.526Y136.225
X173.512Y136.25
X173.499Y136.274
X173.484Y136.298
X173.47Y136.322
X173.455Y136.345
X173.439Y136.369
X173.424Y136.392
X173.408Y136.414
X173.391Y136.437
X173.374Y136.459
X173.357Y136.481
X173.339Y136.502
X173.321Y136.523
X173.302Y136.544
X173.284Y136.565
X173.264Y136.585
X173.245Y136.605
X173.225Y136.625
X173.205Y136.644
X173.184Y136.662
X173.163Y136.681
X173.142Y136.699
X173.12Y136.717
X173.099Y136.734
X173.077Y136.751
X173.054Y136.768
X173.032Y136.784
X173.009Y136.8
X172.985Y136.815
X172.962Y136.83
X172.938Y136.844
X172.914Y136.859
X172.89Y136.872
X172.865Y136.886
X172.841Y136.899
X172.816Y136.911
X172.791Y136.923
X172.765Y136.935
X172.74Y136.946
X172.714Y136.956
X172.688Y136.967
X172.662Y136.976
X172.636Y136.986
X172.609Y136.994
X172.583Y137.003
X172.556Y137.011
X172.529Y137.018
X172.502Y137.025
X172.475Y137.032
X172.448Y137.038
X172.42Y137.043
X172.393Y137.048
X172.366Y137.053
X172.338Y137.057
X172.31Y137.061
X172.283Y137.064
X172.255Y137.066
X172.227Y137.069
X172.199Y137.07
X172.171Y137.072
X172.144
X172.116Y137.073
X172.088Y137.072
X172.06
X172.032Y137.07
X172.004Y137.069
X171.959Y137.065
X171.919Y137.06
X171.894Y137.057
X171.866Y137.053
X171.838Y137.048
X171.811Y137.043
X171.784Y137.038
X171.757Y137.032
X171.73Y137.025
X171.703Y137.018
X171.649Y137.003
X171.622Y136.994
X171.596Y136.986
X171.57Y136.976
X171.544Y136.967
X171.517Y136.956
X171.492Y136.946
X171.467Y136.935
X171.441Y136.923
X171.416Y136.911
X171.391Y136.899
X171.366Y136.886
X171.342Y136.872
X171.317Y136.859
X171.27Y136.83
X171.246Y136.815
X171.223Y136.8
X171.2Y136.784
X171.177Y136.768
X171.151Y136.748
X171.133Y136.734
X171.111Y136.717
X171.089Y136.699
X171.068Y136.681
X171.048Y136.663
X171.027Y136.644
X171.007Y136.624
X170.987Y136.605
X170.967Y136.585
X170.948Y136.565
X170.929Y136.544
X170.911Y136.523
X170.893Y136.502
X170.875Y136.481
X170.858Y136.459
X170.841Y136.437
X170.824Y136.414
X170.808Y136.392
X170.792Y136.369
X170.777Y136.345
X170.747Y136.298
X170.733Y136.274
X170.722Y136.254
X170.705Y136.224
X170.693Y136.201
X170.681Y136.176
X170.669Y136.151
X170.656Y136.122
X170.646Y136.1
X170.635Y136.074
X170.625Y136.048
X170.616Y136.022
X170.606Y135.996
X170.589Y135.943
X170.581Y135.916
X170.574Y135.889
X170.567Y135.862
X170.56Y135.835
X170.549Y135.781
X170.539Y135.726
X170.535Y135.698
X170.531Y135.671
X170.528Y135.643
X170.525Y135.615
X170.523Y135.587
X170.521Y135.559
X170.519Y135.504
Y135.476
Y135.448
X170.52Y135.421
X170.521Y135.392
X170.523Y135.365
X170.525Y135.337
X170.528Y135.309
X170.531Y135.28
X170.535Y135.254
X170.539Y135.226
X170.543Y135.199
X170.549Y135.171
X170.554Y135.144
X170.56Y135.117
X170.567Y135.09
X170.579Y135.044
X170.59Y135.007
X170.597Y134.982
X170.606Y134.956
X170.616Y134.93
X170.635Y134.878
X170.646Y134.852
X170.657Y134.827
X170.669Y134.801
X170.681Y134.776
X170.693Y134.751
X170.706Y134.726
X170.719Y134.702
X170.733Y134.678
X170.747Y134.654
X170.762Y134.63
X170.777Y134.606
X170.792Y134.583
X170.808Y134.56
X170.824Y134.537
X170.851Y134.502
G0Z1
X185.5Y135.461
G1Z-0.2F50
X185.518Y135.285F100
X185.569Y135.116
X185.652Y134.96
X185.764Y134.823
X185.901Y134.711
X186.057Y134.628
X186.226Y134.577
X186.402Y134.559
X186.577Y134.577
X186.747Y134.628
X186.902Y134.711
X187.039Y134.823
X187.151Y134.96
X187.234Y135.116
X187.286Y135.285
X187.303Y135.461
X187.286Y135.636
X187.234Y135.805
X187.151Y135.961
X187.039Y136.098
X186.902Y136.21
X186.747Y136.293
X186.577Y136.344
X186.402Y136.362
X186.226Y136.344
X186.057Y136.293
X185.901Y136.21
X185.764Y136.098
X185.652Y135.961
X185.569Y135.805
X185.518Y135.636
X185.5Y135.461
G0Z1
X201.404
G1Z-0.2F50
X201.422Y135.285F100
X201.473Y135.116
X201.556Y134.96
X201.668Y134.823
X201.805Y134.711
X201.961Y134.628
X202.13Y134.577
X202.306Y134.559
X202.481Y134.577
X202.65Y134.628
X202.806Y134.711
X202.943Y134.823
X203.055Y134.96
X203.138Y135.116
X203.19Y135.285
X203.207Y135.461
X203.19Y135.636
X203.138Y135.805
X203.055Y135.961
X202.943Y136.098
X202.806Y136.21
X202.65Y136.293
X202.481Y136.344
X202.306Y136.362
X202.13Y136.344
X201.961Y136.293
X201.805Y136.21
X201.668Y136.098
X201.556Y135.961
X201.473Y135.805
X201.422Y135.636
X201.404Y135.461
G0Z1
X204.907Y127.535
G1Z-0.2F50
X178.453F100
X177.799Y127.541
X177.145Y127.557
X176.491Y127.585
X175.838Y127.623
X175.186Y127.672
X174.535Y127.732
X173.885Y127.802
X173.236Y127.884
X172.588Y127.976
X171.942Y128.079
X171.298Y128.193
X170.656Y128.317
X170.532Y128.344
X170.408Y128.372
X170.286Y128.403
X170.163Y128.436
X170.042Y128.471
X169.92Y128.508
X169.8Y128.547
X169.681Y128.588
X169.562Y128.631
X169.443Y128.676
X169.326Y128.724
X169.209Y128.773
X169.094Y128.824
X168.979Y128.878
X168.865Y128.933
X168.752Y128.99
X168.64Y129.05
X168.53Y129.111
X168.42Y129.174
X168.311Y129.239
X168.204Y129.306
X168.098Y129.374
X167.992Y129.445
X167.888Y129.517
X167.786Y129.591
X167.685Y129.667
X167.585Y129.745
X167.486Y129.824
X167.389Y129.905
X167.293Y129.988
X167.199Y130.072
X167.106Y130.159
X167.014Y130.246
X166.925Y130.335
X166.836Y130.426
X166.749Y130.518
X166.665Y130.612
X166.581Y130.707
X166.499Y130.804
X166.399Y130.926
X166.301Y131.05
X166.206Y131.175
X166.112Y131.303
X166.021Y131.431
X165.931Y131.562
X165.844Y131.694
X165.76Y131.827
X165.677Y131.962
X165.597Y132.098
X165.52Y132.235
X165.444Y132.374
X165.371Y132.514
X165.301Y132.655
X165.233Y132.798
X165.167Y132.942
X165.104Y133.087
X165.043Y133.232
X164.985Y133.379
X164.929Y133.527
X164.876Y133.676
X164.826Y133.825
X164.778Y133.976
X164.732Y134.127
X164.69Y134.279
X164.649Y134.432
X164.612Y134.585
X164.577Y134.739
X164.545Y134.894
X164.515Y135.049
X164.488Y135.205
X164.464Y135.361
X164.442Y135.517
X164.423Y135.674
X164.407Y135.831
X164.393Y135.989
X164.382Y136.146
X164.374Y136.304
X164.369Y136.462
X164.366Y136.62
Y136.778
X164.369Y136.936
X164.374Y137.093
X164.382Y137.251
X164.393Y137.409
X164.407Y137.566
X164.423Y137.723
X164.442Y137.88
X164.461Y138.023
X164.881Y140.914
X164.894Y140.989
X164.911Y141.066
X164.926Y141.126
X164.947Y141.201
X164.971Y141.276
X164.997Y141.348
X165.026Y141.42
X165.058Y141.492
X165.092Y141.562
X165.128Y141.63
X165.166Y141.696
X165.194Y141.742
X165.236Y141.806
X165.281Y141.87
X165.327Y141.931
X165.376Y141.991
X165.427Y142.05
X165.48Y142.106
X165.535Y142.161
X165.592Y142.213
X165.651Y142.265
X165.711Y142.313
X165.773Y142.359
X165.836Y142.403
X165.902Y142.446
X165.968Y142.486
X166.035Y142.523
X166.105Y142.558
X166.175Y142.591
X166.246Y142.621
X166.318Y142.648
X166.391Y142.674
X166.466Y142.696
X166.541Y142.716
X166.616Y142.733
X166.692Y142.748
X166.768Y142.76
X166.846Y142.77
X166.923Y142.777
X167Y142.781
X167.078Y142.782
X172.129
X172.245Y142.781
X172.362Y142.778
X172.479Y142.773
X172.596Y142.766
X173.851Y142.676
X175.004Y142.611
X176.157Y142.565
X177.311Y142.537
X178.472Y142.528
X182.025
X182.063Y142.531
X182.101Y142.534
X182.14Y142.535
X182.178
X210.178
X210.217
X210.257Y142.533
X210.297Y142.531
X210.336Y142.527
X210.376Y142.523
X210.415Y142.518
X210.455Y142.511
X210.494Y142.504
X210.533Y142.495
X210.571Y142.486
X210.61Y142.476
X210.648Y142.464
X210.686Y142.452
X210.723Y142.439
X210.76Y142.425
X210.797Y142.41
X210.834Y142.394
X210.87Y142.377
X210.905Y142.359
X210.94Y142.341
X210.975Y142.321
X211.01Y142.3
X211.044Y142.279
X211.078Y142.256
X211.111Y142.233
X211.144Y142.209
X211.175Y142.184
X211.207Y142.158
X211.221Y142.145
X211.251Y142.119
X211.273Y142.098
X211.295Y142.077
X211.323Y142.049
X211.35Y142.02
X211.382Y141.984
X211.413Y141.947
X211.435Y141.919
X211.456Y141.891
X211.477Y141.862
X211.497Y141.833
X211.517Y141.804
X211.536Y141.773
X211.553Y141.745
X211.569Y141.717
X211.584Y141.688
X211.604Y141.65
X211.622Y141.613
X211.635Y141.583
X211.647Y141.554
X211.664Y141.513
X211.672Y141.491
X211.686Y141.451
X211.699Y141.41
X211.711Y141.368
X211.722Y141.326
X211.732Y141.283
X211.74Y141.243
X211.748Y141.202
X211.755Y141.151
X211.762Y141.095
X211.764Y141.061
X211.767Y141.028
X211.768Y140.994
X211.769Y140.944
Y140.712
X211.779Y140.65
X211.79Y140.574
X211.798Y140.495
X211.804Y140.419
X211.807Y140.341
Y140.302
Y129.468
X211.806Y129.429
X211.805Y129.389
X211.802Y129.35
X211.799Y129.311
X211.795Y129.272
X211.789Y129.232
X211.783Y129.194
X211.776Y129.155
X211.769Y129.121
X211.767Y129.079
X211.765Y129.036
X211.762Y128.993
X211.757Y128.95
X211.751Y128.908
X211.744Y128.865
X211.736Y128.823
X211.727Y128.781
X211.716Y128.739
X211.707Y128.704
X211.696Y128.67
X211.685Y128.636
X211.673Y128.602
X211.661Y128.568
X211.644Y128.527
X211.626Y128.486
X211.607Y128.446
X211.585Y128.402
X211.569Y128.373
X211.552Y128.343
X211.531Y128.307
X211.508Y128.271
X211.486Y128.239
X211.464Y128.208
X211.441Y128.177
X211.417Y128.147
X211.393Y128.117
X211.367Y128.088
X211.341Y128.059
X211.315Y128.031
X211.287Y128.004
X211.259Y127.978
X211.231Y127.952
X211.202Y127.927
X211.172Y127.902
X211.141Y127.878
X211.11Y127.855
X211.079Y127.833
X211.047Y127.812
X211.014Y127.791
X210.981Y127.771
X210.948Y127.752
X210.913Y127.733
X210.879Y127.716
X210.844Y127.7
X210.809Y127.684
X210.774Y127.669
X210.739Y127.656
X210.703Y127.642
X210.666Y127.63
X210.63Y127.619
X210.593Y127.609
X210.556Y127.599
X210.519Y127.59
X210.482Y127.583
X210.444Y127.576
X210.406Y127.57
X210.368Y127.565
X210.33Y127.561
X210.292Y127.557
X210.254Y127.555
X210.216Y127.554
X210.178Y127.553
X206.241
X205.651Y127.54
X204.907Y127.535
G0Z1
X170.851Y134.502
G1Z-0.25F50
X170.875Y134.471F100
X170.896Y134.446
X170.911Y134.429
X170.929Y134.408
X170.967Y134.367
X170.987Y134.347
X171.007Y134.327
X171.027Y134.308
X171.044Y134.292
X171.069Y134.27
X171.09Y134.253
X171.111Y134.235
X171.133Y134.218
X171.155Y134.201
X171.177Y134.184
X171.2Y134.168
X171.223Y134.152
X171.246Y134.137
X171.27Y134.122
X171.293Y134.107
X171.318Y134.093
X171.342Y134.079
X171.366Y134.066
X171.391Y134.053
X171.416Y134.041
X171.441Y134.029
X171.494Y134.005
X171.518Y133.996
X171.544Y133.985
X171.57Y133.976
X171.596Y133.966
X171.649Y133.949
X171.676Y133.941
X171.703Y133.934
X171.731Y133.926
X171.757Y133.92
X171.784Y133.914
X171.811Y133.909
X171.838Y133.904
X171.894Y133.895
X171.921Y133.891
X171.949Y133.888
X172.004Y133.883
X172.033Y133.881
X172.06Y133.88
X172.088
X172.116Y133.879
X172.144Y133.88
X172.171
X172.227Y133.883
X172.255Y133.885
X172.283Y133.888
X172.31Y133.891
X172.338Y133.895
X172.365Y133.899
X172.393Y133.904
X172.421Y133.909
X172.448Y133.914
X172.475Y133.92
X172.502Y133.927
X172.529Y133.934
X172.556Y133.941
X172.583Y133.949
X172.609Y133.957
X172.636Y133.966
X172.662Y133.976
X172.688Y133.985
X172.714Y133.996
X172.74Y134.006
X172.765Y134.017
X172.791Y134.029
X172.816Y134.041
X172.841Y134.053
X172.865Y134.066
X172.89Y134.079
X172.914Y134.093
X172.938Y134.107
X172.962Y134.122
X172.985Y134.137
X173.009Y134.152
X173.032Y134.168
X173.054Y134.184
X173.077Y134.201
X173.099Y134.218
X173.121Y134.235
X173.142Y134.253
X173.178Y134.284
X173.206Y134.31
X173.225Y134.327
X173.245Y134.347
X173.264Y134.367
X173.284Y134.387
X173.313Y134.42
X173.341Y134.452
X173.357Y134.471
X173.374Y134.493
X173.391Y134.515
X173.408Y134.537
X173.424Y134.56
X173.439Y134.583
X173.455Y134.607
X173.47Y134.63
X173.484Y134.654
X173.499Y134.678
X173.512Y134.702
X173.526Y134.726
X173.538Y134.751
X173.551Y134.776
X173.563Y134.801
X173.575Y134.827
X173.586Y134.852
X173.596Y134.878
X173.616Y134.93
X173.625Y134.956
X173.634Y134.982
X173.643Y135.009
X173.651Y135.036
X173.658Y135.063
X173.665Y135.09
X173.672Y135.117
X173.678Y135.144
X173.683Y135.171
X173.688Y135.199
X173.693Y135.226
X173.697Y135.254
X173.701Y135.281
X173.704Y135.309
X173.706Y135.337
X173.709Y135.365
X173.71Y135.392
X173.712Y135.42
Y135.448
Y135.476
Y135.504
Y135.532
X173.71Y135.559
X173.709Y135.587
X173.706Y135.615
X173.704Y135.643
X173.701Y135.671
X173.697Y135.698
X173.693Y135.726
X173.688Y135.753
X173.683Y135.781
X173.678Y135.808
X173.672Y135.835
X173.665Y135.862
X173.658Y135.889
X173.651Y135.916
X173.643Y135.943
X173.634Y135.969
X173.625Y135.996
X173.616Y136.022
X173.607Y136.048
X173.596Y136.074
X173.586Y136.1
X173.575Y136.125
X173.563Y136.151
X173.551Y136.176
X173.538Y136.201
X173.526Y136.225
X173.512Y136.25
X173.499Y136.274
X173.484Y136.298
X173.47Y136.322
X173.455Y136.345
X173.439Y136.369
X173.424Y136.392
X173.408Y136.414
X173.391Y136.437
X173.374Y136.459
X173.357Y136.481
X173.339Y136.502
X173.321Y136.523
X173.302Y136.544
X173.284Y136.565
X173.264Y136.585
X173.245Y136.605
X173.225Y136.625
X173.205Y136.644
X173.184Y136.662
X173.163Y136.681
X173.142Y136.699
X173.12Y136.717
X173.099Y136.734
X173.077Y136.751
X173.054Y136.768
X173.032Y136.784
X173.009Y136.8
X172.985Y136.815
X172.962Y136.83
X172.938Y136.844
X172.914Y136.859
X172.89Y136.872
X172.865Y136.886
X172.841Y136.899
X172.816Y136.911
X172.791Y136.923
X172.765Y136.935
X172.74Y136.946
X172.714Y136.956
X172.688Y136.967
X172.662Y136.976
X172.636Y136.986
X172.609Y136.994
X172.583Y137.003
X172.556Y137.011
X172.529Y137.018
X172.502Y137.025
X172.475Y137.032
X172.448Y137.038
X172.42Y137.043
X172.393Y137.048
X172.366Y137.053
X172.338Y137.057
X172.31Y137.061
X172.283Y137.064
X172.255Y137.066
X172.227Y137.069
X172.199Y137.07
X172.171Y137.072
X172.144
X172.116Y137.073
X172.088Y137.072
X172.06
X172.032Y137.07
X172.004Y137.069
X171.959Y137.065
X171.919Y137.06
X171.894Y137.057
X171.866Y137.053
X171.838Y137.048
X171.811Y137.043
X171.784Y137.038
X171.757Y137.032
X171.73Y137.025
X171.703Y137.018
X171.649Y137.003
X171.622Y136.994
X171.596Y136.986
X171.57Y136.976
X171.544Y136.967
X171.517Y136.956
X171.492Y136.946
X171.467Y136.935
X171.441Y136.923
X171.416Y136.911
X171.391Y136.899
X171.366Y136.886
X171.342Y136.872
X171.317Y136.859
X171.27Y136.83
X171.246Y136.815
X171.223Y136.8
X171.2Y136.784
X171.177Y136.768
X171.151Y136.748
X171.133Y136.734
X171.111Y136.717
X171.089Y136.699
X171.068Y136.681
X171.048Y136.663
X171.027Y136.644
X171.007Y136.624
X170.987Y136.605
X170.967Y136.585
X170.948Y136.565
X170.929Y136.544
X170.911Y136.523
X170.893Y136.502
X170.875Y136.481
X170.858Y136.459
X170.841Y136.437
X170.824Y136.414
X170.808Y136.392
X170.792Y136.369
X170.777Y136.345
X170.747Y136.298
X170.733Y136.274
X170.722Y136.254
X170.705Y136.224
X170.693Y136.201
X170.681Y136.176
X170.669Y136.151
X170.656Y136.122
X170.646Y136.1
X170.635Y136.074
X170.625Y136.048
X170.616Y136.022
X170.606Y135.996
X170.589Y135.943
X170.581Y135.916
X170.574Y135.889
X170.567Y135.862
X170.56Y135.835
X170.549Y135.781
X170.539Y135.726
X170.535Y135.698
X170.531Y135.671
X170.528Y135.643
X170.525Y135.615
X170.523Y135.587
X170.521Y135.559
X170.519Y135.504
Y135.476
Y135.448
X170.52Y135.421
X170.521Y135.392
X170.523Y135.365
X170.525Y135.337
X170.528Y135.309
X170.531Y135.28
X170.535Y135.254
X170.539Y135.226
X170.543Y135.199
X170.549Y135.171
X170.554Y135.144
X170.56Y135.117
X170.567Y135.09
X170.579Y135.044
X170.59Y135.007
X170.597Y134.982
X170.606Y134.956
X170.616Y134.93
X170.635Y134.878
X170.646Y134.852
X170.657Y134.827
X170.669Y134.801
X170.681Y134.776
X170.693Y134.751
X170.706Y134.726
X170.719Y134.702
X170.733Y134.678
X170.747Y134.654
X170.762Y134.63
X170.777Y134.606
X170.792Y134.583
X170.808Y134.56
X170.824Y134.537
X170.851Y134.502
G0Z1
X185.5Y135.461
G1Z-0.25F50
X185.518Y135.285F100
X185.569Y135.116
X185.652Y134.96
X185.764Y134.823
X185.901Y134.711
X186.057Y134.628
X186.226Y134.577
X186.402Y134.559
X186.577Y134.577
X186.747Y134.628
X186.902Y134.711
X187.039Y134.823
X187.151Y134.96
X187.234Y135.116
X187.286Y135.285
X187.303Y135.461
X187.286Y135.636
X187.234Y135.805
X187.151Y135.961
X187.039Y136.098
X186.902Y136.21
X186.747Y136.293
X186.577Y136.344
X186.402Y136.362
X186.226Y136.344
X186.057Y136.293
X185.901Y136.21
X185.764Y136.098
X185.652Y135.961
X185.569Y135.805
X185.518Y135.636
X185.5Y135.461
G0Z1
X201.404
G1Z-0.25F50
X201.422Y135.285F100
X201.473Y135.116
X201.556Y134.96
X201.668Y134.823
X201.805Y134.711
X201.961Y134.628
X202.13Y134.577
X202.306Y134.559
X202.481Y134.577
X202.65Y134.628
X202.806Y134.711
X202.943Y134.823
X203.055Y134.96
X203.138Y135.116
X203.19Y135.285
X203.207Y135.461
X203.19Y135.636
X203.138Y135.805
X203.055Y135.961
X202.943Y136.098
X202.806Y136.21
X202.65Y136.293
X202.481Y136.344
X202.306Y136.362
X202.13Y136.344
X201.961Y136.293
X201.805Y136.21
X201.668Y136.098
X201.556Y135.961
X201.473Y135.805
X201.422Y135.636
X201.404Y135.461
G0Z1
X204.907Y127.535
G1Z-0.25F50
X178.453F100
X177.799Y127.541
X177.145Y127.557
X176.491Y127.585
X175.838Y127.623
X175.186Y127.672
X174.535Y127.732
X173.885Y127.802
X173.236Y127.884
X172.588Y127.976
X171.942Y128.079
X171.298Y128.193
X170.656Y128.317
X170.532Y128.344
X170.408Y128.372
X170.286Y128.403
X170.163Y128.436
X170.042Y128.471
X169.92Y128.508
X169.8Y128.547
X169.681Y128.588
X169.562Y128.631
X169.443Y128.676
X169.326Y128.724
X169.209Y128.773
X169.094Y128.824
X168.979Y128.878
X168.865Y128.933
X168.752Y128.99
X168.64Y129.05
X168.53Y129.111
X168.42Y129.174
X168.311Y129.239
X168.204Y129.306
X168.098Y129.374
X167.992Y129.445
X167.888Y129.517
X167.786Y129.591
X167.685Y129.667
X167.585Y129.745
X167.486Y129.824
X167.389Y129.905
X167.293Y129.988
X167.199Y130.072
X167.106Y130.159
X167.014Y130.246
X166.925Y130.335
X166.836Y130.426
X166.749Y130.518
X166.665Y130.612
X166.581Y130.707
X166.499Y130.804
X166.399Y130.926
X166.301Y131.05
X166.206Y131.175
X166.112Y131.303
X166.021Y131.431
X165.931Y131.562
X165.844Y131.694
X165.76Y131.827
X165.677Y131.962
X165.597Y132.098
X165.52Y132.235
X165.444Y132.374
X165.371Y132.514
X165.301Y132.655
X165.233Y132.798
X165.167Y132.942
X165.104Y133.087
X165.043Y133.232
X164.985Y133.379
X164.929Y133.527
X164.876Y133.676
X164.826Y133.825
X164.778Y133.976
X164.732Y134.127
X164.69Y134.279
X164.649Y134.432
X164.612Y134.585
X164.577Y134.739
X164.545Y134.894
X164.515Y135.049
X164.488Y135.205
X164.464Y135.361
X164.442Y135.517
X164.423Y135.674
X164.407Y135.831
X164.393Y135.989
X164.382Y136.146
X164.374Y136.304
X164.369Y136.462
X164.366Y136.62
Y136.778
X164.369Y136.936
X164.374Y137.093
X164.382Y137.251
X164.393Y137.409
X164.407Y137.566
X164.423Y137.723
X164.442Y137.88
X164.461Y138.023
X164.881Y140.914
X164.894Y140.989
X164.911Y141.066
X164.926Y141.126
X164.947Y141.201
X164.971Y141.276
X164.997Y141.348
X165.026Y141.42
X165.058Y141.492
X165.092Y141.562
X165.128Y141.63
X165.166Y141.696
X165.194Y141.742
X165.236Y141.806
X165.281Y141.87
X165.327Y141.931
X165.376Y141.991
X165.427Y142.05
X165.48Y142.106
X165.535Y142.161
X165.592Y142.213
X165.651Y142.265
X165.711Y142.313
X165.773Y142.359
X165.836Y142.403
X165.902Y142.446
X165.968Y142.486
X166.035Y142.523
X166.105Y142.558
X166.175Y142.591
X166.246Y142.621
X166.318Y142.648
X166.391Y142.674
X166.466Y142.696
X166.541Y142.716
X166.616Y142.733
X166.692Y142.748
X166.768Y142.76
X166.846Y142.77
X166.923Y142.777
X167Y142.781
X167.078Y142.782
X172.129
X172.245Y142.781
X172.362Y142.778
X172.479Y142.773
X172.596Y142.766
X173.851Y142.676
X175.004Y142.611
X176.157Y142.565
X177.311Y142.537
X178.472Y142.528
X182.025
X182.063Y142.531
X182.101Y142.534
X182.14Y142.535
X182.178
X210.178
X210.217
X210.257Y142.533
X210.297Y142.531
X210.336Y142.527
X210.376Y142.523
X210.415Y142.518
X210.455Y142.511
X210.494Y142.504
X210.533Y142.495
X210.571Y142.486
X210.61Y142.476
X210.648Y142.464
X210.686Y142.452
X210.723Y142.439
X210.76Y142.425
X210.797Y142.41
X210.834Y142.394
X210.87Y142.377
X210.905Y142.359
X210.94Y142.341
X210.975Y142.321
X211.01Y142.3
X211.044Y142.279
X211.078Y142.256
X211.111Y142.233
X211.144Y142.209
X211.175Y142.184
X211.207Y142.158
X211.221Y142.145
X211.251Y142.119
X211.273Y142.098
X211.295Y142.077
X211.323Y142.049
X211.35Y142.02
X211.382Y141.984
X211.413Y141.947
X211.435Y141.919
X211.456Y141.891
X211.477Y141.862
X211.497Y141.833
X211.517Y141.804
X211.536Y141.773
X211.553Y141.745
X211.569Y141.717
X211.584Y141.688
X211.604Y141.65
X211.622Y141.613
X211.635Y141.583
X211.647Y141.554
X211.664Y141.513
X211.672Y141.491
X211.686Y141.451
X211.699Y141.41
X211.711Y141.368
X211.722Y141.326
X211.732Y141.283
X211.74Y141.243
X211.748Y141.202
X211.755Y141.151
X211.762Y141.095
X211.764Y141.061
X211.767Y141.028
X211.768Y140.994
X211.769Y140.944
Y140.712
X211.779Y140.65
X211.79Y140.574
X211.798Y140.495
X211.804Y140.419
X211.807Y140.341
Y140.302
Y129.468
X211.806Y129.429
X211.805Y129.389
X211.802Y129.35
X211.799Y129.311
X211.795Y129.272
X211.789Y129.232
X211.783Y129.194
X211.776Y129.155
X211.769Y129.121
X211.767Y129.079
X211.765Y129.036
X211.762Y128.993
X211.757Y128.95
X211.751Y128.908
X211.744Y128.865
X211.736Y128.823
X211.727Y128.781
X211.716Y128.739
X211.707Y128.704
X211.696Y128.67
X211.685Y128.636
X211.673Y128.602
X211.661Y128.568
X211.644Y128.527
X211.626Y128.486
X211.607Y128.446
X211.585Y128.402
X211.569Y128.373
X211.552Y128.343
X211.531Y128.307
X211.508Y128.271
X211.486Y128.239
X211.464Y128.208
X211.441Y128.177
X211.417Y128.147
X211.393Y128.117
X211.367Y128.088
X211.341Y128.059
X211.315Y128.031
X211.287Y128.004
X211.259Y127.978
X211.231Y127.952
X211.202Y127.927
X211.172Y127.902
X211.141Y127.878
X211.11Y127.855
X211.079Y127.833
X211.047Y127.812
X211.014Y127.791
X210.981Y127.771
X210.948Y127.752
X210.913Y127.733
X210.879Y127.716
X210.844Y127.7
X210.809Y127.684
X210.774Y127.669
X210.739Y127.656
X210.703Y127.642
X210.666Y127.63
X210.63Y127.619
X210.593Y127.609
X210.556Y127.599
X210.519Y127.59
X210.482Y127.583
X210.444Y127.576
X210.406Y127.57
X210.368Y127.565
X210.33Y127.561
X210.292Y127.557
X210.254Y127.555
X210.216Y127.554
X210.178Y127.553
X206.241
X205.651Y127.54
X204.907Y127.535
G0Z1
X170.851Y134.502
G1Z-0.3F50
X170.875Y134.471F100
X170.896Y134.446
X170.911Y134.429
X170.929Y134.408
X170.967Y134.367
X170.987Y134.347
X171.007Y134.327
X171.027Y134.308
X171.044Y134.292
X171.069Y134.27
X171.09Y134.253
X171.111Y134.235
X171.133Y134.218
X171.155Y134.201
X171.177Y134.184
X171.2Y134.168
X171.223Y134.152
X171.246Y134.137
X171.27Y134.122
X171.293Y134.107
X171.318Y134.093
X171.342Y134.079
X171.366Y134.066
X171.391Y134.053
X171.416Y134.041
X171.441Y134.029
X171.494Y134.005
X171.518Y133.996
X171.544Y133.985
X171.57Y133.976
X171.596Y133.966
X171.649Y133.949
X171.676Y133.941
X171.703Y133.934
X171.731Y133.926
X171.757Y133.92
X171.784Y133.914
X171.811Y133.909
X171.838Y133.904
X171.894Y133.895
X171.921Y133.891
X171.949Y133.888
X172.004Y133.883
X172.033Y133.881
X172.06Y133.88
X172.088
X172.116Y133.879
X172.144Y133.88
X172.171
X172.227Y133.883
X172.255Y133.885
X172.283Y133.888
X172.31Y133.891
X172.338Y133.895
X172.365Y133.899
X172.393Y133.904
X172.421Y133.909
X172.448Y133.914
X172.475Y133.92
X172.502Y133.927
X172.529Y133.934
X172.556Y133.941
X172.583Y133.949
X172.609Y133.957
X172.636Y133.966
X172.662Y133.976
X172.688Y133.985
X172.714Y133.996
X172.74Y134.006
X172.765Y134.017
X172.791Y134.029
X172.816Y134.041
X172.841Y134.053
X172.865Y134.066
X172.89Y134.079
X172.914Y134.093
X172.938Y134.107
X172.962Y134.122
X172.985Y134.137
X173.009Y134.152
X173.032Y134.168
X173.054Y134.184
X173.077Y134.201
X173.099Y134.218
X173.121Y134.235
X173.142Y134.253
X173.178Y134.284
X173.206Y134.31
X173.225Y134.327
X173.245Y134.347
X173.264Y134.367
X173.284Y134.387
X173.313Y134.42
X173.341Y134.452
X173.357Y134.471
X173.374Y134.493
X173.391Y134.515
X173.408Y134.537
X173.424Y134.56
X173.439Y134.583
X173.455Y134.607
X173.47Y134.63
X173.484Y134.654
X173.499Y134.678
X173.512Y134.702
X173.526Y134.726
X173.538Y134.751
X173.551Y134.776
X173.563Y134.801
X173.575Y134.827
X173.586Y134.852
X173.596Y134.878
X173.616Y134.93
X173.625Y134.956
X173.634Y134.982
X173.643Y135.009
X173.651Y135.036
X173.658Y135.063
X173.665Y135.09
X173.672Y135.117
X173.678Y135.144
X173.683Y135.171
X173.688Y135.199
X173.693Y135.226
X173.697Y135.254
X173.701Y135.281
X173.704Y135.309
X173.706Y135.337
X173.709Y135.365
X173.71Y135.392
X173.712Y135.42
Y135.448
Y135.476
Y135.504
Y135.532
X173.71Y135.559
X173.709Y135.587
X173.706Y135.615
X173.704Y135.643
X173.701Y135.671
X173.697Y135.698
X173.693Y135.726
X173.688Y135.753
X173.683Y135.781
X173.678Y135.808
X173.672Y135.835
X173.665Y135.862
X173.658Y135.889
X173.651Y135.916
X173.643Y135.943
X173.634Y135.969
X173.625Y135.996
X173.616Y136.022
X173.607Y136.048
X173.596Y136.074
X173.586Y136.1
X173.575Y136.125
X173.563Y136.151
X173.551Y136.176
X173.538Y136.201
X173.526Y136.225
X173.512Y136.25
X173.499Y136.274
X173.484Y136.298
X173.47Y136.322
X173.455Y136.345
X173.439Y136.369
X173.424Y136.392
X173.408Y136.414
X173.391Y136.437
X173.374Y136.459
X173.357Y136.481
X173.339Y136.502
X173.321Y136.523
X173.302Y136.544
X173.284Y136.565
X173.264Y136.585
X173.245Y136.605
X173.225Y136.625
X173.205Y136.644
X173.184Y136.662
X173.163Y136.681
X173.142Y136.699
X173.12Y136.717
X173.099Y136.734
X173.077Y136.751
X173.054Y136.768
X173.032Y136.784
X173.009Y136.8
X172.985Y136.815
X172.962Y136.83
X172.938Y136.844
X172.914Y136.859
X172.89Y136.872
X172.865Y136.886
X172.841Y136.899
X172.816Y136.911
X172.791Y136.923
X172.765Y136.935
X172.74Y136.946
X172.714Y136.956
X172.688Y136.967
X172.662Y136.976
X172.636Y136.986
X172.609Y136.994
X172.583Y137.003
X172.556Y137.011
X172.529Y137.018
X172.502Y137.025
X172.475Y137.032
X172.448Y137.038
X172.42Y137.043
X172.393Y137.048
X172.366Y137.053
X172.338Y137.057
X172.31Y137.061
X172.283Y137.064
X172.255Y137.066
X172.227Y137.069
X172.199Y137.07
X172.171Y137.072
X172.144
X172.116Y137.073
X172.088Y137.072
X172.06
X172.032Y137.07
X172.004Y137.069
X171.959Y137.065
X171.919Y137.06
X171.894Y137.057
X171.866Y137.053
X171.838Y137.048
X171.811Y137.043
X171.784Y137.038
X171.757Y137.032
X171.73Y137.025
X171.703Y137.018
X171.649Y137.003
X171.622Y136.994
X171.596Y136.986
X171.57Y136.976
X171.544Y136.967
X171.517Y136.956
X171.492Y136.946
X171.467Y136.935
X171.441Y136.923
X171.416Y136.911
X171.391Y136.899
X171.366Y136.886
X171.342Y136.872
X171.317Y136.859
X171.27Y136.83
X171.246Y136.815
X171.223Y136.8
X171.2Y136.784
X171.177Y136.768
X171.151Y136.748
X171.133Y136.734
X171.111Y136.717
X171.089Y136.699
X171.068Y136.681
X171.048Y136.663
X171.027Y136.644
X171.007Y136.624
X170.987Y136.605
X170.967Y136.585
X170.948Y136.565
X170.929Y136.544
X170.911Y136.523
X170.893Y136.502
X170.875Y136.481
X170.858Y136.459
X170.841Y136.437
X170.824Y136.414
X170.808Y136.392
X170.792Y136.369
X170.777Y136.345
X170.747Y136.298
X170.733Y136.274
X170.722Y136.254
X170.705Y136.224
X170.693Y136.201
X170.681Y136.176
X170.669Y136.151
X170.656Y136.122
X170.646Y136.1
X170.635Y136.074
X170.625Y136.048
X170.616Y136.022
X170.606Y135.996
X170.589Y135.943
X170.581Y135.916
X170.574Y135.889
X170.567Y135.862
X170.56Y135.835
X170.549Y135.781
X170.539Y135.726
X170.535Y135.698
X170.531Y135.671
X170.528Y135.643
X170.525Y135.615
X170.523Y135.587
X170.521Y135.559
X170.519Y135.504
Y135.476
Y135.448
X170.52Y135.421
X170.521Y135.392
X170.523Y135.365
X170.525Y135.337
X170.528Y135.309
X170.531Y135.28
X170.535Y135.254
X170.539Y135.226
X170.543Y135.199
X170.549Y135.171
X170.554Y135.144
X170.56Y135.117
X170.567Y135.09
X170.579Y135.044
X170.59Y135.007
X170.597Y134.982
X170.606Y134.956
X170.616Y134.93
X170.635Y134.878
X170.646Y134.852
X170.657Y134.827
X170.669Y134.801
X170.681Y134.776
X170.693Y134.751
X170.706Y134.726
X170.719Y134.702
X170.733Y134.678
X170.747Y134.654
X170.762Y134.63
X170.777Y134.606
X170.792Y134.583
X170.808Y134.56
X170.824Y134.537
X170.851Y134.502
G0Z1
X185.5Y135.461
G1Z-0.3F50
X185.518Y135.285F100
X185.569Y135.116
X185.652Y134.96
X185.764Y134.823
X185.901Y134.711
X186.057Y134.628
X186.226Y134.577
X186.402Y134.559
X186.577Y134.577
X186.747Y134.628
X186.902Y134.711
X187.039Y134.823
X187.151Y134.96
X187.234Y135.116
X187.286Y135.285
X187.303Y135.461
X187.286Y135.636
X187.234Y135.805
X187.151Y135.961
X187.039Y136.098
X186.902Y136.21
X186.747Y136.293
X186.577Y136.344
X186.402Y136.362
X186.226Y136.344
X186.057Y136.293
X185.901Y136.21
X185.764Y136.098
X185.652Y135.961
X185.569Y135.805
X185.518Y135.636
X185.5Y135.461
G0Z1
X201.404
G1Z-0.3F50
X201.422Y135.285F100
X201.473Y135.116
X201.556Y134.96
X201.668Y134.823
X201.805Y134.711
X201.961Y134.628
X202.13Y134.577
X202.306Y134.559
X202.481Y134.577
X202.65Y134.628
X202.806Y134.711
X202.943Y134.823
X203.055Y134.96
X203.138Y135.116
X203.19Y135.285
X203.207Y135.461
X203.19Y135.636
X203.138Y135.805
X203.055Y135.961
X202.943Y136.098
X202.806Y136.21
X202.65Y136.293
X202.481Y136.344
X202.306Y136.362
X202.13Y136.344
X201.961Y136.293
X201.805Y136.21
X201.668Y136.098
X201.556Y135.961
X201.473Y135.805
X201.422Y135.636
X201.404Y135.461
G0Z1
X204.907Y127.535
G1Z-0.3F50
X178.453F100
X177.799Y127.541
X177.145Y127.557
X176.491Y127.585
X175.838Y127.623
X175.186Y127.672
X174.535Y127.732
X173.885Y127.802
X173.236Y127.884
X172.588Y127.976
X171.942Y128.079
X171.298Y128.193
X170.656Y128.317
X170.532Y128.344
X170.408Y128.372
X170.286Y128.403
X170.163Y128.436
X170.042Y128.471
X169.92Y128.508
X169.8Y128.547
X169.681Y128.588
X169.562Y128.631
X169.443Y128.676
X169.326Y128.724
X169.209Y128.773
X169.094Y128.824
X168.979Y128.878
X168.865Y128.933
X168.752Y128.99
X168.64Y129.05
X168.53Y129.111
X168.42Y129.174
X168.311Y129.239
X168.204Y129.306
X168.098Y129.374
X167.992Y129.445
X167.888Y129.517
X167.786Y129.591
X167.685Y129.667
X167.585Y129.745
X167.486Y129.824
X167.389Y129.905
X167.293Y129.988
X167.199Y130.072
X167.106Y130.159
X167.014Y130.246
X166.925Y130.335
X166.836Y130.426
X166.749Y130.518
X166.665Y130.612
X166.581Y130.707
X166.499Y130.804
X166.399Y130.926
X166.301Y131.05
X166.206Y131.175
X166.112Y131.303
X166.021Y131.431
X165.931Y131.562
X165.844Y131.694
X165.76Y131.827
X165.677Y131.962
X165.597Y132.098
X165.52Y132.235
X165.444Y132.374
X165.371Y132.514
X165.301Y132.655
X165.233Y132.798
X165.167Y132.942
X165.104Y133.087
X165.043Y133.232
X164.985Y133.379
X164.929Y133.527
X164.876Y133.676
X164.826Y133.825
X164.778Y133.976
X164.732Y134.127
X164.69Y134.279
X164.649Y134.432
X164.612Y134.585
X164.577Y134.739
X164.545Y134.894
X164.515Y135.049
X164.488Y135.205
X164.464Y135.361
X164.442Y135.517
X164.423Y135.674
X164.407Y135.831
X164.393Y135.989
X164.382Y136.146
X164.374Y136.304
X164.369Y136.462
X164.366Y136.62
Y136.778
X164.369Y136.936
X164.374Y137.093
X164.382Y137.251
X164.393Y137.409
X164.407Y137.566
X164.423Y137.723
X164.442Y137.88
X164.461Y138.023
X164.881Y140.914
X164.894Y140.989
X164.911Y141.066
X164.926Y141.126
X164.947Y141.201
X164.971Y141.276
X164.997Y141.348
X165.026Y141.42
X165.058Y141.492
X165.092Y141.562
X165.128Y141.63
X165.166Y141.696
X165.194Y141.742
X165.236Y141.806
X165.281Y141.87
X165.327Y141.931
X165.376Y141.991
X165.427Y142.05
X165.48Y142.106
X165.535Y142.161
X165.592Y142.213
X165.651Y142.265
X165.711Y142.313
X165.773Y142.359
X165.836Y142.403
X165.902Y142.446
X165.968Y142.486
X166.035Y142.523
X166.105Y142.558
X166.175Y142.591
X166.246Y142.621
X166.318Y142.648
X166.391Y142.674
X166.466Y142.696
X166.541Y142.716
X166.616Y142.733
X166.692Y142.748
X166.768Y142.76
X166.846Y142.77
X166.923Y142.777
X167Y142.781
X167.078Y142.782
X172.129
X172.245Y142.781
X172.362Y142.778
X172.479Y142.773
X172.596Y142.766
X173.851Y142.676
X175.004Y142.611
X176.157Y142.565
X177.311Y142.537
X178.472Y142.528
X182.025
X182.063Y142.531
X182.101Y142.534
X182.14Y142.535
X182.178
X210.178
X210.217
X210.257Y142.533
X210.297Y142.531
X210.336Y142.527
X210.376Y142.523
X210.415Y142.518
X210.455Y142.511
X210.494Y142.504
X210.533Y142.495
X210.571Y142.486
X210.61Y142.476
X210.648Y142.464
X210.686Y142.452
X210.723Y142.439
X210.76Y142.425
X210.797Y142.41
X210.834Y142.394
X210.87Y142.377
X210.905Y142.359
X210.94Y142.341
X210.975Y142.321
X211.01Y142.3
X211.044Y142.279
X211.078Y142.256
X211.111Y142.233
X211.144Y142.209
X211.175Y142.184
X211.207Y142.158
X211.221Y142.145
X211.251Y142.119
X211.273Y142.098
X211.295Y142.077
X211.323Y142.049
X211.35Y142.02
X211.382Y141.984
X211.413Y141.947
X211.435Y141.919
X211.456Y141.891
X211.477Y141.862
X211.497Y141.833
X211.517Y141.804
X211.536Y141.773
X211.553Y141.745
X211.569Y141.717
X211.584Y141.688
X211.604Y141.65
X211.622Y141.613
X211.635Y141.583
X211.647Y141.554
X211.664Y141.513
X211.672Y141.491
X211.686Y141.451
X211.699Y141.41
X211.711Y141.368
X211.722Y141.326
X211.732Y141.283
X211.74Y141.243
X211.748Y141.202
X211.755Y141.151
X211.762Y141.095
X211.764Y141.061
X211.767Y141.028
X211.768Y140.994
X211.769Y140.944
Y140.712
X211.779Y140.65
X211.79Y140.574
X211.798Y140.495
X211.804Y140.419
X211.807Y140.341
Y140.302
Y129.468
X211.806Y129.429
X211.805Y129.389
X211.802Y129.35
X211.799Y129.311
X211.795Y129.272
X211.789Y129.232
X211.783Y129.194
X211.776Y129.155
X211.769Y129.121
X211.767Y129.079
X211.765Y129.036
X211.762Y128.993
X211.757Y128.95
X211.751Y128.908
X211.744Y128.865
X211.736Y128.823
X211.727Y128.781
X211.716Y128.739
X211.707Y128.704
X211.696Y128.67
X211.685Y128.636
X211.673Y128.602
X211.661Y128.568
X211.644Y128.527
X211.626Y128.486
X211.607Y128.446
X211.585Y128.402
X211.569Y128.373
X211.552Y128.343
X211.531Y128.307
X211.508Y128.271
X211.486Y128.239
X211.464Y128.208
X211.441Y128.177
X211.417Y128.147
X211.393Y128.117
X211.367Y128.088
X211.341Y128.059
X211.315Y128.031
X211.287Y128.004
X211.259Y127.978
X211.231Y127.952
X211.202Y127.927
X211.172Y127.902
X211.141Y127.878
X211.11Y127.855
X211.079Y127.833
X211.047Y127.812
X211.014Y127.791
X210.981Y127.771
X210.948Y127.752
X210.913Y127.733
X210.879Y127.716
X210.844Y127.7
X210.809Y127.684
X210.774Y127.669
X210.739Y127.656
X210.703Y127.642
X210.666Y127.63
X210.63Y127.619
X210.593Y127.609
X210.556Y127.599
X210.519Y127.59
X210.482Y127.583
X210.444Y127.576
X210.406Y127.57
X210.368Y127.565
X210.33Y127.561
X210.292Y127.557
X210.254Y127.555
X210.216Y127.554
X210.178Y127.553
X206.241
X205.651Y127.54
X204.907Y127.535
G0Z1
X170.851Y134.502
G1Z-0.35F50
X170.875Y134.471F100
X170.896Y134.446
X170.911Y134.429
X170.929Y134.408
X170.967Y134.367
X170.987Y134.347
X171.007Y134.327
X171.027Y134.308
X171.044Y134.292
X171.069Y134.27
X171.09Y134.253
X171.111Y134.235
X171.133Y134.218
X171.155Y134.201
X171.177Y134.184
X171.2Y134.168
X171.223Y134.152
X171.246Y134.137
X171.27Y134.122
X171.293Y134.107
X171.318Y134.093
X171.342Y134.079
X171.366Y134.066
X171.391Y134.053
X171.416Y134.041
X171.441Y134.029
X171.494Y134.005
X171.518Y133.996
X171.544Y133.985
X171.57Y133.976
X171.596Y133.966
X171.649Y133.949
X171.676Y133.941
X171.703Y133.934
X171.731Y133.926
X171.757Y133.92
X171.784Y133.914
X171.811Y133.909
X171.838Y133.904
X171.894Y133.895
X171.921Y133.891
X171.949Y133.888
X172.004Y133.883
X172.033Y133.881
X172.06Y133.88
X172.088
X172.116Y133.879
X172.144Y133.88
X172.171
X172.227Y133.883
X172.255Y133.885
X172.283Y133.888
X172.31Y133.891
X172.338Y133.895
X172.365Y133.899
X172.393Y133.904
X172.421Y133.909
X172.448Y133.914
X172.475Y133.92
X172.502Y133.927
X172.529Y133.934
X172.556Y133.941
X172.583Y133.949
X172.609Y133.957
X172.636Y133.966
X172.662Y133.976
X172.688Y133.985
X172.714Y133.996
X172.74Y134.006
X172.765Y134.017
X172.791Y134.029
X172.816Y134.041
X172.841Y134.053
X172.865Y134.066
X172.89Y134.079
X172.914Y134.093
X172.938Y134.107
X172.962Y134.122
X172.985Y134.137
X173.009Y134.152
X173.032Y134.168
X173.054Y134.184
X173.077Y134.201
X173.099Y134.218
X173.121Y134.235
X173.142Y134.253
X173.178Y134.284
X173.206Y134.31
X173.225Y134.327
X173.245Y134.347
X173.264Y134.367
X173.284Y134.387
X173.313Y134.42
X173.341Y134.452
X173.357Y134.471
X173.374Y134.493
X173.391Y134.515
X173.408Y134.537
X173.424Y134.56
X173.439Y134.583
X173.455Y134.607
X173.47Y134.63
X173.484Y134.654
X173.499Y134.678
X173.512Y134.702
X173.526Y134.726
X173.538Y134.751
X173.551Y134.776
X173.563Y134.801
X173.575Y134.827
X173.586Y134.852
X173.596Y134.878
X173.616Y134.93
X173.625Y134.956
X173.634Y134.982
X173.643Y135.009
X173.651Y135.036
X173.658Y135.063
X173.665Y135.09
X173.672Y135.117
X173.678Y135.144
X173.683Y135.171
X173.688Y135.199
X173.693Y135.226
X173.697Y135.254
X173.701Y135.281
X173.704Y135.309
X173.706Y135.337
X173.709Y135.365
X173.71Y135.392
X173.712Y135.42
Y135.448
Y135.476
Y135.504
Y135.532
X173.71Y135.559
X173.709Y135.587
X173.706Y135.615
X173.704Y135.643
X173.701Y135.671
X173.697Y135.698
X173.693Y135.726
X173.688Y135.753
X173.683Y135.781
X173.678Y135.808
X173.672Y135.835
X173.665Y135.862
X173.658Y135.889
X173.651Y135.916
X173.643Y135.943
X173.634Y135.969
X173.625Y135.996
X173.616Y136.022
X173.607Y136.048
X173.596Y136.074
X173.586Y136.1
X173.575Y136.125
X173.563Y136.151
X173.551Y136.176
X173.538Y136.201
X173.526Y136.225
X173.512Y136.25
X173.499Y136.274
X173.484Y136.298
X173.47Y136.322
X173.455Y136.345
X173.439Y136.369
X173.424Y136.392
X173.408Y136.414
X173.391Y136.437
X173.374Y136.459
X173.357Y136.481
X173.339Y136.502
X173.321Y136.523
X173.302Y136.544
X173.284Y136.565
X173.264Y136.585
X173.245Y136.605
X173.225Y136.625
X173.205Y136.644
X173.184Y136.662
X173.163Y136.681
X173.142Y136.699
X173.12Y136.717
X173.099Y136.734
X173.077Y136.751
X173.054Y136.768
X173.032Y136.784
X173.009Y136.8
X172.985Y136.815
X172.962Y136.83
X172.938Y136.844
X172.914Y136.859
X172.89Y136.872
X172.865Y136.886
X172.841Y136.899
X172.816Y136.911
X172.791Y136.923
X172.765Y136.935
X172.74Y136.946
X172.714Y136.956
X172.688Y136.967
X172.662Y136.976
X172.636Y136.986
X172.609Y136.994
X172.583Y137.003
X172.556Y137.011
X172.529Y137.018
X172.502Y137.025
X172.475Y137.032
X172.448Y137.038
X172.42Y137.043
X172.393Y137.048
X172.366Y137.053
X172.338Y137.057
X172.31Y137.061
X172.283Y137.064
X172.255Y137.066
X172.227Y137.069
X172.199Y137.07
X172.171Y137.072
X172.144
X172.116Y137.073
X172.088Y137.072
X172.06
X172.032Y137.07
X172.004Y137.069
X171.959Y137.065
X171.919Y137.06
X171.894Y137.057
X171.866Y137.053
X171.838Y137.048
X171.811Y137.043
X171.784Y137.038
X171.757Y137.032
X171.73Y137.025
X171.703Y137.018
X171.649Y137.003
X171.622Y136.994
X171.596Y136.986
X171.57Y136.976
X171.544Y136.967
X171.517Y136.956
X171.492Y136.946
X171.467Y136.935
X171.441Y136.923
X171.416Y136.911
X171.391Y136.899
X171.366Y136.886
X171.342Y136.872
X171.317Y136.859
X171.27Y136.83
X171.246Y136.815
X171.223Y136.8
X171.2Y136.784
X171.177Y136.768
X171.151Y136.748
X171.133Y136.734
X171.111Y136.717
X171.089Y136.699
X171.068Y136.681
X171.048Y136.663
X171.027Y136.644
X171.007Y136.624
X170.987Y136.605
X170.967Y136.585
X170.948Y136.565
X170.929Y136.544
X170.911Y136.523
X170.893Y136.502
X170.875Y136.481
X170.858Y136.459
X170.841Y136.437
X170.824Y136.414
X170.808Y136.392
X170.792Y136.369
X170.777Y136.345
X170.747Y136.298
X170.733Y136.274
X170.722Y136.254
X170.705Y136.224
X170.693Y136.201
X170.681Y136.176
X170.669Y136.151
X170.656Y136.122
X170.646Y136.1
X170.635Y136.074
X170.625Y136.048
X170.616Y136.022
X170.606Y135.996
X170.589Y135.943
X170.581Y135.916
X170.574Y135.889
X170.567Y135.862
X170.56Y135.835
X170.549Y135.781
X170.539Y135.726
X170.535Y135.698
X170.531Y135.671
X170.528Y135.643
X170.525Y135.615
X170.523Y135.587
X170.521Y135.559
X170.519Y135.504
Y135.476
Y135.448
X170.52Y135.421
X170.521Y135.392
X170.523Y135.365
X170.525Y135.337
X170.528Y135.309
X170.531Y135.28
X170.535Y135.254
X170.539Y135.226
X170.543Y135.199
X170.549Y135.171
X170.554Y135.144
X170.56Y135.117
X170.567Y135.09
X170.579Y135.044
X170.59Y135.007
X170.597Y134.982
X170.606Y134.956
X170.616Y134.93
X170.635Y134.878
X170.646Y134.852
X170.657Y134.827
X170.669Y134.801
X170.681Y134.776
X170.693Y134.751
X170.706Y134.726
X170.719Y134.702
X170.733Y134.678
X170.747Y134.654
X170.762Y134.63
X170.777Y134.606
X170.792Y134.583
X170.808Y134.56
X170.824Y134.537
X170.851Y134.502
G0Z1
X185.5Y135.461
G1Z-0.35F50
X185.518Y135.285F100
X185.569Y135.116
X185.652Y134.96
X185.764Y134.823
X185.901Y134.711
X186.057Y134.628
X186.226Y134.577
X186.402Y134.559
X186.577Y134.577
X186.747Y134.628
X186.902Y134.711
X187.039Y134.823
X187.151Y134.96
X187.234Y135.116
X187.286Y135.285
X187.303Y135.461
X187.286Y135.636
X187.234Y135.805
X187.151Y135.961
X187.039Y136.098
X186.902Y136.21
X186.747Y136.293
X186.577Y136.344
X186.402Y136.362
X186.226Y136.344
X186.057Y136.293
X185.901Y136.21
X185.764Y136.098
X185.652Y135.961
X185.569Y135.805
X185.518Y135.636
X185.5Y135.461
G0Z1
X201.404
G1Z-0.35F50
X201.422Y135.285F100
X201.473Y135.116
X201.556Y134.96
X201.668Y134.823
X201.805Y134.711
X201.961Y134.628
X202.13Y134.577
X202.306Y134.559
X202.481Y134.577
X202.65Y134.628
X202.806Y134.711
X202.943Y134.823
X203.055Y134.96
X203.138Y135.116
X203.19Y135.285
X203.207Y135.461
X203.19Y135.636
X203.138Y135.805
X203.055Y135.961
X202.943Y136.098
X202.806Y136.21
X202.65Y136.293
X202.481Y136.344
X202.306Y136.362
X202.13Y136.344
X201.961Y136.293
X201.805Y136.21
X201.668Y136.098
X201.556Y135.961
X201.473Y135.805
X201.422Y135.636
X201.404Y135.461
G0Z1
X204.907Y127.535
G1Z-0.35F50
X178.453F100
X177.799Y127.541
X177.145Y127.557
X176.491Y127.585
X175.838Y127.623
X175.186Y127.672
X174.535Y127.732
X173.885Y127.802
X173.236Y127.884
X172.588Y127.976
X171.942Y128.079
X171.298Y128.193
X170.656Y128.317
X170.532Y128.344
X170.408Y128.372
X170.286Y128.403
X170.163Y128.436
X170.042Y128.471
X169.92Y128.508
X169.8Y128.547
X169.681Y128.588
X169.562Y128.631
X169.443Y128.676
X169.326Y128.724
X169.209Y128.773
X169.094Y128.824
X168.979Y128.878
X168.865Y128.933
X168.752Y128.99
X168.64Y129.05
X168.53Y129.111
X168.42Y129.174
X168.311Y129.239
X168.204Y129.306
X168.098Y129.374
X167.992Y129.445
X167.888Y129.517
X167.786Y129.591
X167.685Y129.667
X167.585Y129.745
X167.486Y129.824
X167.389Y129.905
X167.293Y129.988
X167.199Y130.072
X167.106Y130.159
X167.014Y130.246
X166.925Y130.335
X166.836Y130.426
X166.749Y130.518
X166.665Y130.612
X166.581Y130.707
X166.499Y130.804
X166.399Y130.926
X166.301Y131.05
X166.206Y131.175
X166.112Y131.303
X166.021Y131.431
X165.931Y131.562
X165.844Y131.694
X165.76Y131.827
X165.677Y131.962
X165.597Y132.098
X165.52Y132.235
X165.444Y132.374
X165.371Y132.514
X165.301Y132.655
X165.233Y132.798
X165.167Y132.942
X165.104Y133.087
X165.043Y133.232
X164.985Y133.379
X164.929Y133.527
X164.876Y133.676
X164.826Y133.825
X164.778Y133.976
X164.732Y134.127
X164.69Y134.279
X164.649Y134.432
X164.612Y134.585
X164.577Y134.739
X164.545Y134.894
X164.515Y135.049
X164.488Y135.205
X164.464Y135.361
X164.442Y135.517
X164.423Y135.674
X164.407Y135.831
X164.393Y135.989
X164.382Y136.146
X164.374Y136.304
X164.369Y136.462
X164.366Y136.62
Y136.778
X164.369Y136.936
X164.374Y137.093
X164.382Y137.251
X164.393Y137.409
X164.407Y137.566
X164.423Y137.723
X164.442Y137.88
X164.461Y138.023
X164.881Y140.914
X164.894Y140.989
X164.911Y141.066
X164.926Y141.126
X164.947Y141.201
X164.971Y141.276
X164.997Y141.348
X165.026Y141.42
X165.058Y141.492
X165.092Y141.562
X165.128Y141.63
X165.166Y141.696
X165.194Y141.742
X165.236Y141.806
X165.281Y141.87
X165.327Y141.931
X165.376Y141.991
X165.427Y142.05
X165.48Y142.106
X165.535Y142.161
X165.592Y142.213
X165.651Y142.265
X165.711Y142.313
X165.773Y142.359
X165.836Y142.403
X165.902Y142.446
X165.968Y142.486
X166.035Y142.523
X166.105Y142.558
X166.175Y142.591
X166.246Y142.621
X166.318Y142.648
X166.391Y142.674
X166.466Y142.696
X166.541Y142.716
X166.616Y142.733
X166.692Y142.748
X166.768Y142.76
X166.846Y142.77
X166.923Y142.777
X167Y142.781
X167.078Y142.782
X172.129
X172.245Y142.781
X172.362Y142.778
X172.479Y142.773
X172.596Y142.766
X173.851Y142.676
X175.004Y142.611
X176.157Y142.565
X177.311Y142.537
X178.472Y142.528
X182.025
X182.063Y142.531
X182.101Y142.534
X182.14Y142.535
X182.178
X210.178
X210.217
X210.257Y142.533
X210.297Y142.531
X210.336Y142.527
X210.376Y142.523
X210.415Y142.518
X210.455Y142.511
X210.494Y142.504
X210.533Y142.495
X210.571Y142.486
X210.61Y142.476
X210.648Y142.464
X210.686Y142.452
X210.723Y142.439
X210.76Y142.425
X210.797Y142.41
X210.834Y142.394
X210.87Y142.377
X210.905Y142.359
X210.94Y142.341
X210.975Y142.321
X211.01Y142.3
X211.044Y142.279
X211.078Y142.256
X211.111Y142.233
X211.144Y142.209
X211.175Y142.184
X211.207Y142.158
X211.221Y142.145
X211.251Y142.119
X211.273Y142.098
X211.295Y142.077
X211.323Y142.049
X211.35Y142.02
X211.382Y141.984
X211.413Y141.947
X211.435Y141.919
X211.456Y141.891
X211.477Y141.862
X211.497Y141.833
X211.517Y141.804
X211.536Y141.773
X211.553Y141.745
X211.569Y141.717
X211.584Y141.688
X211.604Y141.65
X211.622Y141.613
X211.635Y141.583
X211.647Y141.554
X211.664Y141.513
X211.672Y141.491
X211.686Y141.451
X211.699Y141.41
X211.711Y141.368
X211.722Y141.326
X211.732Y141.283
X211.74Y141.243
X211.748Y141.202
X211.755Y141.151
X211.762Y141.095
X211.764Y141.061
X211.767Y141.028
X211.768Y140.994
X211.769Y140.944
Y140.712
X211.779Y140.65
X211.79Y140.574
X211.798Y140.495
X211.804Y140.419
X211.807Y140.341
Y140.302
Y129.468
X211.806Y129.429
X211.805Y129.389
X211.802Y129.35
X211.799Y129.311
X211.795Y129.272
X211.789Y129.232
X211.783Y129.194
X211.776Y129.155
X211.769Y129.121
X211.767Y129.079
X211.765Y129.036
X211.762Y128.993
X211.757Y128.95
X211.751Y128.908
X211.744Y128.865
X211.736Y128.823
X211.727Y128.781
X211.716Y128.739
X211.707Y128.704
X211.696Y128.67
X211.685Y128.636
X211.673Y128.602
X211.661Y128.568
X211.644Y128.527
X211.626Y128.486
X211.607Y128.446
X211.585Y128.402
X211.569Y128.373
X211.552Y128.343
X211.531Y128.307
X211.508Y128.271
X211.486Y128.239
X211.464Y128.208
X211.441Y128.177
X211.417Y128.147
X211.393Y128.117
X211.367Y128.088
X211.341Y128.059
X211.315Y128.031
X211.287Y128.004
X211.259Y127.978
X211.231Y127.952
X211.202Y127.927
X211.172Y127.902
X211.141Y127.878
X211.11Y127.855
X211.079Y127.833
X211.047Y127.812
X211.014Y127.791
X210.981Y127.771
X210.948Y127.752
X210.913Y127.733
X210.879Y127.716
X210.844Y127.7
X210.809Y127.684
X210.774Y127.669
X210.739Y127.656
X210.703Y127.642
X210.666Y127.63
X210.63Y127.619
X210.593Y127.609
X210.556Y127.599
X210.519Y127.59
X210.482Y127.583
X210.444Y127.576
X210.406Y127.57
X210.368Y127.565
X210.33Y127.561
X210.292Y127.557
X210.254Y127.555
X210.216Y127.554
X210.178Y127.553
X206.241
X205.651Y127.54
X204.907Y127.535
G0Z1
X170.851Y134.502
G1Z-0.4F50
X170.875Y134.471F100
X170.896Y134.446
X170.911Y134.429
X170.929Y134.408
X170.967Y134.367
X170.987Y134.347
X171.007Y134.327
X171.027Y134.308
X171.044Y134.292
X171.069Y134.27
X171.09Y134.253
X171.111Y134.235
X171.133Y134.218
X171.155Y134.201
X171.177Y134.184
X171.2Y134.168
X171.223Y134.152
X171.246Y134.137
X171.27Y134.122
X171.293Y134.107
X171.318Y134.093
X171.342Y134.079
X171.366Y134.066
X171.391Y134.053
X171.416Y134.041
X171.441Y134.029
X171.494Y134.005
X171.518Y133.996
X171.544Y133.985
X171.57Y133.976
X171.596Y133.966
X171.649Y133.949
X171.676Y133.941
X171.703Y133.934
X171.731Y133.926
X171.757Y133.92
X171.784Y133.914
X171.811Y133.909
X171.838Y133.904
X171.894Y133.895
X171.921Y133.891
X171.949Y133.888
X172.004Y133.883
X172.033Y133.881
X172.06Y133.88
X172.088
X172.116Y133.879
X172.144Y133.88
X172.171
X172.227Y133.883
X172.255Y133.885
X172.283Y133.888
X172.31Y133.891
X172.338Y133.895
X172.365Y133.899
X172.393Y133.904
X172.421Y133.909
X172.448Y133.914
X172.475Y133.92
X172.502Y133.927
X172.529Y133.934
X172.556Y133.941
X172.583Y133.949
X172.609Y133.957
X172.636Y133.966
X172.662Y133.976
X172.688Y133.985
X172.714Y133.996
X172.74Y134.006
X172.765Y134.017
X172.791Y134.029
X172.816Y134.041
X172.841Y134.053
X172.865Y134.066
X172.89Y134.079
X172.914Y134.093
X172.938Y134.107
X172.962Y134.122
X172.985Y134.137
X173.009Y134.152
X173.032Y134.168
X173.054Y134.184
X173.077Y134.201
X173.099Y134.218
X173.121Y134.235
X173.142Y134.253
X173.178Y134.284
X173.206Y134.31
X173.225Y134.327
X173.245Y134.347
X173.264Y134.367
X173.284Y134.387
X173.313Y134.42
X173.341Y134.452
X173.357Y134.471
X173.374Y134.493
X173.391Y134.515
X173.408Y134.537
X173.424Y134.56
X173.439Y134.583
X173.455Y134.607
X173.47Y134.63
X173.484Y134.654
X173.499Y134.678
X173.512Y134.702
X173.526Y134.726
X173.538Y134.751
X173.551Y134.776
X173.563Y134.801
X173.575Y134.827
X173.586Y134.852
X173.596Y134.878
X173.616Y134.93
X173.625Y134.956
X173.634Y134.982
X173.643Y135.009
X173.651Y135.036
X173.658Y135.063
X173.665Y135.09
X173.672Y135.117
X173.678Y135.144
X173.683Y135.171
X173.688Y135.199
X173.693Y135.226
X173.697Y135.254
X173.701Y135.281
X173.704Y135.309
X173.706Y135.337
X173.709Y135.365
X173.71Y135.392
X173.712Y135.42
Y135.448
Y135.476
Y135.504
Y135.532
X173.71Y135.559
X173.709Y135.587
X173.706Y135.615
X173.704Y135.643
X173.701Y135.671
X173.697Y135.698
X173.693Y135.726
X173.688Y135.753
X173.683Y135.781
X173.678Y135.808
X173.672Y135.835
X173.665Y135.862
X173.658Y135.889
X173.651Y135.916
X173.643Y135.943
X173.634Y135.969
X173.625Y135.996
X173.616Y136.022
X173.607Y136.048
X173.596Y136.074
X173.586Y136.1
X173.575Y136.125
X173.563Y136.151
X173.551Y136.176
X173.538Y136.201
X173.526Y136.225
X173.512Y136.25
X173.499Y136.274
X173.484Y136.298
X173.47Y136.322
X173.455Y136.345
X173.439Y136.369
X173.424Y136.392
X173.408Y136.414
X173.391Y136.437
X173.374Y136.459
X173.357Y136.481
X173.339Y136.502
X173.321Y136.523
X173.302Y136.544
X173.284Y136.565
X173.264Y136.585
X173.245Y136.605
X173.225Y136.625
X173.205Y136.644
X173.184Y136.662
X173.163Y136.681
X173.142Y136.699
X173.12Y136.717
X173.099Y136.734
X173.077Y136.751
X173.054Y136.768
X173.032Y136.784
X173.009Y136.8
X172.985Y136.815
X172.962Y136.83
X172.938Y136.844
X172.914Y136.859
X172.89Y136.872
X172.865Y136.886
X172.841Y136.899
X172.816Y136.911
X172.791Y136.923
X172.765Y136.935
X172.74Y136.946
X172.714Y136.956
X172.688Y136.967
X172.662Y136.976
X172.636Y136.986
X172.609Y136.994
X172.583Y137.003
X172.556Y137.011
X172.529Y137.018
X172.502Y137.025
X172.475Y137.032
X172.448Y137.038
X172.42Y137.043
X172.393Y137.048
X172.366Y137.053
X172.338Y137.057
X172.31Y137.061
X172.283Y137.064
X172.255Y137.066
X172.227Y137.069
X172.199Y137.07
X172.171Y137.072
X172.144
X172.116Y137.073
X172.088Y137.072
X172.06
X172.032Y137.07
X172.004Y137.069
X171.959Y137.065
X171.919Y137.06
X171.894Y137.057
X171.866Y137.053
X171.838Y137.048
X171.811Y137.043
X171.784Y137.038
X171.757Y137.032
X171.73Y137.025
X171.703Y137.018
X171.649Y137.003
X171.622Y136.994
X171.596Y136.986
X171.57Y136.976
X171.544Y136.967
X171.517Y136.956
X171.492Y136.946
X171.467Y136.935
X171.441Y136.923
X171.416Y136.911
X171.391Y136.899
X171.366Y136.886
X171.342Y136.872
X171.317Y136.859
X171.27Y136.83
X171.246Y136.815
X171.223Y136.8
X171.2Y136.784
X171.177Y136.768
X171.151Y136.748
X171.133Y136.734
X171.111Y136.717
X171.089Y136.699
X171.068Y136.681
X171.048Y136.663
X171.027Y136.644
X171.007Y136.624
X170.987Y136.605
X170.967Y136.585
X170.948Y136.565
X170.929Y136.544
X170.911Y136.523
X170.893Y136.502
X170.875Y136.481
X170.858Y136.459
X170.841Y136.437
X170.824Y136.414
X170.808Y136.392
X170.792Y136.369
X170.777Y136.345
X170.747Y136.298
X170.733Y136.274
X170.722Y136.254
X170.705Y136.224
X170.693Y136.201
X170.681Y136.176
X170.669Y136.151
X170.656Y136.122
X170.646Y136.1
X170.635Y136.074
X170.625Y136.048
X170.616Y136.022
X170.606Y135.996
X170.589Y135.943
X170.581Y135.916
X170.574Y135.889
X170.567Y135.862
X170.56Y135.835
X170.549Y135.781
X170.539Y135.726
X170.535Y135.698
X170.531Y135.671
X170.528Y135.643
X170.525Y135.615
X170.523Y135.587
X170.521Y135.559
X170.519Y135.504
Y135.476
Y135.448
X170.52Y135.421
X170.521Y135.392
X170.523Y135.365
X170.525Y135.337
X170.528Y135.309
X170.531Y135.28
X170.535Y135.254
X170.539Y135.226
X170.543Y135.199
X170.549Y135.171
X170.554Y135.144
X170.56Y135.117
X170.567Y135.09
X170.579Y135.044
X170.59Y135.007
X170.597Y134.982
X170.606Y134.956
X170.616Y134.93
X170.635Y134.878
X170.646Y134.852
X170.657Y134.827
X170.669Y134.801
X170.681Y134.776
X170.693Y134.751
X170.706Y134.726
X170.719Y134.702
X170.733Y134.678
X170.747Y134.654
X170.762Y134.63
X170.777Y134.606
X170.792Y134.583
X170.808Y134.56
X170.824Y134.537
X170.851Y134.502
G0Z1
X185.5Y135.461
G1Z-0.4F50
X185.518Y135.285F100
X185.569Y135.116
X185.652Y134.96
X185.764Y134.823
X185.901Y134.711
X186.057Y134.628
X186.226Y134.577
X186.402Y134.559
X186.577Y134.577
X186.747Y134.628
X186.902Y134.711
X187.039Y134.823
X187.151Y134.96
X187.234Y135.116
X187.286Y135.285
X187.303Y135.461
X187.286Y135.636
X187.234Y135.805
X187.151Y135.961
X187.039Y136.098
X186.902Y136.21
X186.747Y136.293
X186.577Y136.344
X186.402Y136.362
X186.226Y136.344
X186.057Y136.293
X185.901Y136.21
X185.764Y136.098
X185.652Y135.961
X185.569Y135.805
X185.518Y135.636
X185.5Y135.461
G0Z1
X201.404
G1Z-0.4F50
X201.422Y135.285F100
X201.473Y135.116
X201.556Y134.96
X201.668Y134.823
X201.805Y134.711
X201.961Y134.628
X202.13Y134.577
X202.306Y134.559
X202.481Y134.577
X202.65Y134.628
X202.806Y134.711
X202.943Y134.823
X203.055Y134.96
X203.138Y135.116
X203.19Y135.285
X203.207Y135.461
X203.19Y135.636
X203.138Y135.805
X203.055Y135.961
X202.943Y136.098
X202.806Y136.21
X202.65Y136.293
X202.481Y136.344
X202.306Y136.362
X202.13Y136.344
X201.961Y136.293
X201.805Y136.21
X201.668Y136.098
X201.556Y135.961
X201.473Y135.805
X201.422Y135.636
X201.404Y135.461
G0Z1
X204.907Y127.535
G1Z-0.4F50
X178.453F100
X177.799Y127.541
X177.145Y127.557
X176.491Y127.585
X175.838Y127.623
X175.186Y127.672
X174.535Y127.732
X173.885Y127.802
X173.236Y127.884
X172.588Y127.976
X171.942Y128.079
X171.298Y128.193
X170.656Y128.317
X170.532Y128.344
X170.408Y128.372
X170.286Y128.403
X170.163Y128.436
X170.042Y128.471
X169.92Y128.508
X169.8Y128.547
X169.681Y128.588
X169.562Y128.631
X169.443Y128.676
X169.326Y128.724
X169.209Y128.773
X169.094Y128.824
X168.979Y128.878
X168.865Y128.933
X168.752Y128.99
X168.64Y129.05
X168.53Y129.111
X168.42Y129.174
X168.311Y129.239
X168.204Y129.306
X168.098Y129.374
X167.992Y129.445
X167.888Y129.517
X167.786Y129.591
X167.685Y129.667
X167.585Y129.745
X167.486Y129.824
X167.389Y129.905
X167.293Y129.988
X167.199Y130.072
X167.106Y130.159
X167.014Y130.246
X166.925Y130.335
X166.836Y130.426
X166.749Y130.518
X166.665Y130.612
X166.581Y130.707
X166.499Y130.804
X166.399Y130.926
X166.301Y131.05
X166.206Y131.175
X166.112Y131.303
X166.021Y131.431
X165.931Y131.562
X165.844Y131.694
X165.76Y131.827
X165.677Y131.962
X165.597Y132.098
X165.52Y132.235
X165.444Y132.374
X165.371Y132.514
X165.301Y132.655
X165.233Y132.798
X165.167Y132.942
X165.104Y133.087
X165.043Y133.232
X164.985Y133.379
X164.929Y133.527
X164.876Y133.676
X164.826Y133.825
X164.778Y133.976
X164.732Y134.127
X164.69Y134.279
X164.649Y134.432
X164.612Y134.585
X164.577Y134.739
X164.545Y134.894
X164.515Y135.049
X164.488Y135.205
X164.464Y135.361
X164.442Y135.517
X164.423Y135.674
X164.407Y135.831
X164.393Y135.989
X164.382Y136.146
X164.374Y136.304
X164.369Y136.462
X164.366Y136.62
Y136.778
X164.369Y136.936
X164.374Y137.093
X164.382Y137.251
X164.393Y137.409
X164.407Y137.566
X164.423Y137.723
X164.442Y137.88
X164.461Y138.023
X164.881Y140.914
X164.894Y140.989
X164.911Y141.066
X164.926Y141.126
X164.947Y141.201
X164.971Y141.276
X164.997Y141.348
X165.026Y141.42
X165.058Y141.492
X165.092Y141.562
X165.128Y141.63
X165.166Y141.696
X165.194Y141.742
X165.236Y141.806
X165.281Y141.87
X165.327Y141.931
X165.376Y141.991
X165.427Y142.05
X165.48Y142.106
X165.535Y142.161
X165.592Y142.213
X165.651Y142.265
X165.711Y142.313
X165.773Y142.359
X165.836Y142.403
X165.902Y142.446
X165.968Y142.486
X166.035Y142.523
X166.105Y142.558
X166.175Y142.591
X166.246Y142.621
X166.318Y142.648
X166.391Y142.674
X166.466Y142.696
X166.541Y142.716
X166.616Y142.733
X166.692Y142.748
X166.768Y142.76
X166.846Y142.77
X166.923Y142.777
X167Y142.781
X167.078Y142.782
X172.129
X172.245Y142.781
X172.362Y142.778
X172.479Y142.773
X172.596Y142.766
X173.851Y142.676
X175.004Y142.611
X176.157Y142.565
X177.311Y142.537
X178.472Y142.528
X182.025
X182.063Y142.531
X182.101Y142.534
X182.14Y142.535
X182.178
X210.178
X210.217
X210.257Y142.533
X210.297Y142.531
X210.336Y142.527
X210.376Y142.523
X210.415Y142.518
X210.455Y142.511
X210.494Y142.504
X210.533Y142.495
X210.571Y142.486
X210.61Y142.476
X210.648Y142.464
X210.686Y142.452
X210.723Y142.439
X210.76Y142.425
X210.797Y142.41
X210.834Y142.394
X210.87Y142.377
X210.905Y142.359
X210.94Y142.341
X210.975Y142.321
X211.01Y142.3
X211.044Y142.279
X211.078Y142.256
X211.111Y142.233
X211.144Y142.209
X211.175Y142.184
X211.207Y142.158
X211.221Y142.145
X211.251Y142.119
X211.273Y142.098
X211.295Y142.077
X211.323Y142.049
X211.35Y142.02
X211.382Y141.984
X211.413Y141.947
X211.435Y141.919
X211.456Y141.891
X211.477Y141.862
X211.497Y141.833
X211.517Y141.804
X211.536Y141.773
X211.553Y141.745
X211.569Y141.717
X211.584Y141.688
X211.604Y141.65
X211.622Y141.613
X211.635Y141.583
X211.647Y141.554
X211.664Y141.513
X211.672Y141.491
X211.686Y141.451
X211.699Y141.41
X211.711Y141.368
X211.722Y141.326
X211.732Y141.283
X211.74Y141.243
X211.748Y141.202
X211.755Y141.151
X211.762Y141.095
X211.764Y141.061
X211.767Y141.028
X211.768Y140.994
X211.769Y140.944
Y140.712
X211.779Y140.65
X211.79Y140.574
X211.798Y140.495
X211.804Y140.419
X211.807Y140.341
Y140.302
Y129.468
X211.806Y129.429
X211.805Y129.389
X211.802Y129.35
X211.799Y129.311
X211.795Y129.272
X211.789Y129.232
X211.783Y129.194
X211.776Y129.155
X211.769Y129.121
X211.767Y129.079
X211.765Y129.036
X211.762Y128.993
X211.757Y128.95
X211.751Y128.908
X211.744Y128.865
X211.736Y128.823
X211.727Y128.781
X211.716Y128.739
X211.707Y128.704
X211.696Y128.67
X211.685Y128.636
X211.673Y128.602
X211.661Y128.568
X211.644Y128.527
X211.626Y128.486
X211.607Y128.446
X211.585Y128.402
X211.569Y128.373
X211.552Y128.343
X211.531Y128.307
X211.508Y128.271
X211.486Y128.239
X211.464Y128.208
X211.441Y128.177
X211.417Y128.147
X211.393Y128.117
X211.367Y128.088
X211.341Y128.059
X211.315Y128.031
X211.287Y128.004
X211.259Y127.978
X211.231Y127.952
X211.202Y127.927
X211.172Y127.902
X211.141Y127.878
X211.11Y127.855
X211.079Y127.833
X211.047Y127.812
X211.014Y127.791
X210.981Y127.771
X210.948Y127.752
X210.913Y127.733
X210.879Y127.716
X210.844Y127.7
X210.809Y127.684
X210.774Y127.669
X210.739Y127.656
X210.703Y127.642
X210.666Y127.63
X210.63Y127.619
X210.593Y127.609
X210.556Y127.599
X210.519Y127.59
X210.482Y127.583
X210.444Y127.576
X210.406Y127.57
X210.368Y127.565
X210.33Y127.561
X210.292Y127.557
X210.254Y127.555
X210.216Y127.554
X210.178Y127.553
X206.241
X205.651Y127.54
X204.907Y127.535
G0Z1
X170.851Y134.502
G1Z-0.45F50
X170.875Y134.471F100
X170.896Y134.446
X170.911Y134.429
X170.929Y134.408
X170.967Y134.367
X170.987Y134.347
X171.007Y134.327
X171.027Y134.308
X171.044Y134.292
X171.069Y134.27
X171.09Y134.253
X171.111Y134.235
X171.133Y134.218
X171.155Y134.201
X171.177Y134.184
X171.2Y134.168
X171.223Y134.152
X171.246Y134.137
X171.27Y134.122
X171.293Y134.107
X171.318Y134.093
X171.342Y134.079
X171.366Y134.066
X171.391Y134.053
X171.416Y134.041
X171.441Y134.029
X171.494Y134.005
X171.518Y133.996
X171.544Y133.985
X171.57Y133.976
X171.596Y133.966
X171.649Y133.949
X171.676Y133.941
X171.703Y133.934
X171.731Y133.926
X171.757Y133.92
X171.784Y133.914
X171.811Y133.909
X171.838Y133.904
X171.894Y133.895
X171.921Y133.891
X171.949Y133.888
X172.004Y133.883
X172.033Y133.881
X172.06Y133.88
X172.088
X172.116Y133.879
X172.144Y133.88
X172.171
X172.227Y133.883
X172.255Y133.885
X172.283Y133.888
X172.31Y133.891
X172.338Y133.895
X172.365Y133.899
X172.393Y133.904
X172.421Y133.909
X172.448Y133.914
X172.475Y133.92
X172.502Y133.927
X172.529Y133.934
X172.556Y133.941
X172.583Y133.949
X172.609Y133.957
X172.636Y133.966
X172.662Y133.976
X172.688Y133.985
X172.714Y133.996
X172.74Y134.006
X172.765Y134.017
X172.791Y134.029
X172.816Y134.041
X172.841Y134.053
X172.865Y134.066
X172.89Y134.079
X172.914Y134.093
X172.938Y134.107
X172.962Y134.122
X172.985Y134.137
X173.009Y134.152
X173.032Y134.168
X173.054Y134.184
X173.077Y134.201
X173.099Y134.218
X173.121Y134.235
X173.142Y134.253
X173.178Y134.284
X173.206Y134.31
X173.225Y134.327
X173.245Y134.347
X173.264Y134.367
X173.284Y134.387
X173.313Y134.42
X173.341Y134.452
X173.357Y134.471
X173.374Y134.493
X173.391Y134.515
X173.408Y134.537
X173.424Y134.56
X173.439Y134.583
X173.455Y134.607
X173.47Y134.63
X173.484Y134.654
X173.499Y134.678
X173.512Y134.702
X173.526Y134.726
X173.538Y134.751
X173.551Y134.776
X173.563Y134.801
X173.575Y134.827
X173.586Y134.852
X173.596Y134.878
X173.616Y134.93
X173.625Y134.956
X173.634Y134.982
X173.643Y135.009
X173.651Y135.036
X173.658Y135.063
X173.665Y135.09
X173.672Y135.117
X173.678Y135.144
X173.683Y135.171
X173.688Y135.199
X173.693Y135.226
X173.697Y135.254
X173.701Y135.281
X173.704Y135.309
X173.706Y135.337
X173.709Y135.365
X173.71Y135.392
X173.712Y135.42
Y135.448
Y135.476
Y135.504
Y135.532
X173.71Y135.559
X173.709Y135.587
X173.706Y135.615
X173.704Y135.643
X173.701Y135.671
X173.697Y135.698
X173.693Y135.726
X173.688Y135.753
X173.683Y135.781
X173.678Y135.808
X173.672Y135.835
X173.665Y135.862
X173.658Y135.889
X173.651Y135.916
X173.643Y135.943
X173.634Y135.969
X173.625Y135.996
X173.616Y136.022
X173.607Y136.048
X173.596Y136.074
X173.586Y136.1
X173.575Y136.125
X173.563Y136.151
X173.551Y136.176
X173.538Y136.201
X173.526Y136.225
X173.512Y136.25
X173.499Y136.274
X173.484Y136.298
X173.47Y136.322
X173.455Y136.345
X173.439Y136.369
X173.424Y136.392
X173.408Y136.414
X173.391Y136.437
X173.374Y136.459
X173.357Y136.481
X173.339Y136.502
X173.321Y136.523
X173.302Y136.544
X173.284Y136.565
X173.264Y136.585
X173.245Y136.605
X173.225Y136.625
X173.205Y136.644
X173.184Y136.662
X173.163Y136.681
X173.142Y136.699
X173.12Y136.717
X173.099Y136.734
X173.077Y136.751
X173.054Y136.768
X173.032Y136.784
X173.009Y136.8
X172.985Y136.815
X172.962Y136.83
X172.938Y136.844
X172.914Y136.859
X172.89Y136.872
X172.865Y136.886
X172.841Y136.899
X172.816Y136.911
X172.791Y136.923
X172.765Y136.935
X172.74Y136.946
X172.714Y136.956
X172.688Y136.967
X172.662Y136.976
X172.636Y136.986
X172.609Y136.994
X172.583Y137.003
X172.556Y137.011
X172.529Y137.018
X172.502Y137.025
X172.475Y137.032
X172.448Y137.038
X172.42Y137.043
X172.393Y137.048
X172.366Y137.053
X172.338Y137.057
X172.31Y137.061
X172.283Y137.064
X172.255Y137.066
X172.227Y137.069
X172.199Y137.07
X172.171Y137.072
X172.144
X172.116Y137.073
X172.088Y137.072
X172.06
X172.032Y137.07
X172.004Y137.069
X171.959Y137.065
X171.919Y137.06
X171.894Y137.057
X171.866Y137.053
X171.838Y137.048
X171.811Y137.043
X171.784Y137.038
X171.757Y137.032
X171.73Y137.025
X171.703Y137.018
X171.649Y137.003
X171.622Y136.994
X171.596Y136.986
X171.57Y136.976
X171.544Y136.967
X171.517Y136.956
X171.492Y136.946
X171.467Y136.935
X171.441Y136.923
X171.416Y136.911
X171.391Y136.899
X171.366Y136.886
X171.342Y136.872
X171.317Y136.859
X171.27Y136.83
X171.246Y136.815
X171.223Y136.8
X171.2Y136.784
X171.177Y136.768
X171.151Y136.748
X171.133Y136.734
X171.111Y136.717
X171.089Y136.699
X171.068Y136.681
X171.048Y136.663
X171.027Y136.644
X171.007Y136.624
X170.987Y136.605
X170.967Y136.585
X170.948Y136.565
X170.929Y136.544
X170.911Y136.523
