(Created with grbl post processor 2025/02/05 15:51)
G21
(G-code generated with BlenderCAM and NC library)
G17G90
(Tool: D = 3.18 mm  type END flutes 2)
S1000M03
G00 Z1.0

G0X0Y0Z1
X71.184Y113.465
G1Z-0.025F50
X71.207Y113.45F100
X71.231Y113.436
X71.256Y113.422
X71.28Y113.409
X71.305Y113.396
X71.33Y113.384
X71.371Y113.364
X71.408Y113.348
X71.457Y113.328
X71.484Y113.318
X71.51Y113.309
X71.563Y113.292
X71.59Y113.284
X71.616Y113.277
X71.644Y113.27
X71.671Y113.263
X71.698Y113.257
X71.725Y113.251
X71.751Y113.247
X71.781Y113.242
X71.808Y113.238
X71.835Y113.234
X71.863Y113.231
X71.89Y113.228
X71.918Y113.226
X71.946Y113.224
X71.974Y113.223
X72.002Y113.222
X72.03
X72.058
X72.085Y113.223
X72.113Y113.224
X72.141Y113.226
X72.169Y113.228
X72.197Y113.231
X72.224Y113.234
X72.252Y113.238
X72.279Y113.242
X72.307Y113.246
X72.335Y113.251
X72.379Y113.261
X72.418Y113.27
X72.47Y113.284
X72.497Y113.292
X72.523Y113.3
X72.549Y113.309
X72.576Y113.318
X72.602Y113.328
X72.628Y113.338
X72.654Y113.349
X72.679Y113.36
X72.704Y113.372
X72.73Y113.384
X72.755Y113.396
X72.779Y113.409
X72.804Y113.422
X72.828Y113.436
X72.852Y113.45
X72.876Y113.465
X72.899Y113.48
X72.923Y113.495
X72.945Y113.511
X72.968Y113.527
X72.991Y113.544
X73.013Y113.561
X73.034Y113.578
X73.056Y113.596
X73.077Y113.614
X73.098Y113.632
X73.139Y113.67
X73.159Y113.69
X73.178Y113.71
X73.197Y113.73
X73.216Y113.75
X73.235Y113.771
X73.253Y113.792
X73.271Y113.814
X73.288Y113.836
X73.305Y113.858
X73.338Y113.903
X73.353Y113.926
X73.369Y113.949
X73.382Y113.97
X73.399Y113.997
X73.412Y114.02
X73.426Y114.045
X73.44Y114.069
X73.452Y114.094
X73.465Y114.119
X73.477Y114.144
X73.488Y114.169
X73.499Y114.195
X73.51Y114.221
X73.52Y114.247
X73.53Y114.273
X73.539Y114.299
X73.548Y114.325
X73.557Y114.352
X73.565Y114.379
X73.572Y114.405
X73.579Y114.433
X73.591Y114.487
X73.597Y114.514
X73.602Y114.541
X73.607Y114.569
X73.611Y114.597
X73.615Y114.624
X73.618Y114.652
X73.62Y114.68
X73.623Y114.708
X73.624Y114.735
X73.625Y114.763
X73.626Y114.791
Y114.819
Y114.847
X73.625Y114.875
X73.624Y114.902
X73.623Y114.93
X73.62Y114.958
X73.618Y114.986
X73.615Y115.013
X73.611Y115.041
X73.607Y115.069
X73.602Y115.096
X73.597Y115.123
X73.591Y115.151
X73.585Y115.178
X73.579Y115.205
X73.572Y115.232
X73.565Y115.259
X73.557Y115.286
X73.548Y115.312
X73.539Y115.339
X73.53Y115.365
X73.52Y115.391
X73.51Y115.417
X73.499Y115.443
X73.488Y115.468
X73.477Y115.494
X73.465Y115.519
X73.452Y115.543
X73.44Y115.568
X73.426Y115.593
X73.412Y115.617
X73.398Y115.641
X73.384Y115.665
X73.369Y115.688
X73.353Y115.712
X73.338Y115.735
X73.321Y115.757
X73.305Y115.78
X73.288Y115.802
X73.271Y115.823
X73.253Y115.845
X73.235Y115.866
X73.216Y115.887
X73.198Y115.908
X73.178Y115.928
X73.159Y115.948
X73.139Y115.967
X73.119Y115.987
X73.098Y116.005
X73.077Y116.024
X73.056Y116.042
X73.034Y116.06
X73.013Y116.077
X72.991Y116.094
X72.968Y116.11
X72.946Y116.127
X72.923Y116.142
X72.899Y116.158
X72.876Y116.173
X72.852Y116.187
X72.828Y116.201
X72.804Y116.215
X72.779Y116.229
X72.755Y116.241
X72.73Y116.254
X72.705Y116.266
X72.679Y116.277
X72.654Y116.288
X72.628Y116.299
X72.602Y116.309
X72.576Y116.319
X72.55Y116.328
X72.523Y116.337
X72.497Y116.346
X72.47Y116.354
X72.443Y116.361
X72.416Y116.368
X72.389Y116.375
X72.362Y116.38
X72.334Y116.386
X72.307Y116.391
X72.28Y116.396
X72.252Y116.4
X72.224Y116.404
X72.197Y116.407
X72.169Y116.409
X72.141Y116.412
X72.113Y116.413
X72.085Y116.414
X72.058Y116.415
X72.012
X71.972Y116.414
X71.948Y116.413
X71.918Y116.411
X71.891Y116.409
X71.863Y116.407
X71.835Y116.404
X71.78Y116.396
X71.753Y116.391
X71.698Y116.38
X71.671Y116.374
X71.644Y116.368
X71.616Y116.361
X71.59Y116.354
X71.563Y116.346
X71.536Y116.337
X71.51Y116.328
X71.484Y116.319
X71.458Y116.309
X71.406Y116.288
X71.38Y116.277
X71.355Y116.266
X71.333Y116.255
X71.304Y116.241
X71.28Y116.229
X71.256Y116.215
X71.231Y116.201
X71.207Y116.187
X71.184Y116.173
X71.16Y116.158
X71.137Y116.142
X71.114Y116.127
X71.091Y116.11
X71.047Y116.077
X71.025Y116.06
X71.003Y116.042
X70.982Y116.024
X70.961Y116.005
X70.941Y115.987
X70.921Y115.967
X70.901Y115.948
X70.881Y115.928
X70.862Y115.908
X70.843Y115.887
X70.807Y115.845
X70.789Y115.823
X70.772Y115.802
X70.755Y115.78
X70.738Y115.757
X70.722Y115.735
X70.706Y115.712
X70.691Y115.688
X70.676Y115.665
X70.661Y115.641
X70.633Y115.593
X70.62Y115.568
X70.599Y115.527
X70.582Y115.491
X70.571Y115.468
X70.56Y115.443
X70.549Y115.417
X70.539Y115.391
X70.529Y115.365
X70.52Y115.339
X70.511Y115.312
X70.503Y115.286
X70.495Y115.259
X70.488Y115.232
X70.48Y115.205
X70.474Y115.178
X70.468Y115.151
X70.462Y115.123
X70.457Y115.096
X70.453Y115.069
X70.449Y115.041
X70.443Y114.997
X70.439Y114.955
X70.437Y114.93
X70.435Y114.902
X70.434Y114.871
X70.433Y114.819
Y114.791
X70.435Y114.744
X70.437Y114.705
X70.44Y114.676
X70.442Y114.652
X70.445Y114.624
X70.449Y114.597
X70.453Y114.569
X70.457Y114.541
X70.462Y114.514
X70.474Y114.46
X70.48Y114.433
X70.488Y114.405
X70.495Y114.379
X70.511Y114.325
X70.52Y114.299
X70.529Y114.273
X70.539Y114.247
X70.56Y114.195
X70.571Y114.169
X70.583Y114.144
X70.595Y114.119
X70.607Y114.094
X70.62Y114.069
X70.633Y114.045
X70.647Y114.02
X70.661Y113.996
X70.675Y113.974
X70.691Y113.949
X70.706Y113.926
X70.722Y113.903
X70.738Y113.88
X70.755Y113.858
X70.772Y113.836
X70.807Y113.792
X70.825Y113.771
X70.843Y113.75
X70.862Y113.73
X70.881Y113.71
X70.901Y113.69
X70.921Y113.67
X70.941Y113.651
X70.961Y113.632
X70.982Y113.614
X71.004Y113.596
X71.025Y113.578
X71.047Y113.561
X71.069Y113.544
X71.091Y113.527
X71.114Y113.511
X71.137Y113.495
X71.16Y113.48
X71.184Y113.465
G0Z1
X85.414Y114.803
G1Z-0.025F50
X85.432Y114.628F100
X85.483Y114.458
X85.566Y114.303
X85.678Y114.166
X85.815Y114.054
X85.971Y113.971
X86.14Y113.919
X86.316Y113.902
X86.491Y113.919
X86.66Y113.971
X86.816Y114.054
X86.953Y114.166
X87.065Y114.303
X87.148Y114.458
X87.199Y114.628
X87.217Y114.803
X87.199Y114.979
X87.148Y115.148
X87.065Y115.304
X86.953Y115.441
X86.816Y115.553
X86.66Y115.636
X86.491Y115.687
X86.316Y115.705
X86.14Y115.687
X85.971Y115.636
X85.815Y115.553
X85.678Y115.441
X85.566Y115.304
X85.483Y115.148
X85.432Y114.979
X85.414Y114.803
G0Z1
X101.318
G1Z-0.025F50
X101.335Y114.628F100
X101.387Y114.458
X101.47Y114.303
X101.582Y114.166
X101.719Y114.054
X101.875Y113.971
X102.044Y113.919
X102.219Y113.902
X102.395Y113.919
X102.564Y113.971
X102.72Y114.054
X102.857Y114.166
X102.969Y114.303
X103.052Y114.458
X103.103Y114.628
X103.121Y114.803
X103.103Y114.979
X103.052Y115.148
X102.969Y115.304
X102.857Y115.441
X102.72Y115.553
X102.564Y115.636
X102.395Y115.687
X102.219Y115.705
X102.044Y115.687
X101.875Y115.636
X101.719Y115.553
X101.582Y115.441
X101.47Y115.304
X101.387Y115.148
X101.335Y114.979
X101.318Y114.803
G0Z1
X104.821Y106.878
G1Z-0.025F50
X78.367F100
X77.713Y106.883
X77.059Y106.9
X76.405Y106.927
X75.752Y106.966
X75.1Y107.015
X74.449Y107.075
X73.799Y107.145
X73.15Y107.227
X72.502Y107.319
X71.856Y107.422
X71.212Y107.536
X70.569Y107.66
X70.446Y107.687
X70.322Y107.715
X70.2Y107.746
X70.077Y107.779
X69.956Y107.813
X69.835Y107.85
X69.714Y107.889
X69.594Y107.931
X69.475Y107.974
X69.357Y108.019
X69.24Y108.066
X69.123Y108.116
X69.008Y108.167
X68.893Y108.221
X68.779Y108.276
X68.666Y108.333
X68.554Y108.392
X68.444Y108.453
X68.334Y108.517
X68.225Y108.582
X68.118Y108.649
X68.011Y108.717
X67.906Y108.788
X67.802Y108.86
X67.7Y108.934
X67.599Y109.01
X67.498Y109.088
X67.4Y109.167
X67.303Y109.248
X67.207Y109.331
X67.112Y109.415
X67.02Y109.501
X66.928Y109.589
X66.838Y109.678
X66.75Y109.769
X66.663Y109.861
X66.578Y109.955
X66.495Y110.05
X66.413Y110.146
X66.313Y110.268
X66.215Y110.392
X66.12Y110.517
X66.026Y110.645
X65.935Y110.774
X65.845Y110.904
X65.758Y111.036
X65.674Y111.17
X65.591Y111.304
X65.511Y111.441
X65.434Y111.578
X65.358Y111.717
X65.285Y111.857
X65.215Y111.998
X65.147Y112.141
X65.081Y112.285
X65.018Y112.429
X64.957Y112.575
X64.899Y112.722
X64.843Y112.87
X64.79Y113.019
X64.74Y113.168
X64.692Y113.319
X64.646Y113.47
X64.603Y113.622
X64.563Y113.775
X64.526Y113.928
X64.491Y114.082
X64.459Y114.237
X64.429Y114.392
X64.402Y114.548
X64.378Y114.704
X64.356Y114.86
X64.337Y115.017
X64.321Y115.174
X64.307Y115.331
X64.296Y115.489
X64.288Y115.647
X64.283Y115.805
X64.28Y115.963
Y116.12
X64.283Y116.278
X64.288Y116.436
X64.296Y116.594
X64.307Y116.752
X64.32Y116.909
X64.337Y117.066
X64.355Y117.223
X64.375Y117.366
X64.795Y120.257
X64.808Y120.332
X64.825Y120.409
X64.844Y120.484
X64.865Y120.558
X64.89Y120.631
X64.916Y120.704
X64.946Y120.776
X64.977Y120.846
X65.012Y120.916
X65.048Y120.984
X65.087Y121.051
X65.128Y121.117
X65.172Y121.181
X65.218Y121.243
X65.266Y121.305
X65.315Y121.363
X65.367Y121.421
X65.422Y121.477
X65.477Y121.53
X65.535Y121.582
X65.594Y121.631
X65.655Y121.679
X65.719Y121.725
X65.782Y121.767
X65.849Y121.809
X65.915Y121.847
X65.983Y121.883
X66.054Y121.918
X66.124Y121.949
X66.197Y121.978
X66.269Y122.004
X66.343Y122.028
X66.417Y122.049
X66.492Y122.068
X66.568Y122.084
X66.645Y122.098
X66.722Y122.108
X66.797Y122.116
X66.876Y122.122
X66.953Y122.124
X66.992Y122.125
X72.043
X72.159Y122.124
X72.276Y122.121
X72.393Y122.116
X72.51Y122.109
X73.765Y122.018
X74.918Y121.954
X76.071Y121.908
X77.225Y121.88
X78.386Y121.871
X81.939
X81.977Y121.874
X82.015Y121.876
X82.053Y121.878
X82.092
X110.092
X110.131
X110.171Y121.876
X110.211Y121.874
X110.25Y121.87
X110.29Y121.866
X110.329Y121.86
X110.369Y121.854
X110.408Y121.846
X110.447Y121.838
X110.485Y121.829
X110.524Y121.818
X110.562Y121.807
X110.6Y121.795
X110.637Y121.782
X110.674Y121.768
X110.711Y121.753
X110.748Y121.737
X110.784Y121.72
X110.819Y121.702
X110.854Y121.684
X110.889Y121.664
X110.924Y121.643
X110.958Y121.622
X110.992Y121.599
X111.025Y121.576
X111.057Y121.552
X111.089Y121.527
X111.121Y121.501
X111.135Y121.488
X111.165Y121.462
X111.187Y121.441
X111.209Y121.42
X111.237Y121.392
X111.264Y121.362
X111.296Y121.326
X111.327Y121.29
X111.349Y121.262
X111.37Y121.234
X111.391Y121.205
X111.411Y121.176
X111.431Y121.146
X111.45Y121.116
X111.466Y121.088
X111.483Y121.059
X111.498Y121.03
X111.517Y120.993
X111.536Y120.955
X111.549Y120.926
X111.561Y120.896
X111.578Y120.856
X111.586Y120.834
X111.6Y120.794
X111.613Y120.753
X111.625Y120.711
X111.636Y120.669
X111.646Y120.626
X111.654Y120.586
X111.662Y120.545
X111.669Y120.494
X111.676Y120.438
X111.678Y120.404
X111.68Y120.371
X111.682Y120.337
X111.683Y120.287
Y120.055
X111.693Y119.993
X111.704Y119.917
X111.712Y119.838
X111.718Y119.761
X111.72Y119.684
X111.721Y119.645
Y108.811
X111.72Y108.772
X111.719Y108.732
X111.716Y108.693
X111.713Y108.654
X111.709Y108.614
X111.703Y108.575
X111.697Y108.536
X111.69Y108.498
X111.682Y108.464
X111.681Y108.422
X111.679Y108.379
X111.675Y108.336
X111.671Y108.293
X111.665Y108.25
X111.658Y108.208
X111.65Y108.166
X111.641Y108.124
X111.63Y108.082
X111.621Y108.047
X111.61Y108.013
X111.599Y107.979
X111.587Y107.945
X111.575Y107.911
X111.558Y107.87
X111.54Y107.829
X111.521Y107.789
X111.499Y107.745
X111.483Y107.715
X111.466Y107.686
X111.444Y107.65
X111.422Y107.614
X111.4Y107.582
X111.378Y107.551
X111.355Y107.52
X111.331Y107.49
X111.306Y107.46
X111.281Y107.431
X111.255Y107.402
X111.229Y107.374
X111.201Y107.347
X111.173Y107.32
X111.145Y107.295
X111.115Y107.269
X111.086Y107.245
X111.055Y107.221
X111.024Y107.198
X110.993Y107.176
X110.961Y107.155
X110.928Y107.134
X110.895Y107.114
X110.862Y107.095
X110.827Y107.076
X110.793Y107.059
X110.758Y107.043
X110.723Y107.027
X110.688Y107.012
X110.652Y106.998
X110.617Y106.985
X110.58Y106.973
X110.544Y106.962
X110.507Y106.951
X110.47Y106.942
X110.433Y106.933
X110.395Y106.925
X110.358Y106.919
X110.32Y106.913
X110.282Y106.908
X110.244Y106.904
X110.206Y106.9
X110.168Y106.898
X110.13Y106.897
X110.092Y106.896
X106.156
X105.565Y106.883
X104.821Y106.878
G0Z1
X71.184Y113.465
G1Z-0.05F50
X71.207Y113.45F100
X71.231Y113.436
X71.256Y113.422
X71.28Y113.409
X71.305Y113.396
X71.33Y113.384
X71.371Y113.364
X71.408Y113.348
X71.457Y113.328
X71.484Y113.318
X71.51Y113.309
X71.563Y113.292
X71.59Y113.284
X71.616Y113.277
X71.644Y113.27
X71.671Y113.263
X71.698Y113.257
X71.725Y113.251
X71.751Y113.247
X71.781Y113.242
X71.808Y113.238
X71.835Y113.234
X71.863Y113.231
X71.89Y113.228
X71.918Y113.226
X71.946Y113.224
X71.974Y113.223
X72.002Y113.222
X72.03
X72.058
X72.085Y113.223
X72.113Y113.224
X72.141Y113.226
X72.169Y113.228
X72.197Y113.231
X72.224Y113.234
X72.252Y113.238
X72.279Y113.242
X72.307Y113.246
X72.335Y113.251
X72.379Y113.261
X72.418Y113.27
X72.47Y113.284
X72.497Y113.292
X72.523Y113.3
X72.549Y113.309
X72.576Y113.318
X72.602Y113.328
X72.628Y113.338
X72.654Y113.349
X72.679Y113.36
X72.704Y113.372
X72.73Y113.384
X72.755Y113.396
X72.779Y113.409
X72.804Y113.422
X72.828Y113.436
X72.852Y113.45
X72.876Y113.465
X72.899Y113.48
X72.923Y113.495
X72.945Y113.511
X72.968Y113.527
X72.991Y113.544
X73.013Y113.561
X73.034Y113.578
X73.056Y113.596
X73.077Y113.614
X73.098Y113.632
X73.139Y113.67
X73.159Y113.69
X73.178Y113.71
X73.197Y113.73
X73.216Y113.75
X73.235Y113.771
X73.253Y113.792
X73.271Y113.814
X73.288Y113.836
X73.305Y113.858
X73.338Y113.903
X73.353Y113.926
X73.369Y113.949
X73.382Y113.97
X73.399Y113.997
X73.412Y114.02
X73.426Y114.045
X73.44Y114.069
X73.452Y114.094
X73.465Y114.119
X73.477Y114.144
X73.488Y114.169
X73.499Y114.195
X73.51Y114.221
X73.52Y114.247
X73.53Y114.273
X73.539Y114.299
X73.548Y114.325
X73.557Y114.352
X73.565Y114.379
X73.572Y114.405
X73.579Y114.433
X73.591Y114.487
X73.597Y114.514
X73.602Y114.541
X73.607Y114.569
X73.611Y114.597
X73.615Y114.624
X73.618Y114.652
X73.62Y114.68
X73.623Y114.708
X73.624Y114.735
X73.625Y114.763
X73.626Y114.791
Y114.819
Y114.847
X73.625Y114.875
X73.624Y114.902
X73.623Y114.93
X73.62Y114.958
X73.618Y114.986
X73.615Y115.013
X73.611Y115.041
X73.607Y115.069
X73.602Y115.096
X73.597Y115.123
X73.591Y115.151
X73.585Y115.178
X73.579Y115.205
X73.572Y115.232
X73.565Y115.259
X73.557Y115.286
X73.548Y115.312
X73.539Y115.339
X73.53Y115.365
X73.52Y115.391
X73.51Y115.417
X73.499Y115.443
X73.488Y115.468
X73.477Y115.494
X73.465Y115.519
X73.452Y115.543
X73.44Y115.568
X73.426Y115.593
X73.412Y115.617
X73.398Y115.641
X73.384Y115.665
X73.369Y115.688
X73.353Y115.712
X73.338Y115.735
X73.321Y115.757
X73.305Y115.78
X73.288Y115.802
X73.271Y115.823
X73.253Y115.845
X73.235Y115.866
X73.216Y115.887
X73.198Y115.908
X73.178Y115.928
X73.159Y115.948
X73.139Y115.967
X73.119Y115.987
X73.098Y116.005
X73.077Y116.024
X73.056Y116.042
X73.034Y116.06
X73.013Y116.077
X72.991Y116.094
X72.968Y116.11
X72.946Y116.127
X72.923Y116.142
X72.899Y116.158
X72.876Y116.173
X72.852Y116.187
X72.828Y116.201
X72.804Y116.215
X72.779Y116.229
X72.755Y116.241
X72.73Y116.254
X72.705Y116.266
X72.679Y116.277
X72.654Y116.288
X72.628Y116.299
X72.602Y116.309
X72.576Y116.319
X72.55Y116.328
X72.523Y116.337
X72.497Y116.346
X72.47Y116.354
X72.443Y116.361
X72.416Y116.368
X72.389Y116.375
X72.362Y116.38
X72.334Y116.386
X72.307Y116.391
X72.28Y116.396
X72.252Y116.4
X72.224Y116.404
X72.197Y116.407
X72.169Y116.409
X72.141Y116.412
X72.113Y116.413
X72.085Y116.414
X72.058Y116.415
X72.012
X71.972Y116.414
X71.948Y116.413
X71.918Y116.411
X71.891Y116.409
X71.863Y116.407
X71.835Y116.404
X71.78Y116.396
X71.753Y116.391
X71.698Y116.38
X71.671Y116.374
X71.644Y116.368
X71.616Y116.361
X71.59Y116.354
X71.563Y116.346
X71.536Y116.337
X71.51Y116.328
X71.484Y116.319
X71.458Y116.309
X71.406Y116.288
X71.38Y116.277
X71.355Y116.266
X71.333Y116.255
X71.304Y116.241
X71.28Y116.229
X71.256Y116.215
X71.231Y116.201
X71.207Y116.187
X71.184Y116.173
X71.16Y116.158
X71.137Y116.142
X71.114Y116.127
X71.091Y116.11
X71.047Y116.077
X71.025Y116.06
X71.003Y116.042
X70.982Y116.024
X70.961Y116.005
X70.941Y115.987
X70.921Y115.967
X70.901Y115.948
X70.881Y115.928
X70.862Y115.908
X70.843Y115.887
X70.807Y115.845
X70.789Y115.823
X70.772Y115.802
X70.755Y115.78
X70.738Y115.757
X70.722Y115.735
X70.706Y115.712
X70.691Y115.688
X70.676Y115.665
X70.661Y115.641
X70.633Y115.593
X70.62Y115.568
X70.599Y115.527
X70.582Y115.491
X70.571Y115.468
X70.56Y115.443
X70.549Y115.417
X70.539Y115.391
X70.529Y115.365
X70.52Y115.339
X70.511Y115.312
X70.503Y115.286
X70.495Y115.259
X70.488Y115.232
X70.48Y115.205
X70.474Y115.178
X70.468Y115.151
X70.462Y115.123
X70.457Y115.096
X70.453Y115.069
X70.449Y115.041
X70.443Y114.997
X70.439Y114.955
X70.437Y114.93
X70.435Y114.902
X70.434Y114.871
X70.433Y114.819
Y114.791
X70.435Y114.744
X70.437Y114.705
X70.44Y114.676
X70.442Y114.652
X70.445Y114.624
X70.449Y114.597
X70.453Y114.569
X70.457Y114.541
X70.462Y114.514
X70.474Y114.46
X70.48Y114.433
X70.488Y114.405
X70.495Y114.379
X70.511Y114.325
X70.52Y114.299
X70.529Y114.273
X70.539Y114.247
X70.56Y114.195
X70.571Y114.169
X70.583Y114.144
X70.595Y114.119
X70.607Y114.094
X70.62Y114.069
X70.633Y114.045
X70.647Y114.02
X70.661Y113.996
X70.675Y113.974
X70.691Y113.949
X70.706Y113.926
X70.722Y113.903
X70.738Y113.88
X70.755Y113.858
X70.772Y113.836
X70.807Y113.792
X70.825Y113.771
X70.843Y113.75
X70.862Y113.73
X70.881Y113.71
X70.901Y113.69
X70.921Y113.67
X70.941Y113.651
X70.961Y113.632
X70.982Y113.614
X71.004Y113.596
X71.025Y113.578
X71.047Y113.561
X71.069Y113.544
X71.091Y113.527
X71.114Y113.511
X71.137Y113.495
X71.16Y113.48
X71.184Y113.465
G0Z1
X85.414Y114.803
G1Z-0.05F50
X85.432Y114.628F100
X85.483Y114.458
X85.566Y114.303
X85.678Y114.166
X85.815Y114.054
X85.971Y113.971
X86.14Y113.919
X86.316Y113.902
X86.491Y113.919
X86.66Y113.971
X86.816Y114.054
X86.953Y114.166
X87.065Y114.303
X87.148Y114.458
X87.199Y114.628
X87.217Y114.803
X87.199Y114.979
X87.148Y115.148
X87.065Y115.304
X86.953Y115.441
X86.816Y115.553
X86.66Y115.636
X86.491Y115.687
X86.316Y115.705
X86.14Y115.687
X85.971Y115.636
X85.815Y115.553
X85.678Y115.441
X85.566Y115.304
X85.483Y115.148
X85.432Y114.979
X85.414Y114.803
G0Z1
X101.318
G1Z-0.05F50
X101.335Y114.628F100
X101.387Y114.458
X101.47Y114.303
X101.582Y114.166
X101.719Y114.054
X101.875Y113.971
X102.044Y113.919
X102.219Y113.902
X102.395Y113.919
X102.564Y113.971
X102.72Y114.054
X102.857Y114.166
X102.969Y114.303
X103.052Y114.458
X103.103Y114.628
X103.121Y114.803
X103.103Y114.979
X103.052Y115.148
X102.969Y115.304
X102.857Y115.441
X102.72Y115.553
X102.564Y115.636
X102.395Y115.687
X102.219Y115.705
X102.044Y115.687
X101.875Y115.636
X101.719Y115.553
X101.582Y115.441
X101.47Y115.304
X101.387Y115.148
X101.335Y114.979
X101.318Y114.803
G0Z1
X104.821Y106.878
G1Z-0.05F50
X78.367F100
X77.713Y106.883
X77.059Y106.9
X76.405Y106.927
X75.752Y106.966
X75.1Y107.015
X74.449Y107.075
X73.799Y107.145
X73.15Y107.227
X72.502Y107.319
X71.856Y107.422
X71.212Y107.536
X70.569Y107.66
X70.446Y107.687
X70.322Y107.715
X70.2Y107.746
X70.077Y107.779
X69.956Y107.813
X69.835Y107.85
X69.714Y107.889
X69.594Y107.931
X69.475Y107.974
X69.357Y108.019
X69.24Y108.066
X69.123Y108.116
X69.008Y108.167
X68.893Y108.221
X68.779Y108.276
X68.666Y108.333
X68.554Y108.392
X68.444Y108.453
X68.334Y108.517
X68.225Y108.582
X68.118Y108.649
X68.011Y108.717
X67.906Y108.788
X67.802Y108.86
X67.7Y108.934
X67.599Y109.01
X67.498Y109.088
X67.4Y109.167
X67.303Y109.248
X67.207Y109.331
X67.112Y109.415
X67.02Y109.501
X66.928Y109.589
X66.838Y109.678
X66.75Y109.769
X66.663Y109.861
X66.578Y109.955
X66.495Y110.05
X66.413Y110.146
X66.313Y110.268
X66.215Y110.392
X66.12Y110.517
X66.026Y110.645
X65.935Y110.774
X65.845Y110.904
X65.758Y111.036
X65.674Y111.17
X65.591Y111.304
X65.511Y111.441
X65.434Y111.578
X65.358Y111.717
X65.285Y111.857
X65.215Y111.998
X65.147Y112.141
X65.081Y112.285
X65.018Y112.429
X64.957Y112.575
X64.899Y112.722
X64.843Y112.87
X64.79Y113.019
X64.74Y113.168
X64.692Y113.319
X64.646Y113.47
X64.603Y113.622
X64.563Y113.775
X64.526Y113.928
X64.491Y114.082
X64.459Y114.237
X64.429Y114.392
X64.402Y114.548
X64.378Y114.704
X64.356Y114.86
X64.337Y115.017
X64.321Y115.174
X64.307Y115.331
X64.296Y115.489
X64.288Y115.647
X64.283Y115.805
X64.28Y115.963
Y116.12
X64.283Y116.278
X64.288Y116.436
X64.296Y116.594
X64.307Y116.752
X64.32Y116.909
X64.337Y117.066
X64.355Y117.223
X64.375Y117.366
X64.795Y120.257
X64.808Y120.332
X64.825Y120.409
X64.844Y120.484
X64.865Y120.558
X64.89Y120.631
X64.916Y120.704
X64.946Y120.776
X64.977Y120.846
X65.012Y120.916
X65.048Y120.984
X65.087Y121.051
X65.128Y121.117
X65.172Y121.181
X65.218Y121.243
X65.266Y121.305
X65.315Y121.363
X65.367Y121.421
X65.422Y121.477
X65.477Y121.53
X65.535Y121.582
X65.594Y121.631
X65.655Y121.679
X65.719Y121.725
X65.782Y121.767
X65.849Y121.809
X65.915Y121.847
X65.983Y121.883
X66.054Y121.918
X66.124Y121.949
X66.197Y121.978
X66.269Y122.004
X66.343Y122.028
X66.417Y122.049
X66.492Y122.068
X66.568Y122.084
X66.645Y122.098
X66.722Y122.108
X66.797Y122.116
X66.876Y122.122
X66.953Y122.124
X66.992Y122.125
X72.043
X72.159Y122.124
X72.276Y122.121
X72.393Y122.116
X72.51Y122.109
X73.765Y122.018
X74.918Y121.954
X76.071Y121.908
X77.225Y121.88
X78.386Y121.871
X81.939
X81.977Y121.874
X82.015Y121.876
X82.053Y121.878
X82.092
X110.092
X110.131
X110.171Y121.876
X110.211Y121.874
X110.25Y121.87
X110.29Y121.866
X110.329Y121.86
X110.369Y121.854
X110.408Y121.846
X110.447Y121.838
X110.485Y121.829
X110.524Y121.818
X110.562Y121.807
X110.6Y121.795
X110.637Y121.782
X110.674Y121.768
X110.711Y121.753
X110.748Y121.737
X110.784Y121.72
X110.819Y121.702
X110.854Y121.684
X110.889Y121.664
X110.924Y121.643
X110.958Y121.622
X110.992Y121.599
X111.025Y121.576
X111.057Y121.552
X111.089Y121.527
X111.121Y121.501
X111.135Y121.488
X111.165Y121.462
X111.187Y121.441
X111.209Y121.42
X111.237Y121.392
X111.264Y121.362
X111.296Y121.326
X111.327Y121.29
X111.349Y121.262
X111.37Y121.234
X111.391Y121.205
X111.411Y121.176
X111.431Y121.146
X111.45Y121.116
X111.466Y121.088
X111.483Y121.059
X111.498Y121.03
X111.517Y120.993
X111.536Y120.955
X111.549Y120.926
X111.561Y120.896
X111.578Y120.856
X111.586Y120.834
X111.6Y120.794
X111.613Y120.753
X111.625Y120.711
X111.636Y120.669
X111.646Y120.626
X111.654Y120.586
X111.662Y120.545
X111.669Y120.494
X111.676Y120.438
X111.678Y120.404
X111.68Y120.371
X111.682Y120.337
X111.683Y120.287
Y120.055
X111.693Y119.993
X111.704Y119.917
X111.712Y119.838
X111.718Y119.761
X111.72Y119.684
X111.721Y119.645
Y108.811
X111.72Y108.772
X111.719Y108.732
X111.716Y108.693
X111.713Y108.654
X111.709Y108.614
X111.703Y108.575
X111.697Y108.536
X111.69Y108.498
X111.682Y108.464
X111.681Y108.422
X111.679Y108.379
X111.675Y108.336
X111.671Y108.293
X111.665Y108.25
X111.658Y108.208
X111.65Y108.166
X111.641Y108.124
X111.63Y108.082
X111.621Y108.047
X111.61Y108.013
X111.599Y107.979
X111.587Y107.945
X111.575Y107.911
X111.558Y107.87
X111.54Y107.829
X111.521Y107.789
X111.499Y107.745
X111.483Y107.715
X111.466Y107.686
X111.444Y107.65
X111.422Y107.614
X111.4Y107.582
X111.378Y107.551
X111.355Y107.52
X111.331Y107.49
X111.306Y107.46
X111.281Y107.431
X111.255Y107.402
X111.229Y107.374
X111.201Y107.347
X111.173Y107.32
X111.145Y107.295
X111.115Y107.269
X111.086Y107.245
X111.055Y107.221
X111.024Y107.198
X110.993Y107.176
X110.961Y107.155
X110.928Y107.134
X110.895Y107.114
X110.862Y107.095
X110.827Y107.076
X110.793Y107.059
X110.758Y107.043
X110.723Y107.027
X110.688Y107.012
X110.652Y106.998
X110.617Y106.985
X110.58Y106.973
X110.544Y106.962
X110.507Y106.951
X110.47Y106.942
X110.433Y106.933
X110.395Y106.925
X110.358Y106.919
X110.32Y106.913
X110.282Y106.908
X110.244Y106.904
X110.206Y106.9
X110.168Y106.898
X110.13Y106.897
X110.092Y106.896
X106.156
X105.565Y106.883
X104.821Y106.878
G0Z1
X71.184Y113.465
G1Z-0.075F50
X71.207Y113.45F100
X71.231Y113.436
X71.256Y113.422
X71.28Y113.409
X71.305Y113.396
X71.33Y113.384
X71.371Y113.364
X71.408Y113.348
X71.457Y113.328
X71.484Y113.318
X71.51Y113.309
X71.563Y113.292
X71.59Y113.284
X71.616Y113.277
X71.644Y113.27
X71.671Y113.263
X71.698Y113.257
X71.725Y113.251
X71.751Y113.247
X71.781Y113.242
X71.808Y113.238
X71.835Y113.234
X71.863Y113.231
X71.89Y113.228
X71.918Y113.226
X71.946Y113.224
X71.974Y113.223
X72.002Y113.222
X72.03
X72.058
X72.085Y113.223
X72.113Y113.224
X72.141Y113.226
X72.169Y113.228
X72.197Y113.231
X72.224Y113.234
X72.252Y113.238
X72.279Y113.242
X72.307Y113.246
X72.335Y113.251
X72.379Y113.261
X72.418Y113.27
X72.47Y113.284
X72.497Y113.292
X72.523Y113.3
X72.549Y113.309
X72.576Y113.318
X72.602Y113.328
X72.628Y113.338
X72.654Y113.349
X72.679Y113.36
X72.704Y113.372
X72.73Y113.384
X72.755Y113.396
X72.779Y113.409
X72.804Y113.422
X72.828Y113.436
X72.852Y113.45
X72.876Y113.465
X72.899Y113.48
X72.923Y113.495
X72.945Y113.511
X72.968Y113.527
X72.991Y113.544
X73.013Y113.561
X73.034Y113.578
X73.056Y113.596
X73.077Y113.614
X73.098Y113.632
X73.139Y113.67
X73.159Y113.69
X73.178Y113.71
X73.197Y113.73
X73.216Y113.75
X73.235Y113.771
X73.253Y113.792
X73.271Y113.814
X73.288Y113.836
X73.305Y113.858
X73.338Y113.903
X73.353Y113.926
X73.369Y113.949
X73.382Y113.97
X73.399Y113.997
X73.412Y114.02
X73.426Y114.045
X73.44Y114.069
X73.452Y114.094
X73.465Y114.119
X73.477Y114.144
X73.488Y114.169
X73.499Y114.195
X73.51Y114.221
X73.52Y114.247
X73.53Y114.273
X73.539Y114.299
X73.548Y114.325
X73.557Y114.352
X73.565Y114.379
X73.572Y114.405
X73.579Y114.433
X73.591Y114.487
X73.597Y114.514
X73.602Y114.541
X73.607Y114.569
X73.611Y114.597
X73.615Y114.624
X73.618Y114.652
X73.62Y114.68
X73.623Y114.708
X73.624Y114.735
X73.625Y114.763
X73.626Y114.791
Y114.819
Y114.847
X73.625Y114.875
X73.624Y114.902
X73.623Y114.93
X73.62Y114.958
X73.618Y114.986
X73.615Y115.013
X73.611Y115.041
X73.607Y115.069
X73.602Y115.096
X73.597Y115.123
X73.591Y115.151
X73.585Y115.178
X73.579Y115.205
X73.572Y115.232
X73.565Y115.259
X73.557Y115.286
X73.548Y115.312
X73.539Y115.339
X73.53Y115.365
X73.52Y115.391
X73.51Y115.417
X73.499Y115.443
X73.488Y115.468
X73.477Y115.494
X73.465Y115.519
X73.452Y115.543
X73.44Y115.568
X73.426Y115.593
X73.412Y115.617
X73.398Y115.641
X73.384Y115.665
X73.369Y115.688
X73.353Y115.712
X73.338Y115.735
X73.321Y115.757
X73.305Y115.78
X73.288Y115.802
X73.271Y115.823
X73.253Y115.845
X73.235Y115.866
X73.216Y115.887
X73.198Y115.908
X73.178Y115.928
X73.159Y115.948
X73.139Y115.967
X73.119Y115.987
X73.098Y116.005
X73.077Y116.024
X73.056Y116.042
X73.034Y116.06
X73.013Y116.077
X72.991Y116.094
X72.968Y116.11
X72.946Y116.127
X72.923Y116.142
X72.899Y116.158
X72.876Y116.173
X72.852Y116.187
X72.828Y116.201
X72.804Y116.215
X72.779Y116.229
X72.755Y116.241
X72.73Y116.254
X72.705Y116.266
X72.679Y116.277
X72.654Y116.288
X72.628Y116.299
X72.602Y116.309
X72.576Y116.319
X72.55Y116.328
X72.523Y116.337
X72.497Y116.346
X72.47Y116.354
X72.443Y116.361
X72.416Y116.368
X72.389Y116.375
X72.362Y116.38
X72.334Y116.386
X72.307Y116.391
X72.28Y116.396
X72.252Y116.4
X72.224Y116.404
X72.197Y116.407
X72.169Y116.409
X72.141Y116.412
X72.113Y116.413
X72.085Y116.414
X72.058Y116.415
X72.012
X71.972Y116.414
X71.948Y116.413
X71.918Y116.411
X71.891Y116.409
X71.863Y116.407
X71.835Y116.404
X71.78Y116.396
X71.753Y116.391
X71.698Y116.38
X71.671Y116.374
X71.644Y116.368
X71.616Y116.361
X71.59Y116.354
X71.563Y116.346
X71.536Y116.337
X71.51Y116.328
X71.484Y116.319
X71.458Y116.309
X71.406Y116.288
X71.38Y116.277
X71.355Y116.266
X71.333Y116.255
X71.304Y116.241
X71.28Y116.229
X71.256Y116.215
X71.231Y116.201
X71.207Y116.187
X71.184Y116.173
X71.16Y116.158
X71.137Y116.142
X71.114Y116.127
X71.091Y116.11
X71.047Y116.077
X71.025Y116.06
X71.003Y116.042
X70.982Y116.024
X70.961Y116.005
X70.941Y115.987
X70.921Y115.967
X70.901Y115.948
X70.881Y115.928
X70.862Y115.908
X70.843Y115.887
X70.807Y115.845
X70.789Y115.823
X70.772Y115.802
X70.755Y115.78
X70.738Y115.757
X70.722Y115.735
X70.706Y115.712
X70.691Y115.688
X70.676Y115.665
X70.661Y115.641
X70.633Y115.593
X70.62Y115.568
X70.599Y115.527
X70.582Y115.491
X70.571Y115.468
X70.56Y115.443
X70.549Y115.417
X70.539Y115.391
X70.529Y115.365
X70.52Y115.339
X70.511Y115.312
X70.503Y115.286
X70.495Y115.259
X70.488Y115.232
X70.48Y115.205
X70.474Y115.178
X70.468Y115.151
X70.462Y115.123
X70.457Y115.096
X70.453Y115.069
X70.449Y115.041
X70.443Y114.997
X70.439Y114.955
X70.437Y114.93
X70.435Y114.902
X70.434Y114.871
X70.433Y114.819
Y114.791
X70.435Y114.744
X70.437Y114.705
X70.44Y114.676
X70.442Y114.652
X70.445Y114.624
X70.449Y114.597
X70.453Y114.569
X70.457Y114.541
X70.462Y114.514
X70.474Y114.46
X70.48Y114.433
X70.488Y114.405
X70.495Y114.379
X70.511Y114.325
X70.52Y114.299
X70.529Y114.273
X70.539Y114.247
X70.56Y114.195
X70.571Y114.169
X70.583Y114.144
X70.595Y114.119
X70.607Y114.094
X70.62Y114.069
X70.633Y114.045
X70.647Y114.02
X70.661Y113.996
X70.675Y113.974
X70.691Y113.949
X70.706Y113.926
X70.722Y113.903
X70.738Y113.88
X70.755Y113.858
X70.772Y113.836
X70.807Y113.792
X70.825Y113.771
X70.843Y113.75
X70.862Y113.73
X70.881Y113.71
X70.901Y113.69
X70.921Y113.67
X70.941Y113.651
X70.961Y113.632
X70.982Y113.614
X71.004Y113.596
X71.025Y113.578
X71.047Y113.561
X71.069Y113.544
X71.091Y113.527
X71.114Y113.511
X71.137Y113.495
X71.16Y113.48
X71.184Y113.465
G0Z1
X85.414Y114.803
G1Z-0.075F50
X85.432Y114.628F100
X85.483Y114.458
X85.566Y114.303
X85.678Y114.166
X85.815Y114.054
X85.971Y113.971
X86.14Y113.919
X86.316Y113.902
X86.491Y113.919
X86.66Y113.971
X86.816Y114.054
X86.953Y114.166
X87.065Y114.303
X87.148Y114.458
X87.199Y114.628
X87.217Y114.803
X87.199Y114.979
X87.148Y115.148
X87.065Y115.304
X86.953Y115.441
X86.816Y115.553
X86.66Y115.636
X86.491Y115.687
X86.316Y115.705
X86.14Y115.687
X85.971Y115.636
X85.815Y115.553
X85.678Y115.441
X85.566Y115.304
X85.483Y115.148
X85.432Y114.979
X85.414Y114.803
G0Z1
X101.318
G1Z-0.075F50
X101.335Y114.628F100
X101.387Y114.458
X101.47Y114.303
X101.582Y114.166
X101.719Y114.054
X101.875Y113.971
X102.044Y113.919
X102.219Y113.902
X102.395Y113.919
X102.564Y113.971
X102.72Y114.054
X102.857Y114.166
X102.969Y114.303
X103.052Y114.458
X103.103Y114.628
X103.121Y114.803
X103.103Y114.979
X103.052Y115.148
X102.969Y115.304
X102.857Y115.441
X102.72Y115.553
X102.564Y115.636
X102.395Y115.687
X102.219Y115.705
X102.044Y115.687
X101.875Y115.636
X101.719Y115.553
X101.582Y115.441
X101.47Y115.304
X101.387Y115.148
X101.335Y114.979
X101.318Y114.803
G0Z1
X104.821Y106.878
G1Z-0.075F50
X78.367F100
X77.713Y106.883
X77.059Y106.9
X76.405Y106.927
X75.752Y106.966
X75.1Y107.015
X74.449Y107.075
X73.799Y107.145
X73.15Y107.227
X72.502Y107.319
X71.856Y107.422
X71.212Y107.536
X70.569Y107.66
X70.446Y107.687
X70.322Y107.715
X70.2Y107.746
X70.077Y107.779
X69.956Y107.813
X69.835Y107.85
X69.714Y107.889
X69.594Y107.931
X69.475Y107.974
X69.357Y108.019
X69.24Y108.066
X69.123Y108.116
X69.008Y108.167
X68.893Y108.221
X68.779Y108.276
X68.666Y108.333
X68.554Y108.392
X68.444Y108.453
X68.334Y108.517
X68.225Y108.582
X68.118Y108.649
X68.011Y108.717
X67.906Y108.788
X67.802Y108.86
X67.7Y108.934
X67.599Y109.01
X67.498Y109.088
X67.4Y109.167
X67.303Y109.248
X67.207Y109.331
X67.112Y109.415
X67.02Y109.501
X66.928Y109.589
X66.838Y109.678
X66.75Y109.769
X66.663Y109.861
X66.578Y109.955
X66.495Y110.05
X66.413Y110.146
X66.313Y110.268
X66.215Y110.392
X66.12Y110.517
X66.026Y110.645
X65.935Y110.774
X65.845Y110.904
X65.758Y111.036
X65.674Y111.17
X65.591Y111.304
X65.511Y111.441
X65.434Y111.578
X65.358Y111.717
X65.285Y111.857
X65.215Y111.998
X65.147Y112.141
X65.081Y112.285
X65.018Y112.429
X64.957Y112.575
X64.899Y112.722
X64.843Y112.87
X64.79Y113.019
X64.74Y113.168
X64.692Y113.319
X64.646Y113.47
X64.603Y113.622
X64.563Y113.775
X64.526Y113.928
X64.491Y114.082
X64.459Y114.237
X64.429Y114.392
X64.402Y114.548
X64.378Y114.704
X64.356Y114.86
X64.337Y115.017
X64.321Y115.174
X64.307Y115.331
X64.296Y115.489
X64.288Y115.647
X64.283Y115.805
X64.28Y115.963
Y116.12
X64.283Y116.278
X64.288Y116.436
X64.296Y116.594
X64.307Y116.752
X64.32Y116.909
X64.337Y117.066
X64.355Y117.223
X64.375Y117.366
X64.795Y120.257
X64.808Y120.332
X64.825Y120.409
X64.844Y120.484
X64.865Y120.558
X64.89Y120.631
X64.916Y120.704
X64.946Y120.776
X64.977Y120.846
X65.012Y120.916
X65.048Y120.984
X65.087Y121.051
X65.128Y121.117
X65.172Y121.181
X65.218Y121.243
X65.266Y121.305
X65.315Y121.363
X65.367Y121.421
X65.422Y121.477
X65.477Y121.53
X65.535Y121.582
X65.594Y121.631
X65.655Y121.679
X65.719Y121.725
X65.782Y121.767
X65.849Y121.809
X65.915Y121.847
X65.983Y121.883
X66.054Y121.918
X66.124Y121.949
X66.197Y121.978
X66.269Y122.004
X66.343Y122.028
X66.417Y122.049
X66.492Y122.068
X66.568Y122.084
X66.645Y122.098
X66.722Y122.108
X66.797Y122.116
X66.876Y122.122
X66.953Y122.124
X66.992Y122.125
X72.043
X72.159Y122.124
X72.276Y122.121
X72.393Y122.116
X72.51Y122.109
X73.765Y122.018
X74.918Y121.954
X76.071Y121.908
X77.225Y121.88
X78.386Y121.871
X81.939
X81.977Y121.874
X82.015Y121.876
X82.053Y121.878
X82.092
X110.092
X110.131
X110.171Y121.876
X110.211Y121.874
X110.25Y121.87
X110.29Y121.866
X110.329Y121.86
X110.369Y121.854
X110.408Y121.846
X110.447Y121.838
X110.485Y121.829
X110.524Y121.818
X110.562Y121.807
X110.6Y121.795
X110.637Y121.782
X110.674Y121.768
X110.711Y121.753
X110.748Y121.737
X110.784Y121.72
X110.819Y121.702
X110.854Y121.684
X110.889Y121.664
X110.924Y121.643
X110.958Y121.622
X110.992Y121.599
X111.025Y121.576
X111.057Y121.552
X111.089Y121.527
X111.121Y121.501
X111.135Y121.488
X111.165Y121.462
X111.187Y121.441
X111.209Y121.42
X111.237Y121.392
X111.264Y121.362
X111.296Y121.326
X111.327Y121.29
X111.349Y121.262
X111.37Y121.234
X111.391Y121.205
X111.411Y121.176
X111.431Y121.146
X111.45Y121.116
X111.466Y121.088
X111.483Y121.059
X111.498Y121.03
X111.517Y120.993
X111.536Y120.955
X111.549Y120.926
X111.561Y120.896
X111.578Y120.856
X111.586Y120.834
X111.6Y120.794
X111.613Y120.753
X111.625Y120.711
X111.636Y120.669
X111.646Y120.626
X111.654Y120.586
X111.662Y120.545
X111.669Y120.494
X111.676Y120.438
X111.678Y120.404
X111.68Y120.371
X111.682Y120.337
X111.683Y120.287
Y120.055
X111.693Y119.993
X111.704Y119.917
X111.712Y119.838
X111.718Y119.761
X111.72Y119.684
X111.721Y119.645
Y108.811
X111.72Y108.772
X111.719Y108.732
X111.716Y108.693
X111.713Y108.654
X111.709Y108.614
X111.703Y108.575
X111.697Y108.536
X111.69Y108.498
X111.682Y108.464
X111.681Y108.422
X111.679Y108.379
X111.675Y108.336
X111.671Y108.293
X111.665Y108.25
X111.658Y108.208
X111.65Y108.166
X111.641Y108.124
X111.63Y108.082
X111.621Y108.047
X111.61Y108.013
X111.599Y107.979
X111.587Y107.945
X111.575Y107.911
X111.558Y107.87
X111.54Y107.829
X111.521Y107.789
X111.499Y107.745
X111.483Y107.715
X111.466Y107.686
X111.444Y107.65
X111.422Y107.614
X111.4Y107.582
X111.378Y107.551
X111.355Y107.52
X111.331Y107.49
X111.306Y107.46
X111.281Y107.431
X111.255Y107.402
X111.229Y107.374
X111.201Y107.347
X111.173Y107.32
X111.145Y107.295
X111.115Y107.269
X111.086Y107.245
X111.055Y107.221
X111.024Y107.198
X110.993Y107.176
X110.961Y107.155
X110.928Y107.134
X110.895Y107.114
X110.862Y107.095
X110.827Y107.076
X110.793Y107.059
X110.758Y107.043
X110.723Y107.027
X110.688Y107.012
X110.652Y106.998
X110.617Y106.985
X110.58Y106.973
X110.544Y106.962
X110.507Y106.951
X110.47Y106.942
X110.433Y106.933
X110.395Y106.925
X110.358Y106.919
X110.32Y106.913
X110.282Y106.908
X110.244Y106.904
X110.206Y106.9
X110.168Y106.898
X110.13Y106.897
X110.092Y106.896
X106.156
X105.565Y106.883
X104.821Y106.878
G0Z1
X71.184Y113.465
G1Z-0.1F50
X71.207Y113.45F100
X71.231Y113.436
X71.256Y113.422
X71.28Y113.409
X71.305Y113.396
X71.33Y113.384
X71.371Y113.364
X71.408Y113.348
X71.457Y113.328
X71.484Y113.318
X71.51Y113.309
X71.563Y113.292
X71.59Y113.284
X71.616Y113.277
X71.644Y113.27
X71.671Y113.263
X71.698Y113.257
X71.725Y113.251
X71.751Y113.247
X71.781Y113.242
X71.808Y113.238
X71.835Y113.234
X71.863Y113.231
X71.89Y113.228
X71.918Y113.226
X71.946Y113.224
X71.974Y113.223
X72.002Y113.222
X72.03
X72.058
X72.085Y113.223
X72.113Y113.224
X72.141Y113.226
X72.169Y113.228
X72.197Y113.231
X72.224Y113.234
X72.252Y113.238
X72.279Y113.242
X72.307Y113.246
X72.335Y113.251
X72.379Y113.261
X72.418Y113.27
X72.47Y113.284
X72.497Y113.292
X72.523Y113.3
X72.549Y113.309
X72.576Y113.318
X72.602Y113.328
X72.628Y113.338
X72.654Y113.349
X72.679Y113.36
X72.704Y113.372
X72.73Y113.384
X72.755Y113.396
X72.779Y113.409
X72.804Y113.422
X72.828Y113.436
X72.852Y113.45
X72.876Y113.465
X72.899Y113.48
X72.923Y113.495
X72.945Y113.511
X72.968Y113.527
X72.991Y113.544
X73.013Y113.561
X73.034Y113.578
X73.056Y113.596
X73.077Y113.614
X73.098Y113.632
X73.139Y113.67
X73.159Y113.69
X73.178Y113.71
X73.197Y113.73
X73.216Y113.75
X73.235Y113.771
X73.253Y113.792
X73.271Y113.814
X73.288Y113.836
X73.305Y113.858
X73.338Y113.903
X73.353Y113.926
X73.369Y113.949
X73.382Y113.97
X73.399Y113.997
X73.412Y114.02
X73.426Y114.045
X73.44Y114.069
X73.452Y114.094
X73.465Y114.119
X73.477Y114.144
X73.488Y114.169
X73.499Y114.195
X73.51Y114.221
X73.52Y114.247
X73.53Y114.273
X73.539Y114.299
X73.548Y114.325
X73.557Y114.352
X73.565Y114.379
X73.572Y114.405
X73.579Y114.433
X73.591Y114.487
X73.597Y114.514
X73.602Y114.541
X73.607Y114.569
X73.611Y114.597
X73.615Y114.624
X73.618Y114.652
X73.62Y114.68
X73.623Y114.708
X73.624Y114.735
X73.625Y114.763
X73.626Y114.791
Y114.819
Y114.847
X73.625Y114.875
X73.624Y114.902
X73.623Y114.93
X73.62Y114.958
X73.618Y114.986
X73.615Y115.013
X73.611Y115.041
X73.607Y115.069
X73.602Y115.096
X73.597Y115.123
X73.591Y115.151
X73.585Y115.178
X73.579Y115.205
X73.572Y115.232
X73.565Y115.259
X73.557Y115.286
X73.548Y115.312
X73.539Y115.339
X73.53Y115.365
X73.52Y115.391
X73.51Y115.417
X73.499Y115.443
X73.488Y115.468
X73.477Y115.494
X73.465Y115.519
X73.452Y115.543
X73.44Y115.568
X73.426Y115.593
X73.412Y115.617
X73.398Y115.641
X73.384Y115.665
X73.369Y115.688
X73.353Y115.712
X73.338Y115.735
X73.321Y115.757
X73.305Y115.78
X73.288Y115.802
X73.271Y115.823
X73.253Y115.845
X73.235Y115.866
X73.216Y115.887
X73.198Y115.908
X73.178Y115.928
X73.159Y115.948
X73.139Y115.967
X73.119Y115.987
X73.098Y116.005
X73.077Y116.024
X73.056Y116.042
X73.034Y116.06
X73.013Y116.077
X72.991Y116.094
X72.968Y116.11
X72.946Y116.127
X72.923Y116.142
X72.899Y116.158
X72.876Y116.173
X72.852Y116.187
X72.828Y116.201
X72.804Y116.215
X72.779Y116.229
X72.755Y116.241
X72.73Y116.254
X72.705Y116.266
X72.679Y116.277
X72.654Y116.288
X72.628Y116.299
X72.602Y116.309
X72.576Y116.319
X72.55Y116.328
X72.523Y116.337
X72.497Y116.346
X72.47Y116.354
X72.443Y116.361
X72.416Y116.368
X72.389Y116.375
X72.362Y116.38
X72.334Y116.386
X72.307Y116.391
X72.28Y116.396
X72.252Y116.4
X72.224Y116.404
X72.197Y116.407
X72.169Y116.409
X72.141Y116.412
X72.113Y116.413
X72.085Y116.414
X72.058Y116.415
X72.012
X71.972Y116.414
X71.948Y116.413
X71.918Y116.411
X71.891Y116.409
X71.863Y116.407
X71.835Y116.404
X71.78Y116.396
X71.753Y116.391
X71.698Y116.38
X71.671Y116.374
X71.644Y116.368
X71.616Y116.361
X71.59Y116.354
X71.563Y116.346
X71.536Y116.337
X71.51Y116.328
X71.484Y116.319
X71.458Y116.309
X71.406Y116.288
X71.38Y116.277
X71.355Y116.266
X71.333Y116.255
X71.304Y116.241
X71.28Y116.229
X71.256Y116.215
X71.231Y116.201
X71.207Y116.187
X71.184Y116.173
X71.16Y116.158
X71.137Y116.142
X71.114Y116.127
X71.091Y116.11
X71.047Y116.077
X71.025Y116.06
X71.003Y116.042
X70.982Y116.024
X70.961Y116.005
X70.941Y115.987
X70.921Y115.967
X70.901Y115.948
X70.881Y115.928
X70.862Y115.908
X70.843Y115.887
X70.807Y115.845
X70.789Y115.823
X70.772Y115.802
X70.755Y115.78
X70.738Y115.757
X70.722Y115.735
X70.706Y115.712
X70.691Y115.688
X70.676Y115.665
X70.661Y115.641
X70.633Y115.593
X70.62Y115.568
X70.599Y115.527
X70.582Y115.491
X70.571Y115.468
X70.56Y115.443
X70.549Y115.417
X70.539Y115.391
X70.529Y115.365
X70.52Y115.339
X70.511Y115.312
X70.503Y115.286
X70.495Y115.259
X70.488Y115.232
X70.48Y115.205
X70.474Y115.178
X70.468Y115.151
X70.462Y115.123
X70.457Y115.096
X70.453Y115.069
X70.449Y115.041
X70.443Y114.997
X70.439Y114.955
X70.437Y114.93
X70.435Y114.902
X70.434Y114.871
X70.433Y114.819
Y114.791
X70.435Y114.744
X70.437Y114.705
X70.44Y114.676
X70.442Y114.652
X70.445Y114.624
X70.449Y114.597
X70.453Y114.569
X70.457Y114.541
X70.462Y114.514
X70.474Y114.46
X70.48Y114.433
X70.488Y114.405
X70.495Y114.379
X70.511Y114.325
X70.52Y114.299
X70.529Y114.273
X70.539Y114.247
X70.56Y114.195
X70.571Y114.169
X70.583Y114.144
X70.595Y114.119
X70.607Y114.094
X70.62Y114.069
X70.633Y114.045
X70.647Y114.02
X70.661Y113.996
X70.675Y113.974
X70.691Y113.949
X70.706Y113.926
X70.722Y113.903
X70.738Y113.88
X70.755Y113.858
X70.772Y113.836
X70.807Y113.792
X70.825Y113.771
X70.843Y113.75
X70.862Y113.73
X70.881Y113.71
X70.901Y113.69
X70.921Y113.67
X70.941Y113.651
X70.961Y113.632
X70.982Y113.614
X71.004Y113.596
X71.025Y113.578
X71.047Y113.561
X71.069Y113.544
X71.091Y113.527
X71.114Y113.511
X71.137Y113.495
X71.16Y113.48
X71.184Y113.465
G0Z1
X85.414Y114.803
G1Z-0.1F50
X85.432Y114.628F100
X85.483Y114.458
X85.566Y114.303
X85.678Y114.166
X85.815Y114.054
X85.971Y113.971
X86.14Y113.919
X86.316Y113.902
X86.491Y113.919
X86.66Y113.971
X86.816Y114.054
X86.953Y114.166
X87.065Y114.303
X87.148Y114.458
X87.199Y114.628
X87.217Y114.803
X87.199Y114.979
X87.148Y115.148
X87.065Y115.304
X86.953Y115.441
X86.816Y115.553
X86.66Y115.636
X86.491Y115.687
X86.316Y115.705
X86.14Y115.687
X85.971Y115.636
X85.815Y115.553
X85.678Y115.441
X85.566Y115.304
X85.483Y115.148
X85.432Y114.979
X85.414Y114.803
G0Z1
X101.318
G1Z-0.1F50
X101.335Y114.628F100
X101.387Y114.458
X101.47Y114.303
X101.582Y114.166
X101.719Y114.054
X101.875Y113.971
X102.044Y113.919
X102.219Y113.902
X102.395Y113.919
X102.564Y113.971
X102.72Y114.054
X102.857Y114.166
X102.969Y114.303
X103.052Y114.458
X103.103Y114.628
X103.121Y114.803
X103.103Y114.979
X103.052Y115.148
X102.969Y115.304
X102.857Y115.441
X102.72Y115.553
X102.564Y115.636
X102.395Y115.687
X102.219Y115.705
X102.044Y115.687
X101.875Y115.636
X101.719Y115.553
X101.582Y115.441
X101.47Y115.304
X101.387Y115.148
X101.335Y114.979
X101.318Y114.803
G0Z1
X104.821Y106.878
G1Z-0.1F50
X78.367F100
X77.713Y106.883
X77.059Y106.9
X76.405Y106.927
X75.752Y106.966
X75.1Y107.015
X74.449Y107.075
X73.799Y107.145
X73.15Y107.227
X72.502Y107.319
X71.856Y107.422
X71.212Y107.536
X70.569Y107.66
X70.446Y107.687
X70.322Y107.715
X70.2Y107.746
X70.077Y107.779
X69.956Y107.813
X69.835Y107.85
X69.714Y107.889
X69.594Y107.931
X69.475Y107.974
X69.357Y108.019
X69.24Y108.066
X69.123Y108.116
X69.008Y108.167
X68.893Y108.221
X68.779Y108.276
X68.666Y108.333
X68.554Y108.392
X68.444Y108.453
X68.334Y108.517
X68.225Y108.582
X68.118Y108.649
X68.011Y108.717
X67.906Y108.788
X67.802Y108.86
X67.7Y108.934
X67.599Y109.01
X67.498Y109.088
X67.4Y109.167
X67.303Y109.248
X67.207Y109.331
X67.112Y109.415
X67.02Y109.501
X66.928Y109.589
X66.838Y109.678
X66.75Y109.769
X66.663Y109.861
X66.578Y109.955
X66.495Y110.05
X66.413Y110.146
X66.313Y110.268
X66.215Y110.392
X66.12Y110.517
X66.026Y110.645
X65.935Y110.774
X65.845Y110.904
X65.758Y111.036
X65.674Y111.17
X65.591Y111.304
X65.511Y111.441
X65.434Y111.578
X65.358Y111.717
X65.285Y111.857
X65.215Y111.998
X65.147Y112.141
X65.081Y112.285
X65.018Y112.429
X64.957Y112.575
X64.899Y112.722
X64.843Y112.87
X64.79Y113.019
X64.74Y113.168
X64.692Y113.319
X64.646Y113.47
X64.603Y113.622
X64.563Y113.775
X64.526Y113.928
X64.491Y114.082
X64.459Y114.237
X64.429Y114.392
X64.402Y114.548
X64.378Y114.704
X64.356Y114.86
X64.337Y115.017
X64.321Y115.174
X64.307Y115.331
X64.296Y115.489
X64.288Y115.647
X64.283Y115.805
X64.28Y115.963
Y116.12
X64.283Y116.278
X64.288Y116.436
X64.296Y116.594
X64.307Y116.752
X64.32Y116.909
X64.337Y117.066
X64.355Y117.223
X64.375Y117.366
X64.795Y120.257
X64.808Y120.332
X64.825Y120.409
X64.844Y120.484
X64.865Y120.558
X64.89Y120.631
X64.916Y120.704
X64.946Y120.776
X64.977Y120.846
X65.012Y120.916
X65.048Y120.984
X65.087Y121.051
X65.128Y121.117
X65.172Y121.181
X65.218Y121.243
X65.266Y121.305
X65.315Y121.363
X65.367Y121.421
X65.422Y121.477
X65.477Y121.53
X65.535Y121.582
X65.594Y121.631
X65.655Y121.679
X65.719Y121.725
X65.782Y121.767
X65.849Y121.809
X65.915Y121.847
X65.983Y121.883
X66.054Y121.918
X66.124Y121.949
X66.197Y121.978
X66.269Y122.004
X66.343Y122.028
X66.417Y122.049
X66.492Y122.068
X66.568Y122.084
X66.645Y122.098
X66.722Y122.108
X66.797Y122.116
X66.876Y122.122
X66.953Y122.124
X66.992Y122.125
X72.043
X72.159Y122.124
X72.276Y122.121
X72.393Y122.116
X72.51Y122.109
X73.765Y122.018
X74.918Y121.954
X76.071Y121.908
X77.225Y121.88
X78.386Y121.871
X81.939
X81.977Y121.874
X82.015Y121.876
X82.053Y121.878
X82.092
X110.092
X110.131
X110.171Y121.876
X110.211Y121.874
X110.25Y121.87
X110.29Y121.866
X110.329Y121.86
X110.369Y121.854
X110.408Y121.846
X110.447Y121.838
X110.485Y121.829
X110.524Y121.818
X110.562Y121.807
X110.6Y121.795
X110.637Y121.782
X110.674Y121.768
X110.711Y121.753
X110.748Y121.737
X110.784Y121.72
X110.819Y121.702
X110.854Y121.684
X110.889Y121.664
X110.924Y121.643
X110.958Y121.622
X110.992Y121.599
X111.025Y121.576
X111.057Y121.552
X111.089Y121.527
X111.121Y121.501
X111.135Y121.488
X111.165Y121.462
X111.187Y121.441
X111.209Y121.42
X111.237Y121.392
X111.264Y121.362
X111.296Y121.326
X111.327Y121.29
X111.349Y121.262
X111.37Y121.234
X111.391Y121.205
X111.411Y121.176
X111.431Y121.146
X111.45Y121.116
X111.466Y121.088
X111.483Y121.059
X111.498Y121.03
X111.517Y120.993
X111.536Y120.955
X111.549Y120.926
X111.561Y120.896
X111.578Y120.856
X111.586Y120.834
X111.6Y120.794
X111.613Y120.753
X111.625Y120.711
X111.636Y120.669
X111.646Y120.626
X111.654Y120.586
X111.662Y120.545
X111.669Y120.494
X111.676Y120.438
X111.678Y120.404
X111.68Y120.371
X111.682Y120.337
X111.683Y120.287
Y120.055
X111.693Y119.993
X111.704Y119.917
X111.712Y119.838
X111.718Y119.761
X111.72Y119.684
X111.721Y119.645
Y108.811
X111.72Y108.772
X111.719Y108.732
X111.716Y108.693
X111.713Y108.654
X111.709Y108.614
X111.703Y108.575
X111.697Y108.536
X111.69Y108.498
X111.682Y108.464
X111.681Y108.422
X111.679Y108.379
X111.675Y108.336
X111.671Y108.293
X111.665Y108.25
X111.658Y108.208
X111.65Y108.166
X111.641Y108.124
X111.63Y108.082
X111.621Y108.047
X111.61Y108.013
X111.599Y107.979
X111.587Y107.945
X111.575Y107.911
X111.558Y107.87
X111.54Y107.829
X111.521Y107.789
X111.499Y107.745
X111.483Y107.715
X111.466Y107.686
X111.444Y107.65
X111.422Y107.614
X111.4Y107.582
X111.378Y107.551
X111.355Y107.52
X111.331Y107.49
X111.306Y107.46
X111.281Y107.431
X111.255Y107.402
X111.229Y107.374
X111.201Y107.347
X111.173Y107.32
X111.145Y107.295
X111.115Y107.269
X111.086Y107.245
X111.055Y107.221
X111.024Y107.198
X110.993Y107.176
X110.961Y107.155
X110.928Y107.134
X110.895Y107.114
X110.862Y107.095
X110.827Y107.076
X110.793Y107.059
X110.758Y107.043
X110.723Y107.027
X110.688Y107.012
X110.652Y106.998
X110.617Y106.985
X110.58Y106.973
X110.544Y106.962
X110.507Y106.951
X110.47Y106.942
X110.433Y106.933
X110.395Y106.925
X110.358Y106.919
X110.32Y106.913
X110.282Y106.908
X110.244Y106.904
X110.206Y106.9
X110.168Y106.898
X110.13Y106.897
X110.092Y106.896
X106.156
X105.565Y106.883
X104.821Y106.878
G0Z1
X71.184Y113.465
G1Z-0.125F50
X71.207Y113.45F100
X71.231Y113.436
X71.256Y113.422
X71.28Y113.409
X71.305Y113.396
X71.33Y113.384
X71.371Y113.364
X71.408Y113.348
X71.457Y113.328
X71.484Y113.318
X71.51Y113.309
X71.563Y113.292
X71.59Y113.284
X71.616Y113.277
X71.644Y113.27
X71.671Y113.263
X71.698Y113.257
X71.725Y113.251
X71.751Y113.247
X71.781Y113.242
X71.808Y113.238
X71.835Y113.234
X71.863Y113.231
X71.89Y113.228
X71.918Y113.226
X71.946Y113.224
X71.974Y113.223
X72.002Y113.222
X72.03
X72.058
X72.085Y113.223
X72.113Y113.224
X72.141Y113.226
X72.169Y113.228
X72.197Y113.231
X72.224Y113.234
X72.252Y113.238
X72.279Y113.242
X72.307Y113.246
X72.335Y113.251
X72.379Y113.261
X72.418Y113.27
X72.47Y113.284
X72.497Y113.292
X72.523Y113.3
X72.549Y113.309
X72.576Y113.318
X72.602Y113.328
X72.628Y113.338
X72.654Y113.349
X72.679Y113.36
X72.704Y113.372
X72.73Y113.384
X72.755Y113.396
X72.779Y113.409
X72.804Y113.422
X72.828Y113.436
X72.852Y113.45
X72.876Y113.465
X72.899Y113.48
X72.923Y113.495
X72.945Y113.511
X72.968Y113.527
X72.991Y113.544
X73.013Y113.561
X73.034Y113.578
X73.056Y113.596
X73.077Y113.614
X73.098Y113.632
X73.139Y113.67
X73.159Y113.69
X73.178Y113.71
X73.197Y113.73
X73.216Y113.75
X73.235Y113.771
X73.253Y113.792
X73.271Y113.814
X73.288Y113.836
X73.305Y113.858
X73.338Y113.903
X73.353Y113.926
X73.369Y113.949
X73.382Y113.97
X73.399Y113.997
X73.412Y114.02
X73.426Y114.045
X73.44Y114.069
X73.452Y114.094
X73.465Y114.119
X73.477Y114.144
X73.488Y114.169
X73.499Y114.195
X73.51Y114.221
X73.52Y114.247
X73.53Y114.273
X73.539Y114.299
X73.548Y114.325
X73.557Y114.352
X73.565Y114.379
X73.572Y114.405
X73.579Y114.433
X73.591Y114.487
X73.597Y114.514
X73.602Y114.541
X73.607Y114.569
X73.611Y114.597
X73.615Y114.624
X73.618Y114.652
X73.62Y114.68
X73.623Y114.708
X73.624Y114.735
X73.625Y114.763
X73.626Y114.791
Y114.819
Y114.847
X73.625Y114.875
X73.624Y114.902
X73.623Y114.93
X73.62Y114.958
X73.618Y114.986
X73.615Y115.013
X73.611Y115.041
X73.607Y115.069
X73.602Y115.096
X73.597Y115.123
X73.591Y115.151
X73.585Y115.178
X73.579Y115.205
X73.572Y115.232
X73.565Y115.259
X73.557Y115.286
X73.548Y115.312
X73.539Y115.339
X73.53Y115.365
X73.52Y115.391
X73.51Y115.417
X73.499Y115.443
X73.488Y115.468
X73.477Y115.494
X73.465Y115.519
X73.452Y115.543
X73.44Y115.568
X73.426Y115.593
X73.412Y115.617
X73.398Y115.641
X73.384Y115.665
X73.369Y115.688
X73.353Y115.712
X73.338Y115.735
X73.321Y115.757
X73.305Y115.78
X73.288Y115.802
X73.271Y115.823
X73.253Y115.845
X73.235Y115.866
X73.216Y115.887
X73.198Y115.908
X73.178Y115.928
X73.159Y115.948
X73.139Y115.967
X73.119Y115.987
X73.098Y116.005
X73.077Y116.024
X73.056Y116.042
X73.034Y116.06
X73.013Y116.077
X72.991Y116.094
X72.968Y116.11
X72.946Y116.127
X72.923Y116.142
X72.899Y116.158
X72.876Y116.173
X72.852Y116.187
X72.828Y116.201
X72.804Y116.215
X72.779Y116.229
X72.755Y116.241
X72.73Y116.254
X72.705Y116.266
X72.679Y116.277
X72.654Y116.288
X72.628Y116.299
X72.602Y116.309
X72.576Y116.319
X72.55Y116.328
X72.523Y116.337
X72.497Y116.346
X72.47Y116.354
X72.443Y116.361
X72.416Y116.368
X72.389Y116.375
X72.362Y116.38
X72.334Y116.386
X72.307Y116.391
X72.28Y116.396
X72.252Y116.4
X72.224Y116.404
X72.197Y116.407
X72.169Y116.409
X72.141Y116.412
X72.113Y116.413
X72.085Y116.414
X72.058Y116.415
X72.012
X71.972Y116.414
X71.948Y116.413
X71.918Y116.411
X71.891Y116.409
X71.863Y116.407
X71.835Y116.404
X71.78Y116.396
X71.753Y116.391
X71.698Y116.38
X71.671Y116.374
X71.644Y116.368
X71.616Y116.361
X71.59Y116.354
X71.563Y116.346
X71.536Y116.337
X71.51Y116.328
X71.484Y116.319
X71.458Y116.309
X71.406Y116.288
X71.38Y116.277
X71.355Y116.266
X71.333Y116.255
X71.304Y116.241
X71.28Y116.229
X71.256Y116.215
X71.231Y116.201
X71.207Y116.187
X71.184Y116.173
X71.16Y116.158
X71.137Y116.142
X71.114Y116.127
X71.091Y116.11
X71.047Y116.077
X71.025Y116.06
X71.003Y116.042
X70.982Y116.024
X70.961Y116.005
X70.941Y115.987
X70.921Y115.967
X70.901Y115.948
X70.881Y115.928
X70.862Y115.908
X70.843Y115.887
X70.807Y115.845
X70.789Y115.823
X70.772Y115.802
X70.755Y115.78
X70.738Y115.757
X70.722Y115.735
X70.706Y115.712
X70.691Y115.688
X70.676Y115.665
X70.661Y115.641
X70.633Y115.593
X70.62Y115.568
X70.599Y115.527
X70.582Y115.491
X70.571Y115.468
X70.56Y115.443
X70.549Y115.417
X70.539Y115.391
X70.529Y115.365
X70.52Y115.339
X70.511Y115.312
X70.503Y115.286
X70.495Y115.259
X70.488Y115.232
X70.48Y115.205
X70.474Y115.178
X70.468Y115.151
X70.462Y115.123
X70.457Y115.096
X70.453Y115.069
X70.449Y115.041
X70.443Y114.997
X70.439Y114.955
X70.437Y114.93
X70.435Y114.902
X70.434Y114.871
X70.433Y114.819
Y114.791
X70.435Y114.744
X70.437Y114.705
X70.44Y114.676
X70.442Y114.652
X70.445Y114.624
X70.449Y114.597
X70.453Y114.569
X70.457Y114.541
X70.462Y114.514
X70.474Y114.46
X70.48Y114.433
X70.488Y114.405
X70.495Y114.379
X70.511Y114.325
X70.52Y114.299
X70.529Y114.273
X70.539Y114.247
X70.56Y114.195
X70.571Y114.169
X70.583Y114.144
X70.595Y114.119
X70.607Y114.094
X70.62Y114.069
X70.633Y114.045
X70.647Y114.02
X70.661Y113.996
X70.675Y113.974
X70.691Y113.949
X70.706Y113.926
X70.722Y113.903
X70.738Y113.88
X70.755Y113.858
X70.772Y113.836
X70.807Y113.792
X70.825Y113.771
X70.843Y113.75
X70.862Y113.73
X70.881Y113.71
X70.901Y113.69
X70.921Y113.67
X70.941Y113.651
X70.961Y113.632
X70.982Y113.614
X71.004Y113.596
X71.025Y113.578
X71.047Y113.561
X71.069Y113.544
X71.091Y113.527
X71.114Y113.511
X71.137Y113.495
X71.16Y113.48
X71.184Y113.465
G0Z1
X85.414Y114.803
G1Z-0.125F50
X85.432Y114.628F100
X85.483Y114.458
X85.566Y114.303
X85.678Y114.166
X85.815Y114.054
X85.971Y113.971
X86.14Y113.919
X86.316Y113.902
X86.491Y113.919
X86.66Y113.971
X86.816Y114.054
X86.953Y114.166
X87.065Y114.303
X87.148Y114.458
X87.199Y114.628
X87.217Y114.803
X87.199Y114.979
X87.148Y115.148
X87.065Y115.304
X86.953Y115.441
X86.816Y115.553
X86.66Y115.636
X86.491Y115.687
X86.316Y115.705
X86.14Y115.687
X85.971Y115.636
X85.815Y115.553
X85.678Y115.441
X85.566Y115.304
X85.483Y115.148
X85.432Y114.979
X85.414Y114.803
G0Z1
X101.318
G1Z-0.125F50
X101.335Y114.628F100
X101.387Y114.458
X101.47Y114.303
X101.582Y114.166
X101.719Y114.054
X101.875Y113.971
X102.044Y113.919
X102.219Y113.902
X102.395Y113.919
X102.564Y113.971
X102.72Y114.054
X102.857Y114.166
X102.969Y114.303
X103.052Y114.458
X103.103Y114.628
X103.121Y114.803
X103.103Y114.979
X103.052Y115.148
X102.969Y115.304
X102.857Y115.441
X102.72Y115.553
X102.564Y115.636
X102.395Y115.687
X102.219Y115.705
X102.044Y115.687
X101.875Y115.636
X101.719Y115.553
X101.582Y115.441
X101.47Y115.304
X101.387Y115.148
X101.335Y114.979
X101.318Y114.803
G0Z1
X104.821Y106.878
G1Z-0.125F50
X78.367F100
X77.713Y106.883
X77.059Y106.9
X76.405Y106.927
X75.752Y106.966
X75.1Y107.015
X74.449Y107.075
X73.799Y107.145
X73.15Y107.227
X72.502Y107.319
X71.856Y107.422
X71.212Y107.536
X70.569Y107.66
X70.446Y107.687
X70.322Y107.715
X70.2Y107.746
X70.077Y107.779
X69.956Y107.813
X69.835Y107.85
X69.714Y107.889
X69.594Y107.931
X69.475Y107.974
X69.357Y108.019
X69.24Y108.066
X69.123Y108.116
X69.008Y108.167
X68.893Y108.221
X68.779Y108.276
X68.666Y108.333
X68.554Y108.392
X68.444Y108.453
X68.334Y108.517
X68.225Y108.582
X68.118Y108.649
X68.011Y108.717
X67.906Y108.788
X67.802Y108.86
X67.7Y108.934
X67.599Y109.01
X67.498Y109.088
X67.4Y109.167
X67.303Y109.248
X67.207Y109.331
X67.112Y109.415
X67.02Y109.501
X66.928Y109.589
X66.838Y109.678
X66.75Y109.769
X66.663Y109.861
X66.578Y109.955
X66.495Y110.05
X66.413Y110.146
X66.313Y110.268
X66.215Y110.392
X66.12Y110.517
X66.026Y110.645
X65.935Y110.774
X65.845Y110.904
X65.758Y111.036
X65.674Y111.17
X65.591Y111.304
X65.511Y111.441
X65.434Y111.578
X65.358Y111.717
X65.285Y111.857
X65.215Y111.998
X65.147Y112.141
X65.081Y112.285
X65.018Y112.429
X64.957Y112.575
X64.899Y112.722
X64.843Y112.87
X64.79Y113.019
X64.74Y113.168
X64.692Y113.319
X64.646Y113.47
X64.603Y113.622
X64.563Y113.775
X64.526Y113.928
X64.491Y114.082
X64.459Y114.237
X64.429Y114.392
X64.402Y114.548
X64.378Y114.704
X64.356Y114.86
X64.337Y115.017
X64.321Y115.174
X64.307Y115.331
X64.296Y115.489
X64.288Y115.647
X64.283Y115.805
X64.28Y115.963
Y116.12
X64.283Y116.278
X64.288Y116.436
X64.296Y116.594
X64.307Y116.752
X64.32Y116.909
X64.337Y117.066
X64.355Y117.223
X64.375Y117.366
X64.795Y120.257
X64.808Y120.332
X64.825Y120.409
X64.844Y120.484
X64.865Y120.558
X64.89Y120.631
X64.916Y120.704
X64.946Y120.776
X64.977Y120.846
X65.012Y120.916
X65.048Y120.984
X65.087Y121.051
X65.128Y121.117
X65.172Y121.181
X65.218Y121.243
X65.266Y121.305
X65.315Y121.363
X65.367Y121.421
X65.422Y121.477
X65.477Y121.53
X65.535Y121.582
X65.594Y121.631
X65.655Y121.679
X65.719Y121.725
X65.782Y121.767
X65.849Y121.809
X65.915Y121.847
X65.983Y121.883
X66.054Y121.918
X66.124Y121.949
X66.197Y121.978
X66.269Y122.004
X66.343Y122.028
X66.417Y122.049
X66.492Y122.068
X66.568Y122.084
X66.645Y122.098
X66.722Y122.108
X66.797Y122.116
X66.876Y122.122
X66.953Y122.124
X66.992Y122.125
X72.043
X72.159Y122.124
X72.276Y122.121
X72.393Y122.116
X72.51Y122.109
X73.765Y122.018
X74.918Y121.954
X76.071Y121.908
X77.225Y121.88
X78.386Y121.871
X81.939
X81.977Y121.874
X82.015Y121.876
X82.053Y121.878
X82.092
X110.092
X110.131
X110.171Y121.876
X110.211Y121.874
X110.25Y121.87
X110.29Y121.866
X110.329Y121.86
X110.369Y121.854
X110.408Y121.846
X110.447Y121.838
X110.485Y121.829
X110.524Y121.818
X110.562Y121.807
X110.6Y121.795
X110.637Y121.782
X110.674Y121.768
X110.711Y121.753
X110.748Y121.737
X110.784Y121.72
X110.819Y121.702
X110.854Y121.684
X110.889Y121.664
X110.924Y121.643
X110.958Y121.622
X110.992Y121.599
X111.025Y121.576
X111.057Y121.552
X111.089Y121.527
X111.121Y121.501
X111.135Y121.488
X111.165Y121.462
X111.187Y121.441
X111.209Y121.42
X111.237Y121.392
X111.264Y121.362
X111.296Y121.326
X111.327Y121.29
X111.349Y121.262
X111.37Y121.234
X111.391Y121.205
X111.411Y121.176
X111.431Y121.146
X111.45Y121.116
X111.466Y121.088
X111.483Y121.059
X111.498Y121.03
X111.517Y120.993
X111.536Y120.955
X111.549Y120.926
X111.561Y120.896
X111.578Y120.856
X111.586Y120.834
X111.6Y120.794
X111.613Y120.753
X111.625Y120.711
X111.636Y120.669
X111.646Y120.626
X111.654Y120.586
X111.662Y120.545
X111.669Y120.494
X111.676Y120.438
X111.678Y120.404
X111.68Y120.371
X111.682Y120.337
X111.683Y120.287
Y120.055
X111.693Y119.993
X111.704Y119.917
X111.712Y119.838
X111.718Y119.761
X111.72Y119.684
X111.721Y119.645
Y108.811
X111.72Y108.772
X111.719Y108.732
X111.716Y108.693
X111.713Y108.654
X111.709Y108.614
X111.703Y108.575
X111.697Y108.536
X111.69Y108.498
X111.682Y108.464
X111.681Y108.422
X111.679Y108.379
X111.675Y108.336
X111.671Y108.293
X111.665Y108.25
X111.658Y108.208
X111.65Y108.166
X111.641Y108.124
X111.63Y108.082
X111.621Y108.047
X111.61Y108.013
X111.599Y107.979
X111.587Y107.945
X111.575Y107.911
X111.558Y107.87
X111.54Y107.829
X111.521Y107.789
X111.499Y107.745
X111.483Y107.715
X111.466Y107.686
X111.444Y107.65
X111.422Y107.614
X111.4Y107.582
X111.378Y107.551
X111.355Y107.52
X111.331Y107.49
X111.306Y107.46
X111.281Y107.431
X111.255Y107.402
X111.229Y107.374
X111.201Y107.347
X111.173Y107.32
X111.145Y107.295
X111.115Y107.269
X111.086Y107.245
X111.055Y107.221
X111.024Y107.198
X110.993Y107.176
X110.961Y107.155
X110.928Y107.134
X110.895Y107.114
X110.862Y107.095
X110.827Y107.076
X110.793Y107.059
X110.758Y107.043
X110.723Y107.027
X110.688Y107.012
X110.652Y106.998
X110.617Y106.985
X110.58Y106.973
X110.544Y106.962
X110.507Y106.951
X110.47Y106.942
X110.433Y106.933
X110.395Y106.925
X110.358Y106.919
X110.32Y106.913
X110.282Y106.908
X110.244Y106.904
X110.206Y106.9
X110.168Y106.898
X110.13Y106.897
X110.092Y106.896
X106.156
X105.565Y106.883
X104.821Y106.878
G0Z1
X71.184Y113.465
G1Z-0.15F50
X71.207Y113.45F100
X71.231Y113.436
X71.256Y113.422
X71.28Y113.409
X71.305Y113.396
X71.33Y113.384
X71.371Y113.364
X71.408Y113.348
X71.457Y113.328
X71.484Y113.318
X71.51Y113.309
X71.563Y113.292
X71.59Y113.284
X71.616Y113.277
X71.644Y113.27
X71.671Y113.263
X71.698Y113.257
X71.725Y113.251
X71.751Y113.247
X71.781Y113.242
X71.808Y113.238
X71.835Y113.234
X71.863Y113.231
X71.89Y113.228
X71.918Y113.226
X71.946Y113.224
X71.974Y113.223
X72.002Y113.222
X72.03
X72.058
X72.085Y113.223
X72.113Y113.224
X72.141Y113.226
X72.169Y113.228
X72.197Y113.231
X72.224Y113.234
X72.252Y113.238
X72.279Y113.242
X72.307Y113.246
X72.335Y113.251
X72.379Y113.261
X72.418Y113.27
X72.47Y113.284
X72.497Y113.292
X72.523Y113.3
X72.549Y113.309
X72.576Y113.318
X72.602Y113.328
X72.628Y113.338
X72.654Y113.349
X72.679Y113.36
X72.704Y113.372
X72.73Y113.384
X72.755Y113.396
X72.779Y113.409
X72.804Y113.422
X72.828Y113.436
X72.852Y113.45
X72.876Y113.465
X72.899Y113.48
X72.923Y113.495
X72.945Y113.511
X72.968Y113.527
X72.991Y113.544
X73.013Y113.561
X73.034Y113.578
X73.056Y113.596
X73.077Y113.614
X73.098Y113.632
X73.139Y113.67
X73.159Y113.69
X73.178Y113.71
X73.197Y113.73
X73.216Y113.75
X73.235Y113.771
X73.253Y113.792
X73.271Y113.814
X73.288Y113.836
X73.305Y113.858
X73.338Y113.903
X73.353Y113.926
X73.369Y113.949
X73.382Y113.97
X73.399Y113.997
X73.412Y114.02
X73.426Y114.045
X73.44Y114.069
X73.452Y114.094
X73.465Y114.119
X73.477Y114.144
X73.488Y114.169
X73.499Y114.195
X73.51Y114.221
X73.52Y114.247
X73.53Y114.273
X73.539Y114.299
X73.548Y114.325
X73.557Y114.352
X73.565Y114.379
X73.572Y114.405
X73.579Y114.433
X73.591Y114.487
X73.597Y114.514
X73.602Y114.541
X73.607Y114.569
X73.611Y114.597
X73.615Y114.624
X73.618Y114.652
X73.62Y114.68
X73.623Y114.708
X73.624Y114.735
X73.625Y114.763
X73.626Y114.791
Y114.819
Y114.847
X73.625Y114.875
X73.624Y114.902
X73.623Y114.93
X73.62Y114.958
X73.618Y114.986
X73.615Y115.013
X73.611Y115.041
X73.607Y115.069
X73.602Y115.096
X73.597Y115.123
X73.591Y115.151
X73.585Y115.178
X73.579Y115.205
X73.572Y115.232
X73.565Y115.259
X73.557Y115.286
X73.548Y115.312
X73.539Y115.339
X73.53Y115.365
X73.52Y115.391
X73.51Y115.417
X73.499Y115.443
X73.488Y115.468
X73.477Y115.494
X73.465Y115.519
X73.452Y115.543
X73.44Y115.568
X73.426Y115.593
X73.412Y115.617
X73.398Y115.641
X73.384Y115.665
X73.369Y115.688
X73.353Y115.712
X73.338Y115.735
X73.321Y115.757
X73.305Y115.78
X73.288Y115.802
X73.271Y115.823
X73.253Y115.845
X73.235Y115.866
X73.216Y115.887
X73.198Y115.908
X73.178Y115.928
X73.159Y115.948
X73.139Y115.967
X73.119Y115.987
X73.098Y116.005
X73.077Y116.024
X73.056Y116.042
X73.034Y116.06
X73.013Y116.077
X72.991Y116.094
X72.968Y116.11
X72.946Y116.127
X72.923Y116.142
X72.899Y116.158
X72.876Y116.173
X72.852Y116.187
X72.828Y116.201
X72.804Y116.215
X72.779Y116.229
X72.755Y116.241
X72.73Y116.254
X72.705Y116.266
X72.679Y116.277
X72.654Y116.288
X72.628Y116.299
X72.602Y116.309
X72.576Y116.319
X72.55Y116.328
X72.523Y116.337
X72.497Y116.346
X72.47Y116.354
X72.443Y116.361
X72.416Y116.368
X72.389Y116.375
X72.362Y116.38
X72.334Y116.386
X72.307Y116.391
X72.28Y116.396
X72.252Y116.4
X72.224Y116.404
X72.197Y116.407
X72.169Y116.409
X72.141Y116.412
X72.113Y116.413
X72.085Y116.414
X72.058Y116.415
X72.012
X71.972Y116.414
X71.948Y116.413
X71.918Y116.411
X71.891Y116.409
X71.863Y116.407
X71.835Y116.404
X71.78Y116.396
X71.753Y116.391
X71.698Y116.38
X71.671Y116.374
X71.644Y116.368
X71.616Y116.361
X71.59Y116.354
X71.563Y116.346
X71.536Y116.337
X71.51Y116.328
X71.484Y116.319
X71.458Y116.309
X71.406Y116.288
X71.38Y116.277
X71.355Y116.266
X71.333Y116.255
X71.304Y116.241
X71.28Y116.229
X71.256Y116.215
X71.231Y116.201
X71.207Y116.187
X71.184Y116.173
X71.16Y116.158
X71.137Y116.142
X71.114Y116.127
X71.091Y116.11
X71.047Y116.077
X71.025Y116.06
X71.003Y116.042
X70.982Y116.024
X70.961Y116.005
X70.941Y115.987
X70.921Y115.967
X70.901Y115.948
X70.881Y115.928
X70.862Y115.908
X70.843Y115.887
X70.807Y115.845
X70.789Y115.823
X70.772Y115.802
X70.755Y115.78
X70.738Y115.757
X70.722Y115.735
X70.706Y115.712
X70.691Y115.688
X70.676Y115.665
X70.661Y115.641
X70.633Y115.593
X70.62Y115.568
X70.599Y115.527
X70.582Y115.491
X70.571Y115.468
X70.56Y115.443
X70.549Y115.417
X70.539Y115.391
X70.529Y115.365
X70.52Y115.339
X70.511Y115.312
X70.503Y115.286
X70.495Y115.259
X70.488Y115.232
X70.48Y115.205
X70.474Y115.178
X70.468Y115.151
X70.462Y115.123
X70.457Y115.096
X70.453Y115.069
X70.449Y115.041
X70.443Y114.997
X70.439Y114.955
X70.437Y114.93
X70.435Y114.902
X70.434Y114.871
X70.433Y114.819
Y114.791
X70.435Y114.744
X70.437Y114.705
X70.44Y114.676
X70.442Y114.652
X70.445Y114.624
X70.449Y114.597
X70.453Y114.569
X70.457Y114.541
X70.462Y114.514
X70.474Y114.46
X70.48Y114.433
X70.488Y114.405
X70.495Y114.379
X70.511Y114.325
X70.52Y114.299
X70.529Y114.273
X70.539Y114.247
X70.56Y114.195
X70.571Y114.169
X70.583Y114.144
X70.595Y114.119
X70.607Y114.094
X70.62Y114.069
X70.633Y114.045
X70.647Y114.02
X70.661Y113.996
X70.675Y113.974
X70.691Y113.949
X70.706Y113.926
X70.722Y113.903
X70.738Y113.88
X70.755Y113.858
X70.772Y113.836
X70.807Y113.792
X70.825Y113.771
X70.843Y113.75
X70.862Y113.73
X70.881Y113.71
X70.901Y113.69
X70.921Y113.67
X70.941Y113.651
X70.961Y113.632
X70.982Y113.614
X71.004Y113.596
X71.025Y113.578
X71.047Y113.561
X71.069Y113.544
X71.091Y113.527
X71.114Y113.511
X71.137Y113.495
X71.16Y113.48
X71.184Y113.465
G0Z1
X85.414Y114.803
G1Z-0.15F50
X85.432Y114.628F100
X85.483Y114.458
X85.566Y114.303
X85.678Y114.166
X85.815Y114.054
X85.971Y113.971
X86.14Y113.919
X86.316Y113.902
X86.491Y113.919
X86.66Y113.971
X86.816Y114.054
X86.953Y114.166
X87.065Y114.303
X87.148Y114.458
X87.199Y114.628
X87.217Y114.803
X87.199Y114.979
X87.148Y115.148
X87.065Y115.304
X86.953Y115.441
X86.816Y115.553
X86.66Y115.636
X86.491Y115.687
X86.316Y115.705
X86.14Y115.687
X85.971Y115.636
X85.815Y115.553
X85.678Y115.441
X85.566Y115.304
X85.483Y115.148
X85.432Y114.979
X85.414Y114.803
G0Z1
X101.318
G1Z-0.15F50
X101.335Y114.628F100
X101.387Y114.458
X101.47Y114.303
X101.582Y114.166
X101.719Y114.054
X101.875Y113.971
X102.044Y113.919
X102.219Y113.902
X102.395Y113.919
X102.564Y113.971
X102.72Y114.054
X102.857Y114.166
X102.969Y114.303
X103.052Y114.458
X103.103Y114.628
X103.121Y114.803
X103.103Y114.979
X103.052Y115.148
X102.969Y115.304
X102.857Y115.441
X102.72Y115.553
X102.564Y115.636
X102.395Y115.687
X102.219Y115.705
X102.044Y115.687
X101.875Y115.636
X101.719Y115.553
X101.582Y115.441
X101.47Y115.304
X101.387Y115.148
X101.335Y114.979
X101.318Y114.803
G0Z1
X104.821Y106.878
G1Z-0.15F50
X78.367F100
X77.713Y106.883
X77.059Y106.9
X76.405Y106.927
X75.752Y106.966
X75.1Y107.015
X74.449Y107.075
X73.799Y107.145
X73.15Y107.227
X72.502Y107.319
X71.856Y107.422
X71.212Y107.536
X70.569Y107.66
X70.446Y107.687
X70.322Y107.715
X70.2Y107.746
X70.077Y107.779
X69.956Y107.813
X69.835Y107.85
X69.714Y107.889
X69.594Y107.931
X69.475Y107.974
X69.357Y108.019
X69.24Y108.066
X69.123Y108.116
X69.008Y108.167
X68.893Y108.221
X68.779Y108.276
X68.666Y108.333
X68.554Y108.392
X68.444Y108.453
X68.334Y108.517
X68.225Y108.582
X68.118Y108.649
X68.011Y108.717
X67.906Y108.788
X67.802Y108.86
X67.7Y108.934
X67.599Y109.01
X67.498Y109.088
X67.4Y109.167
X67.303Y109.248
X67.207Y109.331
X67.112Y109.415
X67.02Y109.501
X66.928Y109.589
X66.838Y109.678
X66.75Y109.769
X66.663Y109.861
X66.578Y109.955
X66.495Y110.05
X66.413Y110.146
X66.313Y110.268
X66.215Y110.392
X66.12Y110.517
X66.026Y110.645
X65.935Y110.774
X65.845Y110.904
X65.758Y111.036
X65.674Y111.17
X65.591Y111.304
X65.511Y111.441
X65.434Y111.578
X65.358Y111.717
X65.285Y111.857
X65.215Y111.998
X65.147Y112.141
X65.081Y112.285
X65.018Y112.429
X64.957Y112.575
X64.899Y112.722
X64.843Y112.87
X64.79Y113.019
X64.74Y113.168
X64.692Y113.319
X64.646Y113.47
X64.603Y113.622
X64.563Y113.775
X64.526Y113.928
X64.491Y114.082
X64.459Y114.237
X64.429Y114.392
X64.402Y114.548
X64.378Y114.704
X64.356Y114.86
X64.337Y115.017
X64.321Y115.174
X64.307Y115.331
X64.296Y115.489
X64.288Y115.647
X64.283Y115.805
X64.28Y115.963
Y116.12
X64.283Y116.278
X64.288Y116.436
X64.296Y116.594
X64.307Y116.752
X64.32Y116.909
X64.337Y117.066
X64.355Y117.223
X64.375Y117.366
X64.795Y120.257
X64.808Y120.332
X64.825Y120.409
X64.844Y120.484
X64.865Y120.558
X64.89Y120.631
X64.916Y120.704
X64.946Y120.776
X64.977Y120.846
X65.012Y120.916
X65.048Y120.984
X65.087Y121.051
X65.128Y121.117
X65.172Y121.181
X65.218Y121.243
X65.266Y121.305
X65.315Y121.363
X65.367Y121.421
X65.422Y121.477
X65.477Y121.53
X65.535Y121.582
X65.594Y121.631
X65.655Y121.679
X65.719Y121.725
X65.782Y121.767
X65.849Y121.809
X65.915Y121.847
X65.983Y121.883
X66.054Y121.918
X66.124Y121.949
X66.197Y121.978
X66.269Y122.004
X66.343Y122.028
X66.417Y122.049
X66.492Y122.068
X66.568Y122.084
X66.645Y122.098
X66.722Y122.108
X66.797Y122.116
X66.876Y122.122
X66.953Y122.124
X66.992Y122.125
X72.043
X72.159Y122.124
X72.276Y122.121
X72.393Y122.116
X72.51Y122.109
X73.765Y122.018
X74.918Y121.954
X76.071Y121.908
X77.225Y121.88
X78.386Y121.871
X81.939
X81.977Y121.874
X82.015Y121.876
X82.053Y121.878
X82.092
X110.092
X110.131
X110.171Y121.876
X110.211Y121.874
X110.25Y121.87
X110.29Y121.866
X110.329Y121.86
X110.369Y121.854
X110.408Y121.846
X110.447Y121.838
X110.485Y121.829
X110.524Y121.818
X110.562Y121.807
X110.6Y121.795
X110.637Y121.782
X110.674Y121.768
X110.711Y121.753
X110.748Y121.737
X110.784Y121.72
X110.819Y121.702
X110.854Y121.684
X110.889Y121.664
X110.924Y121.643
X110.958Y121.622
X110.992Y121.599
X111.025Y121.576
X111.057Y121.552
X111.089Y121.527
X111.121Y121.501
X111.135Y121.488
X111.165Y121.462
X111.187Y121.441
X111.209Y121.42
X111.237Y121.392
X111.264Y121.362
X111.296Y121.326
X111.327Y121.29
X111.349Y121.262
X111.37Y121.234
X111.391Y121.205
X111.411Y121.176
X111.431Y121.146
X111.45Y121.116
X111.466Y121.088
X111.483Y121.059
X111.498Y121.03
X111.517Y120.993
X111.536Y120.955
X111.549Y120.926
X111.561Y120.896
X111.578Y120.856
X111.586Y120.834
X111.6Y120.794
X111.613Y120.753
X111.625Y120.711
X111.636Y120.669
X111.646Y120.626
X111.654Y120.586
X111.662Y120.545
X111.669Y120.494
X111.676Y120.438
X111.678Y120.404
X111.68Y120.371
X111.682Y120.337
X111.683Y120.287
Y120.055
X111.693Y119.993
X111.704Y119.917
X111.712Y119.838
X111.718Y119.761
X111.72Y119.684
X111.721Y119.645
Y108.811
X111.72Y108.772
X111.719Y108.732
X111.716Y108.693
X111.713Y108.654
X111.709Y108.614
X111.703Y108.575
X111.697Y108.536
X111.69Y108.498
X111.682Y108.464
X111.681Y108.422
X111.679Y108.379
X111.675Y108.336
X111.671Y108.293
X111.665Y108.25
X111.658Y108.208
X111.65Y108.166
X111.641Y108.124
X111.63Y108.082
X111.621Y108.047
X111.61Y108.013
X111.599Y107.979
X111.587Y107.945
X111.575Y107.911
X111.558Y107.87
X111.54Y107.829
X111.521Y107.789
X111.499Y107.745
X111.483Y107.715
X111.466Y107.686
X111.444Y107.65
X111.422Y107.614
X111.4Y107.582
X111.378Y107.551
X111.355Y107.52
X111.331Y107.49
X111.306Y107.46
X111.281Y107.431
X111.255Y107.402
X111.229Y107.374
X111.201Y107.347
X111.173Y107.32
X111.145Y107.295
X111.115Y107.269
X111.086Y107.245
X111.055Y107.221
X111.024Y107.198
X110.993Y107.176
X110.961Y107.155
X110.928Y107.134
X110.895Y107.114
X110.862Y107.095
X110.827Y107.076
X110.793Y107.059
X110.758Y107.043
X110.723Y107.027
X110.688Y107.012
X110.652Y106.998
X110.617Y106.985
X110.58Y106.973
X110.544Y106.962
X110.507Y106.951
X110.47Y106.942
X110.433Y106.933
X110.395Y106.925
X110.358Y106.919
X110.32Y106.913
X110.282Y106.908
X110.244Y106.904
X110.206Y106.9
X110.168Y106.898
X110.13Y106.897
X110.092Y106.896
X106.156
X105.565Y106.883
X104.821Y106.878
G0Z1
X71.184Y113.465
G1Z-0.175F50
X71.207Y113.45F100
X71.231Y113.436
X71.256Y113.422
X71.28Y113.409
X71.305Y113.396
X71.33Y113.384
X71.371Y113.364
X71.408Y113.348
X71.457Y113.328
X71.484Y113.318
X71.51Y113.309
X71.563Y113.292
X71.59Y113.284
X71.616Y113.277
X71.644Y113.27
X71.671Y113.263
X71.698Y113.257
X71.725Y113.251
X71.751Y113.247
X71.781Y113.242
X71.808Y113.238
X71.835Y113.234
X71.863Y113.231
X71.89Y113.228
X71.918Y113.226
X71.946Y113.224
X71.974Y113.223
X72.002Y113.222
X72.03
X72.058
X72.085Y113.223
X72.113Y113.224
X72.141Y113.226
X72.169Y113.228
X72.197Y113.231
X72.224Y113.234
X72.252Y113.238
X72.279Y113.242
X72.307Y113.246
X72.335Y113.251
X72.379Y113.261
X72.418Y113.27
X72.47Y113.284
X72.497Y113.292
X72.523Y113.3
X72.549Y113.309
X72.576Y113.318
X72.602Y113.328
X72.628Y113.338
X72.654Y113.349
X72.679Y113.36
X72.704Y113.372
X72.73Y113.384
X72.755Y113.396
X72.779Y113.409
X72.804Y113.422
X72.828Y113.436
X72.852Y113.45
X72.876Y113.465
X72.899Y113.48
X72.923Y113.495
X72.945Y113.511
X72.968Y113.527
X72.991Y113.544
X73.013Y113.561
X73.034Y113.578
X73.056Y113.596
X73.077Y113.614
X73.098Y113.632
X73.139Y113.67
X73.159Y113.69
X73.178Y113.71
X73.197Y113.73
X73.216Y113.75
X73.235Y113.771
X73.253Y113.792
X73.271Y113.814
X73.288Y113.836
X73.305Y113.858
X73.338Y113.903
X73.353Y113.926
X73.369Y113.949
X73.382Y113.97
X73.399Y113.997
X73.412Y114.02
X73.426Y114.045
X73.44Y114.069
X73.452Y114.094
X73.465Y114.119
X73.477Y114.144
X73.488Y114.169
X73.499Y114.195
X73.51Y114.221
X73.52Y114.247
X73.53Y114.273
X73.539Y114.299
X73.548Y114.325
X73.557Y114.352
X73.565Y114.379
X73.572Y114.405
X73.579Y114.433
X73.591Y114.487
X73.597Y114.514
X73.602Y114.541
X73.607Y114.569
X73.611Y114.597
X73.615Y114.624
X73.618Y114.652
X73.62Y114.68
X73.623Y114.708
X73.624Y114.735
X73.625Y114.763
X73.626Y114.791
Y114.819
Y114.847
X73.625Y114.875
X73.624Y114.902
X73.623Y114.93
X73.62Y114.958
X73.618Y114.986
X73.615Y115.013
X73.611Y115.041
X73.607Y115.069
X73.602Y115.096
X73.597Y115.123
X73.591Y115.151
X73.585Y115.178
X73.579Y115.205
X73.572Y115.232
X73.565Y115.259
X73.557Y115.286
X73.548Y115.312
X73.539Y115.339
X73.53Y115.365
X73.52Y115.391
X73.51Y115.417
X73.499Y115.443
X73.488Y115.468
X73.477Y115.494
X73.465Y115.519
X73.452Y115.543
X73.44Y115.568
X73.426Y115.593
X73.412Y115.617
X73.398Y115.641
X73.384Y115.665
X73.369Y115.688
X73.353Y115.712
X73.338Y115.735
X73.321Y115.757
X73.305Y115.78
X73.288Y115.802
X73.271Y115.823
X73.253Y115.845
X73.235Y115.866
X73.216Y115.887
X73.198Y115.908
X73.178Y115.928
X73.159Y115.948
X73.139Y115.967
X73.119Y115.987
X73.098Y116.005
X73.077Y116.024
X73.056Y116.042
X73.034Y116.06
X73.013Y116.077
X72.991Y116.094
X72.968Y116.11
X72.946Y116.127
X72.923Y116.142
X72.899Y116.158
X72.876Y116.173
X72.852Y116.187
X72.828Y116.201
X72.804Y116.215
X72.779Y116.229
X72.755Y116.241
X72.73Y116.254
X72.705Y116.266
X72.679Y116.277
X72.654Y116.288
X72.628Y116.299
X72.602Y116.309
X72.576Y116.319
X72.55Y116.328
X72.523Y116.337
X72.497Y116.346
X72.47Y116.354
X72.443Y116.361
X72.416Y116.368
X72.389Y116.375
X72.362Y116.38
X72.334Y116.386
X72.307Y116.391
X72.28Y116.396
X72.252Y116.4
X72.224Y116.404
X72.197Y116.407
X72.169Y116.409
X72.141Y116.412
X72.113Y116.413
X72.085Y116.414
X72.058Y116.415
X72.012
X71.972Y116.414
X71.948Y116.413
X71.918Y116.411
X71.891Y116.409
X71.863Y116.407
X71.835Y116.404
X71.78Y116.396
X71.753Y116.391
X71.698Y116.38
X71.671Y116.374
X71.644Y116.368
X71.616Y116.361
X71.59Y116.354
X71.563Y116.346
X71.536Y116.337
X71.51Y116.328
X71.484Y116.319
X71.458Y116.309
X71.406Y116.288
X71.38Y116.277
X71.355Y116.266
X71.333Y116.255
X71.304Y116.241
X71.28Y116.229
X71.256Y116.215
X71.231Y116.201
X71.207Y116.187
X71.184Y116.173
X71.16Y116.158
X71.137Y116.142
X71.114Y116.127
X71.091Y116.11
X71.047Y116.077
X71.025Y116.06
X71.003Y116.042
X70.982Y116.024
X70.961Y116.005
X70.941Y115.987
X70.921Y115.967
X70.901Y115.948
X70.881Y115.928
X70.862Y115.908
X70.843Y115.887
X70.807Y115.845
X70.789Y115.823
X70.772Y115.802
X70.755Y115.78
X70.738Y115.757
X70.722Y115.735
X70.706Y115.712
X70.691Y115.688
X70.676Y115.665
X70.661Y115.641
X70.633Y115.593
X70.62Y115.568
X70.599Y115.527
X70.582Y115.491
X70.571Y115.468
X70.56Y115.443
X70.549Y115.417
X70.539Y115.391
X70.529Y115.365
X70.52Y115.339
X70.511Y115.312
X70.503Y115.286
X70.495Y115.259
X70.488Y115.232
X70.48Y115.205
X70.474Y115.178
X70.468Y115.151
X70.462Y115.123
X70.457Y115.096
X70.453Y115.069
X70.449Y115.041
X70.443Y114.997
X70.439Y114.955
X70.437Y114.93
X70.435Y114.902
X70.434Y114.871
X70.433Y114.819
Y114.791
X70.435Y114.744
X70.437Y114.705
X70.44Y114.676
X70.442Y114.652
X70.445Y114.624
X70.449Y114.597
X70.453Y114.569
X70.457Y114.541
X70.462Y114.514
X70.474Y114.46
X70.48Y114.433
X70.488Y114.405
X70.495Y114.379
X70.511Y114.325
X70.52Y114.299
X70.529Y114.273
X70.539Y114.247
X70.56Y114.195
X70.571Y114.169
X70.583Y114.144
X70.595Y114.119
X70.607Y114.094
X70.62Y114.069
X70.633Y114.045
X70.647Y114.02
X70.661Y113.996
X70.675Y113.974
X70.691Y113.949
X70.706Y113.926
X70.722Y113.903
X70.738Y113.88
X70.755Y113.858
X70.772Y113.836
X70.807Y113.792
X70.825Y113.771
X70.843Y113.75
X70.862Y113.73
X70.881Y113.71
X70.901Y113.69
X70.921Y113.67
X70.941Y113.651
X70.961Y113.632
X70.982Y113.614
X71.004Y113.596
X71.025Y113.578
X71.047Y113.561
X71.069Y113.544
X71.091Y113.527
X71.114Y113.511
X71.137Y113.495
X71.16Y113.48
X71.184Y113.465
G0Z1
X85.414Y114.803
G1Z-0.175F50
X85.432Y114.628F100
X85.483Y114.458
X85.566Y114.303
X85.678Y114.166
X85.815Y114.054
X85.971Y113.971
X86.14Y113.919
X86.316Y113.902
X86.491Y113.919
X86.66Y113.971
X86.816Y114.054
X86.953Y114.166
X87.065Y114.303
X87.148Y114.458
X87.199Y114.628
X87.217Y114.803
X87.199Y114.979
X87.148Y115.148
X87.065Y115.304
X86.953Y115.441
X86.816Y115.553
X86.66Y115.636
X86.491Y115.687
X86.316Y115.705
X86.14Y115.687
X85.971Y115.636
X85.815Y115.553
X85.678Y115.441
X85.566Y115.304
X85.483Y115.148
X85.432Y114.979
X85.414Y114.803
G0Z1
X101.318
G1Z-0.175F50
X101.335Y114.628F100
X101.387Y114.458
X101.47Y114.303
X101.582Y114.166
X101.719Y114.054
X101.875Y113.971
X102.044Y113.919
X102.219Y113.902
X102.395Y113.919
X102.564Y113.971
X102.72Y114.054
X102.857Y114.166
X102.969Y114.303
X103.052Y114.458
X103.103Y114.628
X103.121Y114.803
X103.103Y114.979
X103.052Y115.148
X102.969Y115.304
X102.857Y115.441
X102.72Y115.553
X102.564Y115.636
X102.395Y115.687
X102.219Y115.705
X102.044Y115.687
X101.875Y115.636
X101.719Y115.553
X101.582Y115.441
X101.47Y115.304
X101.387Y115.148
X101.335Y114.979
X101.318Y114.803
G0Z1
X104.821Y106.878
G1Z-0.175F50
X78.367F100
X77.713Y106.883
X77.059Y106.9
X76.405Y106.927
X75.752Y106.966
X75.1Y107.015
X74.449Y107.075
X73.799Y107.145
X73.15Y107.227
X72.502Y107.319
X71.856Y107.422
X71.212Y107.536
X70.569Y107.66
X70.446Y107.687
X70.322Y107.715
X70.2Y107.746
X70.077Y107.779
X69.956Y107.813
X69.835Y107.85
X69.714Y107.889
X69.594Y107.931
X69.475Y107.974
X69.357Y108.019
X69.24Y108.066
X69.123Y108.116
X69.008Y108.167
X68.893Y108.221
X68.779Y108.276
X68.666Y108.333
X68.554Y108.392
X68.444Y108.453
X68.334Y108.517
X68.225Y108.582
X68.118Y108.649
X68.011Y108.717
X67.906Y108.788
X67.802Y108.86
X67.7Y108.934
X67.599Y109.01
X67.498Y109.088
X67.4Y109.167
X67.303Y109.248
X67.207Y109.331
X67.112Y109.415
X67.02Y109.501
X66.928Y109.589
X66.838Y109.678
X66.75Y109.769
X66.663Y109.861
X66.578Y109.955
X66.495Y110.05
X66.413Y110.146
X66.313Y110.268
X66.215Y110.392
X66.12Y110.517
X66.026Y110.645
X65.935Y110.774
X65.845Y110.904
X65.758Y111.036
X65.674Y111.17
X65.591Y111.304
X65.511Y111.441
X65.434Y111.578
X65.358Y111.717
X65.285Y111.857
X65.215Y111.998
X65.147Y112.141
X65.081Y112.285
X65.018Y112.429
X64.957Y112.575
X64.899Y112.722
X64.843Y112.87
X64.79Y113.019
X64.74Y113.168
X64.692Y113.319
X64.646Y113.47
X64.603Y113.622
X64.563Y113.775
X64.526Y113.928
X64.491Y114.082
X64.459Y114.237
X64.429Y114.392
X64.402Y114.548
X64.378Y114.704
X64.356Y114.86
X64.337Y115.017
X64.321Y115.174
X64.307Y115.331
X64.296Y115.489
X64.288Y115.647
X64.283Y115.805
X64.28Y115.963
Y116.12
X64.283Y116.278
X64.288Y116.436
X64.296Y116.594
X64.307Y116.752
X64.32Y116.909
X64.337Y117.066
X64.355Y117.223
X64.375Y117.366
X64.795Y120.257
X64.808Y120.332
X64.825Y120.409
X64.844Y120.484
X64.865Y120.558
X64.89Y120.631
X64.916Y120.704
X64.946Y120.776
X64.977Y120.846
X65.012Y120.916
X65.048Y120.984
X65.087Y121.051
X65.128Y121.117
X65.172Y121.181
X65.218Y121.243
X65.266Y121.305
X65.315Y121.363
X65.367Y121.421
X65.422Y121.477
X65.477Y121.53
X65.535Y121.582
X65.594Y121.631
X65.655Y121.679
X65.719Y121.725
X65.782Y121.767
X65.849Y121.809
X65.915Y121.847
X65.983Y121.883
X66.054Y121.918
X66.124Y121.949
X66.197Y121.978
X66.269Y122.004
X66.343Y122.028
X66.417Y122.049
X66.492Y122.068
X66.568Y122.084
X66.645Y122.098
X66.722Y122.108
X66.797Y122.116
X66.876Y122.122
X66.953Y122.124
X66.992Y122.125
X72.043
X72.159Y122.124
X72.276Y122.121
X72.393Y122.116
X72.51Y122.109
X73.765Y122.018
X74.918Y121.954
X76.071Y121.908
X77.225Y121.88
X78.386Y121.871
X81.939
X81.977Y121.874
X82.015Y121.876
X82.053Y121.878
X82.092
X110.092
X110.131
X110.171Y121.876
X110.211Y121.874
X110.25Y121.87
X110.29Y121.866
X110.329Y121.86
X110.369Y121.854
X110.408Y121.846
X110.447Y121.838
X110.485Y121.829
X110.524Y121.818
X110.562Y121.807
X110.6Y121.795
X110.637Y121.782
X110.674Y121.768
X110.711Y121.753
X110.748Y121.737
X110.784Y121.72
X110.819Y121.702
X110.854Y121.684
X110.889Y121.664
X110.924Y121.643
X110.958Y121.622
X110.992Y121.599
X111.025Y121.576
X111.057Y121.552
X111.089Y121.527
X111.121Y121.501
X111.135Y121.488
X111.165Y121.462
X111.187Y121.441
X111.209Y121.42
X111.237Y121.392
X111.264Y121.362
X111.296Y121.326
X111.327Y121.29
X111.349Y121.262
X111.37Y121.234
X111.391Y121.205
X111.411Y121.176
X111.431Y121.146
X111.45Y121.116
X111.466Y121.088
X111.483Y121.059
X111.498Y121.03
X111.517Y120.993
X111.536Y120.955
X111.549Y120.926
X111.561Y120.896
X111.578Y120.856
X111.586Y120.834
X111.6Y120.794
X111.613Y120.753
X111.625Y120.711
X111.636Y120.669
X111.646Y120.626
X111.654Y120.586
X111.662Y120.545
X111.669Y120.494
X111.676Y120.438
X111.678Y120.404
X111.68Y120.371
X111.682Y120.337
X111.683Y120.287
Y120.055
X111.693Y119.993
X111.704Y119.917
X111.712Y119.838
X111.718Y119.761
X111.72Y119.684
X111.721Y119.645
Y108.811
X111.72Y108.772
X111.719Y108.732
X111.716Y108.693
X111.713Y108.654
X111.709Y108.614
X111.703Y108.575
X111.697Y108.536
X111.69Y108.498
X111.682Y108.464
X111.681Y108.422
X111.679Y108.379
X111.675Y108.336
X111.671Y108.293
X111.665Y108.25
X111.658Y108.208
X111.65Y108.166
X111.641Y108.124
X111.63Y108.082
X111.621Y108.047
X111.61Y108.013
X111.599Y107.979
X111.587Y107.945
X111.575Y107.911
X111.558Y107.87
X111.54Y107.829
X111.521Y107.789
X111.499Y107.745
X111.483Y107.715
X111.466Y107.686
X111.444Y107.65
X111.422Y107.614
X111.4Y107.582
X111.378Y107.551
X111.355Y107.52
X111.331Y107.49
X111.306Y107.46
X111.281Y107.431
X111.255Y107.402
X111.229Y107.374
X111.201Y107.347
X111.173Y107.32
X111.145Y107.295
X111.115Y107.269
X111.086Y107.245
X111.055Y107.221
X111.024Y107.198
X110.993Y107.176
X110.961Y107.155
X110.928Y107.134
X110.895Y107.114
X110.862Y107.095
X110.827Y107.076
X110.793Y107.059
X110.758Y107.043
X110.723Y107.027
X110.688Y107.012
X110.652Y106.998
X110.617Y106.985
X110.58Y106.973
X110.544Y106.962
X110.507Y106.951
X110.47Y106.942
X110.433Y106.933
X110.395Y106.925
X110.358Y106.919
X110.32Y106.913
X110.282Y106.908
X110.244Y106.904
X110.206Y106.9
X110.168Y106.898
X110.13Y106.897
X110.092Y106.896
X106.156
X105.565Y106.883
X104.821Y106.878
G0Z1
X71.184Y113.465
G1Z-0.2F50
X71.207Y113.45F100
X71.231Y113.436
X71.256Y113.422
X71.28Y113.409
X71.305Y113.396
X71.33Y113.384
X71.371Y113.364
X71.408Y113.348
X71.457Y113.328
X71.484Y113.318
X71.51Y113.309
X71.563Y113.292
X71.59Y113.284
X71.616Y113.277
X71.644Y113.27
X71.671Y113.263
X71.698Y113.257
X71.725Y113.251
X71.751Y113.247
X71.781Y113.242
X71.808Y113.238
X71.835Y113.234
X71.863Y113.231
X71.89Y113.228
X71.918Y113.226
X71.946Y113.224
X71.974Y113.223
X72.002Y113.222
X72.03
X72.058
X72.085Y113.223
X72.113Y113.224
X72.141Y113.226
X72.169Y113.228
X72.197Y113.231
X72.224Y113.234
X72.252Y113.238
X72.279Y113.242
X72.307Y113.246
X72.335Y113.251
X72.379Y113.261
X72.418Y113.27
X72.47Y113.284
X72.497Y113.292
X72.523Y113.3
X72.549Y113.309
X72.576Y113.318
X72.602Y113.328
X72.628Y113.338
X72.654Y113.349
X72.679Y113.36
X72.704Y113.372
X72.73Y113.384
X72.755Y113.396
X72.779Y113.409
X72.804Y113.422
X72.828Y113.436
X72.852Y113.45
X72.876Y113.465
X72.899Y113.48
X72.923Y113.495
X72.945Y113.511
X72.968Y113.527
X72.991Y113.544
X73.013Y113.561
X73.034Y113.578
X73.056Y113.596
X73.077Y113.614
X73.098Y113.632
X73.139Y113.67
X73.159Y113.69
X73.178Y113.71
X73.197Y113.73
X73.216Y113.75
X73.235Y113.771
X73.253Y113.792
X73.271Y113.814
X73.288Y113.836
X73.305Y113.858
X73.338Y113.903
X73.353Y113.926
X73.369Y113.949
X73.382Y113.97
X73.399Y113.997
X73.412Y114.02
X73.426Y114.045
X73.44Y114.069
X73.452Y114.094
X73.465Y114.119
X73.477Y114.144
X73.488Y114.169
X73.499Y114.195
X73.51Y114.221
X73.52Y114.247
X73.53Y114.273
X73.539Y114.299
X73.548Y114.325
X73.557Y114.352
X73.565Y114.379
X73.572Y114.405
X73.579Y114.433
X73.591Y114.487
X73.597Y114.514
X73.602Y114.541
X73.607Y114.569
X73.611Y114.597
X73.615Y114.624
X73.618Y114.652
X73.62Y114.68
X73.623Y114.708
X73.624Y114.735
X73.625Y114.763
X73.626Y114.791
Y114.819
Y114.847
X73.625Y114.875
X73.624Y114.902
X73.623Y114.93
X73.62Y114.958
X73.618Y114.986
X73.615Y115.013
X73.611Y115.041
X73.607Y115.069
X73.602Y115.096
X73.597Y115.123
X73.591Y115.151
X73.585Y115.178
X73.579Y115.205
X73.572Y115.232
X73.565Y115.259
X73.557Y115.286
X73.548Y115.312
X73.539Y115.339
X73.53Y115.365
X73.52Y115.391
X73.51Y115.417
X73.499Y115.443
X73.488Y115.468
X73.477Y115.494
X73.465Y115.519
X73.452Y115.543
X73.44Y115.568
X73.426Y115.593
X73.412Y115.617
X73.398Y115.641
X73.384Y115.665
X73.369Y115.688
X73.353Y115.712
X73.338Y115.735
X73.321Y115.757
X73.305Y115.78
X73.288Y115.802
X73.271Y115.823
X73.253Y115.845
X73.235Y115.866
X73.216Y115.887
X73.198Y115.908
X73.178Y115.928
X73.159Y115.948
X73.139Y115.967
X73.119Y115.987
X73.098Y116.005
X73.077Y116.024
X73.056Y116.042
X73.034Y116.06
X73.013Y116.077
X72.991Y116.094
X72.968Y116.11
X72.946Y116.127
X72.923Y116.142
X72.899Y116.158
X72.876Y116.173
X72.852Y116.187
X72.828Y116.201
X72.804Y116.215
X72.779Y116.229
X72.755Y116.241
X72.73Y116.254
X72.705Y116.266
X72.679Y116.277
X72.654Y116.288
X72.628Y116.299
X72.602Y116.309
X72.576Y116.319
X72.55Y116.328
X72.523Y116.337
X72.497Y116.346
X72.47Y116.354
X72.443Y116.361
X72.416Y116.368
X72.389Y116.375
X72.362Y116.38
X72.334Y116.386
X72.307Y116.391
X72.28Y116.396
X72.252Y116.4
X72.224Y116.404
X72.197Y116.407
X72.169Y116.409
X72.141Y116.412
X72.113Y116.413
X72.085Y116.414
X72.058Y116.415
X72.012
X71.972Y116.414
X71.948Y116.413
X71.918Y116.411
X71.891Y116.409
X71.863Y116.407
X71.835Y116.404
X71.78Y116.396
X71.753Y116.391
X71.698Y116.38
X71.671Y116.374
X71.644Y116.368
X71.616Y116.361
X71.59Y116.354
X71.563Y116.346
X71.536Y116.337
X71.51Y116.328
X71.484Y116.319
X71.458Y116.309
X71.406Y116.288
X71.38Y116.277
X71.355Y116.266
X71.333Y116.255
X71.304Y116.241
X71.28Y116.229
X71.256Y116.215
X71.231Y116.201
X71.207Y116.187
X71.184Y116.173
X71.16Y116.158
X71.137Y116.142
X71.114Y116.127
X71.091Y116.11
X71.047Y116.077
X71.025Y116.06
X71.003Y116.042
X70.982Y116.024
X70.961Y116.005
X70.941Y115.987
X70.921Y115.967
X70.901Y115.948
X70.881Y115.928
X70.862Y115.908
X70.843Y115.887
X70.807Y115.845
X70.789Y115.823
X70.772Y115.802
X70.755Y115.78
X70.738Y115.757
X70.722Y115.735
X70.706Y115.712
X70.691Y115.688
X70.676Y115.665
X70.661Y115.641
X70.633Y115.593
X70.62Y115.568
X70.599Y115.527
X70.582Y115.491
X70.571Y115.468
X70.56Y115.443
X70.549Y115.417
X70.539Y115.391
X70.529Y115.365
X70.52Y115.339
X70.511Y115.312
X70.503Y115.286
X70.495Y115.259
X70.488Y115.232
X70.48Y115.205
X70.474Y115.178
X70.468Y115.151
X70.462Y115.123
X70.457Y115.096
X70.453Y115.069
X70.449Y115.041
X70.443Y114.997
X70.439Y114.955
X70.437Y114.93
X70.435Y114.902
X70.434Y114.871
X70.433Y114.819
Y114.791
X70.435Y114.744
X70.437Y114.705
X70.44Y114.676
X70.442Y114.652
X70.445Y114.624
X70.449Y114.597
X70.453Y114.569
X70.457Y114.541
X70.462Y114.514
X70.474Y114.46
X70.48Y114.433
X70.488Y114.405
X70.495Y114.379
X70.511Y114.325
X70.52Y114.299
X70.529Y114.273
X70.539Y114.247
X70.56Y114.195
X70.571Y114.169
X70.583Y114.144
X70.595Y114.119
X70.607Y114.094
X70.62Y114.069
X70.633Y114.045
X70.647Y114.02
X70.661Y113.996
X70.675Y113.974
X70.691Y113.949
X70.706Y113.926
X70.722Y113.903
X70.738Y113.88
X70.755Y113.858
X70.772Y113.836
X70.807Y113.792
X70.825Y113.771
X70.843Y113.75
X70.862Y113.73
X70.881Y113.71
X70.901Y113.69
X70.921Y113.67
X70.941Y113.651
X70.961Y113.632
X70.982Y113.614
X71.004Y113.596
X71.025Y113.578
X71.047Y113.561
X71.069Y113.544
X71.091Y113.527
X71.114Y113.511
X71.137Y113.495
X71.16Y113.48
X71.184Y113.465
G0Z1
X85.414Y114.803
G1Z-0.2F50
X85.432Y114.628F100
X85.483Y114.458
X85.566Y114.303
X85.678Y114.166
X85.815Y114.054
X85.971Y113.971
X86.14Y113.919
X86.316Y113.902
X86.491Y113.919
X86.66Y113.971
X86.816Y114.054
X86.953Y114.166
X87.065Y114.303
X87.148Y114.458
X87.199Y114.628
X87.217Y114.803
X87.199Y114.979
X87.148Y115.148
X87.065Y115.304
X86.953Y115.441
X86.816Y115.553
X86.66Y115.636
X86.491Y115.687
X86.316Y115.705
X86.14Y115.687
X85.971Y115.636
X85.815Y115.553
X85.678Y115.441
X85.566Y115.304
X85.483Y115.148
X85.432Y114.979
X85.414Y114.803
G0Z1
X101.318
G1Z-0.2F50
X101.335Y114.628F100
X101.387Y114.458
X101.47Y114.303
X101.582Y114.166
X101.719Y114.054
X101.875Y113.971
X102.044Y113.919
X102.219Y113.902
X102.395Y113.919
X102.564Y113.971
X102.72Y114.054
X102.857Y114.166
X102.969Y114.303
X103.052Y114.458
X103.103Y114.628
X103.121Y114.803
X103.103Y114.979
X103.052Y115.148
X102.969Y115.304
X102.857Y115.441
X102.72Y115.553
X102.564Y115.636
X102.395Y115.687
X102.219Y115.705
X102.044Y115.687
X101.875Y115.636
X101.719Y115.553
X101.582Y115.441
X101.47Y115.304
X101.387Y115.148
X101.335Y114.979
X101.318Y114.803
G0Z1
X104.821Y106.878
G1Z-0.2F50
X78.367F100
X77.713Y106.883
X77.059Y106.9
X76.405Y106.927
X75.752Y106.966
X75.1Y107.015
X74.449Y107.075
X73.799Y107.145
X73.15Y107.227
X72.502Y107.319
X71.856Y107.422
X71.212Y107.536
X70.569Y107.66
X70.446Y107.687
X70.322Y107.715
X70.2Y107.746
X70.077Y107.779
X69.956Y107.813
X69.835Y107.85
X69.714Y107.889
X69.594Y107.931
X69.475Y107.974
X69.357Y108.019
X69.24Y108.066
X69.123Y108.116
X69.008Y108.167
X68.893Y108.221
X68.779Y108.276
X68.666Y108.333
X68.554Y108.392
X68.444Y108.453
X68.334Y108.517
X68.225Y108.582
X68.118Y108.649
X68.011Y108.717
X67.906Y108.788
X67.802Y108.86
X67.7Y108.934
X67.599Y109.01
X67.498Y109.088
X67.4Y109.167
X67.303Y109.248
X67.207Y109.331
X67.112Y109.415
X67.02Y109.501
X66.928Y109.589
X66.838Y109.678
X66.75Y109.769
X66.663Y109.861
X66.578Y109.955
X66.495Y110.05
X66.413Y110.146
X66.313Y110.268
X66.215Y110.392
X66.12Y110.517
X66.026Y110.645
X65.935Y110.774
X65.845Y110.904
X65.758Y111.036
X65.674Y111.17
X65.591Y111.304
X65.511Y111.441
X65.434Y111.578
X65.358Y111.717
X65.285Y111.857
X65.215Y111.998
X65.147Y112.141
X65.081Y112.285
X65.018Y112.429
X64.957Y112.575
X64.899Y112.722
X64.843Y112.87
X64.79Y113.019
X64.74Y113.168
X64.692Y113.319
X64.646Y113.47
X64.603Y113.622
X64.563Y113.775
X64.526Y113.928
X64.491Y114.082
X64.459Y114.237
X64.429Y114.392
X64.402Y114.548
X64.378Y114.704
X64.356Y114.86
X64.337Y115.017
X64.321Y115.174
X64.307Y115.331
X64.296Y115.489
X64.288Y115.647
X64.283Y115.805
X64.28Y115.963
Y116.12
X64.283Y116.278
X64.288Y116.436
X64.296Y116.594
X64.307Y116.752
X64.32Y116.909
X64.337Y117.066
X64.355Y117.223
X64.375Y117.366
X64.795Y120.257
X64.808Y120.332
X64.825Y120.409
X64.844Y120.484
X64.865Y120.558
X64.89Y120.631
X64.916Y120.704
X64.946Y120.776
X64.977Y120.846
X65.012Y120.916
X65.048Y120.984
X65.087Y121.051
X65.128Y121.117
X65.172Y121.181
X65.218Y121.243
X65.266Y121.305
X65.315Y121.363
X65.367Y121.421
X65.422Y121.477
X65.477Y121.53
X65.535Y121.582
X65.594Y121.631
X65.655Y121.679
X65.719Y121.725
X65.782Y121.767
X65.849Y121.809
X65.915Y121.847
X65.983Y121.883
X66.054Y121.918
X66.124Y121.949
X66.197Y121.978
X66.269Y122.004
X66.343Y122.028
X66.417Y122.049
X66.492Y122.068
X66.568Y122.084
X66.645Y122.098
X66.722Y122.108
X66.797Y122.116
X66.876Y122.122
X66.953Y122.124
X66.992Y122.125
X72.043
X72.159Y122.124
X72.276Y122.121
X72.393Y122.116
X72.51Y122.109
X73.765Y122.018
X74.918Y121.954
X76.071Y121.908
X77.225Y121.88
X78.386Y121.871
X81.939
X81.977Y121.874
X82.015Y121.876
X82.053Y121.878
X82.092
X110.092
X110.131
X110.171Y121.876
X110.211Y121.874
X110.25Y121.87
X110.29Y121.866
X110.329Y121.86
X110.369Y121.854
X110.408Y121.846
X110.447Y121.838
X110.485Y121.829
X110.524Y121.818
X110.562Y121.807
X110.6Y121.795
X110.637Y121.782
X110.674Y121.768
X110.711Y121.753
X110.748Y121.737
X110.784Y121.72
X110.819Y121.702
X110.854Y121.684
X110.889Y121.664
X110.924Y121.643
X110.958Y121.622
X110.992Y121.599
X111.025Y121.576
X111.057Y121.552
X111.089Y121.527
X111.121Y121.501
X111.135Y121.488
X111.165Y121.462
X111.187Y121.441
X111.209Y121.42
X111.237Y121.392
X111.264Y121.362
X111.296Y121.326
X111.327Y121.29
X111.349Y121.262
X111.37Y121.234
X111.391Y121.205
X111.411Y121.176
X111.431Y121.146
X111.45Y121.116
X111.466Y121.088
X111.483Y121.059
X111.498Y121.03
X111.517Y120.993
X111.536Y120.955
X111.549Y120.926
X111.561Y120.896
X111.578Y120.856
X111.586Y120.834
X111.6Y120.794
X111.613Y120.753
X111.625Y120.711
X111.636Y120.669
X111.646Y120.626
X111.654Y120.586
X111.662Y120.545
X111.669Y120.494
X111.676Y120.438
X111.678Y120.404
X111.68Y120.371
X111.682Y120.337
X111.683Y120.287
Y120.055
X111.693Y119.993
X111.704Y119.917
X111.712Y119.838
X111.718Y119.761
X111.72Y119.684
X111.721Y119.645
Y108.811
X111.72Y108.772
X111.719Y108.732
X111.716Y108.693
X111.713Y108.654
X111.709Y108.614
X111.703Y108.575
X111.697Y108.536
X111.69Y108.498
X111.682Y108.464
X111.681Y108.422
X111.679Y108.379
X111.675Y108.336
X111.671Y108.293
X111.665Y108.25
X111.658Y108.208
X111.65Y108.166
X111.641Y108.124
X111.63Y108.082
X111.621Y108.047
X111.61Y108.013
X111.599Y107.979
X111.587Y107.945
X111.575Y107.911
X111.558Y107.87
X111.54Y107.829
X111.521Y107.789
X111.499Y107.745
X111.483Y107.715
X111.466Y107.686
X111.444Y107.65
X111.422Y107.614
X111.4Y107.582
X111.378Y107.551
X111.355Y107.52
X111.331Y107.49
X111.306Y107.46
X111.281Y107.431
X111.255Y107.402
X111.229Y107.374
X111.201Y107.347
X111.173Y107.32
X111.145Y107.295
X111.115Y107.269
X111.086Y107.245
X111.055Y107.221
X111.024Y107.198
X110.993Y107.176
X110.961Y107.155
X110.928Y107.134
X110.895Y107.114
X110.862Y107.095
X110.827Y107.076
X110.793Y107.059
X110.758Y107.043
X110.723Y107.027
X110.688Y107.012
X110.652Y106.998
X110.617Y106.985
X110.58Y106.973
X110.544Y106.962
X110.507Y106.951
X110.47Y106.942
X110.433Y106.933
X110.395Y106.925
X110.358Y106.919
X110.32Y106.913
X110.282Y106.908
X110.244Y106.904
X110.206Y106.9
X110.168Y106.898
X110.13Y106.897
X110.092Y106.896
X106.156
X105.565Y106.883
X104.821Y106.878
G0Z1
X71.184Y113.465
G1Z-0.225F50
X71.207Y113.45F100
X71.231Y113.436
X71.256Y113.422
X71.28Y113.409
X71.305Y113.396
X71.33Y113.384
X71.371Y113.364
X71.408Y113.348
X71.457Y113.328
X71.484Y113.318
X71.51Y113.309
X71.563Y113.292
X71.59Y113.284
X71.616Y113.277
X71.644Y113.27
X71.671Y113.263
X71.698Y113.257
X71.725Y113.251
X71.751Y113.247
X71.781Y113.242
X71.808Y113.238
X71.835Y113.234
X71.863Y113.231
X71.89Y113.228
X71.918Y113.226
X71.946Y113.224
X71.974Y113.223
X72.002Y113.222
X72.03
X72.058
X72.085Y113.223
X72.113Y113.224
X72.141Y113.226
X72.169Y113.228
X72.197Y113.231
X72.224Y113.234
X72.252Y113.238
X72.279Y113.242
X72.307Y113.246
X72.335Y113.251
X72.379Y113.261
X72.418Y113.27
X72.47Y113.284
X72.497Y113.292
X72.523Y113.3
X72.549Y113.309
X72.576Y113.318
X72.602Y113.328
X72.628Y113.338
X72.654Y113.349
X72.679Y113.36
X72.704Y113.372
X72.73Y113.384
X72.755Y113.396
X72.779Y113.409
X72.804Y113.422
X72.828Y113.436
X72.852Y113.45
X72.876Y113.465
X72.899Y113.48
X72.923Y113.495
X72.945Y113.511
X72.968Y113.527
X72.991Y113.544
X73.013Y113.561
X73.034Y113.578
X73.056Y113.596
X73.077Y113.614
X73.098Y113.632
X73.139Y113.67
X73.159Y113.69
X73.178Y113.71
X73.197Y113.73
X73.216Y113.75
X73.235Y113.771
X73.253Y113.792
X73.271Y113.814
X73.288Y113.836
X73.305Y113.858
X73.338Y113.903
X73.353Y113.926
X73.369Y113.949
X73.382Y113.97
X73.399Y113.997
X73.412Y114.02
X73.426Y114.045
X73.44Y114.069
X73.452Y114.094
X73.465Y114.119
X73.477Y114.144
X73.488Y114.169
X73.499Y114.195
X73.51Y114.221
X73.52Y114.247
X73.53Y114.273
X73.539Y114.299
X73.548Y114.325
X73.557Y114.352
X73.565Y114.379
X73.572Y114.405
X73.579Y114.433
X73.591Y114.487
X73.597Y114.514
X73.602Y114.541
X73.607Y114.569
X73.611Y114.597
X73.615Y114.624
X73.618Y114.652
X73.62Y114.68
X73.623Y114.708
X73.624Y114.735
X73.625Y114.763
X73.626Y114.791
Y114.819
Y114.847
X73.625Y114.875
X73.624Y114.902
X73.623Y114.93
X73.62Y114.958
X73.618Y114.986
X73.615Y115.013
X73.611Y115.041
X73.607Y115.069
X73.602Y115.096
X73.597Y115.123
X73.591Y115.151
X73.585Y115.178
X73.579Y115.205
X73.572Y115.232
X73.565Y115.259
X73.557Y115.286
X73.548Y115.312
X73.539Y115.339
X73.53Y115.365
X73.52Y115.391
X73.51Y115.417
X73.499Y115.443
X73.488Y115.468
X73.477Y115.494
X73.465Y115.519
X73.452Y115.543
X73.44Y115.568
X73.426Y115.593
X73.412Y115.617
X73.398Y115.641
X73.384Y115.665
X73.369Y115.688
X73.353Y115.712
X73.338Y115.735
X73.321Y115.757
X73.305Y115.78
X73.288Y115.802
X73.271Y115.823
X73.253Y115.845
X73.235Y115.866
X73.216Y115.887
X73.198Y115.908
X73.178Y115.928
X73.159Y115.948
X73.139Y115.967
X73.119Y115.987
X73.098Y116.005
X73.077Y116.024
X73.056Y116.042
X73.034Y116.06
X73.013Y116.077
X72.991Y116.094
X72.968Y116.11
X72.946Y116.127
X72.923Y116.142
X72.899Y116.158
X72.876Y116.173
X72.852Y116.187
X72.828Y116.201
X72.804Y116.215
X72.779Y116.229
X72.755Y116.241
X72.73Y116.254
X72.705Y116.266
X72.679Y116.277
X72.654Y116.288
X72.628Y116.299
X72.602Y116.309
X72.576Y116.319
X72.55Y116.328
X72.523Y116.337
X72.497Y116.346
X72.47Y116.354
X72.443Y116.361
X72.416Y116.368
X72.389Y116.375
X72.362Y116.38
X72.334Y116.386
X72.307Y116.391
X72.28Y116.396
X72.252Y116.4
X72.224Y116.404
X72.197Y116.407
X72.169Y116.409
X72.141Y116.412
X72.113Y116.413
X72.085Y116.414
X72.058Y116.415
X72.012
X71.972Y116.414
X71.948Y116.413
X71.918Y116.411
X71.891Y116.409
X71.863Y116.407
X71.835Y116.404
X71.78Y116.396
X71.753Y116.391
X71.698Y116.38
X71.671Y116.374
X71.644Y116.368
X71.616Y116.361
X71.59Y116.354
X71.563Y116.346
X71.536Y116.337
X71.51Y116.328
X71.484Y116.319
X71.458Y116.309
X71.406Y116.288
X71.38Y116.277
X71.355Y116.266
X71.333Y116.255
X71.304Y116.241
X71.28Y116.229
X71.256Y116.215
X71.231Y116.201
X71.207Y116.187
X71.184Y116.173
X71.16Y116.158
X71.137Y116.142
X71.114Y116.127
X71.091Y116.11
X71.047Y116.077
X71.025Y116.06
X71.003Y116.042
X70.982Y116.024
X70.961Y116.005
X70.941Y115.987
X70.921Y115.967
X70.901Y115.948
X70.881Y115.928
X70.862Y115.908
X70.843Y115.887
X70.807Y115.845
X70.789Y115.823
X70.772Y115.802
X70.755Y115.78
X70.738Y115.757
X70.722Y115.735
X70.706Y115.712
X70.691Y115.688
X70.676Y115.665
X70.661Y115.641
X70.633Y115.593
X70.62Y115.568
X70.599Y115.527
X70.582Y115.491
X70.571Y115.468
X70.56Y115.443
X70.549Y115.417
X70.539Y115.391
X70.529Y115.365
X70.52Y115.339
X70.511Y115.312
X70.503Y115.286
X70.495Y115.259
X70.488Y115.232
X70.48Y115.205
X70.474Y115.178
X70.468Y115.151
X70.462Y115.123
X70.457Y115.096
X70.453Y115.069
X70.449Y115.041
X70.443Y114.997
X70.439Y114.955
X70.437Y114.93
X70.435Y114.902
X70.434Y114.871
X70.433Y114.819
Y114.791
X70.435Y114.744
X70.437Y114.705
X70.44Y114.676
X70.442Y114.652
X70.445Y114.624
X70.449Y114.597
X70.453Y114.569
X70.457Y114.541
X70.462Y114.514
X70.474Y114.46
X70.48Y114.433
X70.488Y114.405
X70.495Y114.379
X70.511Y114.325
X70.52Y114.299
X70.529Y114.273
X70.539Y114.247
X70.56Y114.195
X70.571Y114.169
X70.583Y114.144
X70.595Y114.119
X70.607Y114.094
X70.62Y114.069
X70.633Y114.045
X70.647Y114.02
X70.661Y113.996
X70.675Y113.974
X70.691Y113.949
X70.706Y113.926
X70.722Y113.903
X70.738Y113.88
X70.755Y113.858
X70.772Y113.836
X70.807Y113.792
X70.825Y113.771
X70.843Y113.75
X70.862Y113.73
X70.881Y113.71
X70.901Y113.69
X70.921Y113.67
X70.941Y113.651
X70.961Y113.632
X70.982Y113.614
X71.004Y113.596
X71.025Y113.578
X71.047Y113.561
X71.069Y113.544
X71.091Y113.527
X71.114Y113.511
X71.137Y113.495
X71.16Y113.48
X71.184Y113.465
G0Z1
X85.414Y114.803
G1Z-0.225F50
X85.432Y114.628F100
X85.483Y114.458
X85.566Y114.303
X85.678Y114.166
X85.815Y114.054
X85.971Y113.971
X86.14Y113.919
X86.316Y113.902
X86.491Y113.919
X86.66Y113.971
X86.816Y114.054
X86.953Y114.166
X87.065Y114.303
X87.148Y114.458
X87.199Y114.628
X87.217Y114.803
X87.199Y114.979
X87.148Y115.148
X87.065Y115.304
X86.953Y115.441
X86.816Y115.553
X86.66Y115.636
X86.491Y115.687
X86.316Y115.705
X86.14Y115.687
X85.971Y115.636
X85.815Y115.553
X85.678Y115.441
X85.566Y115.304
X85.483Y115.148
X85.432Y114.979
X85.414Y114.803
G0Z1
X101.318
G1Z-0.225F50
X101.335Y114.628F100
X101.387Y114.458
X101.47Y114.303
X101.582Y114.166
X101.719Y114.054
X101.875Y113.971
X102.044Y113.919
X102.219Y113.902
X102.395Y113.919
X102.564Y113.971
X102.72Y114.054
X102.857Y114.166
X102.969Y114.303
X103.052Y114.458
X103.103Y114.628
X103.121Y114.803
X103.103Y114.979
X103.052Y115.148
X102.969Y115.304
X102.857Y115.441
X102.72Y115.553
X102.564Y115.636
X102.395Y115.687
X102.219Y115.705
X102.044Y115.687
X101.875Y115.636
X101.719Y115.553
X101.582Y115.441
X101.47Y115.304
X101.387Y115.148
X101.335Y114.979
X101.318Y114.803
G0Z1
X104.821Y106.878
G1Z-0.225F50
X78.367F100
X77.713Y106.883
X77.059Y106.9
X76.405Y106.927
X75.752Y106.966
X75.1Y107.015
X74.449Y107.075
X73.799Y107.145
X73.15Y107.227
X72.502Y107.319
X71.856Y107.422
X71.212Y107.536
X70.569Y107.66
X70.446Y107.687
X70.322Y107.715
X70.2Y107.746
X70.077Y107.779
X69.956Y107.813
X69.835Y107.85
X69.714Y107.889
X69.594Y107.931
X69.475Y107.974
X69.357Y108.019
X69.24Y108.066
X69.123Y108.116
X69.008Y108.167
X68.893Y108.221
X68.779Y108.276
X68.666Y108.333
X68.554Y108.392
X68.444Y108.453
X68.334Y108.517
X68.225Y108.582
X68.118Y108.649
X68.011Y108.717
X67.906Y108.788
X67.802Y108.86
X67.7Y108.934
X67.599Y109.01
X67.498Y109.088
X67.4Y109.167
X67.303Y109.248
X67.207Y109.331
X67.112Y109.415
X67.02Y109.501
X66.928Y109.589
X66.838Y109.678
X66.75Y109.769
X66.663Y109.861
X66.578Y109.955
X66.495Y110.05
X66.413Y110.146
X66.313Y110.268
X66.215Y110.392
X66.12Y110.517
X66.026Y110.645
X65.935Y110.774
X65.845Y110.904
X65.758Y111.036
X65.674Y111.17
X65.591Y111.304
X65.511Y111.441
X65.434Y111.578
X65.358Y111.717
X65.285Y111.857
X65.215Y111.998
X65.147Y112.141
X65.081Y112.285
X65.018Y112.429
X64.957Y112.575
X64.899Y112.722
X64.843Y112.87
X64.79Y113.019
X64.74Y113.168
X64.692Y113.319
X64.646Y113.47
X64.603Y113.622
X64.563Y113.775
X64.526Y113.928
X64.491Y114.082
X64.459Y114.237
X64.429Y114.392
X64.402Y114.548
X64.378Y114.704
X64.356Y114.86
X64.337Y115.017
X64.321Y115.174
X64.307Y115.331
X64.296Y115.489
X64.288Y115.647
X64.283Y115.805
X64.28Y115.963
Y116.12
X64.283Y116.278
X64.288Y116.436
X64.296Y116.594
X64.307Y116.752
X64.32Y116.909
X64.337Y117.066
X64.355Y117.223
X64.375Y117.366
X64.795Y120.257
X64.808Y120.332
X64.825Y120.409
X64.844Y120.484
X64.865Y120.558
X64.89Y120.631
X64.916Y120.704
X64.946Y120.776
X64.977Y120.846
X65.012Y120.916
X65.048Y120.984
X65.087Y121.051
X65.128Y121.117
X65.172Y121.181
X65.218Y121.243
X65.266Y121.305
X65.315Y121.363
X65.367Y121.421
X65.422Y121.477
X65.477Y121.53
X65.535Y121.582
X65.594Y121.631
X65.655Y121.679
X65.719Y121.725
X65.782Y121.767
X65.849Y121.809
X65.915Y121.847
X65.983Y121.883
X66.054Y121.918
X66.124Y121.949
X66.197Y121.978
X66.269Y122.004
X66.343Y122.028
X66.417Y122.049
X66.492Y122.068
X66.568Y122.084
X66.645Y122.098
X66.722Y122.108
X66.797Y122.116
X66.876Y122.122
X66.953Y122.124
X66.992Y122.125
X72.043
X72.159Y122.124
X72.276Y122.121
X72.393Y122.116
X72.51Y122.109
X73.765Y122.018
X74.918Y121.954
X76.071Y121.908
X77.225Y121.88
X78.386Y121.871
X81.939
X81.977Y121.874
X82.015Y121.876
X82.053Y121.878
X82.092
X110.092
X110.131
X110.171Y121.876
