(Created with grbl post processor 2025/01/12 12:43)
G21
(G-code generated with BlenderCAM and NC library)
G17G90
(Tool: D = 3.18 mm  type END flutes 2)
S1000M03
G00 Z1.0

G0X0Y0Z1
X201.179Y132.16
G1Z-0.1F50
X201.159Y132.191F100
X201.14Y132.223
X201.121Y132.255
X201.104Y132.288
X201.087Y132.322
X201.071Y132.355
X201.055Y132.389
X201.041Y132.424
X201.027Y132.458
X200.943Y132.678
X200.928Y132.721
X200.913Y132.764
X200.9Y132.808
X200.888Y132.852
X200.878Y132.896
X200.868Y132.94
X200.835Y133.112
X200.826Y133.158
X200.819Y133.204
X200.814Y133.251
X200.81Y133.297
X200.794Y133.498
X200.792Y133.528
X200.791Y133.558
X200.79Y133.589
Y133.619
Y150.594
Y150.628
X200.791Y150.662
X200.793Y150.697
X200.796Y150.731
X200.799Y150.765
X200.803Y150.799
X200.854Y151.196
X200.86Y151.235
X200.867Y151.274
X200.874Y151.313
X200.883Y151.352
X200.892Y151.39
X200.903Y151.429
X200.914Y151.466
X200.926Y151.504
X200.939Y151.541
X200.954Y151.578
X201.047Y151.812
X201.061Y151.848
X201.077Y151.883
X201.093Y151.918
X201.11Y151.952
X201.128Y151.986
X201.147Y152.02
X201.167Y152.053
X201.187Y152.086
X201.209Y152.118
X201.231Y152.149
X201.342Y152.306
X201.364Y152.336
X201.387Y152.365
X201.41Y152.394
X201.434Y152.422
X201.458Y152.45
X201.483Y152.477
X201.509Y152.503
X201.535Y152.529
X201.562Y152.554
X201.59Y152.579
X201.714Y152.687
X201.745Y152.714
X201.777Y152.74
X201.81Y152.765
X201.844Y152.79
X201.878Y152.813
X201.912Y152.836
X201.948Y152.857
X201.983Y152.878
X202.107Y152.947
X202.137Y152.964
X202.168Y152.979
X202.199Y152.995
X202.23Y153.009
X202.262Y153.023
X202.294Y153.036
X202.326Y153.049
X202.359Y153.061
X202.469Y153.099
X202.507Y153.112
X202.544Y153.123
X202.582Y153.134
X202.62Y153.144
X202.659Y153.153
X202.697Y153.161
X202.796Y153.179
X202.841Y153.187
X202.888Y153.194
X202.934Y153.199
X202.98Y153.203
X203.018Y153.206
X203.074Y153.209
X203.131Y153.21
X216.54
Y160.244
Y160.284
X216.542Y160.325
X216.544Y160.365
X216.548Y160.405
X216.553Y160.446
X216.558Y160.486
X216.565Y160.526
X216.572Y160.564
X216.581Y160.603
X216.59Y160.641
X216.6Y160.679
X216.611Y160.716
X216.624Y160.754
X216.637Y160.791
X216.651Y160.828
X216.665Y160.863
X216.683Y160.904
X216.694Y160.928
X216.706Y160.953
X216.723Y160.986
X216.741Y161.018
X216.759Y161.05
X216.778Y161.081
X216.798Y161.112
X216.818Y161.143
X216.839Y161.173
X216.863Y161.205
X216.887Y161.237
X216.913Y161.267
X216.939Y161.297
X216.965Y161.327
X216.993Y161.356
X217.021Y161.384
X217.05Y161.411
X217.079Y161.438
X217.109Y161.464
X217.14Y161.489
X217.172Y161.513
X217.204Y161.537
X217.236Y161.56
X217.27Y161.582
X217.303Y161.603
X217.338Y161.623
X217.372Y161.642
X217.406Y161.66
X217.44Y161.677
X217.475Y161.694
X217.51Y161.709
X217.546Y161.724
X217.582Y161.737
X217.618Y161.75
X217.655Y161.762
X217.692Y161.773
X217.729Y161.783
X217.766Y161.793
X217.804Y161.801
X217.842Y161.808
X217.88Y161.815
X217.918Y161.821
X217.956Y161.825
X217.995Y161.829
X218.033Y161.832
X218.071Y161.834
X218.11Y161.835
X218.148
X218.188Y161.834
X218.225Y161.832
X218.263Y161.829
X218.3Y161.826
X218.338Y161.821
X218.375Y161.816
X218.412Y161.81
X218.449Y161.803
X218.486Y161.795
X218.523Y161.786
X218.559Y161.776
X218.595Y161.766
X218.631Y161.754
X241.388Y154.21
X255.875
X288.633Y165.005
X288.671Y165.017
X288.709Y165.028
X288.748Y165.038
X288.787Y165.047
X288.826Y165.055
X288.865Y165.063
X288.905Y165.069
X288.944Y165.074
X288.984Y165.078
X289.024Y165.081
X289.064Y165.083
X289.104Y165.085
X289.145
X289.184Y165.084
X289.224Y165.082
X289.263Y165.079
X289.303Y165.076
X289.342Y165.071
X289.381Y165.065
X289.42Y165.058
X289.459Y165.051
X289.498Y165.042
X289.537Y165.032
X289.575Y165.022
X289.613Y165.01
X289.65Y164.998
X289.688Y164.984
X289.725Y164.97
X289.761Y164.955
X289.797Y164.939
X289.833Y164.921
X289.868Y164.904
X289.903Y164.885
X289.938Y164.865
X289.972Y164.844
X290.005Y164.823
X290.038Y164.801
X290.07Y164.778
X290.101Y164.755
X290.132Y164.73
X290.162Y164.705
X290.192Y164.679
X290.221Y164.653
X290.249Y164.625
X290.277Y164.597
X290.304Y164.569
X290.33Y164.539
X290.356Y164.509
X290.381Y164.478
X290.405Y164.446
X290.428Y164.414
X290.451Y164.382
X290.473Y164.349
X290.493Y164.315
X290.513Y164.281
X290.533Y164.246
X290.552Y164.209
X290.57Y164.172
X290.587Y164.135
X290.615Y164.066
X290.624Y164.044
X290.637Y164.005
X290.65Y163.965
X290.662Y163.926
X290.673Y163.886
X290.682Y163.845
X290.691Y163.805
X290.699Y163.764
X290.705Y163.725
X290.71Y163.687
X290.714Y163.648
X290.717Y163.61
X290.72Y163.571
X290.721Y163.533
X290.722Y163.494
Y153.21
X294.131
X294.169Y153.209
X294.208Y153.208
X294.247Y153.206
X294.285Y153.202
X294.324Y153.198
X294.363Y153.193
X294.401Y153.187
X294.439Y153.18
X294.477Y153.172
X294.515Y153.163
X294.552Y153.153
X294.589Y153.142
X294.749Y153.094
X294.785Y153.083
X294.821Y153.071
X294.857Y153.058
X294.892Y153.044
X294.927Y153.029
X294.961Y153.014
X294.995Y152.997
X295.029Y152.98
X295.185Y152.899
X295.216Y152.882
X295.247Y152.864
X295.278Y152.845
X295.309Y152.826
X295.339Y152.806
X295.368Y152.786
X295.397Y152.765
X295.426Y152.743
X295.551Y152.645
X295.584Y152.618
X295.616Y152.591
X295.648Y152.563
X295.679Y152.533
X295.709Y152.503
X295.738Y152.473
X295.767Y152.441
X295.794Y152.409
X295.936Y152.238
X295.961Y152.207
X295.986Y152.176
X296.009Y152.144
X296.032Y152.111
X296.054Y152.077
X296.075Y152.044
X296.095Y152.009
X296.114Y151.974
X296.133Y151.939
X296.15Y151.903
X296.254Y151.686
X296.271Y151.649
X296.287Y151.612
X296.302Y151.574
X296.316Y151.536
X296.329Y151.497
X296.341Y151.459
X296.352Y151.42
X296.362Y151.38
X296.408Y151.193
X296.417Y151.152
X296.425Y151.112
X296.433Y151.071
X296.439Y151.03
X296.444Y150.989
X296.448Y150.948
X296.466Y150.726
X296.469Y150.693
X296.47Y150.66
X296.471Y150.627
X296.472Y150.594
Y133.619
X296.471Y133.578
X296.47Y133.538
X296.467Y133.497
X296.463Y133.457
X296.427Y133.096
X296.422Y133.059
X296.417Y133.022
X296.411Y132.984
X296.404Y132.947
X296.396Y132.91
X296.388Y132.873
X296.378Y132.837
X296.368Y132.801
X296.356Y132.765
X296.344Y132.729
X296.26Y132.489
X296.246Y132.452
X296.232Y132.416
X296.216Y132.38
X296.2Y132.344
X296.183Y132.308
X296.165Y132.273
X296.146Y132.239
X296.126Y132.205
X296.106Y132.171
X296.084Y132.138
X295.98Y131.982
X295.959Y131.95
X295.937Y131.919
X295.914Y131.889
X295.89Y131.859
X295.866Y131.83
X295.841Y131.801
X295.815Y131.773
X295.789Y131.746
X295.762Y131.719
X295.734Y131.693
X295.615Y131.583
X295.583Y131.554
X295.55Y131.526
X295.516Y131.499
X295.481Y131.473
X295.446Y131.447
X295.41Y131.423
X295.373Y131.4
X295.336Y131.377
X295.214Y131.307
X295.183Y131.289
X295.15Y131.272
X295.118Y131.255
X295.085Y131.239
X295.052Y131.224
X295.018Y131.21
X294.984Y131.197
X294.95Y131.184
X294.837Y131.144
X294.795Y131.129
X294.752Y131.116
X294.709Y131.104
X294.666Y131.093
X294.622Y131.084
X294.578Y131.075
X294.455Y131.054
X294.419Y131.048
X294.383Y131.043
X294.346Y131.038
X294.31Y131.035
X294.273Y131.032
X294.237Y131.031
X294.159Y131.028
X294.131
X286.131
X286.092
X286.053Y131.03
X286.014Y131.032
X285.975Y131.036
X285.936Y131.04
X285.897Y131.045
X285.859Y131.051
X285.821Y131.058
X285.782Y131.067
X285.744Y131.076
X285.707Y131.086
X285.669Y131.096
X285.632Y131.108
X285.595Y131.121
X285.558Y131.134
X285.522Y131.149
X285.486Y131.164
X285.451Y131.181
X285.416Y131.198
X285.381Y131.216
X285.347Y131.234
X285.313Y131.254
X285.28Y131.275
X285.247Y131.296
X285.215Y131.318
X285.184Y131.341
X285.152Y131.364
X285.122Y131.389
X285.092Y131.414
X285.063Y131.44
X285.034Y131.466
X285.005Y131.495
X284.978Y131.523
X284.952Y131.551
X284.926Y131.58
X284.901Y131.61
X284.876Y131.641
X284.853Y131.672
X284.83Y131.703
X284.808Y131.736
X284.786Y131.768
X284.766Y131.801
X284.746Y131.835
X284.727Y131.869
X284.709Y131.904
X284.692Y131.939
X284.676Y131.975
X284.661Y132.01
X284.646Y132.047
X284.633Y132.083
X284.62Y132.12
X284.608Y132.157
X284.597Y132.195
X284.587Y132.233
X284.578Y132.271
X284.57Y132.309
X284.563Y132.347
X284.557Y132.386
X284.552Y132.424
X284.547Y132.463
X284.544Y132.502
X284.542Y132.541
X284.54Y132.58
Y132.619
Y137.992
X282.159Y140.544
X279.483Y143.032
X277.287Y144.708
X276.386Y145.251
X275.569Y145.626
X273.133Y146.349
X270.508Y146.822
X266.963Y147.125
X262.927Y147.133
X258.212Y146.788
X256.338Y146.541
X256.304Y146.537
X256.269Y146.534
X256.234Y146.531
X256.2Y146.529
X256.165Y146.528
X256.131
X241.131
X241.087
X241.043Y146.53
X240.999Y146.533
X240.956Y146.538
X236.581Y147.022
X232.192Y147.179
X228.455Y147.019
X225.016Y146.547
X223.311Y146.149
X221.735Y145.642
X220.411Y144.977
X218.393Y143.533
X215.912Y141.33
X213.35Y138.711
X212.722Y138.01
Y132.619
X212.721Y132.58
X212.72Y132.541
X212.717Y132.502
X212.714Y132.463
X212.71Y132.424
X212.704Y132.386
X212.698Y132.347
X212.691Y132.309
X212.683Y132.271
X212.674Y132.233
X212.664Y132.195
X212.653Y132.157
X212.641Y132.12
X212.629Y132.083
X212.615Y132.047
X212.601Y132.01
X212.585Y131.975
X212.569Y131.939
X212.552Y131.904
X212.534Y131.869
X212.515Y131.835
X212.495Y131.801
X212.475Y131.768
X212.454Y131.736
X212.432Y131.703
X212.409Y131.672
X212.385Y131.641
X212.361Y131.61
X212.336Y131.58
X212.31Y131.551
X212.283Y131.523
X212.255Y131.494
X212.227Y131.466
X212.198Y131.44
X212.169Y131.414
X212.139Y131.389
X212.109Y131.364
X212.078Y131.341
X212.046Y131.318
X212.014Y131.296
X211.981Y131.275
X211.948Y131.254
X211.914Y131.234
X211.88Y131.216
X211.846Y131.198
X211.81Y131.181
X211.775Y131.164
X211.739Y131.149
X211.703Y131.134
X211.666Y131.121
X211.629Y131.108
X211.592Y131.096
X211.555Y131.086
X211.517Y131.076
X211.479Y131.067
X211.441Y131.058
X211.403Y131.051
X211.364Y131.045
X211.325Y131.04
X211.287Y131.036
X211.248Y131.032
X211.209Y131.03
X211.17Y131.028
X211.131
X203.131
X203.094
X203.057Y131.03
X203.021Y131.032
X202.984Y131.035
X202.948Y131.038
X202.912Y131.043
X202.781Y131.061
X202.743Y131.067
X202.705Y131.074
X202.667Y131.081
X202.629Y131.09
X202.591Y131.099
X202.554Y131.11
X202.517Y131.121
X202.48Y131.133
X202.349Y131.179
X202.315Y131.191
X202.281Y131.204
X202.247Y131.218
X202.214Y131.232
X202.181Y131.247
X202.149Y131.263
X202.117Y131.28
X202.085Y131.298
X201.975Y131.36
X201.938Y131.381
X201.902Y131.403
X201.867Y131.427
X201.832Y131.451
X201.798Y131.476
X201.765Y131.502
X201.733Y131.528
X201.701Y131.556
X201.567Y131.675
X201.538Y131.701
X201.51Y131.728
X201.482Y131.756
X201.456Y131.784
X201.429Y131.813
X201.404Y131.843
X201.379Y131.873
X201.355Y131.904
X201.332Y131.935
X201.31Y131.967
X201.2Y132.129
X201.179Y132.16
Z-0.2F50
X201.159Y132.191F100
X201.14Y132.223
X201.121Y132.255
X201.104Y132.288
X201.087Y132.322
X201.071Y132.355
X201.055Y132.389
X201.041Y132.424
X201.027Y132.458
X200.943Y132.678
X200.928Y132.721
X200.913Y132.764
X200.9Y132.808
X200.888Y132.852
X200.878Y132.896
X200.868Y132.94
X200.835Y133.112
X200.826Y133.158
X200.819Y133.204
X200.814Y133.251
X200.81Y133.297
X200.794Y133.498
X200.792Y133.528
X200.791Y133.558
X200.79Y133.589
Y133.619
Y150.594
Y150.628
X200.791Y150.662
X200.793Y150.697
X200.796Y150.731
X200.799Y150.765
X200.803Y150.799
X200.854Y151.196
X200.86Y151.235
X200.867Y151.274
X200.874Y151.313
X200.883Y151.352
X200.892Y151.39
X200.903Y151.429
X200.914Y151.466
X200.926Y151.504
X200.939Y151.541
X200.954Y151.578
X201.047Y151.812
X201.061Y151.848
X201.077Y151.883
X201.093Y151.918
X201.11Y151.952
X201.128Y151.986
X201.147Y152.02
X201.167Y152.053
X201.187Y152.086
X201.209Y152.118
X201.231Y152.149
X201.342Y152.306
X201.364Y152.336
X201.387Y152.365
X201.41Y152.394
X201.434Y152.422
X201.458Y152.45
X201.483Y152.477
X201.509Y152.503
X201.535Y152.529
X201.562Y152.554
X201.59Y152.579
X201.714Y152.687
X201.745Y152.714
X201.777Y152.74
X201.81Y152.765
X201.844Y152.79
X201.878Y152.813
X201.912Y152.836
X201.948Y152.857
X201.983Y152.878
X202.107Y152.947
X202.137Y152.964
X202.168Y152.979
X202.199Y152.995
X202.23Y153.009
X202.262Y153.023
X202.294Y153.036
X202.326Y153.049
X202.359Y153.061
X202.469Y153.099
X202.507Y153.112
X202.544Y153.123
X202.582Y153.134
X202.62Y153.144
X202.659Y153.153
X202.697Y153.161
X202.796Y153.179
X202.841Y153.187
X202.888Y153.194
X202.934Y153.199
X202.98Y153.203
X203.018Y153.206
X203.074Y153.209
X203.131Y153.21
X216.54
Y160.244
Y160.284
X216.542Y160.325
X216.544Y160.365
X216.548Y160.405
X216.553Y160.446
X216.558Y160.486
X216.565Y160.526
X216.572Y160.564
X216.581Y160.603
X216.59Y160.641
X216.6Y160.679
X216.611Y160.716
X216.624Y160.754
X216.637Y160.791
X216.651Y160.828
X216.665Y160.863
X216.683Y160.904
X216.694Y160.928
X216.706Y160.953
X216.723Y160.986
X216.741Y161.018
X216.759Y161.05
X216.778Y161.081
X216.798Y161.112
X216.818Y161.143
X216.839Y161.173
X216.863Y161.205
X216.887Y161.237
X216.913Y161.267
X216.939Y161.297
X216.965Y161.327
X216.993Y161.356
X217.021Y161.384
X217.05Y161.411
X217.079Y161.438
X217.109Y161.464
X217.14Y161.489
X217.172Y161.513
X217.204Y161.537
X217.236Y161.56
X217.27Y161.582
X217.303Y161.603
X217.338Y161.623
X217.372Y161.642
X217.406Y161.66
X217.44Y161.677
X217.475Y161.694
X217.51Y161.709
X217.546Y161.724
X217.582Y161.737
X217.618Y161.75
X217.655Y161.762
X217.692Y161.773
X217.729Y161.783
X217.766Y161.793
X217.804Y161.801
X217.842Y161.808
X217.88Y161.815
X217.918Y161.821
X217.956Y161.825
X217.995Y161.829
X218.033Y161.832
X218.071Y161.834
X218.11Y161.835
X218.148
X218.188Y161.834
X218.225Y161.832
X218.263Y161.829
X218.3Y161.826
X218.338Y161.821
X218.375Y161.816
X218.412Y161.81
X218.449Y161.803
X218.486Y161.795
X218.523Y161.786
X218.559Y161.776
X218.595Y161.766
X218.631Y161.754
X241.388Y154.21
X255.875
X288.633Y165.005
X288.671Y165.017
X288.709Y165.028
X288.748Y165.038
X288.787Y165.047
X288.826Y165.055
X288.865Y165.063
X288.905Y165.069
X288.944Y165.074
X288.984Y165.078
X289.024Y165.081
X289.064Y165.083
X289.104Y165.085
X289.145
X289.184Y165.084
X289.224Y165.082
X289.263Y165.079
X289.303Y165.076
X289.342Y165.071
X289.381Y165.065
X289.42Y165.058
X289.459Y165.051
X289.498Y165.042
X289.537Y165.032
X289.575Y165.022
X289.613Y165.01
X289.65Y164.998
X289.688Y164.984
X289.725Y164.97
X289.761Y164.955
X289.797Y164.939
X289.833Y164.921
X289.868Y164.904
X289.903Y164.885
X289.938Y164.865
X289.972Y164.844
X290.005Y164.823
X290.038Y164.801
X290.07Y164.778
X290.101Y164.755
X290.132Y164.73
X290.162Y164.705
X290.192Y164.679
X290.221Y164.653
X290.249Y164.625
X290.277Y164.597
X290.304Y164.569
X290.33Y164.539
X290.356Y164.509
X290.381Y164.478
X290.405Y164.446
X290.428Y164.414
X290.451Y164.382
X290.473Y164.349
X290.493Y164.315
X290.513Y164.281
X290.533Y164.246
X290.552Y164.209
X290.57Y164.172
X290.587Y164.135
X290.615Y164.066
X290.624Y164.044
X290.637Y164.005
X290.65Y163.965
X290.662Y163.926
X290.673Y163.886
X290.682Y163.845
X290.691Y163.805
X290.699Y163.764
X290.705Y163.725
X290.71Y163.687
X290.714Y163.648
X290.717Y163.61
X290.72Y163.571
X290.721Y163.533
X290.722Y163.494
Y153.21
X294.131
X294.169Y153.209
X294.208Y153.208
X294.247Y153.206
X294.285Y153.202
X294.324Y153.198
X294.363Y153.193
X294.401Y153.187
X294.439Y153.18
X294.477Y153.172
X294.515Y153.163
X294.552Y153.153
X294.589Y153.142
X294.749Y153.094
X294.785Y153.083
X294.821Y153.071
X294.857Y153.058
X294.892Y153.044
X294.927Y153.029
X294.961Y153.014
X294.995Y152.997
X295.029Y152.98
X295.185Y152.899
X295.216Y152.882
X295.247Y152.864
X295.278Y152.845
X295.309Y152.826
X295.339Y152.806
X295.368Y152.786
X295.397Y152.765
X295.426Y152.743
X295.551Y152.645
X295.584Y152.618
X295.616Y152.591
X295.648Y152.563
X295.679Y152.533
X295.709Y152.503
X295.738Y152.473
X295.767Y152.441
X295.794Y152.409
X295.936Y152.238
X295.961Y152.207
X295.986Y152.176
X296.009Y152.144
X296.032Y152.111
X296.054Y152.077
X296.075Y152.044
X296.095Y152.009
X296.114Y151.974
X296.133Y151.939
X296.15Y151.903
X296.254Y151.686
X296.271Y151.649
X296.287Y151.612
X296.302Y151.574
X296.316Y151.536
X296.329Y151.497
X296.341Y151.459
X296.352Y151.42
X296.362Y151.38
X296.408Y151.193
X296.417Y151.152
X296.425Y151.112
X296.433Y151.071
X296.439Y151.03
X296.444Y150.989
X296.448Y150.948
X296.466Y150.726
X296.469Y150.693
X296.47Y150.66
X296.471Y150.627
X296.472Y150.594
Y133.619
X296.471Y133.578
X296.47Y133.538
X296.467Y133.497
X296.463Y133.457
X296.427Y133.096
X296.422Y133.059
X296.417Y133.022
X296.411Y132.984
X296.404Y132.947
X296.396Y132.91
X296.388Y132.873
X296.378Y132.837
X296.368Y132.801
X296.356Y132.765
X296.344Y132.729
X296.26Y132.489
X296.246Y132.452
X296.232Y132.416
X296.216Y132.38
X296.2Y132.344
X296.183Y132.308
X296.165Y132.273
X296.146Y132.239
X296.126Y132.205
X296.106Y132.171
X296.084Y132.138
X295.98Y131.982
X295.959Y131.95
X295.937Y131.919
X295.914Y131.889
X295.89Y131.859
X295.866Y131.83
X295.841Y131.801
X295.815Y131.773
X295.789Y131.746
X295.762Y131.719
X295.734Y131.693
X295.615Y131.583
X295.583Y131.554
X295.55Y131.526
X295.516Y131.499
X295.481Y131.473
X295.446Y131.447
X295.41Y131.423
X295.373Y131.4
X295.336Y131.377
X295.214Y131.307
X295.183Y131.289
X295.15Y131.272
X295.118Y131.255
X295.085Y131.239
X295.052Y131.224
X295.018Y131.21
X294.984Y131.197
X294.95Y131.184
X294.837Y131.144
X294.795Y131.129
X294.752Y131.116
X294.709Y131.104
X294.666Y131.093
X294.622Y131.084
X294.578Y131.075
X294.455Y131.054
X294.419Y131.048
X294.383Y131.043
X294.346Y131.038
X294.31Y131.035
X294.273Y131.032
X294.237Y131.031
X294.159Y131.028
X294.131
X286.131
X286.092
X286.053Y131.03
X286.014Y131.032
X285.975Y131.036
X285.936Y131.04
X285.897Y131.045
X285.859Y131.051
X285.821Y131.058
X285.782Y131.067
X285.744Y131.076
X285.707Y131.086
X285.669Y131.096
X285.632Y131.108
X285.595Y131.121
X285.558Y131.134
X285.522Y131.149
X285.486Y131.164
X285.451Y131.181
X285.416Y131.198
X285.381Y131.216
X285.347Y131.234
X285.313Y131.254
X285.28Y131.275
X285.247Y131.296
X285.215Y131.318
X285.184Y131.341
X285.152Y131.364
X285.122Y131.389
X285.092Y131.414
X285.063Y131.44
X285.034Y131.466
X285.005Y131.495
X284.978Y131.523
X284.952Y131.551
X284.926Y131.58
X284.901Y131.61
X284.876Y131.641
X284.853Y131.672
X284.83Y131.703
X284.808Y131.736
X284.786Y131.768
X284.766Y131.801
X284.746Y131.835
X284.727Y131.869
X284.709Y131.904
X284.692Y131.939
X284.676Y131.975
X284.661Y132.01
X284.646Y132.047
X284.633Y132.083
X284.62Y132.12
X284.608Y132.157
X284.597Y132.195
X284.587Y132.233
X284.578Y132.271
X284.57Y132.309
X284.563Y132.347
X284.557Y132.386
X284.552Y132.424
X284.547Y132.463
X284.544Y132.502
X284.542Y132.541
X284.54Y132.58
Y132.619
Y137.992
X282.159Y140.544
X279.483Y143.032
X277.287Y144.708
X276.386Y145.251
X275.569Y145.626
X273.133Y146.349
X270.508Y146.822
X266.963Y147.125
X262.927Y147.133
X258.212Y146.788
X256.338Y146.541
X256.304Y146.537
X256.269Y146.534
X256.234Y146.531
X256.2Y146.529
X256.165Y146.528
X256.131
X241.131
X241.087
X241.043Y146.53
X240.999Y146.533
X240.956Y146.538
X236.581Y147.022
X232.192Y147.179
X228.455Y147.019
X225.016Y146.547
X223.311Y146.149
X221.735Y145.642
X220.411Y144.977
X218.393Y143.533
X215.912Y141.33
X213.35Y138.711
X212.722Y138.01
Y132.619
X212.721Y132.58
X212.72Y132.541
X212.717Y132.502
X212.714Y132.463
X212.71Y132.424
X212.704Y132.386
X212.698Y132.347
X212.691Y132.309
X212.683Y132.271
X212.674Y132.233
X212.664Y132.195
X212.653Y132.157
X212.641Y132.12
X212.629Y132.083
X212.615Y132.047
X212.601Y132.01
X212.585Y131.975
X212.569Y131.939
X212.552Y131.904
X212.534Y131.869
X212.515Y131.835
X212.495Y131.801
X212.475Y131.768
X212.454Y131.736
X212.432Y131.703
X212.409Y131.672
X212.385Y131.641
X212.361Y131.61
X212.336Y131.58
X212.31Y131.551
X212.283Y131.523
X212.255Y131.494
X212.227Y131.466
X212.198Y131.44
X212.169Y131.414
X212.139Y131.389
X212.109Y131.364
X212.078Y131.341
X212.046Y131.318
X212.014Y131.296
X211.981Y131.275
X211.948Y131.254
X211.914Y131.234
X211.88Y131.216
X211.846Y131.198
X211.81Y131.181
X211.775Y131.164
X211.739Y131.149
X211.703Y131.134
X211.666Y131.121
X211.629Y131.108
X211.592Y131.096
X211.555Y131.086
X211.517Y131.076
X211.479Y131.067
X211.441Y131.058
X211.403Y131.051
X211.364Y131.045
X211.325Y131.04
X211.287Y131.036
X211.248Y131.032
X211.209Y131.03
X211.17Y131.028
X211.131
X203.131
X203.094
X203.057Y131.03
X203.021Y131.032
X202.984Y131.035
X202.948Y131.038
X202.912Y131.043
X202.781Y131.061
X202.743Y131.067
X202.705Y131.074
X202.667Y131.081
X202.629Y131.09
X202.591Y131.099
X202.554Y131.11
X202.517Y131.121
X202.48Y131.133
X202.349Y131.179
X202.315Y131.191
X202.281Y131.204
X202.247Y131.218
X202.214Y131.232
X202.181Y131.247
X202.149Y131.263
X202.117Y131.28
X202.085Y131.298
X201.975Y131.36
X201.938Y131.381
X201.902Y131.403
X201.867Y131.427
X201.832Y131.451
X201.798Y131.476
X201.765Y131.502
X201.733Y131.528
X201.701Y131.556
X201.567Y131.675
X201.538Y131.701
X201.51Y131.728
X201.482Y131.756
X201.456Y131.784
X201.429Y131.813
X201.404Y131.843
X201.379Y131.873
X201.355Y131.904
X201.332Y131.935
X201.31Y131.967
X201.2Y132.129
X201.179Y132.16
Z-0.3F50
X201.159Y132.191F100
X201.14Y132.223
X201.121Y132.255
X201.104Y132.288
X201.087Y132.322
X201.071Y132.355
X201.055Y132.389
X201.041Y132.424
X201.027Y132.458
X200.943Y132.678
X200.928Y132.721
X200.913Y132.764
X200.9Y132.808
X200.888Y132.852
X200.878Y132.896
X200.868Y132.94
X200.835Y133.112
X200.826Y133.158
X200.819Y133.204
X200.814Y133.251
X200.81Y133.297
X200.794Y133.498
X200.792Y133.528
X200.791Y133.558
X200.79Y133.589
Y133.619
Y150.594
Y150.628
X200.791Y150.662
X200.793Y150.697
X200.796Y150.731
X200.799Y150.765
X200.803Y150.799
X200.854Y151.196
X200.86Y151.235
X200.867Y151.274
X200.874Y151.313
X200.883Y151.352
X200.892Y151.39
X200.903Y151.429
X200.914Y151.466
X200.926Y151.504
X200.939Y151.541
X200.954Y151.578
X201.047Y151.812
X201.061Y151.848
X201.077Y151.883
X201.093Y151.918
X201.11Y151.952
X201.128Y151.986
X201.147Y152.02
X201.167Y152.053
X201.187Y152.086
X201.209Y152.118
X201.231Y152.149
X201.342Y152.306
X201.364Y152.336
X201.387Y152.365
X201.41Y152.394
X201.434Y152.422
X201.458Y152.45
X201.483Y152.477
X201.509Y152.503
X201.535Y152.529
X201.562Y152.554
X201.59Y152.579
X201.714Y152.687
X201.745Y152.714
X201.777Y152.74
X201.81Y152.765
X201.844Y152.79
X201.878Y152.813
X201.912Y152.836
X201.948Y152.857
X201.983Y152.878
X202.107Y152.947
X202.137Y152.964
X202.168Y152.979
X202.199Y152.995
X202.23Y153.009
X202.262Y153.023
X202.294Y153.036
X202.326Y153.049
X202.359Y153.061
X202.469Y153.099
X202.507Y153.112
X202.544Y153.123
X202.582Y153.134
X202.62Y153.144
X202.659Y153.153
X202.697Y153.161
X202.796Y153.179
X202.841Y153.187
X202.888Y153.194
X202.934Y153.199
X202.98Y153.203
X203.018Y153.206
X203.074Y153.209
X203.131Y153.21
X216.54
Y160.244
Y160.284
X216.542Y160.325
X216.544Y160.365
X216.548Y160.405
X216.553Y160.446
X216.558Y160.486
X216.565Y160.526
X216.572Y160.564
X216.581Y160.603
X216.59Y160.641
X216.6Y160.679
X216.611Y160.716
X216.624Y160.754
X216.637Y160.791
X216.651Y160.828
X216.665Y160.863
X216.683Y160.904
X216.694Y160.928
X216.706Y160.953
X216.723Y160.986
X216.741Y161.018
X216.759Y161.05
X216.778Y161.081
X216.798Y161.112
X216.818Y161.143
X216.839Y161.173
X216.863Y161.205
X216.887Y161.237
X216.913Y161.267
X216.939Y161.297
X216.965Y161.327
X216.993Y161.356
X217.021Y161.384
X217.05Y161.411
X217.079Y161.438
X217.109Y161.464
X217.14Y161.489
X217.172Y161.513
X217.204Y161.537
X217.236Y161.56
X217.27Y161.582
X217.303Y161.603
X217.338Y161.623
X217.372Y161.642
X217.406Y161.66
X217.44Y161.677
X217.475Y161.694
X217.51Y161.709
X217.546Y161.724
X217.582Y161.737
X217.618Y161.75
X217.655Y161.762
X217.692Y161.773
X217.729Y161.783
X217.766Y161.793
X217.804Y161.801
X217.842Y161.808
X217.88Y161.815
X217.918Y161.821
X217.956Y161.825
X217.995Y161.829
X218.033Y161.832
X218.071Y161.834
X218.11Y161.835
X218.148
X218.188Y161.834
X218.225Y161.832
X218.263Y161.829
X218.3Y161.826
X218.338Y161.821
X218.375Y161.816
X218.412Y161.81
X218.449Y161.803
X218.486Y161.795
X218.523Y161.786
X218.559Y161.776
X218.595Y161.766
X218.631Y161.754
X241.388Y154.21
X255.875
X288.633Y165.005
X288.671Y165.017
X288.709Y165.028
X288.748Y165.038
X288.787Y165.047
X288.826Y165.055
X288.865Y165.063
X288.905Y165.069
X288.944Y165.074
X288.984Y165.078
X289.024Y165.081
X289.064Y165.083
X289.104Y165.085
X289.145
X289.184Y165.084
X289.224Y165.082
X289.263Y165.079
X289.303Y165.076
X289.342Y165.071
X289.381Y165.065
X289.42Y165.058
X289.459Y165.051
X289.498Y165.042
X289.537Y165.032
X289.575Y165.022
X289.613Y165.01
X289.65Y164.998
X289.688Y164.984
X289.725Y164.97
X289.761Y164.955
X289.797Y164.939
X289.833Y164.921
X289.868Y164.904
X289.903Y164.885
X289.938Y164.865
X289.972Y164.844
X290.005Y164.823
X290.038Y164.801
X290.07Y164.778
X290.101Y164.755
X290.132Y164.73
X290.162Y164.705
X290.192Y164.679
X290.221Y164.653
X290.249Y164.625
X290.277Y164.597
X290.304Y164.569
X290.33Y164.539
X290.356Y164.509
X290.381Y164.478
X290.405Y164.446
X290.428Y164.414
X290.451Y164.382
X290.473Y164.349
X290.493Y164.315
X290.513Y164.281
X290.533Y164.246
X290.552Y164.209
X290.57Y164.172
X290.587Y164.135
X290.615Y164.066
X290.624Y164.044
X290.637Y164.005
X290.65Y163.965
X290.662Y163.926
X290.673Y163.886
X290.682Y163.845
X290.691Y163.805
X290.699Y163.764
X290.705Y163.725
X290.71Y163.687
X290.714Y163.648
X290.717Y163.61
X290.72Y163.571
X290.721Y163.533
X290.722Y163.494
Y153.21
X294.131
X294.169Y153.209
X294.208Y153.208
X294.247Y153.206
X294.285Y153.202
X294.324Y153.198
X294.363Y153.193
X294.401Y153.187
X294.439Y153.18
X294.477Y153.172
X294.515Y153.163
X294.552Y153.153
X294.589Y153.142
X294.749Y153.094
X294.785Y153.083
X294.821Y153.071
X294.857Y153.058
X294.892Y153.044
X294.927Y153.029
X294.961Y153.014
X294.995Y152.997
X295.029Y152.98
X295.185Y152.899
X295.216Y152.882
X295.247Y152.864
X295.278Y152.845
X295.309Y152.826
X295.339Y152.806
X295.368Y152.786
X295.397Y152.765
X295.426Y152.743
X295.551Y152.645
X295.584Y152.618
X295.616Y152.591
X295.648Y152.563
X295.679Y152.533
X295.709Y152.503
X295.738Y152.473
X295.767Y152.441
X295.794Y152.409
X295.936Y152.238
X295.961Y152.207
X295.986Y152.176
X296.009Y152.144
X296.032Y152.111
X296.054Y152.077
X296.075Y152.044
X296.095Y152.009
X296.114Y151.974
X296.133Y151.939
X296.15Y151.903
X296.254Y151.686
X296.271Y151.649
X296.287Y151.612
X296.302Y151.574
X296.316Y151.536
X296.329Y151.497
X296.341Y151.459
X296.352Y151.42
X296.362Y151.38
X296.408Y151.193
X296.417Y151.152
X296.425Y151.112
X296.433Y151.071
X296.439Y151.03
X296.444Y150.989
X296.448Y150.948
X296.466Y150.726
X296.469Y150.693
X296.47Y150.66
X296.471Y150.627
X296.472Y150.594
Y133.619
X296.471Y133.578
X296.47Y133.538
X296.467Y133.497
X296.463Y133.457
X296.427Y133.096
X296.422Y133.059
X296.417Y133.022
X296.411Y132.984
X296.404Y132.947
X296.396Y132.91
X296.388Y132.873
X296.378Y132.837
X296.368Y132.801
X296.356Y132.765
X296.344Y132.729
X296.26Y132.489
X296.246Y132.452
X296.232Y132.416
X296.216Y132.38
X296.2Y132.344
X296.183Y132.308
X296.165Y132.273
X296.146Y132.239
X296.126Y132.205
X296.106Y132.171
X296.084Y132.138
X295.98Y131.982
X295.959Y131.95
X295.937Y131.919
X295.914Y131.889
X295.89Y131.859
X295.866Y131.83
X295.841Y131.801
X295.815Y131.773
X295.789Y131.746
X295.762Y131.719
X295.734Y131.693
X295.615Y131.583
X295.583Y131.554
X295.55Y131.526
X295.516Y131.499
X295.481Y131.473
X295.446Y131.447
X295.41Y131.423
X295.373Y131.4
X295.336Y131.377
X295.214Y131.307
X295.183Y131.289
X295.15Y131.272
X295.118Y131.255
X295.085Y131.239
X295.052Y131.224
X295.018Y131.21
X294.984Y131.197
X294.95Y131.184
X294.837Y131.144
X294.795Y131.129
X294.752Y131.116
X294.709Y131.104
X294.666Y131.093
X294.622Y131.084
X294.578Y131.075
X294.455Y131.054
X294.419Y131.048
X294.383Y131.043
X294.346Y131.038
X294.31Y131.035
X294.273Y131.032
X294.237Y131.031
X294.159Y131.028
X294.131
X286.131
X286.092
X286.053Y131.03
X286.014Y131.032
X285.975Y131.036
X285.936Y131.04
X285.897Y131.045
X285.859Y131.051
X285.821Y131.058
X285.782Y131.067
X285.744Y131.076
X285.707Y131.086
X285.669Y131.096
X285.632Y131.108
X285.595Y131.121
X285.558Y131.134
X285.522Y131.149
X285.486Y131.164
X285.451Y131.181
X285.416Y131.198
X285.381Y131.216
X285.347Y131.234
X285.313Y131.254
X285.28Y131.275
X285.247Y131.296
X285.215Y131.318
X285.184Y131.341
X285.152Y131.364
X285.122Y131.389
X285.092Y131.414
X285.063Y131.44
X285.034Y131.466
X285.005Y131.495
X284.978Y131.523
X284.952Y131.551
X284.926Y131.58
X284.901Y131.61
X284.876Y131.641
X284.853Y131.672
X284.83Y131.703
X284.808Y131.736
X284.786Y131.768
X284.766Y131.801
X284.746Y131.835
X284.727Y131.869
X284.709Y131.904
X284.692Y131.939
X284.676Y131.975
X284.661Y132.01
X284.646Y132.047
X284.633Y132.083
X284.62Y132.12
X284.608Y132.157
X284.597Y132.195
X284.587Y132.233
X284.578Y132.271
X284.57Y132.309
X284.563Y132.347
X284.557Y132.386
X284.552Y132.424
X284.547Y132.463
X284.544Y132.502
X284.542Y132.541
X284.54Y132.58
Y132.619
Y137.992
X282.159Y140.544
X279.483Y143.032
X277.287Y144.708
X276.386Y145.251
X275.569Y145.626
X273.133Y146.349
X270.508Y146.822
X266.963Y147.125
X262.927Y147.133
X258.212Y146.788
X256.338Y146.541
X256.304Y146.537
X256.269Y146.534
X256.234Y146.531
X256.2Y146.529
X256.165Y146.528
X256.131
X241.131
X241.087
X241.043Y146.53
X240.999Y146.533
X240.956Y146.538
X236.581Y147.022
X232.192Y147.179
X228.455Y147.019
X225.016Y146.547
X223.311Y146.149
X221.735Y145.642
X220.411Y144.977
X218.393Y143.533
X215.912Y141.33
X213.35Y138.711
X212.722Y138.01
Y132.619
X212.721Y132.58
X212.72Y132.541
X212.717Y132.502
X212.714Y132.463
X212.71Y132.424
X212.704Y132.386
X212.698Y132.347
X212.691Y132.309
X212.683Y132.271
X212.674Y132.233
X212.664Y132.195
X212.653Y132.157
X212.641Y132.12
X212.629Y132.083
X212.615Y132.047
X212.601Y132.01
X212.585Y131.975
X212.569Y131.939
X212.552Y131.904
X212.534Y131.869
X212.515Y131.835
X212.495Y131.801
X212.475Y131.768
X212.454Y131.736
X212.432Y131.703
X212.409Y131.672
X212.385Y131.641
X212.361Y131.61
X212.336Y131.58
X212.31Y131.551
X212.283Y131.523
X212.255Y131.494
X212.227Y131.466
X212.198Y131.44
X212.169Y131.414
X212.139Y131.389
X212.109Y131.364
X212.078Y131.341
X212.046Y131.318
X212.014Y131.296
X211.981Y131.275
X211.948Y131.254
X211.914Y131.234
X211.88Y131.216
X211.846Y131.198
X211.81Y131.181
X211.775Y131.164
X211.739Y131.149
X211.703Y131.134
X211.666Y131.121
X211.629Y131.108
X211.592Y131.096
X211.555Y131.086
X211.517Y131.076
X211.479Y131.067
X211.441Y131.058
X211.403Y131.051
X211.364Y131.045
X211.325Y131.04
X211.287Y131.036
X211.248Y131.032
X211.209Y131.03
X211.17Y131.028
X211.131
X203.131
X203.094
X203.057Y131.03
X203.021Y131.032
X202.984Y131.035
X202.948Y131.038
X202.912Y131.043
X202.781Y131.061
X202.743Y131.067
X202.705Y131.074
X202.667Y131.081
X202.629Y131.09
X202.591Y131.099
X202.554Y131.11
X202.517Y131.121
X202.48Y131.133
X202.349Y131.179
X202.315Y131.191
X202.281Y131.204
X202.247Y131.218
X202.214Y131.232
X202.181Y131.247
X202.149Y131.263
X202.117Y131.28
X202.085Y131.298
X201.975Y131.36
X201.938Y131.381
X201.902Y131.403
X201.867Y131.427
X201.832Y131.451
X201.798Y131.476
X201.765Y131.502
X201.733Y131.528
X201.701Y131.556
X201.567Y131.675
X201.538Y131.701
X201.51Y131.728
X201.482Y131.756
X201.456Y131.784
X201.429Y131.813
X201.404Y131.843
X201.379Y131.873
X201.355Y131.904
X201.332Y131.935
X201.31Y131.967
X201.2Y132.129
X201.179Y132.16
Z-0.4F50
X201.159Y132.191F100
X201.14Y132.223
X201.121Y132.255
X201.104Y132.288
X201.087Y132.322
X201.071Y132.355
X201.055Y132.389
X201.041Y132.424
X201.027Y132.458
X200.943Y132.678
X200.928Y132.721
X200.913Y132.764
X200.9Y132.808
X200.888Y132.852
X200.878Y132.896
X200.868Y132.94
X200.835Y133.112
X200.826Y133.158
X200.819Y133.204
X200.814Y133.251
X200.81Y133.297
X200.794Y133.498
X200.792Y133.528
X200.791Y133.558
X200.79Y133.589
Y133.619
Y150.594
Y150.628
X200.791Y150.662
X200.793Y150.697
X200.796Y150.731
X200.799Y150.765
X200.803Y150.799
X200.854Y151.196
X200.86Y151.235
X200.867Y151.274
X200.874Y151.313
X200.883Y151.352
X200.892Y151.39
X200.903Y151.429
X200.914Y151.466
X200.926Y151.504
X200.939Y151.541
X200.954Y151.578
X201.047Y151.812
X201.061Y151.848
X201.077Y151.883
X201.093Y151.918
X201.11Y151.952
X201.128Y151.986
X201.147Y152.02
X201.167Y152.053
X201.187Y152.086
X201.209Y152.118
X201.231Y152.149
X201.342Y152.306
X201.364Y152.336
X201.387Y152.365
X201.41Y152.394
X201.434Y152.422
X201.458Y152.45
X201.483Y152.477
X201.509Y152.503
X201.535Y152.529
X201.562Y152.554
X201.59Y152.579
X201.714Y152.687
X201.745Y152.714
X201.777Y152.74
X201.81Y152.765
X201.844Y152.79
X201.878Y152.813
X201.912Y152.836
X201.948Y152.857
X201.983Y152.878
X202.107Y152.947
X202.137Y152.964
X202.168Y152.979
X202.199Y152.995
X202.23Y153.009
X202.262Y153.023
X202.294Y153.036
X202.326Y153.049
X202.359Y153.061
X202.469Y153.099
X202.507Y153.112
X202.544Y153.123
X202.582Y153.134
X202.62Y153.144
X202.659Y153.153
X202.697Y153.161
X202.796Y153.179
X202.841Y153.187
X202.888Y153.194
X202.934Y153.199
X202.98Y153.203
X203.018Y153.206
X203.074Y153.209
X203.131Y153.21
X216.54
Y160.244
Y160.284
X216.542Y160.325
X216.544Y160.365
X216.548Y160.405
X216.553Y160.446
X216.558Y160.486
X216.565Y160.526
X216.572Y160.564
X216.581Y160.603
X216.59Y160.641
X216.6Y160.679
X216.611Y160.716
X216.624Y160.754
X216.637Y160.791
X216.651Y160.828
X216.665Y160.863
X216.683Y160.904
X216.694Y160.928
X216.706Y160.953
X216.723Y160.986
X216.741Y161.018
X216.759Y161.05
X216.778Y161.081
X216.798Y161.112
X216.818Y161.143
X216.839Y161.173
X216.863Y161.205
X216.887Y161.237
X216.913Y161.267
X216.939Y161.297
X216.965Y161.327
X216.993Y161.356
X217.021Y161.384
X217.05Y161.411
X217.079Y161.438
X217.109Y161.464
X217.14Y161.489
X217.172Y161.513
X217.204Y161.537
X217.236Y161.56
X217.27Y161.582
X217.303Y161.603
X217.338Y161.623
X217.372Y161.642
X217.406Y161.66
X217.44Y161.677
X217.475Y161.694
X217.51Y161.709
X217.546Y161.724
X217.582Y161.737
X217.618Y161.75
X217.655Y161.762
X217.692Y161.773
X217.729Y161.783
X217.766Y161.793
X217.804Y161.801
X217.842Y161.808
X217.88Y161.815
X217.918Y161.821
X217.956Y161.825
X217.995Y161.829
X218.033Y161.832
X218.071Y161.834
X218.11Y161.835
X218.148
X218.188Y161.834
X218.225Y161.832
X218.263Y161.829
X218.3Y161.826
X218.338Y161.821
X218.375Y161.816
X218.412Y161.81
X218.449Y161.803
X218.486Y161.795
X218.523Y161.786
X218.559Y161.776
X218.595Y161.766
X218.631Y161.754
X241.388Y154.21
X255.875
X288.633Y165.005
X288.671Y165.017
X288.709Y165.028
X288.748Y165.038
X288.787Y165.047
X288.826Y165.055
X288.865Y165.063
X288.905Y165.069
X288.944Y165.074
X288.984Y165.078
X289.024Y165.081
X289.064Y165.083
X289.104Y165.085
X289.145
X289.184Y165.084
X289.224Y165.082
X289.263Y165.079
X289.303Y165.076
X289.342Y165.071
X289.381Y165.065
X289.42Y165.058
X289.459Y165.051
X289.498Y165.042
X289.537Y165.032
X289.575Y165.022
X289.613Y165.01
X289.65Y164.998
X289.688Y164.984
X289.725Y164.97
X289.761Y164.955
X289.797Y164.939
X289.833Y164.921
X289.868Y164.904
X289.903Y164.885
X289.938Y164.865
X289.972Y164.844
X290.005Y164.823
X290.038Y164.801
X290.07Y164.778
X290.101Y164.755
X290.132Y164.73
X290.162Y164.705
X290.192Y164.679
X290.221Y164.653
X290.249Y164.625
X290.277Y164.597
X290.304Y164.569
X290.33Y164.539
X290.356Y164.509
X290.381Y164.478
X290.405Y164.446
X290.428Y164.414
X290.451Y164.382
X290.473Y164.349
X290.493Y164.315
X290.513Y164.281
X290.533Y164.246
X290.552Y164.209
X290.57Y164.172
X290.587Y164.135
X290.615Y164.066
X290.624Y164.044
X290.637Y164.005
X290.65Y163.965
X290.662Y163.926
X290.673Y163.886
X290.682Y163.845
X290.691Y163.805
X290.699Y163.764
X290.705Y163.725
X290.71Y163.687
X290.714Y163.648
X290.717Y163.61
X290.72Y163.571
X290.721Y163.533
X290.722Y163.494
Y153.21
X294.131
X294.169Y153.209
X294.208Y153.208
X294.247Y153.206
X294.285Y153.202
X294.324Y153.198
X294.363Y153.193
X294.401Y153.187
X294.439Y153.18
X294.477Y153.172
X294.515Y153.163
X294.552Y153.153
X294.589Y153.142
X294.749Y153.094
X294.785Y153.083
X294.821Y153.071
X294.857Y153.058
X294.892Y153.044
X294.927Y153.029
X294.961Y153.014
X294.995Y152.997
X295.029Y152.98
X295.185Y152.899
X295.216Y152.882
X295.247Y152.864
X295.278Y152.845
X295.309Y152.826
X295.339Y152.806
X295.368Y152.786
X295.397Y152.765
X295.426Y152.743
X295.551Y152.645
X295.584Y152.618
X295.616Y152.591
X295.648Y152.563
X295.679Y152.533
X295.709Y152.503
X295.738Y152.473
X295.767Y152.441
X295.794Y152.409
X295.936Y152.238
X295.961Y152.207
X295.986Y152.176
X296.009Y152.144
X296.032Y152.111
X296.054Y152.077
X296.075Y152.044
X296.095Y152.009
X296.114Y151.974
X296.133Y151.939
X296.15Y151.903
X296.254Y151.686
X296.271Y151.649
X296.287Y151.612
X296.302Y151.574
X296.316Y151.536
X296.329Y151.497
X296.341Y151.459
X296.352Y151.42
X296.362Y151.38
X296.408Y151.193
X296.417Y151.152
X296.425Y151.112
X296.433Y151.071
X296.439Y151.03
X296.444Y150.989
X296.448Y150.948
X296.466Y150.726
X296.469Y150.693
X296.47Y150.66
X296.471Y150.627
X296.472Y150.594
Y133.619
X296.471Y133.578
X296.47Y133.538
X296.467Y133.497
X296.463Y133.457
X296.427Y133.096
X296.422Y133.059
X296.417Y133.022
X296.411Y132.984
X296.404Y132.947
X296.396Y132.91
X296.388Y132.873
X296.378Y132.837
X296.368Y132.801
X296.356Y132.765
X296.344Y132.729
X296.26Y132.489
X296.246Y132.452
X296.232Y132.416
X296.216Y132.38
X296.2Y132.344
X296.183Y132.308
X296.165Y132.273
X296.146Y132.239
X296.126Y132.205
X296.106Y132.171
X296.084Y132.138
X295.98Y131.982
X295.959Y131.95
X295.937Y131.919
X295.914Y131.889
X295.89Y131.859
X295.866Y131.83
X295.841Y131.801
X295.815Y131.773
X295.789Y131.746
X295.762Y131.719
X295.734Y131.693
X295.615Y131.583
X295.583Y131.554
X295.55Y131.526
X295.516Y131.499
X295.481Y131.473
X295.446Y131.447
X295.41Y131.423
X295.373Y131.4
X295.336Y131.377
X295.214Y131.307
X295.183Y131.289
X295.15Y131.272
X295.118Y131.255
X295.085Y131.239
X295.052Y131.224
X295.018Y131.21
X294.984Y131.197
X294.95Y131.184
X294.837Y131.144
X294.795Y131.129
X294.752Y131.116
X294.709Y131.104
X294.666Y131.093
X294.622Y131.084
X294.578Y131.075
X294.455Y131.054
X294.419Y131.048
X294.383Y131.043
X294.346Y131.038
X294.31Y131.035
X294.273Y131.032
X294.237Y131.031
X294.159Y131.028
X294.131
X286.131
X286.092
X286.053Y131.03
X286.014Y131.032
X285.975Y131.036
X285.936Y131.04
X285.897Y131.045
X285.859Y131.051
X285.821Y131.058
X285.782Y131.067
X285.744Y131.076
X285.707Y131.086
X285.669Y131.096
X285.632Y131.108
X285.595Y131.121
X285.558Y131.134
X285.522Y131.149
X285.486Y131.164
X285.451Y131.181
X285.416Y131.198
X285.381Y131.216
X285.347Y131.234
X285.313Y131.254
X285.28Y131.275
X285.247Y131.296
X285.215Y131.318
X285.184Y131.341
X285.152Y131.364
X285.122Y131.389
X285.092Y131.414
X285.063Y131.44
X285.034Y131.466
X285.005Y131.495
X284.978Y131.523
X284.952Y131.551
X284.926Y131.58
X284.901Y131.61
X284.876Y131.641
X284.853Y131.672
X284.83Y131.703
X284.808Y131.736
X284.786Y131.768
X284.766Y131.801
X284.746Y131.835
X284.727Y131.869
X284.709Y131.904
X284.692Y131.939
X284.676Y131.975
X284.661Y132.01
X284.646Y132.047
X284.633Y132.083
X284.62Y132.12
X284.608Y132.157
X284.597Y132.195
X284.587Y132.233
X284.578Y132.271
X284.57Y132.309
X284.563Y132.347
X284.557Y132.386
X284.552Y132.424
X284.547Y132.463
X284.544Y132.502
X284.542Y132.541
X284.54Y132.58
Y132.619
Y137.992
X282.159Y140.544
X279.483Y143.032
X277.287Y144.708
X276.386Y145.251
X275.569Y145.626
X273.133Y146.349
X270.508Y146.822
X266.963Y147.125
X262.927Y147.133
X258.212Y146.788
X256.338Y146.541
X256.304Y146.537
X256.269Y146.534
X256.234Y146.531
X256.2Y146.529
X256.165Y146.528
X256.131
X241.131
X241.087
X241.043Y146.53
X240.999Y146.533
X240.956Y146.538
X236.581Y147.022
X232.192Y147.179
X228.455Y147.019
X225.016Y146.547
X223.311Y146.149
X221.735Y145.642
X220.411Y144.977
X218.393Y143.533
X215.912Y141.33
X213.35Y138.711
X212.722Y138.01
Y132.619
X212.721Y132.58
X212.72Y132.541
X212.717Y132.502
X212.714Y132.463
X212.71Y132.424
X212.704Y132.386
X212.698Y132.347
X212.691Y132.309
X212.683Y132.271
X212.674Y132.233
X212.664Y132.195
X212.653Y132.157
X212.641Y132.12
X212.629Y132.083
X212.615Y132.047
X212.601Y132.01
X212.585Y131.975
X212.569Y131.939
X212.552Y131.904
X212.534Y131.869
X212.515Y131.835
X212.495Y131.801
X212.475Y131.768
X212.454Y131.736
X212.432Y131.703
X212.409Y131.672
X212.385Y131.641
X212.361Y131.61
X212.336Y131.58
X212.31Y131.551
X212.283Y131.523
X212.255Y131.494
X212.227Y131.466
X212.198Y131.44
X212.169Y131.414
X212.139Y131.389
X212.109Y131.364
X212.078Y131.341
X212.046Y131.318
X212.014Y131.296
X211.981Y131.275
X211.948Y131.254
X211.914Y131.234
X211.88Y131.216
X211.846Y131.198
X211.81Y131.181
X211.775Y131.164
X211.739Y131.149
X211.703Y131.134
X211.666Y131.121
X211.629Y131.108
X211.592Y131.096
X211.555Y131.086
X211.517Y131.076
X211.479Y131.067
X211.441Y131.058
X211.403Y131.051
X211.364Y131.045
X211.325Y131.04
X211.287Y131.036
X211.248Y131.032
X211.209Y131.03
X211.17Y131.028
X211.131
X203.131
X203.094
X203.057Y131.03
X203.021Y131.032
X202.984Y131.035
X202.948Y131.038
X202.912Y131.043
X202.781Y131.061
X202.743Y131.067
X202.705Y131.074
X202.667Y131.081
X202.629Y131.09
X202.591Y131.099
X202.554Y131.11
X202.517Y131.121
X202.48Y131.133
X202.349Y131.179
X202.315Y131.191
X202.281Y131.204
X202.247Y131.218
X202.214Y131.232
X202.181Y131.247
X202.149Y131.263
X202.117Y131.28
X202.085Y131.298
X201.975Y131.36
X201.938Y131.381
X201.902Y131.403
X201.867Y131.427
X201.832Y131.451
X201.798Y131.476
X201.765Y131.502
X201.733Y131.528
X201.701Y131.556
X201.567Y131.675
X201.538Y131.701
X201.51Y131.728
X201.482Y131.756
X201.456Y131.784
X201.429Y131.813
X201.404Y131.843
X201.379Y131.873
X201.355Y131.904
X201.332Y131.935
X201.31Y131.967
X201.2Y132.129
X201.179Y132.16
Z-0.5F50
X201.159Y132.191F100
X201.14Y132.223
X201.121Y132.255
X201.104Y132.288
X201.087Y132.322
X201.071Y132.355
X201.055Y132.389
X201.041Y132.424
X201.027Y132.458
X200.943Y132.678
X200.928Y132.721
X200.913Y132.764
X200.9Y132.808
X200.888Y132.852
X200.878Y132.896
X200.868Y132.94
X200.835Y133.112
X200.826Y133.158
X200.819Y133.204
X200.814Y133.251
X200.81Y133.297
X200.794Y133.498
X200.792Y133.528
X200.791Y133.558
X200.79Y133.589
Y133.619
Y150.594
Y150.628
X200.791Y150.662
X200.793Y150.697
X200.796Y150.731
X200.799Y150.765
X200.803Y150.799
X200.854Y151.196
X200.86Y151.235
X200.867Y151.274
X200.874Y151.313
X200.883Y151.352
X200.892Y151.39
X200.903Y151.429
X200.914Y151.466
X200.926Y151.504
X200.939Y151.541
X200.954Y151.578
X201.047Y151.812
X201.061Y151.848
X201.077Y151.883
X201.093Y151.918
X201.11Y151.952
X201.128Y151.986
X201.147Y152.02
X201.167Y152.053
X201.187Y152.086
X201.209Y152.118
X201.231Y152.149
X201.342Y152.306
X201.364Y152.336
X201.387Y152.365
X201.41Y152.394
X201.434Y152.422
X201.458Y152.45
X201.483Y152.477
X201.509Y152.503
X201.535Y152.529
X201.562Y152.554
X201.59Y152.579
X201.714Y152.687
X201.745Y152.714
X201.777Y152.74
X201.81Y152.765
X201.844Y152.79
X201.878Y152.813
X201.912Y152.836
X201.948Y152.857
X201.983Y152.878
X202.107Y152.947
X202.137Y152.964
X202.168Y152.979
X202.199Y152.995
X202.23Y153.009
X202.262Y153.023
X202.294Y153.036
X202.326Y153.049
X202.359Y153.061
X202.469Y153.099
X202.507Y153.112
X202.544Y153.123
X202.582Y153.134
X202.62Y153.144
X202.659Y153.153
X202.697Y153.161
X202.796Y153.179
X202.841Y153.187
X202.888Y153.194
X202.934Y153.199
X202.98Y153.203
X203.018Y153.206
X203.074Y153.209
X203.131Y153.21
X216.54
Y160.244
Y160.284
X216.542Y160.325
X216.544Y160.365
X216.548Y160.405
X216.553Y160.446
X216.558Y160.486
X216.565Y160.526
X216.572Y160.564
X216.581Y160.603
X216.59Y160.641
X216.6Y160.679
X216.611Y160.716
X216.624Y160.754
X216.637Y160.791
X216.651Y160.828
X216.665Y160.863
X216.683Y160.904
X216.694Y160.928
X216.706Y160.953
X216.723Y160.986
X216.741Y161.018
X216.759Y161.05
X216.778Y161.081
X216.798Y161.112
X216.818Y161.143
X216.839Y161.173
X216.863Y161.205
X216.887Y161.237
X216.913Y161.267
X216.939Y161.297
X216.965Y161.327
X216.993Y161.356
X217.021Y161.384
X217.05Y161.411
X217.079Y161.438
X217.109Y161.464
X217.14Y161.489
X217.172Y161.513
X217.204Y161.537
X217.236Y161.56
X217.27Y161.582
X217.303Y161.603
X217.338Y161.623
X217.372Y161.642
X217.406Y161.66
X217.44Y161.677
X217.475Y161.694
X217.51Y161.709
X217.546Y161.724
X217.582Y161.737
X217.618Y161.75
X217.655Y161.762
X217.692Y161.773
X217.729Y161.783
X217.766Y161.793
X217.804Y161.801
X217.842Y161.808
X217.88Y161.815
X217.918Y161.821
X217.956Y161.825
X217.995Y161.829
X218.033Y161.832
X218.071Y161.834
X218.11Y161.835
X218.148
X218.188Y161.834
X218.225Y161.832
X218.263Y161.829
X218.3Y161.826
X218.338Y161.821
X218.375Y161.816
X218.412Y161.81
X218.449Y161.803
X218.486Y161.795
X218.523Y161.786
X218.559Y161.776
X218.595Y161.766
X218.631Y161.754
X241.388Y154.21
X255.875
X288.633Y165.005
X288.671Y165.017
X288.709Y165.028
X288.748Y165.038
X288.787Y165.047
X288.826Y165.055
X288.865Y165.063
X288.905Y165.069
X288.944Y165.074
X288.984Y165.078
X289.024Y165.081
X289.064Y165.083
X289.104Y165.085
X289.145
X289.184Y165.084
X289.224Y165.082
X289.263Y165.079
X289.303Y165.076
X289.342Y165.071
X289.381Y165.065
X289.42Y165.058
X289.459Y165.051
X289.498Y165.042
X289.537Y165.032
X289.575Y165.022
X289.613Y165.01
X289.65Y164.998
X289.688Y164.984
X289.725Y164.97
X289.761Y164.955
X289.797Y164.939
X289.833Y164.921
X289.868Y164.904
X289.903Y164.885
X289.938Y164.865
X289.972Y164.844
X290.005Y164.823
X290.038Y164.801
X290.07Y164.778
X290.101Y164.755
X290.132Y164.73
X290.162Y164.705
X290.192Y164.679
X290.221Y164.653
X290.249Y164.625
X290.277Y164.597
X290.304Y164.569
X290.33Y164.539
X290.356Y164.509
X290.381Y164.478
X290.405Y164.446
X290.428Y164.414
X290.451Y164.382
X290.473Y164.349
X290.493Y164.315
X290.513Y164.281
X290.533Y164.246
X290.552Y164.209
X290.57Y164.172
X290.587Y164.135
X290.615Y164.066
X290.624Y164.044
X290.637Y164.005
X290.65Y163.965
X290.662Y163.926
X290.673Y163.886
X290.682Y163.845
X290.691Y163.805
X290.699Y163.764
X290.705Y163.725
X290.71Y163.687
X290.714Y163.648
X290.717Y163.61
X290.72Y163.571
X290.721Y163.533
X290.722Y163.494
Y153.21
X294.131
X294.169Y153.209
X294.208Y153.208
X294.247Y153.206
X294.285Y153.202
X294.324Y153.198
X294.363Y153.193
X294.401Y153.187
X294.439Y153.18
X294.477Y153.172
X294.515Y153.163
X294.552Y153.153
X294.589Y153.142
X294.749Y153.094
X294.785Y153.083
X294.821Y153.071
X294.857Y153.058
X294.892Y153.044
X294.927Y153.029
X294.961Y153.014
X294.995Y152.997
X295.029Y152.98
X295.185Y152.899
X295.216Y152.882
X295.247Y152.864
X295.278Y152.845
X295.309Y152.826
X295.339Y152.806
X295.368Y152.786
X295.397Y152.765
X295.426Y152.743
X295.551Y152.645
X295.584Y152.618
X295.616Y152.591
X295.648Y152.563
X295.679Y152.533
X295.709Y152.503
X295.738Y152.473
X295.767Y152.441
X295.794Y152.409
X295.936Y152.238
X295.961Y152.207
X295.986Y152.176
X296.009Y152.144
X296.032Y152.111
X296.054Y152.077
X296.075Y152.044
X296.095Y152.009
X296.114Y151.974
X296.133Y151.939
X296.15Y151.903
X296.254Y151.686
X296.271Y151.649
X296.287Y151.612
X296.302Y151.574
X296.316Y151.536
X296.329Y151.497
X296.341Y151.459
X296.352Y151.42
X296.362Y151.38
X296.408Y151.193
X296.417Y151.152
X296.425Y151.112
X296.433Y151.071
X296.439Y151.03
X296.444Y150.989
X296.448Y150.948
X296.466Y150.726
X296.469Y150.693
X296.47Y150.66
X296.471Y150.627
X296.472Y150.594
Y133.619
X296.471Y133.578
X296.47Y133.538
X296.467Y133.497
X296.463Y133.457
X296.427Y133.096
X296.422Y133.059
X296.417Y133.022
X296.411Y132.984
X296.404Y132.947
X296.396Y132.91
X296.388Y132.873
X296.378Y132.837
X296.368Y132.801
X296.356Y132.765
X296.344Y132.729
X296.26Y132.489
X296.246Y132.452
X296.232Y132.416
X296.216Y132.38
X296.2Y132.344
X296.183Y132.308
X296.165Y132.273
X296.146Y132.239
X296.126Y132.205
X296.106Y132.171
X296.084Y132.138
X295.98Y131.982
X295.959Y131.95
X295.937Y131.919
X295.914Y131.889
X295.89Y131.859
X295.866Y131.83
X295.841Y131.801
X295.815Y131.773
X295.789Y131.746
X295.762Y131.719
X295.734Y131.693
X295.615Y131.583
X295.583Y131.554
X295.55Y131.526
X295.516Y131.499
X295.481Y131.473
X295.446Y131.447
X295.41Y131.423
X295.373Y131.4
X295.336Y131.377
X295.214Y131.307
X295.183Y131.289
X295.15Y131.272
X295.118Y131.255
X295.085Y131.239
X295.052Y131.224
X295.018Y131.21
X294.984Y131.197
X294.95Y131.184
X294.837Y131.144
X294.795Y131.129
X294.752Y131.116
X294.709Y131.104
X294.666Y131.093
X294.622Y131.084
X294.578Y131.075
X294.455Y131.054
X294.419Y131.048
X294.383Y131.043
X294.346Y131.038
X294.31Y131.035
X294.273Y131.032
X294.237Y131.031
X294.159Y131.028
X294.131
X286.131
X286.092
X286.053Y131.03
X286.014Y131.032
X285.975Y131.036
X285.936Y131.04
X285.897Y131.045
X285.859Y131.051
X285.821Y131.058
X285.782Y131.067
X285.744Y131.076
X285.707Y131.086
X285.669Y131.096
X285.632Y131.108
X285.595Y131.121
X285.558Y131.134
X285.522Y131.149
X285.486Y131.164
X285.451Y131.181
X285.416Y131.198
X285.381Y131.216
X285.347Y131.234
X285.313Y131.254
X285.28Y131.275
X285.247Y131.296
X285.215Y131.318
X285.184Y131.341
X285.152Y131.364
X285.122Y131.389
X285.092Y131.414
X285.063Y131.44
X285.034Y131.466
X285.005Y131.495
X284.978Y131.523
X284.952Y131.551
X284.926Y131.58
X284.901Y131.61
X284.876Y131.641
X284.853Y131.672
X284.83Y131.703
X284.808Y131.736
X284.786Y131.768
X284.766Y131.801
X284.746Y131.835
X284.727Y131.869
X284.709Y131.904
X284.692Y131.939
X284.676Y131.975
X284.661Y132.01
X284.646Y132.047
X284.633Y132.083
X284.62Y132.12
X284.608Y132.157
X284.597Y132.195
X284.587Y132.233
X284.578Y132.271
X284.57Y132.309
X284.563Y132.347
X284.557Y132.386
X284.552Y132.424
X284.547Y132.463
X284.544Y132.502
X284.542Y132.541
X284.54Y132.58
Y132.619
Y137.992
X282.159Y140.544
X279.483Y143.032
X277.287Y144.708
X276.386Y145.251
X275.569Y145.626
X273.133Y146.349
X270.508Y146.822
X266.963Y147.125
X262.927Y147.133
X258.212Y146.788
X256.338Y146.541
X256.304Y146.537
X256.269Y146.534
X256.234Y146.531
X256.2Y146.529
X256.165Y146.528
X256.131
X241.131
X241.087
X241.043Y146.53
X240.999Y146.533
X240.956Y146.538
X236.581Y147.022
X232.192Y147.179
X228.455Y147.019
X225.016Y146.547
X223.311Y146.149
X221.735Y145.642
X220.411Y144.977
X218.393Y143.533
X215.912Y141.33
X213.35Y138.711
X212.722Y138.01
Y132.619
X212.721Y132.58
X212.72Y132.541
X212.717Y132.502
X212.714Y132.463
X212.71Y132.424
X212.704Y132.386
X212.698Y132.347
X212.691Y132.309
X212.683Y132.271
X212.674Y132.233
X212.664Y132.195
X212.653Y132.157
X212.641Y132.12
X212.629Y132.083
X212.615Y132.047
X212.601Y132.01
X212.585Y131.975
X212.569Y131.939
X212.552Y131.904
X212.534Y131.869
X212.515Y131.835
X212.495Y131.801
X212.475Y131.768
X212.454Y131.736
X212.432Y131.703
X212.409Y131.672
X212.385Y131.641
X212.361Y131.61
X212.336Y131.58
X212.31Y131.551
X212.283Y131.523
X212.255Y131.494
X212.227Y131.466
X212.198Y131.44
X212.169Y131.414
X212.139Y131.389
X212.109Y131.364
X212.078Y131.341
X212.046Y131.318
X212.014Y131.296
X211.981Y131.275
X211.948Y131.254
X211.914Y131.234
X211.88Y131.216
X211.846Y131.198
X211.81Y131.181
X211.775Y131.164
X211.739Y131.149
X211.703Y131.134
X211.666Y131.121
X211.629Y131.108
X211.592Y131.096
X211.555Y131.086
X211.517Y131.076
X211.479Y131.067
X211.441Y131.058
X211.403Y131.051
X211.364Y131.045
X211.325Y131.04
X211.287Y131.036
X211.248Y131.032
X211.209Y131.03
X211.17Y131.028
X211.131
X203.131
X203.094
X203.057Y131.03
X203.021Y131.032
X202.984Y131.035
X202.948Y131.038
X202.912Y131.043
X202.781Y131.061
X202.743Y131.067
X202.705Y131.074
X202.667Y131.081
X202.629Y131.09
X202.591Y131.099
X202.554Y131.11
X202.517Y131.121
X202.48Y131.133
X202.349Y131.179
X202.315Y131.191
X202.281Y131.204
X202.247Y131.218
X202.214Y131.232
X202.181Y131.247
X202.149Y131.263
X202.117Y131.28
X202.085Y131.298
X201.975Y131.36
X201.938Y131.381
X201.902Y131.403
X201.867Y131.427
X201.832Y131.451
X201.798Y131.476
X201.765Y131.502
X201.733Y131.528
X201.701Y131.556
X201.567Y131.675
X201.538Y131.701
X201.51Y131.728
X201.482Y131.756
X201.456Y131.784
X201.429Y131.813
X201.404Y131.843
X201.379Y131.873
X201.355Y131.904
X201.332Y131.935
X201.31Y131.967
X201.2Y132.129
X201.179Y132.16
Z-0.6F50
X201.159Y132.191F100
X201.14Y132.223
X201.121Y132.255
X201.104Y132.288
X201.087Y132.322
X201.071Y132.355
X201.055Y132.389
X201.041Y132.424
X201.027Y132.458
X200.943Y132.678
X200.928Y132.721
X200.913Y132.764
X200.9Y132.808
X200.888Y132.852
X200.878Y132.896
X200.868Y132.94
X200.835Y133.112
X200.826Y133.158
X200.819Y133.204
X200.814Y133.251
X200.81Y133.297
X200.794Y133.498
X200.792Y133.528
X200.791Y133.558
X200.79Y133.589
Y133.619
Y150.594
Y150.628
X200.791Y150.662
X200.793Y150.697
X200.796Y150.731
X200.799Y150.765
X200.803Y150.799
X200.854Y151.196
X200.86Y151.235
X200.867Y151.274
X200.874Y151.313
X200.883Y151.352
X200.892Y151.39
X200.903Y151.429
X200.914Y151.466
X200.926Y151.504
X200.939Y151.541
X200.954Y151.578
X201.047Y151.812
X201.061Y151.848
X201.077Y151.883
X201.093Y151.918
X201.11Y151.952
X201.128Y151.986
X201.147Y152.02
X201.167Y152.053
X201.187Y152.086
X201.209Y152.118
X201.231Y152.149
X201.342Y152.306
X201.364Y152.336
X201.387Y152.365
X201.41Y152.394
X201.434Y152.422
X201.458Y152.45
X201.483Y152.477
X201.509Y152.503
X201.535Y152.529
X201.562Y152.554
X201.59Y152.579
X201.714Y152.687
X201.745Y152.714
X201.777Y152.74
X201.81Y152.765
X201.844Y152.79
X201.878Y152.813
X201.912Y152.836
X201.948Y152.857
X201.983Y152.878
X202.107Y152.947
X202.137Y152.964
X202.168Y152.979
X202.199Y152.995
X202.23Y153.009
X202.262Y153.023
X202.294Y153.036
X202.326Y153.049
X202.359Y153.061
X202.469Y153.099
X202.507Y153.112
X202.544Y153.123
X202.582Y153.134
X202.62Y153.144
X202.659Y153.153
X202.697Y153.161
X202.796Y153.179
X202.841Y153.187
X202.888Y153.194
X202.934Y153.199
X202.98Y153.203
X203.018Y153.206
X203.074Y153.209
X203.131Y153.21
X216.54
Y160.244
Y160.284
X216.542Y160.325
X216.544Y160.365
X216.548Y160.405
X216.553Y160.446
X216.558Y160.486
X216.565Y160.526
X216.572Y160.564
X216.581Y160.603
X216.59Y160.641
X216.6Y160.679
X216.611Y160.716
X216.624Y160.754
X216.637Y160.791
X216.651Y160.828
X216.665Y160.863
X216.683Y160.904
X216.694Y160.928
X216.706Y160.953
X216.723Y160.986
X216.741Y161.018
X216.759Y161.05
X216.778Y161.081
X216.798Y161.112
X216.818Y161.143
X216.839Y161.173
X216.863Y161.205
X216.887Y161.237
X216.913Y161.267
X216.939Y161.297
X216.965Y161.327
X216.993Y161.356
X217.021Y161.384
X217.05Y161.411
X217.079Y161.438
X217.109Y161.464
X217.14Y161.489
X217.172Y161.513
X217.204Y161.537
X217.236Y161.56
X217.27Y161.582
X217.303Y161.603
X217.338Y161.623
X217.372Y161.642
X217.406Y161.66
X217.44Y161.677
X217.475Y161.694
X217.51Y161.709
X217.546Y161.724
X217.582Y161.737
X217.618Y161.75
X217.655Y161.762
X217.692Y161.773
X217.729Y161.783
X217.766Y161.793
X217.804Y161.801
X217.842Y161.808
X217.88Y161.815
X217.918Y161.821
X217.956Y161.825
X217.995Y161.829
X218.033Y161.832
X218.071Y161.834
X218.11Y161.835
X218.148
X218.188Y161.834
X218.225Y161.832
X218.263Y161.829
X218.3Y161.826
X218.338Y161.821
X218.375Y161.816
X218.412Y161.81
X218.449Y161.803
X218.486Y161.795
X218.523Y161.786
X218.559Y161.776
X218.595Y161.766
X218.631Y161.754
X241.388Y154.21
X255.875
X288.633Y165.005
X288.671Y165.017
X288.709Y165.028
X288.748Y165.038
X288.787Y165.047
X288.826Y165.055
X288.865Y165.063
X288.905Y165.069
X288.944Y165.074
X288.984Y165.078
X289.024Y165.081
X289.064Y165.083
X289.104Y165.085
X289.145
X289.184Y165.084
X289.224Y165.082
X289.263Y165.079
X289.303Y165.076
X289.342Y165.071
X289.381Y165.065
X289.42Y165.058
X289.459Y165.051
X289.498Y165.042
X289.537Y165.032
X289.575Y165.022
X289.613Y165.01
X289.65Y164.998
X289.688Y164.984
X289.725Y164.97
X289.761Y164.955
X289.797Y164.939
X289.833Y164.921
X289.868Y164.904
X289.903Y164.885
X289.938Y164.865
X289.972Y164.844
X290.005Y164.823
X290.038Y164.801
X290.07Y164.778
X290.101Y164.755
X290.132Y164.73
X290.162Y164.705
X290.192Y164.679
X290.221Y164.653
X290.249Y164.625
X290.277Y164.597
X290.304Y164.569
X290.33Y164.539
X290.356Y164.509
X290.381Y164.478
X290.405Y164.446
X290.428Y164.414
X290.451Y164.382
X290.473Y164.349
X290.493Y164.315
X290.513Y164.281
X290.533Y164.246
X290.552Y164.209
X290.57Y164.172
X290.587Y164.135
X290.615Y164.066
X290.624Y164.044
X290.637Y164.005
X290.65Y163.965
X290.662Y163.926
X290.673Y163.886
X290.682Y163.845
X290.691Y163.805
X290.699Y163.764
X290.705Y163.725
X290.71Y163.687
X290.714Y163.648
X290.717Y163.61
X290.72Y163.571
X290.721Y163.533
X290.722Y163.494
Y153.21
X294.131
X294.169Y153.209
X294.208Y153.208
X294.247Y153.206
X294.285Y153.202
X294.324Y153.198
X294.363Y153.193
X294.401Y153.187
X294.439Y153.18
X294.477Y153.172
X294.515Y153.163
X294.552Y153.153
X294.589Y153.142
X294.749Y153.094
X294.785Y153.083
X294.821Y153.071
X294.857Y153.058
X294.892Y153.044
X294.927Y153.029
X294.961Y153.014
X294.995Y152.997
X295.029Y152.98
X295.185Y152.899
X295.216Y152.882
X295.247Y152.864
X295.278Y152.845
X295.309Y152.826
X295.339Y152.806
X295.368Y152.786
X295.397Y152.765
X295.426Y152.743
X295.551Y152.645
X295.584Y152.618
X295.616Y152.591
X295.648Y152.563
X295.679Y152.533
X295.709Y152.503
X295.738Y152.473
X295.767Y152.441
X295.794Y152.409
X295.936Y152.238
X295.961Y152.207
X295.986Y152.176
X296.009Y152.144
X296.032Y152.111
X296.054Y152.077
X296.075Y152.044
X296.095Y152.009
X296.114Y151.974
X296.133Y151.939
X296.15Y151.903
X296.254Y151.686
X296.271Y151.649
X296.287Y151.612
X296.302Y151.574
X296.316Y151.536
X296.329Y151.497
X296.341Y151.459
X296.352Y151.42
X296.362Y151.38
X296.408Y151.193
X296.417Y151.152
X296.425Y151.112
X296.433Y151.071
X296.439Y151.03
X296.444Y150.989
X296.448Y150.948
X296.466Y150.726
X296.469Y150.693
X296.47Y150.66
X296.471Y150.627
X296.472Y150.594
Y133.619
X296.471Y133.578
X296.47Y133.538
X296.467Y133.497
X296.463Y133.457
X296.427Y133.096
X296.422Y133.059
X296.417Y133.022
X296.411Y132.984
X296.404Y132.947
X296.396Y132.91
X296.388Y132.873
X296.378Y132.837
X296.368Y132.801
X296.356Y132.765
X296.344Y132.729
X296.26Y132.489
X296.246Y132.452
X296.232Y132.416
X296.216Y132.38
X296.2Y132.344
X296.183Y132.308
X296.165Y132.273
X296.146Y132.239
X296.126Y132.205
X296.106Y132.171
X296.084Y132.138
X295.98Y131.982
X295.959Y131.95
X295.937Y131.919
X295.914Y131.889
X295.89Y131.859
X295.866Y131.83
X295.841Y131.801
X295.815Y131.773
X295.789Y131.746
X295.762Y131.719
X295.734Y131.693
X295.615Y131.583
X295.583Y131.554
X295.55Y131.526
X295.516Y131.499
X295.481Y131.473
X295.446Y131.447
X295.41Y131.423
X295.373Y131.4
X295.336Y131.377
X295.214Y131.307
X295.183Y131.289
X295.15Y131.272
X295.118Y131.255
X295.085Y131.239
X295.052Y131.224
X295.018Y131.21
X294.984Y131.197
X294.95Y131.184
X294.837Y131.144
X294.795Y131.129
X294.752Y131.116
X294.709Y131.104
X294.666Y131.093
X294.622Y131.084
X294.578Y131.075
X294.455Y131.054
X294.419Y131.048
X294.383Y131.043
X294.346Y131.038
X294.31Y131.035
X294.273Y131.032
X294.237Y131.031
X294.159Y131.028
X294.131
X286.131
X286.092
X286.053Y131.03
X286.014Y131.032
X285.975Y131.036
X285.936Y131.04
X285.897Y131.045
X285.859Y131.051
X285.821Y131.058
X285.782Y131.067
X285.744Y131.076
X285.707Y131.086
X285.669Y131.096
X285.632Y131.108
X285.595Y131.121
X285.558Y131.134
X285.522Y131.149
X285.486Y131.164
X285.451Y131.181
X285.416Y131.198
X285.381Y131.216
X285.347Y131.234
X285.313Y131.254
X285.28Y131.275
X285.247Y131.296
X285.215Y131.318
X285.184Y131.341
X285.152Y131.364
X285.122Y131.389
X285.092Y131.414
X285.063Y131.44
X285.034Y131.466
X285.005Y131.495
X284.978Y131.523
X284.952Y131.551
X284.926Y131.58
X284.901Y131.61
X284.876Y131.641
X284.853Y131.672
X284.83Y131.703
X284.808Y131.736
X284.786Y131.768
X284.766Y131.801
X284.746Y131.835
X284.727Y131.869
X284.709Y131.904
X284.692Y131.939
X284.676Y131.975
X284.661Y132.01
X284.646Y132.047
X284.633Y132.083
X284.62Y132.12
X284.608Y132.157
X284.597Y132.195
X284.587Y132.233
X284.578Y132.271
X284.57Y132.309
X284.563Y132.347
X284.557Y132.386
X284.552Y132.424
X284.547Y132.463
X284.544Y132.502
X284.542Y132.541
X284.54Y132.58
Y132.619
Y137.992
X282.159Y140.544
X279.483Y143.032
X277.287Y144.708
X276.386Y145.251
X275.569Y145.626
X273.133Y146.349
X270.508Y146.822
X266.963Y147.125
X262.927Y147.133
X258.212Y146.788
X256.338Y146.541
X256.304Y146.537
X256.269Y146.534
X256.234Y146.531
X256.2Y146.529
X256.165Y146.528
X256.131
X241.131
X241.087
X241.043Y146.53
X240.999Y146.533
X240.956Y146.538
X236.581Y147.022
X232.192Y147.179
X228.455Y147.019
X225.016Y146.547
X223.311Y146.149
X221.735Y145.642
X220.411Y144.977
X218.393Y143.533
X215.912Y141.33
X213.35Y138.711
X212.722Y138.01
Y132.619
X212.721Y132.58
X212.72Y132.541
X212.717Y132.502
X212.714Y132.463
X212.71Y132.424
X212.704Y132.386
X212.698Y132.347
X212.691Y132.309
X212.683Y132.271
X212.674Y132.233
X212.664Y132.195
X212.653Y132.157
X212.641Y132.12
X212.629Y132.083
X212.615Y132.047
X212.601Y132.01
X212.585Y131.975
X212.569Y131.939
X212.552Y131.904
X212.534Y131.869
X212.515Y131.835
X212.495Y131.801
X212.475Y131.768
X212.454Y131.736
X212.432Y131.703
X212.409Y131.672
X212.385Y131.641
X212.361Y131.61
X212.336Y131.58
X212.31Y131.551
X212.283Y131.523
X212.255Y131.494
X212.227Y131.466
X212.198Y131.44
X212.169Y131.414
X212.139Y131.389
X212.109Y131.364
X212.078Y131.341
X212.046Y131.318
X212.014Y131.296
X211.981Y131.275
X211.948Y131.254
X211.914Y131.234
X211.88Y131.216
X211.846Y131.198
X211.81Y131.181
X211.775Y131.164
X211.739Y131.149
X211.703Y131.134
X211.666Y131.121
X211.629Y131.108
X211.592Y131.096
X211.555Y131.086
X211.517Y131.076
X211.479Y131.067
X211.441Y131.058
X211.403Y131.051
X211.364Y131.045
X211.325Y131.04
X211.287Y131.036
X211.248Y131.032
X211.209Y131.03
X211.17Y131.028
X211.131
X203.131
X203.094
X203.057Y131.03
X203.021Y131.032
X202.984Y131.035
X202.948Y131.038
X202.912Y131.043
X202.781Y131.061
X202.743Y131.067
X202.705Y131.074
X202.667Y131.081
X202.629Y131.09
X202.591Y131.099
X202.554Y131.11
X202.517Y131.121
X202.48Y131.133
X202.349Y131.179
X202.315Y131.191
X202.281Y131.204
X202.247Y131.218
X202.214Y131.232
X202.181Y131.247
X202.149Y131.263
X202.117Y131.28
X202.085Y131.298
X201.975Y131.36
X201.938Y131.381
X201.902Y131.403
X201.867Y131.427
X201.832Y131.451
X201.798Y131.476
X201.765Y131.502
X201.733Y131.528
X201.701Y131.556
X201.567Y131.675
X201.538Y131.701
X201.51Y131.728
X201.482Y131.756
X201.456Y131.784
X201.429Y131.813
X201.404Y131.843
X201.379Y131.873
X201.355Y131.904
X201.332Y131.935
X201.31Y131.967
X201.2Y132.129
X201.179Y132.16
Z-0.7F50
X201.159Y132.191F100
X201.14Y132.223
X201.121Y132.255
X201.104Y132.288
X201.087Y132.322
X201.071Y132.355
X201.055Y132.389
X201.041Y132.424
X201.027Y132.458
X200.943Y132.678
X200.928Y132.721
X200.913Y132.764
X200.9Y132.808
X200.888Y132.852
X200.878Y132.896
X200.868Y132.94
X200.835Y133.112
X200.826Y133.158
X200.819Y133.204
X200.814Y133.251
X200.81Y133.297
X200.794Y133.498
X200.792Y133.528
X200.791Y133.558
X200.79Y133.589
Y133.619
Y150.594
Y150.628
X200.791Y150.662
X200.793Y150.697
X200.796Y150.731
X200.799Y150.765
X200.803Y150.799
X200.854Y151.196
X200.86Y151.235
X200.867Y151.274
X200.874Y151.313
X200.883Y151.352
X200.892Y151.39
X200.903Y151.429
X200.914Y151.466
X200.926Y151.504
X200.939Y151.541
X200.954Y151.578
X201.047Y151.812
X201.061Y151.848
X201.077Y151.883
X201.093Y151.918
X201.11Y151.952
X201.128Y151.986
X201.147Y152.02
X201.167Y152.053
X201.187Y152.086
X201.209Y152.118
X201.231Y152.149
X201.342Y152.306
X201.364Y152.336
X201.387Y152.365
X201.41Y152.394
X201.434Y152.422
X201.458Y152.45
X201.483Y152.477
X201.509Y152.503
X201.535Y152.529
X201.562Y152.554
X201.59Y152.579
X201.714Y152.687
X201.745Y152.714
X201.777Y152.74
X201.81Y152.765
X201.844Y152.79
X201.878Y152.813
X201.912Y152.836
X201.948Y152.857
X201.983Y152.878
X202.107Y152.947
X202.137Y152.964
X202.168Y152.979
X202.199Y152.995
X202.23Y153.009
X202.262Y153.023
X202.294Y153.036
X202.326Y153.049
X202.359Y153.061
X202.469Y153.099
X202.507Y153.112
X202.544Y153.123
X202.582Y153.134
X202.62Y153.144
X202.659Y153.153
X202.697Y153.161
X202.796Y153.179
X202.841Y153.187
X202.888Y153.194
X202.934Y153.199
X202.98Y153.203
X203.018Y153.206
X203.074Y153.209
X203.131Y153.21
X216.54
Y160.244
Y160.284
X216.542Y160.325
X216.544Y160.365
X216.548Y160.405
X216.553Y160.446
X216.558Y160.486
X216.565Y160.526
X216.572Y160.564
X216.581Y160.603
X216.59Y160.641
X216.6Y160.679
X216.611Y160.716
X216.624Y160.754
X216.637Y160.791
X216.651Y160.828
X216.665Y160.863
X216.683Y160.904
X216.694Y160.928
X216.706Y160.953
X216.723Y160.986
X216.741Y161.018
X216.759Y161.05
X216.778Y161.081
X216.798Y161.112
X216.818Y161.143
X216.839Y161.173
X216.863Y161.205
X216.887Y161.237
X216.913Y161.267
X216.939Y161.297
X216.965Y161.327
X216.993Y161.356
X217.021Y161.384
X217.05Y161.411
X217.079Y161.438
X217.109Y161.464
X217.14Y161.489
X217.172Y161.513
X217.204Y161.537
X217.236Y161.56
X217.27Y161.582
X217.303Y161.603
X217.338Y161.623
X217.372Y161.642
X217.406Y161.66
X217.44Y161.677
X217.475Y161.694
X217.51Y161.709
X217.546Y161.724
X217.582Y161.737
X217.618Y161.75
X217.655Y161.762
X217.692Y161.773
X217.729Y161.783
X217.766Y161.793
X217.804Y161.801
X217.842Y161.808
X217.88Y161.815
X217.918Y161.821
X217.956Y161.825
X217.995Y161.829
X218.033Y161.832
X218.071Y161.834
X218.11Y161.835
X218.148
X218.188Y161.834
X218.225Y161.832
X218.263Y161.829
X218.3Y161.826
X218.338Y161.821
X218.375Y161.816
X218.412Y161.81
X218.449Y161.803
X218.486Y161.795
X218.523Y161.786
X218.559Y161.776
X218.595Y161.766
X218.631Y161.754
X241.388Y154.21
X255.875
X288.633Y165.005
X288.671Y165.017
X288.709Y165.028
X288.748Y165.038
X288.787Y165.047
X288.826Y165.055
X288.865Y165.063
X288.905Y165.069
X288.944Y165.074
X288.984Y165.078
X289.024Y165.081
X289.064Y165.083
X289.104Y165.085
X289.145
X289.184Y165.084
X289.224Y165.082
X289.263Y165.079
X289.303Y165.076
X289.342Y165.071
X289.381Y165.065
X289.42Y165.058
X289.459Y165.051
X289.498Y165.042
X289.537Y165.032
X289.575Y165.022
X289.613Y165.01
X289.65Y164.998
X289.688Y164.984
X289.725Y164.97
X289.761Y164.955
X289.797Y164.939
X289.833Y164.921
X289.868Y164.904
X289.903Y164.885
X289.938Y164.865
X289.972Y164.844
X290.005Y164.823
X290.038Y164.801
X290.07Y164.778
X290.101Y164.755
X290.132Y164.73
X290.162Y164.705
X290.192Y164.679
X290.221Y164.653
X290.249Y164.625
X290.277Y164.597
X290.304Y164.569
X290.33Y164.539
X290.356Y164.509
X290.381Y164.478
X290.405Y164.446
X290.428Y164.414
X290.451Y164.382
X290.473Y164.349
X290.493Y164.315
X290.513Y164.281
X290.533Y164.246
X290.552Y164.209
X290.57Y164.172
X290.587Y164.135
X290.615Y164.066
X290.624Y164.044
X290.637Y164.005
X290.65Y163.965
X290.662Y163.926
X290.673Y163.886
X290.682Y163.845
X290.691Y163.805
X290.699Y163.764
X290.705Y163.725
X290.71Y163.687
X290.714Y163.648
X290.717Y163.61
X290.72Y163.571
X290.721Y163.533
X290.722Y163.494
Y153.21
X294.131
X294.169Y153.209
X294.208Y153.208
X294.247Y153.206
X294.285Y153.202
X294.324Y153.198
X294.363Y153.193
X294.401Y153.187
X294.439Y153.18
X294.477Y153.172
X294.515Y153.163
X294.552Y153.153
X294.589Y153.142
X294.749Y153.094
X294.785Y153.083
X294.821Y153.071
X294.857Y153.058
X294.892Y153.044
X294.927Y153.029
X294.961Y153.014
X294.995Y152.997
X295.029Y152.98
X295.185Y152.899
X295.216Y152.882
X295.247Y152.864
X295.278Y152.845
X295.309Y152.826
X295.339Y152.806
X295.368Y152.786
X295.397Y152.765
X295.426Y152.743
X295.551Y152.645
X295.584Y152.618
X295.616Y152.591
X295.648Y152.563
X295.679Y152.533
X295.709Y152.503
X295.738Y152.473
X295.767Y152.441
X295.794Y152.409
X295.936Y152.238
X295.961Y152.207
X295.986Y152.176
X296.009Y152.144
X296.032Y152.111
X296.054Y152.077
X296.075Y152.044
X296.095Y152.009
X296.114Y151.974
X296.133Y151.939
X296.15Y151.903
X296.254Y151.686
X296.271Y151.649
X296.287Y151.612
X296.302Y151.574
X296.316Y151.536
X296.329Y151.497
X296.341Y151.459
X296.352Y151.42
X296.362Y151.38
X296.408Y151.193
X296.417Y151.152
X296.425Y151.112
X296.433Y151.071
X296.439Y151.03
X296.444Y150.989
X296.448Y150.948
X296.466Y150.726
X296.469Y150.693
X296.47Y150.66
X296.471Y150.627
X296.472Y150.594
Y133.619
X296.471Y133.578
X296.47Y133.538
X296.467Y133.497
X296.463Y133.457
X296.427Y133.096
X296.422Y133.059
X296.417Y133.022
X296.411Y132.984
X296.404Y132.947
X296.396Y132.91
X296.388Y132.873
X296.378Y132.837
X296.368Y132.801
X296.356Y132.765
X296.344Y132.729
X296.26Y132.489
X296.246Y132.452
X296.232Y132.416
X296.216Y132.38
X296.2Y132.344
X296.183Y132.308
X296.165Y132.273
X296.146Y132.239
X296.126Y132.205
X296.106Y132.171
X296.084Y132.138
X295.98Y131.982
X295.959Y131.95
X295.937Y131.919
X295.914Y131.889
X295.89Y131.859
X295.866Y131.83
X295.841Y131.801
X295.815Y131.773
X295.789Y131.746
X295.762Y131.719
X295.734Y131.693
X295.615Y131.583
X295.583Y131.554
X295.55Y131.526
X295.516Y131.499
X295.481Y131.473
X295.446Y131.447
X295.41Y131.423
X295.373Y131.4
X295.336Y131.377
X295.214Y131.307
X295.183Y131.289
X295.15Y131.272
X295.118Y131.255
X295.085Y131.239
X295.052Y131.224
X295.018Y131.21
X294.984Y131.197
X294.95Y131.184
X294.837Y131.144
X294.795Y131.129
X294.752Y131.116
X294.709Y131.104
X294.666Y131.093
X294.622Y131.084
X294.578Y131.075
X294.455Y131.054
X294.419Y131.048
X294.383Y131.043
X294.346Y131.038
X294.31Y131.035
X294.273Y131.032
X294.237Y131.031
X294.159Y131.028
X294.131
X286.131
X286.092
X286.053Y131.03
X286.014Y131.032
X285.975Y131.036
X285.936Y131.04
X285.897Y131.045
X285.859Y131.051
X285.821Y131.058
X285.782Y131.067
X285.744Y131.076
X285.707Y131.086
X285.669Y131.096
X285.632Y131.108
X285.595Y131.121
X285.558Y131.134
X285.522Y131.149
X285.486Y131.164
X285.451Y131.181
X285.416Y131.198
X285.381Y131.216
X285.347Y131.234
X285.313Y131.254
X285.28Y131.275
X285.247Y131.296
X285.215Y131.318
X285.184Y131.341
X285.152Y131.364
X285.122Y131.389
X285.092Y131.414
X285.063Y131.44
X285.034Y131.466
X285.005Y131.495
X284.978Y131.523
X284.952Y131.551
X284.926Y131.58
X284.901Y131.61
X284.876Y131.641
X284.853Y131.672
X284.83Y131.703
X284.808Y131.736
X284.786Y131.768
X284.766Y131.801
X284.746Y131.835
X284.727Y131.869
X284.709Y131.904
X284.692Y131.939
X284.676Y131.975
X284.661Y132.01
X284.646Y132.047
X284.633Y132.083
X284.62Y132.12
X284.608Y132.157
X284.597Y132.195
X284.587Y132.233
X284.578Y132.271
X284.57Y132.309
X284.563Y132.347
X284.557Y132.386
X284.552Y132.424
X284.547Y132.463
X284.544Y132.502
X284.542Y132.541
X284.54Y132.58
Y132.619
Y137.992
X282.159Y140.544
X279.483Y143.032
X277.287Y144.708
X276.386Y145.251
X275.569Y145.626
X273.133Y146.349
X270.508Y146.822
X266.963Y147.125
X262.927Y147.133
X258.212Y146.788
X256.338Y146.541
X256.304Y146.537
X256.269Y146.534
X256.234Y146.531
X256.2Y146.529
X256.165Y146.528
X256.131
X241.131
X241.087
X241.043Y146.53
X240.999Y146.533
X240.956Y146.538
X236.581Y147.022
X232.192Y147.179
X228.455Y147.019
X225.016Y146.547
X223.311Y146.149
X221.735Y145.642
X220.411Y144.977
X218.393Y143.533
X215.912Y141.33
X213.35Y138.711
X212.722Y138.01
Y132.619
X212.721Y132.58
X212.72Y132.541
X212.717Y132.502
X212.714Y132.463
X212.71Y132.424
X212.704Y132.386
X212.698Y132.347
X212.691Y132.309
X212.683Y132.271
X212.674Y132.233
X212.664Y132.195
X212.653Y132.157
X212.641Y132.12
X212.629Y132.083
X212.615Y132.047
X212.601Y132.01
X212.585Y131.975
X212.569Y131.939
X212.552Y131.904
X212.534Y131.869
X212.515Y131.835
X212.495Y131.801
X212.475Y131.768
X212.454Y131.736
X212.432Y131.703
X212.409Y131.672
X212.385Y131.641
X212.361Y131.61
X212.336Y131.58
X212.31Y131.551
X212.283Y131.523
X212.255Y131.494
X212.227Y131.466
X212.198Y131.44
X212.169Y131.414
X212.139Y131.389
X212.109Y131.364
X212.078Y131.341
X212.046Y131.318
X212.014Y131.296
X211.981Y131.275
X211.948Y131.254
X211.914Y131.234
X211.88Y131.216
X211.846Y131.198
X211.81Y131.181
X211.775Y131.164
X211.739Y131.149
X211.703Y131.134
X211.666Y131.121
X211.629Y131.108
X211.592Y131.096
X211.555Y131.086
X211.517Y131.076
X211.479Y131.067
X211.441Y131.058
X211.403Y131.051
X211.364Y131.045
X211.325Y131.04
X211.287Y131.036
X211.248Y131.032
X211.209Y131.03
X211.17Y131.028
X211.131
X203.131
X203.094
X203.057Y131.03
X203.021Y131.032
X202.984Y131.035
X202.948Y131.038
X202.912Y131.043
X202.781Y131.061
X202.743Y131.067
X202.705Y131.074
X202.667Y131.081
X202.629Y131.09
X202.591Y131.099
X202.554Y131.11
X202.517Y131.121
X202.48Y131.133
X202.349Y131.179
X202.315Y131.191
X202.281Y131.204
X202.247Y131.218
X202.214Y131.232
X202.181Y131.247
X202.149Y131.263
X202.117Y131.28
X202.085Y131.298
X201.975Y131.36
X201.938Y131.381
X201.902Y131.403
X201.867Y131.427
X201.832Y131.451
X201.798Y131.476
X201.765Y131.502
X201.733Y131.528
X201.701Y131.556
X201.567Y131.675
X201.538Y131.701
X201.51Y131.728
X201.482Y131.756
X201.456Y131.784
X201.429Y131.813
X201.404Y131.843
X201.379Y131.873
X201.355Y131.904
X201.332Y131.935
X201.31Y131.967
X201.2Y132.129
X201.179Y132.16
Z-0.8F50
X201.159Y132.191F100
X201.14Y132.223
X201.121Y132.255
X201.104Y132.288
X201.087Y132.322
X201.071Y132.355
X201.055Y132.389
X201.041Y132.424
X201.027Y132.458
X200.943Y132.678
X200.928Y132.721
X200.913Y132.764
X200.9Y132.808
X200.888Y132.852
X200.878Y132.896
X200.868Y132.94
X200.835Y133.112
X200.826Y133.158
X200.819Y133.204
X200.814Y133.251
X200.81Y133.297
X200.794Y133.498
X200.792Y133.528
X200.791Y133.558
X200.79Y133.589
Y133.619
Y150.594
Y150.628
X200.791Y150.662
X200.793Y150.697
X200.796Y150.731
X200.799Y150.765
X200.803Y150.799
X200.854Y151.196
X200.86Y151.235
X200.867Y151.274
X200.874Y151.313
X200.883Y151.352
X200.892Y151.39
X200.903Y151.429
X200.914Y151.466
X200.926Y151.504
X200.939Y151.541
X200.954Y151.578
X201.047Y151.812
X201.061Y151.848
X201.077Y151.883
X201.093Y151.918
X201.11Y151.952
X201.128Y151.986
X201.147Y152.02
X201.167Y152.053
X201.187Y152.086
X201.209Y152.118
X201.231Y152.149
X201.342Y152.306
X201.364Y152.336
X201.387Y152.365
X201.41Y152.394
X201.434Y152.422
X201.458Y152.45
X201.483Y152.477
X201.509Y152.503
X201.535Y152.529
X201.562Y152.554
X201.59Y152.579
X201.714Y152.687
X201.745Y152.714
X201.777Y152.74
X201.81Y152.765
X201.844Y152.79
X201.878Y152.813
X201.912Y152.836
X201.948Y152.857
X201.983Y152.878
X202.107Y152.947
X202.137Y152.964
X202.168Y152.979
X202.199Y152.995
X202.23Y153.009
X202.262Y153.023
X202.294Y153.036
X202.326Y153.049
X202.359Y153.061
X202.469Y153.099
X202.507Y153.112
X202.544Y153.123
X202.582Y153.134
X202.62Y153.144
X202.659Y153.153
X202.697Y153.161
X202.796Y153.179
X202.841Y153.187
X202.888Y153.194
X202.934Y153.199
X202.98Y153.203
X203.018Y153.206
X203.074Y153.209
X203.131Y153.21
X216.54
Y160.244
Y160.284
X216.542Y160.325
X216.544Y160.365
X216.548Y160.405
X216.553Y160.446
X216.558Y160.486
X216.565Y160.526
X216.572Y160.564
X216.581Y160.603
X216.59Y160.641
X216.6Y160.679
X216.611Y160.716
X216.624Y160.754
X216.637Y160.791
X216.651Y160.828
X216.665Y160.863
X216.683Y160.904
X216.694Y160.928
X216.706Y160.953
X216.723Y160.986
X216.741Y161.018
X216.759Y161.05
X216.778Y161.081
X216.798Y161.112
X216.818Y161.143
X216.839Y161.173
X216.863Y161.205
X216.887Y161.237
X216.913Y161.267
X216.939Y161.297
X216.965Y161.327
X216.993Y161.356
X217.021Y161.384
X217.05Y161.411
X217.079Y161.438
X217.109Y161.464
X217.14Y161.489
X217.172Y161.513
X217.204Y161.537
X217.236Y161.56
X217.27Y161.582
X217.303Y161.603
X217.338Y161.623
X217.372Y161.642
X217.406Y161.66
X217.44Y161.677
X217.475Y161.694
X217.51Y161.709
X217.546Y161.724
X217.582Y161.737
X217.618Y161.75
X217.655Y161.762
X217.692Y161.773
X217.729Y161.783
X217.766Y161.793
X217.804Y161.801
X217.842Y161.808
X217.88Y161.815
X217.918Y161.821
X217.956Y161.825
X217.995Y161.829
X218.033Y161.832
X218.071Y161.834
X218.11Y161.835
X218.148
X218.188Y161.834
X218.225Y161.832
X218.263Y161.829
X218.3Y161.826
X218.338Y161.821
X218.375Y161.816
X218.412Y161.81
X218.449Y161.803
X218.486Y161.795
X218.523Y161.786
X218.559Y161.776
X218.595Y161.766
X218.631Y161.754
X241.388Y154.21
X255.875
X288.633Y165.005
X288.671Y165.017
X288.709Y165.028
X288.748Y165.038
X288.787Y165.047
X288.826Y165.055
X288.865Y165.063
X288.905Y165.069
X288.944Y165.074
X288.984Y165.078
X289.024Y165.081
X289.064Y165.083
X289.104Y165.085
X289.145
X289.184Y165.084
X289.224Y165.082
X289.263Y165.079
X289.303Y165.076
X289.342Y165.071
X289.381Y165.065
X289.42Y165.058
X289.459Y165.051
X289.498Y165.042
X289.537Y165.032
X289.575Y165.022
X289.613Y165.01
X289.65Y164.998
X289.688Y164.984
X289.725Y164.97
X289.761Y164.955
X289.797Y164.939
X289.833Y164.921
X289.868Y164.904
X289.903Y164.885
X289.938Y164.865
X289.972Y164.844
X290.005Y164.823
X290.038Y164.801
X290.07Y164.778
X290.101Y164.755
X290.132Y164.73
X290.162Y164.705
X290.192Y164.679
X290.221Y164.653
X290.249Y164.625
X290.277Y164.597
X290.304Y164.569
X290.33Y164.539
X290.356Y164.509
X290.381Y164.478
X290.405Y164.446
X290.428Y164.414
X290.451Y164.382
X290.473Y164.349
X290.493Y164.315
X290.513Y164.281
X290.533Y164.246
X290.552Y164.209
X290.57Y164.172
X290.587Y164.135
X290.615Y164.066
X290.624Y164.044
X290.637Y164.005
X290.65Y163.965
X290.662Y163.926
X290.673Y163.886
X290.682Y163.845
X290.691Y163.805
X290.699Y163.764
X290.705Y163.725
X290.71Y163.687
X290.714Y163.648
X290.717Y163.61
X290.72Y163.571
X290.721Y163.533
X290.722Y163.494
Y153.21
X294.131
X294.169Y153.209
X294.208Y153.208
X294.247Y153.206
X294.285Y153.202
X294.324Y153.198
X294.363Y153.193
X294.401Y153.187
X294.439Y153.18
X294.477Y153.172
X294.515Y153.163
X294.552Y153.153
X294.589Y153.142
X294.749Y153.094
X294.785Y153.083
X294.821Y153.071
X294.857Y153.058
X294.892Y153.044
X294.927Y153.029
X294.961Y153.014
X294.995Y152.997
X295.029Y152.98
X295.185Y152.899
X295.216Y152.882
X295.247Y152.864
X295.278Y152.845
X295.309Y152.826
X295.339Y152.806
X295.368Y152.786
X295.397Y152.765
X295.426Y152.743
X295.551Y152.645
X295.584Y152.618
X295.616Y152.591
X295.648Y152.563
X295.679Y152.533
X295.709Y152.503
X295.738Y152.473
X295.767Y152.441
X295.794Y152.409
X295.936Y152.238
X295.961Y152.207
X295.986Y152.176
X296.009Y152.144
X296.032Y152.111
X296.054Y152.077
X296.075Y152.044
X296.095Y152.009
X296.114Y151.974
X296.133Y151.939
X296.15Y151.903
X296.254Y151.686
X296.271Y151.649
X296.287Y151.612
X296.302Y151.574
X296.316Y151.536
X296.329Y151.497
X296.341Y151.459
X296.352Y151.42
X296.362Y151.38
X296.408Y151.193
X296.417Y151.152
X296.425Y151.112
X296.433Y151.071
X296.439Y151.03
X296.444Y150.989
X296.448Y150.948
X296.466Y150.726
X296.469Y150.693
X296.47Y150.66
X296.471Y150.627
X296.472Y150.594
Y133.619
X296.471Y133.578
X296.47Y133.538
X296.467Y133.497
X296.463Y133.457
X296.427Y133.096
X296.422Y133.059
X296.417Y133.022
X296.411Y132.984
X296.404Y132.947
X296.396Y132.91
X296.388Y132.873
X296.378Y132.837
X296.368Y132.801
X296.356Y132.765
X296.344Y132.729
X296.26Y132.489
X296.246Y132.452
X296.232Y132.416
X296.216Y132.38
X296.2Y132.344
X296.183Y132.308
X296.165Y132.273
X296.146Y132.239
X296.126Y132.205
X296.106Y132.171
X296.084Y132.138
X295.98Y131.982
X295.959Y131.95
X295.937Y131.919
X295.914Y131.889
X295.89Y131.859
X295.866Y131.83
X295.841Y131.801
X295.815Y131.773
X295.789Y131.746
X295.762Y131.719
X295.734Y131.693
X295.615Y131.583
X295.583Y131.554
X295.55Y131.526
X295.516Y131.499
X295.481Y131.473
X295.446Y131.447
X295.41Y131.423
X295.373Y131.4
X295.336Y131.377
X295.214Y131.307
X295.183Y131.289
X295.15Y131.272
X295.118Y131.255
X295.085Y131.239
X295.052Y131.224
X295.018Y131.21
X294.984Y131.197
X294.95Y131.184
X294.837Y131.144
X294.795Y131.129
X294.752Y131.116
X294.709Y131.104
X294.666Y131.093
X294.622Y131.084
X294.578Y131.075
X294.455Y131.054
X294.419Y131.048
X294.383Y131.043
X294.346Y131.038
X294.31Y131.035
X294.273Y131.032
X294.237Y131.031
X294.159Y131.028
X294.131
X286.131
X286.092
X286.053Y131.03
X286.014Y131.032
X285.975Y131.036
X285.936Y131.04
X285.897Y131.045
X285.859Y131.051
X285.821Y131.058
X285.782Y131.067
X285.744Y131.076
X285.707Y131.086
X285.669Y131.096
X285.632Y131.108
X285.595Y131.121
X285.558Y131.134
X285.522Y131.149
X285.486Y131.164
X285.451Y131.181
X285.416Y131.198
X285.381Y131.216
X285.347Y131.234
X285.313Y131.254
X285.28Y131.275
X285.247Y131.296
X285.215Y131.318
X285.184Y131.341
X285.152Y131.364
X285.122Y131.389
X285.092Y131.414
X285.063Y131.44
X285.034Y131.466
X285.005Y131.495
X284.978Y131.523
X284.952Y131.551
X284.926Y131.58
X284.901Y131.61
X284.876Y131.641
X284.853Y131.672
X284.83Y131.703
X284.808Y131.736
X284.786Y131.768
X284.766Y131.801
X284.746Y131.835
X284.727Y131.869
X284.709Y131.904
X284.692Y131.939
X284.676Y131.975
X284.661Y132.01
X284.646Y132.047
X284.633Y132.083
X284.62Y132.12
X284.608Y132.157
X284.597Y132.195
X284.587Y132.233
X284.578Y132.271
X284.57Y132.309
X284.563Y132.347
X284.557Y132.386
X284.552Y132.424
X284.547Y132.463
X284.544Y132.502
X284.542Y132.541
X284.54Y132.58
Y132.619
Y137.992
X282.159Y140.544
X279.483Y143.032
X277.287Y144.708
X276.386Y145.251
X275.569Y145.626
X273.133Y146.349
X270.508Y146.822
X266.963Y147.125
X262.927Y147.133
X258.212Y146.788
X256.338Y146.541
X256.304Y146.537
X256.269Y146.534
X256.234Y146.531
X256.2Y146.529
X256.165Y146.528
X256.131
X241.131
X241.087
X241.043Y146.53
X240.999Y146.533
X240.956Y146.538
X236.581Y147.022
X232.192Y147.179
X228.455Y147.019
X225.016Y146.547
X223.311Y146.149
X221.735Y145.642
X220.411Y144.977
X218.393Y143.533
X215.912Y141.33
X213.35Y138.711
X212.722Y138.01
Y132.619
X212.721Y132.58
X212.72Y132.541
X212.717Y132.502
X212.714Y132.463
X212.71Y132.424
X212.704Y132.386
X212.698Y132.347
X212.691Y132.309
X212.683Y132.271
X212.674Y132.233
X212.664Y132.195
X212.653Y132.157
X212.641Y132.12
X212.629Y132.083
X212.615Y132.047
X212.601Y132.01
X212.585Y131.975
X212.569Y131.939
X212.552Y131.904
X212.534Y131.869
X212.515Y131.835
X212.495Y131.801
X212.475Y131.768
X212.454Y131.736
X212.432Y131.703
X212.409Y131.672
X212.385Y131.641
X212.361Y131.61
X212.336Y131.58
X212.31Y131.551
X212.283Y131.523
X212.255Y131.494
X212.227Y131.466
X212.198Y131.44
X212.169Y131.414
X212.139Y131.389
X212.109Y131.364
X212.078Y131.341
X212.046Y131.318
X212.014Y131.296
X211.981Y131.275
X211.948Y131.254
X211.914Y131.234
X211.88Y131.216
X211.846Y131.198
X211.81Y131.181
X211.775Y131.164
X211.739Y131.149
X211.703Y131.134
X211.666Y131.121
X211.629Y131.108
X211.592Y131.096
X211.555Y131.086
X211.517Y131.076
X211.479Y131.067
X211.441Y131.058
X211.403Y131.051
X211.364Y131.045
X211.325Y131.04
X211.287Y131.036
X211.248Y131.032
X211.209Y131.03
X211.17Y131.028
X211.131
X203.131
X203.094
X203.057Y131.03
X203.021Y131.032
X202.984Y131.035
X202.948Y131.038
X202.912Y131.043
X202.781Y131.061
X202.743Y131.067
X202.705Y131.074
X202.667Y131.081
X202.629Y131.09
X202.591Y131.099
X202.554Y131.11
X202.517Y131.121
X202.48Y131.133
X202.349Y131.179
X202.315Y131.191
X202.281Y131.204
X202.247Y131.218
X202.214Y131.232
X202.181Y131.247
X202.149Y131.263
X202.117Y131.28
X202.085Y131.298
X201.975Y131.36
X201.938Y131.381
X201.902Y131.403
X201.867Y131.427
X201.832Y131.451
X201.798Y131.476
X201.765Y131.502
X201.733Y131.528
X201.701Y131.556
X201.567Y131.675
X201.538Y131.701
X201.51Y131.728
X201.482Y131.756
X201.456Y131.784
X201.429Y131.813
X201.404Y131.843
X201.379Y131.873
X201.355Y131.904
X201.332Y131.935
X201.31Y131.967
X201.2Y132.129
X201.179Y132.16
Z-0.9F50
X201.159Y132.191F100
X201.14Y132.223
X201.121Y132.255
X201.104Y132.288
X201.087Y132.322
X201.071Y132.355
X201.055Y132.389
X201.041Y132.424
X201.027Y132.458
X200.943Y132.678
X200.928Y132.721
X200.913Y132.764
X200.9Y132.808
X200.888Y132.852
X200.878Y132.896
X200.868Y132.94
X200.835Y133.112
X200.826Y133.158
X200.819Y133.204
X200.814Y133.251
X200.81Y133.297
X200.794Y133.498
X200.792Y133.528
X200.791Y133.558
X200.79Y133.589
Y133.619
Y150.594
Y150.628
X200.791Y150.662
X200.793Y150.697
X200.796Y150.731
X200.799Y150.765
X200.803Y150.799
X200.854Y151.196
X200.86Y151.235
X200.867Y151.274
X200.874Y151.313
X200.883Y151.352
X200.892Y151.39
X200.903Y151.429
X200.914Y151.466
X200.926Y151.504
X200.939Y151.541
X200.954Y151.578
X201.047Y151.812
X201.061Y151.848
X201.077Y151.883
X201.093Y151.918
X201.11Y151.952
X201.128Y151.986
X201.147Y152.02
X201.167Y152.053
X201.187Y152.086
X201.209Y152.118
X201.231Y152.149
X201.342Y152.306
X201.364Y152.336
X201.387Y152.365
X201.41Y152.394
X201.434Y152.422
X201.458Y152.45
X201.483Y152.477
X201.509Y152.503
X201.535Y152.529
X201.562Y152.554
X201.59Y152.579
X201.714Y152.687
X201.745Y152.714
X201.777Y152.74
X201.81Y152.765
X201.844Y152.79
X201.878Y152.813
X201.912Y152.836
X201.948Y152.857
X201.983Y152.878
X202.107Y152.947
X202.137Y152.964
X202.168Y152.979
X202.199Y152.995
X202.23Y153.009
X202.262Y153.023
X202.294Y153.036
X202.326Y153.049
X202.359Y153.061
X202.469Y153.099
X202.507Y153.112
X202.544Y153.123
X202.582Y153.134
X202.62Y153.144
X202.659Y153.153
X202.697Y153.161
X202.796Y153.179
X202.841Y153.187
X202.888Y153.194
X202.934Y153.199
X202.98Y153.203
X203.018Y153.206
X203.074Y153.209
X203.131Y153.21
X216.54
Y160.244
Y160.284
X216.542Y160.325
X216.544Y160.365
X216.548Y160.405
X216.553Y160.446
X216.558Y160.486
X216.565Y160.526
X216.572Y160.564
X216.581Y160.603
X216.59Y160.641
X216.6Y160.679
X216.611Y160.716
X216.624Y160.754
X216.637Y160.791
X216.651Y160.828
X216.665Y160.863
X216.683Y160.904
X216.694Y160.928
X216.706Y160.953
X216.723Y160.986
X216.741Y161.018
X216.759Y161.05
X216.778Y161.081
X216.798Y161.112
X216.818Y161.143
X216.839Y161.173
X216.863Y161.205
X216.887Y161.237
X216.913Y161.267
X216.939Y161.297
X216.965Y161.327
X216.993Y161.356
X217.021Y161.384
X217.05Y161.411
X217.079Y161.438
X217.109Y161.464
X217.14Y161.489
X217.172Y161.513
X217.204Y161.537
X217.236Y161.56
X217.27Y161.582
X217.303Y161.603
X217.338Y161.623
X217.372Y161.642
X217.406Y161.66
X217.44Y161.677
X217.475Y161.694
X217.51Y161.709
X217.546Y161.724
X217.582Y161.737
X217.618Y161.75
X217.655Y161.762
X217.692Y161.773
X217.729Y161.783
X217.766Y161.793
X217.804Y161.801
X217.842Y161.808
X217.88Y161.815
X217.918Y161.821
X217.956Y161.825
X217.995Y161.829
X218.033Y161.832
X218.071Y161.834
X218.11Y161.835
X218.148
X218.188Y161.834
X218.225Y161.832
X218.263Y161.829
X218.3Y161.826
X218.338Y161.821
X218.375Y161.816
X218.412Y161.81
X218.449Y161.803
X218.486Y161.795
X218.523Y161.786
X218.559Y161.776
X218.595Y161.766
X218.631Y161.754
X241.388Y154.21
X255.875
X288.633Y165.005
X288.671Y165.017
X288.709Y165.028
X288.748Y165.038
X288.787Y165.047
X288.826Y165.055
X288.865Y165.063
X288.905Y165.069
X288.944Y165.074
X288.984Y165.078
X289.024Y165.081
X289.064Y165.083
X289.104Y165.085
X289.145
X289.184Y165.084
X289.224Y165.082
X289.263Y165.079
X289.303Y165.076
X289.342Y165.071
X289.381Y165.065
X289.42Y165.058
X289.459Y165.051
X289.498Y165.042
X289.537Y165.032
X289.575Y165.022
X289.613Y165.01
X289.65Y164.998
X289.688Y164.984
X289.725Y164.97
X289.761Y164.955
X289.797Y164.939
X289.833Y164.921
X289.868Y164.904
X289.903Y164.885
X289.938Y164.865
X289.972Y164.844
X290.005Y164.823
X290.038Y164.801
X290.07Y164.778
X290.101Y164.755
X290.132Y164.73
X290.162Y164.705
X290.192Y164.679
X290.221Y164.653
X290.249Y164.625
X290.277Y164.597
X290.304Y164.569
X290.33Y164.539
X290.356Y164.509
X290.381Y164.478
X290.405Y164.446
X290.428Y164.414
X290.451Y164.382
X290.473Y164.349
X290.493Y164.315
X290.513Y164.281
X290.533Y164.246
X290.552Y164.209
X290.57Y164.172
X290.587Y164.135
X290.615Y164.066
X290.624Y164.044
X290.637Y164.005
X290.65Y163.965
X290.662Y163.926
X290.673Y163.886
X290.682Y163.845
X290.691Y163.805
X290.699Y163.764
X290.705Y163.725
X290.71Y163.687
X290.714Y163.648
X290.717Y163.61
X290.72Y163.571
X290.721Y163.533
X290.722Y163.494
Y153.21
X294.131
X294.169Y153.209
X294.208Y153.208
X294.247Y153.206
X294.285Y153.202
X294.324Y153.198
X294.363Y153.193
X294.401Y153.187
X294.439Y153.18
X294.477Y153.172
X294.515Y153.163
X294.552Y153.153
X294.589Y153.142
X294.749Y153.094
X294.785Y153.083
X294.821Y153.071
X294.857Y153.058
X294.892Y153.044
X294.927Y153.029
X294.961Y153.014
X294.995Y152.997
X295.029Y152.98
X295.185Y152.899
X295.216Y152.882
X295.247Y152.864
X295.278Y152.845
X295.309Y152.826
X295.339Y152.806
X295.368Y152.786
X295.397Y152.765
X295.426Y152.743
X295.551Y152.645
X295.584Y152.618
X295.616Y152.591
X295.648Y152.563
X295.679Y152.533
X295.709Y152.503
X295.738Y152.473
X295.767Y152.441
X295.794Y152.409
X295.936Y152.238
X295.961Y152.207
X295.986Y152.176
X296.009Y152.144
X296.032Y152.111
X296.054Y152.077
X296.075Y152.044
X296.095Y152.009
X296.114Y151.974
X296.133Y151.939
X296.15Y151.903
X296.254Y151.686
X296.271Y151.649
X296.287Y151.612
X296.302Y151.574
X296.316Y151.536
X296.329Y151.497
X296.341Y151.459
X296.352Y151.42
X296.362Y151.38
X296.408Y151.193
X296.417Y151.152
X296.425Y151.112
X296.433Y151.071
X296.439Y151.03
X296.444Y150.989
X296.448Y150.948
X296.466Y150.726
X296.469Y150.693
X296.47Y150.66
X296.471Y150.627
X296.472Y150.594
Y133.619
X296.471Y133.578
X296.47Y133.538
X296.467Y133.497
X296.463Y133.457
X296.427Y133.096
X296.422Y133.059
X296.417Y133.022
X296.411Y132.984
X296.404Y132.947
X296.396Y132.91
X296.388Y132.873
X296.378Y132.837
X296.368Y132.801
X296.356Y132.765
X296.344Y132.729
X296.26Y132.489
X296.246Y132.452
X296.232Y132.416
X296.216Y132.38
X296.2Y132.344
X296.183Y132.308
X296.165Y132.273
X296.146Y132.239
X296.126Y132.205
X296.106Y132.171
X296.084Y132.138
X295.98Y131.982
X295.959Y131.95
X295.937Y131.919
X295.914Y131.889
X295.89Y131.859
X295.866Y131.83
X295.841Y131.801
X295.815Y131.773
X295.789Y131.746
X295.762Y131.719
X295.734Y131.693
X295.615Y131.583
X295.583Y131.554
X295.55Y131.526
X295.516Y131.499
X295.481Y131.473
X295.446Y131.447
X295.41Y131.423
X295.373Y131.4
X295.336Y131.377
X295.214Y131.307
X295.183Y131.289
X295.15Y131.272
X295.118Y131.255
X295.085Y131.239
X295.052Y131.224
X295.018Y131.21
X294.984Y131.197
X294.95Y131.184
X294.837Y131.144
X294.795Y131.129
X294.752Y131.116
X294.709Y131.104
X294.666Y131.093
X294.622Y131.084
X294.578Y131.075
X294.455Y131.054
X294.419Y131.048
X294.383Y131.043
X294.346Y131.038
X294.31Y131.035
X294.273Y131.032
X294.237Y131.031
X294.159Y131.028
X294.131
X286.131
X286.092
X286.053Y131.03
X286.014Y131.032
X285.975Y131.036
X285.936Y131.04
X285.897Y131.045
X285.859Y131.051
X285.821Y131.058
X285.782Y131.067
X285.744Y131.076
X285.707Y131.086
X285.669Y131.096
X285.632Y131.108
X285.595Y131.121
X285.558Y131.134
X285.522Y131.149
X285.486Y131.164
X285.451Y131.181
X285.416Y131.198
X285.381Y131.216
X285.347Y131.234
X285.313Y131.254
X285.28Y131.275
X285.247Y131.296
X285.215Y131.318
X285.184Y131.341
X285.152Y131.364
X285.122Y131.389
X285.092Y131.414
X285.063Y131.44
X285.034Y131.466
X285.005Y131.495
X284.978Y131.523
X284.952Y131.551
X284.926Y131.58
X284.901Y131.61
X284.876Y131.641
X284.853Y131.672
X284.83Y131.703
X284.808Y131.736
X284.786Y131.768
X284.766Y131.801
X284.746Y131.835
X284.727Y131.869
X284.709Y131.904
X284.692Y131.939
X284.676Y131.975
X284.661Y132.01
X284.646Y132.047
X284.633Y132.083
X284.62Y132.12
X284.608Y132.157
X284.597Y132.195
X284.587Y132.233
X284.578Y132.271
X284.57Y132.309
X284.563Y132.347
X284.557Y132.386
X284.552Y132.424
X284.547Y132.463
X284.544Y132.502
X284.542Y132.541
X284.54Y132.58
Y132.619
Y137.992
X282.159Y140.544
X279.483Y143.032
X277.287Y144.708
X276.386Y145.251
X275.569Y145.626
X273.133Y146.349
X270.508Y146.822
X266.963Y147.125
X262.927Y147.133
X258.212Y146.788
X256.338Y146.541
X256.304Y146.537
X256.269Y146.534
X256.234Y146.531
X256.2Y146.529
X256.165Y146.528
X256.131
X241.131
X241.087
X241.043Y146.53
X240.999Y146.533
X240.956Y146.538
X236.581Y147.022
X232.192Y147.179
X228.455Y147.019
X225.016Y146.547
X223.311Y146.149
X221.735Y145.642
X220.411Y144.977
X218.393Y143.533
X215.912Y141.33
X213.35Y138.711
X212.722Y138.01
Y132.619
X212.721Y132.58
X212.72Y132.541
X212.717Y132.502
X212.714Y132.463
X212.71Y132.424
X212.704Y132.386
X212.698Y132.347
X212.691Y132.309
X212.683Y132.271
X212.674Y132.233
X212.664Y132.195
X212.653Y132.157
X212.641Y132.12
X212.629Y132.083
X212.615Y132.047
X212.601Y132.01
X212.585Y131.975
X212.569Y131.939
X212.552Y131.904
X212.534Y131.869
X212.515Y131.835
X212.495Y131.801
X212.475Y131.768
X212.454Y131.736
X212.432Y131.703
X212.409Y131.672
X212.385Y131.641
X212.361Y131.61
X212.336Y131.58
X212.31Y131.551
X212.283Y131.523
X212.255Y131.494
X212.227Y131.466
X212.198Y131.44
X212.169Y131.414
X212.139Y131.389
X212.109Y131.364
X212.078Y131.341
X212.046Y131.318
X212.014Y131.296
X211.981Y131.275
X211.948Y131.254
X211.914Y131.234
X211.88Y131.216
X211.846Y131.198
X211.81Y131.181
X211.775Y131.164
X211.739Y131.149
X211.703Y131.134
X211.666Y131.121
X211.629Y131.108
X211.592Y131.096
X211.555Y131.086
X211.517Y131.076
X211.479Y131.067
X211.441Y131.058
X211.403Y131.051
X211.364Y131.045
X211.325Y131.04
X211.287Y131.036
X211.248Y131.032
X211.209Y131.03
X211.17Y131.028
X211.131
X203.131
X203.094
X203.057Y131.03
X203.021Y131.032
X202.984Y131.035
X202.948Y131.038
X202.912Y131.043
X202.781Y131.061
X202.743Y131.067
X202.705Y131.074
X202.667Y131.081
X202.629Y131.09
X202.591Y131.099
X202.554Y131.11
X202.517Y131.121
X202.48Y131.133
X202.349Y131.179
X202.315Y131.191
X202.281Y131.204
X202.247Y131.218
X202.214Y131.232
X202.181Y131.247
X202.149Y131.263
X202.117Y131.28
X202.085Y131.298
X201.975Y131.36
X201.938Y131.381
X201.902Y131.403
X201.867Y131.427
X201.832Y131.451
X201.798Y131.476
X201.765Y131.502
X201.733Y131.528
X201.701Y131.556
X201.567Y131.675
X201.538Y131.701
X201.51Y131.728
X201.482Y131.756
X201.456Y131.784
X201.429Y131.813
X201.404Y131.843
X201.379Y131.873
X201.355Y131.904
X201.332Y131.935
X201.31Y131.967
X201.2Y132.129
X201.179Y132.16
Z-1F50
X201.159Y132.191F100
X201.14Y132.223
X201.121Y132.255
X201.104Y132.288
X201.087Y132.322
X201.071Y132.355
X201.055Y132.389
X201.041Y132.424
X201.027Y132.458
X200.943Y132.678
X200.928Y132.721
X200.913Y132.764
X200.9Y132.808
X200.888Y132.852
X200.878Y132.896
X200.868Y132.94
X200.835Y133.112
X200.826Y133.158
X200.819Y133.204
X200.814Y133.251
X200.81Y133.297
X200.794Y133.498
X200.792Y133.528
X200.791Y133.558
X200.79Y133.589
Y133.619
Y150.594
Y150.628
X200.791Y150.662
X200.793Y150.697
X200.796Y150.731
X200.799Y150.765
X200.803Y150.799
X200.854Y151.196
X200.86Y151.235
X200.867Y151.274
X200.874Y151.313
X200.883Y151.352
X200.892Y151.39
X200.903Y151.429
X200.914Y151.466
X200.926Y151.504
X200.939Y151.541
X200.954Y151.578
X201.047Y151.812
X201.061Y151.848
X201.077Y151.883
X201.093Y151.918
X201.11Y151.952
X201.128Y151.986
X201.147Y152.02
X201.167Y152.053
X201.187Y152.086
X201.209Y152.118
X201.231Y152.149
X201.342Y152.306
X201.364Y152.336
X201.387Y152.365
X201.41Y152.394
X201.434Y152.422
X201.458Y152.45
X201.483Y152.477
X201.509Y152.503
X201.535Y152.529
X201.562Y152.554
X201.59Y152.579
X201.714Y152.687
X201.745Y152.714
X201.777Y152.74
X201.81Y152.765
X201.844Y152.79
X201.878Y152.813
X201.912Y152.836
X201.948Y152.857
X201.983Y152.878
X202.107Y152.947
X202.137Y152.964
X202.168Y152.979
X202.199Y152.995
X202.23Y153.009
X202.262Y153.023
X202.294Y153.036
X202.326Y153.049
X202.359Y153.061
X202.469Y153.099
X202.507Y153.112
X202.544Y153.123
X202.582Y153.134
X202.62Y153.144
X202.659Y153.153
X202.697Y153.161
X202.796Y153.179
X202.841Y153.187
X202.888Y153.194
X202.934Y153.199
X202.98Y153.203
X203.018Y153.206
X203.074Y153.209
X203.131Y153.21
X216.54
Y160.244
Y160.284
X216.542Y160.325
X216.544Y160.365
X216.548Y160.405
X216.553Y160.446
X216.558Y160.486
X216.565Y160.526
X216.572Y160.564
X216.581Y160.603
X216.59Y160.641
X216.6Y160.679
X216.611Y160.716
X216.624Y160.754
X216.637Y160.791
X216.651Y160.828
X216.665Y160.863
X216.683Y160.904
X216.694Y160.928
X216.706Y160.953
X216.723Y160.986
X216.741Y161.018
X216.759Y161.05
X216.778Y161.081
X216.798Y161.112
X216.818Y161.143
X216.839Y161.173
X216.863Y161.205
X216.887Y161.237
X216.913Y161.267
X216.939Y161.297
X216.965Y161.327
X216.993Y161.356
X217.021Y161.384
X217.05Y161.411
X217.079Y161.438
X217.109Y161.464
X217.14Y161.489
X217.172Y161.513
X217.204Y161.537
X217.236Y161.56
X217.27Y161.582
X217.303Y161.603
X217.338Y161.623
X217.372Y161.642
X217.406Y161.66
X217.44Y161.677
X217.475Y161.694
X217.51Y161.709
X217.546Y161.724
X217.582Y161.737
X217.618Y161.75
X217.655Y161.762
X217.692Y161.773
X217.729Y161.783
X217.766Y161.793
X217.804Y161.801
X217.842Y161.808
X217.88Y161.815
X217.918Y161.821
X217.956Y161.825
X217.995Y161.829
X218.033Y161.832
X218.071Y161.834
X218.11Y161.835
X218.148
X218.188Y161.834
X218.225Y161.832
X218.263Y161.829
X218.3Y161.826
X218.338Y161.821
X218.375Y161.816
X218.412Y161.81
X218.449Y161.803
X218.486Y161.795
X218.523Y161.786
X218.559Y161.776
X218.595Y161.766
X218.631Y161.754
X241.388Y154.21
X255.875
X288.633Y165.005
X288.671Y165.017
X288.709Y165.028
X288.748Y165.038
X288.787Y165.047
X288.826Y165.055
X288.865Y165.063
X288.905Y165.069
X288.944Y165.074
X288.984Y165.078
X289.024Y165.081
X289.064Y165.083
X289.104Y165.085
X289.145
X289.184Y165.084
X289.224Y165.082
X289.263Y165.079
X289.303Y165.076
X289.342Y165.071
X289.381Y165.065
X289.42Y165.058
X289.459Y165.051
X289.498Y165.042
X289.537Y165.032
X289.575Y165.022
X289.613Y165.01
X289.65Y164.998
X289.688Y164.984
X289.725Y164.97
X289.761Y164.955
X289.797Y164.939
X289.833Y164.921
X289.868Y164.904
X289.903Y164.885
X289.938Y164.865
X289.972Y164.844
X290.005Y164.823
X290.038Y164.801
X290.07Y164.778
X290.101Y164.755
X290.132Y164.73
X290.162Y164.705
X290.192Y164.679
X290.221Y164.653
X290.249Y164.625
X290.277Y164.597
X290.304Y164.569
X290.33Y164.539
X290.356Y164.509
X290.381Y164.478
X290.405Y164.446
X290.428Y164.414
X290.451Y164.382
X290.473Y164.349
X290.493Y164.315
X290.513Y164.281
X290.533Y164.246
X290.552Y164.209
X290.57Y164.172
X290.587Y164.135
X290.615Y164.066
X290.624Y164.044
X290.637Y164.005
X290.65Y163.965
X290.662Y163.926
X290.673Y163.886
X290.682Y163.845
X290.691Y163.805
X290.699Y163.764
X290.705Y163.725
X290.71Y163.687
X290.714Y163.648
X290.717Y163.61
X290.72Y163.571
X290.721Y163.533
X290.722Y163.494
Y153.21
X294.131
X294.169Y153.209
X294.208Y153.208
X294.247Y153.206
X294.285Y153.202
X294.324Y153.198
X294.363Y153.193
X294.401Y153.187
X294.439Y153.18
X294.477Y153.172
X294.515Y153.163
X294.552Y153.153
X294.589Y153.142
X294.749Y153.094
X294.785Y153.083
X294.821Y153.071
X294.857Y153.058
X294.892Y153.044
X294.927Y153.029
X294.961Y153.014
X294.995Y152.997
X295.029Y152.98
X295.185Y152.899
X295.216Y152.882
X295.247Y152.864
X295.278Y152.845
X295.309Y152.826
X295.339Y152.806
X295.368Y152.786
X295.397Y152.765
X295.426Y152.743
X295.551Y152.645
X295.584Y152.618
X295.616Y152.591
X295.648Y152.563
X295.679Y152.533
X295.709Y152.503
X295.738Y152.473
X295.767Y152.441
X295.794Y152.409
X295.936Y152.238
X295.961Y152.207
X295.986Y152.176
X296.009Y152.144
X296.032Y152.111
X296.054Y152.077
X296.075Y152.044
X296.095Y152.009
X296.114Y151.974
X296.133Y151.939
X296.15Y151.903
X296.254Y151.686
X296.271Y151.649
X296.287Y151.612
X296.302Y151.574
X296.316Y151.536
X296.329Y151.497
X296.341Y151.459
X296.352Y151.42
X296.362Y151.38
X296.408Y151.193
X296.417Y151.152
X296.425Y151.112
X296.433Y151.071
X296.439Y151.03
X296.444Y150.989
X296.448Y150.948
X296.466Y150.726
X296.469Y150.693
X296.47Y150.66
X296.471Y150.627
X296.472Y150.594
Y133.619
X296.471Y133.578
X296.47Y133.538
X296.467Y133.497
X296.463Y133.457
X296.427Y133.096
X296.422Y133.059
X296.417Y133.022
X296.411Y132.984
X296.404Y132.947
X296.396Y132.91
X296.388Y132.873
X296.378Y132.837
X296.368Y132.801
X296.356Y132.765
X296.344Y132.729
X296.26Y132.489
X296.246Y132.452
X296.232Y132.416
X296.216Y132.38
X296.2Y132.344
X296.183Y132.308
X296.165Y132.273
X296.146Y132.239
X296.126Y132.205
X296.106Y132.171
X296.084Y132.138
X295.98Y131.982
X295.959Y131.95
X295.937Y131.919
X295.914Y131.889
X295.89Y131.859
X295.866Y131.83
X295.841Y131.801
X295.815Y131.773
X295.789Y131.746
X295.762Y131.719
X295.734Y131.693
X295.615Y131.583
X295.583Y131.554
X295.55Y131.526
X295.516Y131.499
X295.481Y131.473
X295.446Y131.447
X295.41Y131.423
X295.373Y131.4
X295.336Y131.377
X295.214Y131.307
X295.183Y131.289
X295.15Y131.272
X295.118Y131.255
X295.085Y131.239
X295.052Y131.224
X295.018Y131.21
X294.984Y131.197
X294.95Y131.184
X294.837Y131.144
X294.795Y131.129
X294.752Y131.116
X294.709Y131.104
X294.666Y131.093
X294.622Y131.084
X294.578Y131.075
X294.455Y131.054
X294.419Y131.048
X294.383Y131.043
X294.346Y131.038
X294.31Y131.035
X294.273Y131.032
X294.237Y131.031
X294.159Y131.028
X294.131
X286.131
X286.092
X286.053Y131.03
X286.014Y131.032
X285.975Y131.036
X285.936Y131.04
X285.897Y131.045
X285.859Y131.051
X285.821Y131.058
X285.782Y131.067
X285.744Y131.076
X285.707Y131.086
X285.669Y131.096
X285.632Y131.108
X285.595Y131.121
X285.558Y131.134
X285.522Y131.149
X285.486Y131.164
X285.451Y131.181
X285.416Y131.198
X285.381Y131.216
X285.347Y131.234
X285.313Y131.254
X285.28Y131.275
X285.247Y131.296
X285.215Y131.318
X285.184Y131.341
X285.152Y131.364
X285.122Y131.389
X285.092Y131.414
X285.063Y131.44
X285.034Y131.466
X285.005Y131.495
X284.978Y131.523
X284.952Y131.551
X284.926Y131.58
X284.901Y131.61
X284.876Y131.641
X284.853Y131.672
X284.83Y131.703
X284.808Y131.736
X284.786Y131.768
X284.766Y131.801
X284.746Y131.835
X284.727Y131.869
X284.709Y131.904
X284.692Y131.939
X284.676Y131.975
X284.661Y132.01
X284.646Y132.047
X284.633Y132.083
X284.62Y132.12
X284.608Y132.157
X284.597Y132.195
X284.587Y132.233
X284.578Y132.271
X284.57Y132.309
X284.563Y132.347
X284.557Y132.386
X284.552Y132.424
X284.547Y132.463
X284.544Y132.502
X284.542Y132.541
X284.54Y132.58
Y132.619
Y137.992
X282.159Y140.544
X279.483Y143.032
X277.287Y144.708
X276.386Y145.251
X275.569Y145.626
X273.133Y146.349
X270.508Y146.822
X266.963Y147.125
X262.927Y147.133
X258.212Y146.788
X256.338Y146.541
X256.304Y146.537
X256.269Y146.534
X256.234Y146.531
X256.2Y146.529
X256.165Y146.528
X256.131
X241.131
X241.087
X241.043Y146.53
X240.999Y146.533
X240.956Y146.538
X236.581Y147.022
X232.192Y147.179
X228.455Y147.019
X225.016Y146.547
X223.311Y146.149
X221.735Y145.642
X220.411Y144.977
X218.393Y143.533
X215.912Y141.33
X213.35Y138.711
X212.722Y138.01
Y132.619
X212.721Y132.58
X212.72Y132.541
X212.717Y132.502
X212.714Y132.463
X212.71Y132.424
X212.704Y132.386
X212.698Y132.347
X212.691Y132.309
X212.683Y132.271
X212.674Y132.233
X212.664Y132.195
X212.653Y132.157
X212.641Y132.12
X212.629Y132.083
X212.615Y132.047
X212.601Y132.01
X212.585Y131.975
X212.569Y131.939
X212.552Y131.904
X212.534Y131.869
X212.515Y131.835
X212.495Y131.801
X212.475Y131.768
X212.454Y131.736
X212.432Y131.703
X212.409Y131.672
