(Created with grbl post processor 2025/02/05 15:51)
G21
(G-code generated with BlenderCAM and NC library)
G17G90
(Tool: D = 3.18 mm  type END flutes 2)
S1000M03
G00 Z1.0

G0X0Y0Z1
X1.985Y166.589
G1Z-0.025F50
X268.806F100
Y166.911
X1.985Y166.91
Y166.589
Z-0.05F50
X268.806F100
Y166.911
X1.985Y166.91
Y166.589
Z-0.075F50
X268.806F100
Y166.911
X1.985Y166.91
Y166.589
Z-0.1F50
X268.806F100
Y166.911
X1.985Y166.91
Y166.589
Z-0.125F50
X268.806F100
Y166.911
X1.985Y166.91
Y166.589
Z-0.15F50
X268.806F100
Y166.911
X1.985Y166.91
Y166.589
Z-0.175F50
X268.806F100
Y166.911
X1.985Y166.91
Y166.589
Z-0.2F50
X268.806F100
Y166.911
X1.985Y166.91
Y166.589
Z-0.225F50
X268.806F100
Y166.911
X1.985Y166.91
Y166.589
Z-0.25F50
X268.806F100
Y166.911
X1.985Y166.91
Y166.589
Z-0.275F50
X268.806F100
Y166.911
X1.985Y166.91
Y166.589
Z-0.3F50
X268.806F100
Y166.911
X1.985Y166.91
Y166.589
Z-0.325F50
X268.806F100
Y166.911
X1.985Y166.91
Y166.589
Z-0.35F50
X268.806F100
Y166.911
X1.985Y166.91
Y166.589
Z-0.375F50
X268.806F100
Y166.911
X1.985Y166.91
Y166.589
Z-0.4F50
X268.806F100
Y166.911
X1.985Y166.91
Y166.589
Z-0.425F50
X268.806F100
Y166.911
X1.985Y166.91
Y166.589
Z-0.45F50
X268.806F100
Y166.911
X1.985Y166.91
Y166.589
Z-0.475F50
X268.806F100
Y166.911
X1.985Y166.91
Y166.589
Z-0.5F50
X268.806F100
Y166.911
X1.985Y166.91
Y166.589
Z-0.525F50
X268.806F100
Y166.911
X1.985Y166.91
Y166.589
Z-0.55F50
X268.806F100
Y166.911
X1.985Y166.91
Y166.589
Z-0.575F50
X268.806F100
Y166.911
X1.985Y166.91
Y166.589
Z-0.6F50
X268.806F100
Y166.911
X1.985Y166.91
Y166.589
Z-0.625F50
X268.806F100
Y166.911
X1.985Y166.91
Y166.589
Z-0.65F50
X268.806F100
Y166.911
X1.985Y166.91
Y166.589
Z-0.675F50
X268.806F100
Y166.911
X1.985Y166.91
Y166.589
Z-0.7F50
X268.806F100
Y166.911
X1.985Y166.91
Y166.589
Z-0.725F50
X268.806F100
Y166.911
X1.985Y166.91
Y166.589
Z-0.75F50
X268.806F100
Y166.911
X1.985Y166.91
Y166.589
Z-0.775F50
X268.806F100
Y166.911
X1.985Y166.91
Y166.589
Z-0.8F50
X268.806F100
Y166.911
X1.985Y166.91
Y166.589
Z-0.825F50
X268.806F100
Y166.911
X1.985Y166.91
Y166.589
Z-0.85F50
X268.806F100
Y166.911
X1.985Y166.91
Y166.589
Z-0.875F50
X268.806F100
Y166.911
X1.985Y166.91
Y166.589
Z-0.9F50
X268.806F100
Y166.911
X1.985Y166.91
Y166.589
Z-0.925F50
X268.806F100
Y166.911
X1.985Y166.91
Y166.589
Z-0.95F50
X268.806F100
Y166.911
X1.985Y166.91
Y166.589
Z-0.975F50
X268.806F100
Y166.911
X1.985Y166.91
Y166.589
Z-1F50
X268.806F100
Y166.911
X1.985Y166.91
Y166.589
Z-1.025F50
X268.806F100
Y166.911
X1.985Y166.91
Y166.589
Z-1.05F50
X268.806F100
Y166.911
X1.985Y166.91
Y166.589
Z-1.075F50
X268.806F100
Y166.911
X1.985Y166.91
Y166.589
Z-1.1F50
X268.806F100
Y166.911
X1.985Y166.91
Y166.589
Z-1.125F50
X268.806F100
Y166.911
X1.985Y166.91
Y166.589
Z-1.15F50
X268.806F100
Y166.911
X1.985Y166.91
Y166.589
Z-1.175F50
X268.806F100
Y166.911
X1.985Y166.91
Y166.589
Z-1.2F50
X268.806F100
Y166.911
X1.985Y166.91
Y166.589
Z-1.225F50
X268.806F100
Y166.911
X1.985Y166.91
Y166.589
Z-1.25F50
X268.806F100
Y166.911
X1.985Y166.91
Y166.589
Z-1.275F50
X268.806F100
Y166.911
X1.985Y166.91
Y166.589
Z-1.3F50
X268.806F100
Y166.911
X1.985Y166.91
Y166.589
G0Z1
 
