(Created with grbl post processor 2025/01/12 12:43)
G21
(G-code generated with BlenderCAM and NC library)
G17G90
(Tool: D = 3.18 mm  type END flutes 2)
S1000M03
G00 Z1.0

G0X0Y0Z1
X46.374Y151.812
G1Z-0.1F50
X46.401Y151.804F100
X46.455Y151.79
X46.482Y151.784
X46.508Y151.778
X46.537Y151.772
X46.592Y151.762
X46.619Y151.758
X46.647Y151.754
X46.674Y151.751
X46.719Y151.747
X46.765Y151.744
X46.785
X46.813Y151.743
X46.841
X46.869
X46.897Y151.744
X46.953Y151.747
X46.98Y151.749
X47.008Y151.751
X47.036Y151.754
X47.063Y151.758
X47.118Y151.767
X47.146Y151.772
X47.173Y151.777
X47.2Y151.784
X47.227Y151.79
X47.254Y151.797
X47.281Y151.804
X47.308Y151.812
X47.335Y151.821
X47.361Y151.83
X47.387Y151.839
X47.413Y151.849
X47.439Y151.859
X47.465Y151.869
X47.49Y151.881
X47.516Y151.892
X47.541Y151.904
X47.566Y151.917
X47.591Y151.929
X47.615Y151.943
X47.639Y151.956
X47.664Y151.971
X47.687Y151.985
X47.711Y152
X47.734Y152.016
X47.757Y152.031
X47.78Y152.048
X47.802Y152.064
X47.824Y152.081
X47.846Y152.098
X47.867Y152.116
X47.902Y152.146
X47.933Y152.175
X47.95Y152.191
X47.983Y152.223
X48.011Y152.252
X48.028Y152.271
X48.046Y152.292
X48.064Y152.313
X48.082Y152.334
X48.099Y152.356
X48.116Y152.378
X48.149Y152.424
X48.165Y152.446
X48.19Y152.485
X48.211Y152.519
X48.224Y152.541
X48.238Y152.565
X48.251Y152.59
X48.264Y152.614
X48.276Y152.639
X48.288Y152.664
X48.311Y152.715
X48.321Y152.741
X48.333Y152.77
X48.341Y152.793
X48.351Y152.819
X48.36Y152.846
X48.368Y152.872
X48.376Y152.899
X48.383Y152.926
X48.39Y152.953
X48.397Y152.98
X48.403Y153.007
X48.408Y153.035
X48.413Y153.062
X48.418Y153.089
X48.422Y153.117
X48.426Y153.145
X48.429Y153.172
X48.432Y153.2
X48.434Y153.228
X48.436Y153.256
X48.437Y153.284
Y153.311
X48.438Y153.339
X48.437Y153.367
Y153.395
X48.436Y153.423
X48.434Y153.45
X48.432Y153.478
X48.429Y153.506
X48.426Y153.534
X48.422Y153.561
X48.418Y153.589
X48.413Y153.616
X48.408Y153.644
X48.403Y153.671
X48.397Y153.698
X48.39Y153.725
X48.383Y153.753
X48.376Y153.779
X48.368Y153.806
X48.36Y153.833
X48.351Y153.859
X48.341Y153.885
X48.332Y153.911
X48.321Y153.937
X48.311Y153.963
X48.3Y153.989
X48.288Y154.014
X48.276Y154.039
X48.264Y154.064
X48.251Y154.089
X48.238Y154.113
X48.224Y154.138
X48.21Y154.162
X48.195Y154.185
X48.18Y154.209
X48.165Y154.232
X48.149Y154.255
X48.133Y154.278
X48.116Y154.3
X48.099Y154.322
X48.082Y154.344
X48.064Y154.366
X48.046Y154.387
X48.028Y154.407
X48.009Y154.428
X47.99Y154.448
X47.97Y154.468
X47.95Y154.488
X47.93Y154.507
X47.91Y154.526
X47.889Y154.544
X47.867Y154.562
X47.846Y154.58
X47.824Y154.598
X47.802Y154.614
X47.78Y154.631
X47.757Y154.647
X47.734Y154.663
X47.711Y154.678
X47.687Y154.693
X47.664Y154.708
X47.639Y154.722
X47.615Y154.736
X47.591Y154.749
X47.566Y154.762
X47.541Y154.774
X47.516Y154.786
X47.49Y154.798
X47.465Y154.809
X47.439Y154.82
X47.413Y154.83
X47.387Y154.84
X47.361Y154.849
X47.335Y154.858
X47.308Y154.866
X47.281Y154.874
X47.254Y154.881
X47.227Y154.888
X47.2Y154.895
X47.173Y154.901
X47.146Y154.907
X47.118Y154.912
X47.091Y154.916
X47.063Y154.92
X47.036Y154.924
X47.008Y154.927
X46.98Y154.93
X46.952Y154.932
X46.925Y154.934
X46.897Y154.935
X46.869Y154.936
X46.841
X46.818
X46.758Y154.934
X46.73Y154.932
X46.702Y154.93
X46.677Y154.927
X46.646Y154.924
X46.619Y154.92
X46.591Y154.916
X46.564Y154.912
X46.536Y154.907
X46.509Y154.901
X46.482Y154.895
X46.455Y154.888
X46.428Y154.881
X46.401Y154.874
X46.374Y154.866
X46.348Y154.858
X46.321Y154.849
X46.295Y154.84
X46.269Y154.83
X46.243Y154.82
X46.217Y154.809
X46.192Y154.798
X46.166Y154.786
X46.141Y154.774
X46.116Y154.762
X46.078Y154.741
X46.04Y154.72
X45.995Y154.693
X45.972Y154.678
X45.948Y154.663
X45.925Y154.647
X45.903Y154.631
X45.88Y154.614
X45.858Y154.598
X45.836Y154.58
X45.815Y154.562
X45.793Y154.544
X45.773Y154.526
X45.752Y154.507
X45.732Y154.488
X45.712Y154.468
X45.693Y154.448
X45.673Y154.428
X45.655Y154.408
X45.636Y154.387
X45.618Y154.366
X45.6Y154.344
X45.583Y154.322
X45.566Y154.3
X45.549Y154.278
X45.533Y154.255
X45.517Y154.232
X45.502Y154.209
X45.477Y154.169
X45.457Y154.136
X45.445Y154.113
X45.431Y154.089
X45.406Y154.039
X45.394Y154.014
X45.381Y153.985
X45.371Y153.963
X45.361Y153.937
X45.351Y153.911
X45.341Y153.885
X45.331Y153.859
X45.323Y153.834
X45.314Y153.806
X45.306Y153.779
X45.299Y153.753
X45.292Y153.725
X45.285Y153.698
X45.279Y153.671
X45.274Y153.644
X45.269Y153.616
X45.264Y153.589
X45.26Y153.561
X45.256Y153.534
X45.253Y153.506
X45.251Y153.478
X45.248Y153.451
X45.247Y153.423
X45.245Y153.395
X45.244Y153.339
X45.245Y153.311
Y153.284
X45.247Y153.256
X45.248Y153.228
X45.251Y153.2
X45.253Y153.172
X45.256Y153.145
X45.26Y153.117
X45.264Y153.089
X45.269Y153.062
X45.274Y153.035
X45.279Y153.007
X45.285Y152.98
X45.292Y152.953
X45.299Y152.926
X45.306Y152.899
X45.314Y152.872
X45.323Y152.846
X45.331Y152.82
X45.341Y152.793
X45.351Y152.767
X45.361Y152.741
X45.371Y152.715
X45.382Y152.69
X45.394Y152.664
X45.406Y152.639
X45.418Y152.614
X45.431Y152.59
X45.445Y152.565
X45.458Y152.541
X45.473Y152.517
X45.487Y152.493
X45.502Y152.47
X45.517Y152.446
X45.533Y152.424
X45.549Y152.401
X45.583Y152.356
X45.618Y152.313
X45.636Y152.292
X45.655Y152.271
X45.673Y152.25
X45.693Y152.23
X45.712Y152.21
X45.732Y152.191
X45.773Y152.153
X45.793Y152.134
X45.815Y152.116
X45.836Y152.098
X45.858Y152.081
X45.88Y152.064
X45.903Y152.048
X45.925Y152.031
X45.948Y152.015
X45.972Y152
X45.995Y151.985
X46.019Y151.971
X46.043Y151.956
X46.067Y151.943
X46.092Y151.929
X46.116Y151.917
X46.141Y151.904
X46.166Y151.892
X46.192Y151.881
X46.217Y151.869
X46.243Y151.859
X46.269Y151.849
X46.321Y151.83
X46.348Y151.821
X46.374Y151.812
G0Z1
X60.243Y153.148
G1Z-0.1F50
X60.294Y152.979F100
X60.377Y152.823
X60.49Y152.687
X60.626Y152.574
X60.782Y152.491
X60.951Y152.44
X61.127Y152.423
X61.303Y152.44
X61.472Y152.491
X61.628Y152.574
X61.764Y152.687
X61.876Y152.823
X61.96Y152.979
X62.011Y153.148
X62.028Y153.324
X62.011Y153.5
X61.96Y153.669
X61.876Y153.825
X61.764Y153.961
X61.628Y154.073
X61.472Y154.157
X61.303Y154.208
X61.127Y154.225
X60.951Y154.208
X60.782Y154.157
X60.626Y154.073
X60.49Y153.961
X60.377Y153.825
X60.294Y153.669
X60.243Y153.5
X60.226Y153.324
X60.243Y153.148
G0Z1
X76.129Y153.324
G1Z-0.1F50
X76.147Y153.148F100
X76.198Y152.979
X76.281Y152.823
X76.393Y152.687
X76.53Y152.574
X76.686Y152.491
X76.855Y152.44
X77.031Y152.423
X77.207Y152.44
X77.376Y152.491
X77.532Y152.574
X77.668Y152.687
X77.78Y152.823
X77.863Y152.979
X77.915Y153.148
X77.932Y153.324
X77.915Y153.5
X77.863Y153.669
X77.78Y153.825
X77.668Y153.961
X77.532Y154.073
X77.376Y154.157
X77.207Y154.208
X77.031Y154.225
X76.855Y154.208
X76.686Y154.157
X76.53Y154.073
X76.393Y153.961
X76.281Y153.825
X76.198Y153.669
X76.147Y153.5
X76.129Y153.324
G0Z1
X79.633Y145.398
G1Z-0.1F50
X53.178F100
X52.524Y145.404
X51.87Y145.42
X51.217Y145.448
X50.564Y145.486
X49.911Y145.535
X49.26Y145.595
X48.61Y145.666
X47.961Y145.747
X47.313Y145.839
X46.668Y145.942
X46.023Y146.056
X45.381Y146.181
X45.257Y146.207
X45.134Y146.236
X45.011Y146.266
X44.889Y146.299
X44.767Y146.334
X44.646Y146.371
X44.525Y146.41
X44.406Y146.451
X44.287Y146.494
X44.169Y146.54
X44.051Y146.587
X43.935Y146.636
X43.819Y146.688
X43.704Y146.741
X43.59Y146.796
X43.478Y146.854
X43.366Y146.913
X43.255Y146.974
X43.145Y147.037
X43.036Y147.102
X42.929Y147.169
X42.823Y147.238
X42.718Y147.308
X42.614Y147.381
X42.511Y147.455
X42.41Y147.531
X42.31Y147.608
X42.211Y147.688
X42.114Y147.769
X42.018Y147.851
X41.924Y147.936
X41.831Y148.022
X41.74Y148.109
X41.65Y148.198
X41.562Y148.289
X41.475Y148.381
X41.39Y148.475
X41.306Y148.57
X41.225Y148.667
X41.125Y148.789
X41.027Y148.913
X40.931Y149.038
X40.837Y149.166
X40.746Y149.295
X40.657Y149.425
X40.57Y149.557
X40.485Y149.69
X40.403Y149.825
X40.323Y149.961
X40.245Y150.099
X40.17Y150.237
X40.097Y150.378
X40.026Y150.519
X39.958Y150.661
X39.892Y150.805
X39.829Y150.95
X39.769Y151.096
X39.71Y151.242
X39.655Y151.39
X39.602Y151.539
X39.551Y151.689
X39.503Y151.839
X39.458Y151.99
X39.415Y152.143
X39.375Y152.295
X39.337Y152.449
X39.302Y152.603
X39.27Y152.757
X39.24Y152.913
X39.213Y153.068
X39.189Y153.224
X39.167Y153.381
X39.148Y153.538
X39.132Y153.695
X39.119Y153.852
X39.108Y154.01
X39.1Y154.167
X39.094Y154.325
X39.091Y154.483
Y154.641
X39.094Y154.799
X39.099Y154.957
X39.108Y155.115
X39.118Y155.272
X39.132Y155.429
X39.148Y155.587
X39.167Y155.743
X39.186Y155.886
X39.606Y158.777
X39.62Y158.853
X39.636Y158.929
X39.655Y159.004
X39.677Y159.078
X39.701Y159.151
X39.728Y159.225
X39.757Y159.296
X39.789Y159.367
X39.823Y159.436
X39.86Y159.505
X39.898Y159.571
X39.94Y159.637
X39.983Y159.701
X40.029Y159.764
X40.077Y159.825
X40.127Y159.884
X40.178Y159.941
X40.223Y159.987
X40.277Y160.04
X40.336Y160.093
X40.395Y160.143
X40.455Y160.191
X40.519Y160.237
X40.581Y160.28
X40.648Y160.322
X40.715Y160.361
X40.781Y160.397
X40.852Y160.432
X40.923Y160.464
X40.995Y160.493
X41.067Y160.52
X41.141Y160.545
X41.216Y160.567
X41.303Y160.588
X41.379Y160.605
X41.456Y160.618
X41.533Y160.629
X41.609Y160.637
X41.687Y160.642
X41.764Y160.645
X41.803
X46.854
X46.97Y160.644
X47.087Y160.641
X47.204Y160.636
X47.321Y160.629
X48.576Y160.539
X49.729Y160.474
X50.882Y160.428
X52.037Y160.401
X53.197Y160.391
X56.75
X56.788Y160.395
X56.827Y160.397
X56.865Y160.398
X56.903Y160.399
X84.903
X84.943Y160.398
X84.982Y160.397
X85.022Y160.394
X85.062Y160.391
X85.101Y160.386
X85.141Y160.381
X85.18Y160.374
X85.219Y160.367
X85.258Y160.359
X85.297Y160.349
X85.335Y160.339
X85.373Y160.328
X85.411Y160.315
X85.448Y160.302
X85.486Y160.288
X85.522Y160.273
X85.559Y160.257
X85.595Y160.24
X85.63Y160.223
X85.666Y160.204
X85.701Y160.184
X85.735Y160.164
X85.77Y160.142
X85.803Y160.119
X85.836Y160.096
X85.869Y160.072
X85.901Y160.047
X85.932Y160.021
X85.947Y160.008
X85.976Y159.982
X85.998Y159.962
X86.02Y159.941
X86.048Y159.912
X86.076Y159.883
X86.108Y159.847
X86.139Y159.81
X86.16Y159.782
X86.182Y159.754
X86.202Y159.726
X86.223Y159.697
X86.242Y159.667
X86.261Y159.637
X86.278Y159.608
X86.294Y159.58
X86.31Y159.551
X86.329Y159.514
X86.347Y159.476
X86.36Y159.447
X86.373Y159.417
X86.389Y159.376
X86.397Y159.354
X86.411Y159.314
X86.424Y159.274
X86.436Y159.232
X86.448Y159.189
X86.458Y159.146
X86.466Y159.106
X86.473Y159.066
X86.48Y159.015
X86.487Y158.958
X86.49Y158.925
X86.492Y158.891
X86.493Y158.857
X86.494Y158.808
Y158.575
X86.505Y158.514
X86.515Y158.437
X86.524Y158.359
X86.529Y158.282
X86.532Y158.204
Y158.165
Y147.332
Y147.292
X86.53Y147.253
X86.528Y147.213
X86.524Y147.174
X86.52Y147.135
X86.515Y147.096
X86.508Y147.057
X86.501Y147.018
X86.494Y146.985
X86.493Y146.942
X86.49Y146.899
X86.487Y146.856
X86.482Y146.814
X86.476Y146.771
X86.469Y146.728
X86.461Y146.686
X86.452Y146.644
X86.441Y146.602
X86.432Y146.568
X86.422Y146.533
X86.411Y146.499
X86.399Y146.465
X86.386Y146.432
X86.369Y146.39
X86.351Y146.35
X86.332Y146.309
X86.31Y146.266
X86.294Y146.236
X86.277Y146.206
X86.256Y146.17
X86.233Y146.135
X86.212Y146.103
X86.189Y146.071
X86.166Y146.04
X86.142Y146.01
X86.118Y145.98
X86.092Y145.951
X86.067Y145.923
X86.04Y145.895
X86.013Y145.867
X85.985Y145.841
X85.956Y145.815
X85.927Y145.79
X85.897Y145.765
X85.867Y145.742
X85.836Y145.719
X85.804Y145.696
X85.772Y145.675
X85.739Y145.654
X85.706Y145.635
X85.673Y145.615
X85.638Y145.597
X85.604Y145.58
X85.569Y145.563
X85.535Y145.547
X85.499Y145.533
X85.464Y145.519
X85.428Y145.506
X85.392Y145.494
X85.355Y145.482
X85.318Y145.472
X85.281Y145.462
X85.244Y145.454
X85.207Y145.446
X85.169Y145.439
X85.131Y145.433
X85.094Y145.428
X85.056Y145.424
X85.018Y145.421
X84.979Y145.419
X84.941Y145.417
X84.903
X80.967
X80.377Y145.404
X79.633Y145.398
G0Z1
X46.374Y151.812
G1Z-0.2F50
X46.401Y151.804F100
X46.455Y151.79
X46.482Y151.784
X46.508Y151.778
X46.537Y151.772
X46.592Y151.762
X46.619Y151.758
X46.647Y151.754
X46.674Y151.751
X46.719Y151.747
X46.765Y151.744
X46.785
X46.813Y151.743
X46.841
X46.869
X46.897Y151.744
X46.953Y151.747
X46.98Y151.749
X47.008Y151.751
X47.036Y151.754
X47.063Y151.758
X47.118Y151.767
X47.146Y151.772
X47.173Y151.777
X47.2Y151.784
X47.227Y151.79
X47.254Y151.797
X47.281Y151.804
X47.308Y151.812
X47.335Y151.821
X47.361Y151.83
X47.387Y151.839
X47.413Y151.849
X47.439Y151.859
X47.465Y151.869
X47.49Y151.881
X47.516Y151.892
X47.541Y151.904
X47.566Y151.917
X47.591Y151.929
X47.615Y151.943
X47.639Y151.956
X47.664Y151.971
X47.687Y151.985
X47.711Y152
X47.734Y152.016
X47.757Y152.031
X47.78Y152.048
X47.802Y152.064
X47.824Y152.081
X47.846Y152.098
X47.867Y152.116
X47.902Y152.146
X47.933Y152.175
X47.95Y152.191
X47.983Y152.223
X48.011Y152.252
X48.028Y152.271
X48.046Y152.292
X48.064Y152.313
X48.082Y152.334
X48.099Y152.356
X48.116Y152.378
X48.149Y152.424
X48.165Y152.446
X48.19Y152.485
X48.211Y152.519
X48.224Y152.541
X48.238Y152.565
X48.251Y152.59
X48.264Y152.614
X48.276Y152.639
X48.288Y152.664
X48.311Y152.715
X48.321Y152.741
X48.333Y152.77
X48.341Y152.793
X48.351Y152.819
X48.36Y152.846
X48.368Y152.872
X48.376Y152.899
X48.383Y152.926
X48.39Y152.953
X48.397Y152.98
X48.403Y153.007
X48.408Y153.035
X48.413Y153.062
X48.418Y153.089
X48.422Y153.117
X48.426Y153.145
X48.429Y153.172
X48.432Y153.2
X48.434Y153.228
X48.436Y153.256
X48.437Y153.284
Y153.311
X48.438Y153.339
X48.437Y153.367
Y153.395
X48.436Y153.423
X48.434Y153.45
X48.432Y153.478
X48.429Y153.506
X48.426Y153.534
X48.422Y153.561
X48.418Y153.589
X48.413Y153.616
X48.408Y153.644
X48.403Y153.671
X48.397Y153.698
X48.39Y153.725
X48.383Y153.753
X48.376Y153.779
X48.368Y153.806
X48.36Y153.833
X48.351Y153.859
X48.341Y153.885
X48.332Y153.911
X48.321Y153.937
X48.311Y153.963
X48.3Y153.989
X48.288Y154.014
X48.276Y154.039
X48.264Y154.064
X48.251Y154.089
X48.238Y154.113
X48.224Y154.138
X48.21Y154.162
X48.195Y154.185
X48.18Y154.209
X48.165Y154.232
X48.149Y154.255
X48.133Y154.278
X48.116Y154.3
X48.099Y154.322
X48.082Y154.344
X48.064Y154.366
X48.046Y154.387
X48.028Y154.407
X48.009Y154.428
X47.99Y154.448
X47.97Y154.468
X47.95Y154.488
X47.93Y154.507
X47.91Y154.526
X47.889Y154.544
X47.867Y154.562
X47.846Y154.58
X47.824Y154.598
X47.802Y154.614
X47.78Y154.631
X47.757Y154.647
X47.734Y154.663
X47.711Y154.678
X47.687Y154.693
X47.664Y154.708
X47.639Y154.722
X47.615Y154.736
X47.591Y154.749
X47.566Y154.762
X47.541Y154.774
X47.516Y154.786
X47.49Y154.798
X47.465Y154.809
X47.439Y154.82
X47.413Y154.83
X47.387Y154.84
X47.361Y154.849
X47.335Y154.858
X47.308Y154.866
X47.281Y154.874
X47.254Y154.881
X47.227Y154.888
X47.2Y154.895
X47.173Y154.901
X47.146Y154.907
X47.118Y154.912
X47.091Y154.916
X47.063Y154.92
X47.036Y154.924
X47.008Y154.927
X46.98Y154.93
X46.952Y154.932
X46.925Y154.934
X46.897Y154.935
X46.869Y154.936
X46.841
X46.818
X46.758Y154.934
X46.73Y154.932
X46.702Y154.93
X46.677Y154.927
X46.646Y154.924
X46.619Y154.92
X46.591Y154.916
X46.564Y154.912
X46.536Y154.907
X46.509Y154.901
X46.482Y154.895
X46.455Y154.888
X46.428Y154.881
X46.401Y154.874
X46.374Y154.866
X46.348Y154.858
X46.321Y154.849
X46.295Y154.84
X46.269Y154.83
X46.243Y154.82
X46.217Y154.809
X46.192Y154.798
X46.166Y154.786
X46.141Y154.774
X46.116Y154.762
X46.078Y154.741
X46.04Y154.72
X45.995Y154.693
X45.972Y154.678
X45.948Y154.663
X45.925Y154.647
X45.903Y154.631
X45.88Y154.614
X45.858Y154.598
X45.836Y154.58
X45.815Y154.562
X45.793Y154.544
X45.773Y154.526
X45.752Y154.507
X45.732Y154.488
X45.712Y154.468
X45.693Y154.448
X45.673Y154.428
X45.655Y154.408
X45.636Y154.387
X45.618Y154.366
X45.6Y154.344
X45.583Y154.322
X45.566Y154.3
X45.549Y154.278
X45.533Y154.255
X45.517Y154.232
X45.502Y154.209
X45.477Y154.169
X45.457Y154.136
X45.445Y154.113
X45.431Y154.089
X45.406Y154.039
X45.394Y154.014
X45.381Y153.985
X45.371Y153.963
X45.361Y153.937
X45.351Y153.911
X45.341Y153.885
X45.331Y153.859
X45.323Y153.834
X45.314Y153.806
X45.306Y153.779
X45.299Y153.753
X45.292Y153.725
X45.285Y153.698
X45.279Y153.671
X45.274Y153.644
X45.269Y153.616
X45.264Y153.589
X45.26Y153.561
X45.256Y153.534
X45.253Y153.506
X45.251Y153.478
X45.248Y153.451
X45.247Y153.423
X45.245Y153.395
X45.244Y153.339
X45.245Y153.311
Y153.284
X45.247Y153.256
X45.248Y153.228
X45.251Y153.2
X45.253Y153.172
X45.256Y153.145
X45.26Y153.117
X45.264Y153.089
X45.269Y153.062
X45.274Y153.035
X45.279Y153.007
X45.285Y152.98
X45.292Y152.953
X45.299Y152.926
X45.306Y152.899
X45.314Y152.872
X45.323Y152.846
X45.331Y152.82
X45.341Y152.793
X45.351Y152.767
X45.361Y152.741
X45.371Y152.715
X45.382Y152.69
X45.394Y152.664
X45.406Y152.639
X45.418Y152.614
X45.431Y152.59
X45.445Y152.565
X45.458Y152.541
X45.473Y152.517
X45.487Y152.493
X45.502Y152.47
X45.517Y152.446
X45.533Y152.424
X45.549Y152.401
X45.583Y152.356
X45.618Y152.313
X45.636Y152.292
X45.655Y152.271
X45.673Y152.25
X45.693Y152.23
X45.712Y152.21
X45.732Y152.191
X45.773Y152.153
X45.793Y152.134
X45.815Y152.116
X45.836Y152.098
X45.858Y152.081
X45.88Y152.064
X45.903Y152.048
X45.925Y152.031
X45.948Y152.015
X45.972Y152
X45.995Y151.985
X46.019Y151.971
X46.043Y151.956
X46.067Y151.943
X46.092Y151.929
X46.116Y151.917
X46.141Y151.904
X46.166Y151.892
X46.192Y151.881
X46.217Y151.869
X46.243Y151.859
X46.269Y151.849
X46.321Y151.83
X46.348Y151.821
X46.374Y151.812
G0Z1
X60.243Y153.148
G1Z-0.2F50
X60.294Y152.979F100
X60.377Y152.823
X60.49Y152.687
X60.626Y152.574
X60.782Y152.491
X60.951Y152.44
X61.127Y152.423
X61.303Y152.44
X61.472Y152.491
X61.628Y152.574
X61.764Y152.687
X61.876Y152.823
X61.96Y152.979
X62.011Y153.148
X62.028Y153.324
X62.011Y153.5
X61.96Y153.669
X61.876Y153.825
X61.764Y153.961
X61.628Y154.073
X61.472Y154.157
X61.303Y154.208
X61.127Y154.225
X60.951Y154.208
X60.782Y154.157
X60.626Y154.073
X60.49Y153.961
X60.377Y153.825
X60.294Y153.669
X60.243Y153.5
X60.226Y153.324
X60.243Y153.148
G0Z1
X76.129Y153.324
G1Z-0.2F50
X76.147Y153.148F100
X76.198Y152.979
X76.281Y152.823
X76.393Y152.687
X76.53Y152.574
X76.686Y152.491
X76.855Y152.44
X77.031Y152.423
X77.207Y152.44
X77.376Y152.491
X77.532Y152.574
X77.668Y152.687
X77.78Y152.823
X77.863Y152.979
X77.915Y153.148
X77.932Y153.324
X77.915Y153.5
X77.863Y153.669
X77.78Y153.825
X77.668Y153.961
X77.532Y154.073
X77.376Y154.157
X77.207Y154.208
X77.031Y154.225
X76.855Y154.208
X76.686Y154.157
X76.53Y154.073
X76.393Y153.961
X76.281Y153.825
X76.198Y153.669
X76.147Y153.5
X76.129Y153.324
G0Z1
X79.633Y145.398
G1Z-0.2F50
X53.178F100
X52.524Y145.404
X51.87Y145.42
X51.217Y145.448
X50.564Y145.486
X49.911Y145.535
X49.26Y145.595
X48.61Y145.666
X47.961Y145.747
X47.313Y145.839
X46.668Y145.942
X46.023Y146.056
X45.381Y146.181
X45.257Y146.207
X45.134Y146.236
X45.011Y146.266
X44.889Y146.299
X44.767Y146.334
X44.646Y146.371
X44.525Y146.41
X44.406Y146.451
X44.287Y146.494
X44.169Y146.54
X44.051Y146.587
X43.935Y146.636
X43.819Y146.688
X43.704Y146.741
X43.59Y146.796
X43.478Y146.854
X43.366Y146.913
X43.255Y146.974
X43.145Y147.037
X43.036Y147.102
X42.929Y147.169
X42.823Y147.238
X42.718Y147.308
X42.614Y147.381
X42.511Y147.455
X42.41Y147.531
X42.31Y147.608
X42.211Y147.688
X42.114Y147.769
X42.018Y147.851
X41.924Y147.936
X41.831Y148.022
X41.74Y148.109
X41.65Y148.198
X41.562Y148.289
X41.475Y148.381
X41.39Y148.475
X41.306Y148.57
X41.225Y148.667
X41.125Y148.789
X41.027Y148.913
X40.931Y149.038
X40.837Y149.166
X40.746Y149.295
X40.657Y149.425
X40.57Y149.557
X40.485Y149.69
X40.403Y149.825
X40.323Y149.961
X40.245Y150.099
X40.17Y150.237
X40.097Y150.378
X40.026Y150.519
X39.958Y150.661
X39.892Y150.805
X39.829Y150.95
X39.769Y151.096
X39.71Y151.242
X39.655Y151.39
X39.602Y151.539
X39.551Y151.689
X39.503Y151.839
X39.458Y151.99
X39.415Y152.143
X39.375Y152.295
X39.337Y152.449
X39.302Y152.603
X39.27Y152.757
X39.24Y152.913
X39.213Y153.068
X39.189Y153.224
X39.167Y153.381
X39.148Y153.538
X39.132Y153.695
X39.119Y153.852
X39.108Y154.01
X39.1Y154.167
X39.094Y154.325
X39.091Y154.483
Y154.641
X39.094Y154.799
X39.099Y154.957
X39.108Y155.115
X39.118Y155.272
X39.132Y155.429
X39.148Y155.587
X39.167Y155.743
X39.186Y155.886
X39.606Y158.777
X39.62Y158.853
X39.636Y158.929
X39.655Y159.004
X39.677Y159.078
X39.701Y159.151
X39.728Y159.225
X39.757Y159.296
X39.789Y159.367
X39.823Y159.436
X39.86Y159.505
X39.898Y159.571
X39.94Y159.637
X39.983Y159.701
X40.029Y159.764
X40.077Y159.825
X40.127Y159.884
X40.178Y159.941
X40.223Y159.987
X40.277Y160.04
X40.336Y160.093
X40.395Y160.143
X40.455Y160.191
X40.519Y160.237
X40.581Y160.28
X40.648Y160.322
X40.715Y160.361
X40.781Y160.397
X40.852Y160.432
X40.923Y160.464
X40.995Y160.493
X41.067Y160.52
X41.141Y160.545
X41.216Y160.567
X41.303Y160.588
X41.379Y160.605
X41.456Y160.618
X41.533Y160.629
X41.609Y160.637
X41.687Y160.642
X41.764Y160.645
X41.803
X46.854
X46.97Y160.644
X47.087Y160.641
X47.204Y160.636
X47.321Y160.629
X48.576Y160.539
X49.729Y160.474
X50.882Y160.428
X52.037Y160.401
X53.197Y160.391
X56.75
X56.788Y160.395
X56.827Y160.397
X56.865Y160.398
X56.903Y160.399
X84.903
X84.943Y160.398
X84.982Y160.397
X85.022Y160.394
X85.062Y160.391
X85.101Y160.386
X85.141Y160.381
X85.18Y160.374
X85.219Y160.367
X85.258Y160.359
X85.297Y160.349
X85.335Y160.339
X85.373Y160.328
X85.411Y160.315
X85.448Y160.302
X85.486Y160.288
X85.522Y160.273
X85.559Y160.257
X85.595Y160.24
X85.63Y160.223
X85.666Y160.204
X85.701Y160.184
X85.735Y160.164
X85.77Y160.142
X85.803Y160.119
X85.836Y160.096
X85.869Y160.072
X85.901Y160.047
X85.932Y160.021
X85.947Y160.008
X85.976Y159.982
X85.998Y159.962
X86.02Y159.941
X86.048Y159.912
X86.076Y159.883
X86.108Y159.847
X86.139Y159.81
X86.16Y159.782
X86.182Y159.754
X86.202Y159.726
X86.223Y159.697
X86.242Y159.667
X86.261Y159.637
X86.278Y159.608
X86.294Y159.58
X86.31Y159.551
X86.329Y159.514
X86.347Y159.476
X86.36Y159.447
X86.373Y159.417
X86.389Y159.376
X86.397Y159.354
X86.411Y159.314
X86.424Y159.274
X86.436Y159.232
X86.448Y159.189
X86.458Y159.146
X86.466Y159.106
X86.473Y159.066
X86.48Y159.015
X86.487Y158.958
X86.49Y158.925
X86.492Y158.891
X86.493Y158.857
X86.494Y158.808
Y158.575
X86.505Y158.514
X86.515Y158.437
X86.524Y158.359
X86.529Y158.282
X86.532Y158.204
Y158.165
Y147.332
Y147.292
X86.53Y147.253
X86.528Y147.213
X86.524Y147.174
X86.52Y147.135
X86.515Y147.096
X86.508Y147.057
X86.501Y147.018
X86.494Y146.985
X86.493Y146.942
X86.49Y146.899
X86.487Y146.856
X86.482Y146.814
X86.476Y146.771
X86.469Y146.728
X86.461Y146.686
X86.452Y146.644
X86.441Y146.602
X86.432Y146.568
X86.422Y146.533
X86.411Y146.499
X86.399Y146.465
X86.386Y146.432
X86.369Y146.39
X86.351Y146.35
X86.332Y146.309
X86.31Y146.266
X86.294Y146.236
X86.277Y146.206
X86.256Y146.17
X86.233Y146.135
X86.212Y146.103
X86.189Y146.071
X86.166Y146.04
X86.142Y146.01
X86.118Y145.98
X86.092Y145.951
X86.067Y145.923
X86.04Y145.895
X86.013Y145.867
X85.985Y145.841
X85.956Y145.815
X85.927Y145.79
X85.897Y145.765
X85.867Y145.742
X85.836Y145.719
X85.804Y145.696
X85.772Y145.675
X85.739Y145.654
X85.706Y145.635
X85.673Y145.615
X85.638Y145.597
X85.604Y145.58
X85.569Y145.563
X85.535Y145.547
X85.499Y145.533
X85.464Y145.519
X85.428Y145.506
X85.392Y145.494
X85.355Y145.482
X85.318Y145.472
X85.281Y145.462
X85.244Y145.454
X85.207Y145.446
X85.169Y145.439
X85.131Y145.433
X85.094Y145.428
X85.056Y145.424
X85.018Y145.421
X84.979Y145.419
X84.941Y145.417
X84.903
X80.967
X80.377Y145.404
X79.633Y145.398
G0Z1
X46.374Y151.812
G1Z-0.3F50
X46.401Y151.804F100
X46.455Y151.79
X46.482Y151.784
X46.508Y151.778
X46.537Y151.772
X46.592Y151.762
X46.619Y151.758
X46.647Y151.754
X46.674Y151.751
X46.719Y151.747
X46.765Y151.744
X46.785
X46.813Y151.743
X46.841
X46.869
X46.897Y151.744
X46.953Y151.747
X46.98Y151.749
X47.008Y151.751
X47.036Y151.754
X47.063Y151.758
X47.118Y151.767
X47.146Y151.772
X47.173Y151.777
X47.2Y151.784
X47.227Y151.79
X47.254Y151.797
X47.281Y151.804
X47.308Y151.812
X47.335Y151.821
X47.361Y151.83
X47.387Y151.839
X47.413Y151.849
X47.439Y151.859
X47.465Y151.869
X47.49Y151.881
X47.516Y151.892
X47.541Y151.904
X47.566Y151.917
X47.591Y151.929
X47.615Y151.943
X47.639Y151.956
X47.664Y151.971
X47.687Y151.985
X47.711Y152
X47.734Y152.016
X47.757Y152.031
X47.78Y152.048
X47.802Y152.064
X47.824Y152.081
X47.846Y152.098
X47.867Y152.116
X47.902Y152.146
X47.933Y152.175
X47.95Y152.191
X47.983Y152.223
X48.011Y152.252
X48.028Y152.271
X48.046Y152.292
X48.064Y152.313
X48.082Y152.334
X48.099Y152.356
X48.116Y152.378
X48.149Y152.424
X48.165Y152.446
X48.19Y152.485
X48.211Y152.519
X48.224Y152.541
X48.238Y152.565
X48.251Y152.59
X48.264Y152.614
X48.276Y152.639
X48.288Y152.664
X48.311Y152.715
X48.321Y152.741
X48.333Y152.77
X48.341Y152.793
X48.351Y152.819
X48.36Y152.846
X48.368Y152.872
X48.376Y152.899
X48.383Y152.926
X48.39Y152.953
X48.397Y152.98
X48.403Y153.007
X48.408Y153.035
X48.413Y153.062
X48.418Y153.089
X48.422Y153.117
X48.426Y153.145
X48.429Y153.172
X48.432Y153.2
X48.434Y153.228
X48.436Y153.256
X48.437Y153.284
Y153.311
X48.438Y153.339
X48.437Y153.367
Y153.395
X48.436Y153.423
X48.434Y153.45
X48.432Y153.478
X48.429Y153.506
X48.426Y153.534
X48.422Y153.561
X48.418Y153.589
X48.413Y153.616
X48.408Y153.644
X48.403Y153.671
X48.397Y153.698
X48.39Y153.725
X48.383Y153.753
X48.376Y153.779
X48.368Y153.806
X48.36Y153.833
X48.351Y153.859
X48.341Y153.885
X48.332Y153.911
X48.321Y153.937
X48.311Y153.963
X48.3Y153.989
X48.288Y154.014
X48.276Y154.039
X48.264Y154.064
X48.251Y154.089
X48.238Y154.113
X48.224Y154.138
X48.21Y154.162
X48.195Y154.185
X48.18Y154.209
X48.165Y154.232
X48.149Y154.255
X48.133Y154.278
X48.116Y154.3
X48.099Y154.322
X48.082Y154.344
X48.064Y154.366
X48.046Y154.387
X48.028Y154.407
X48.009Y154.428
X47.99Y154.448
X47.97Y154.468
X47.95Y154.488
X47.93Y154.507
X47.91Y154.526
X47.889Y154.544
X47.867Y154.562
X47.846Y154.58
X47.824Y154.598
X47.802Y154.614
X47.78Y154.631
X47.757Y154.647
X47.734Y154.663
X47.711Y154.678
X47.687Y154.693
X47.664Y154.708
X47.639Y154.722
X47.615Y154.736
X47.591Y154.749
X47.566Y154.762
X47.541Y154.774
X47.516Y154.786
X47.49Y154.798
X47.465Y154.809
X47.439Y154.82
X47.413Y154.83
X47.387Y154.84
X47.361Y154.849
X47.335Y154.858
X47.308Y154.866
X47.281Y154.874
X47.254Y154.881
X47.227Y154.888
X47.2Y154.895
X47.173Y154.901
X47.146Y154.907
X47.118Y154.912
X47.091Y154.916
X47.063Y154.92
X47.036Y154.924
X47.008Y154.927
X46.98Y154.93
X46.952Y154.932
X46.925Y154.934
X46.897Y154.935
X46.869Y154.936
X46.841
X46.818
X46.758Y154.934
X46.73Y154.932
X46.702Y154.93
X46.677Y154.927
X46.646Y154.924
X46.619Y154.92
X46.591Y154.916
X46.564Y154.912
X46.536Y154.907
X46.509Y154.901
X46.482Y154.895
X46.455Y154.888
X46.428Y154.881
X46.401Y154.874
X46.374Y154.866
X46.348Y154.858
X46.321Y154.849
X46.295Y154.84
X46.269Y154.83
X46.243Y154.82
X46.217Y154.809
X46.192Y154.798
X46.166Y154.786
X46.141Y154.774
X46.116Y154.762
X46.078Y154.741
X46.04Y154.72
X45.995Y154.693
X45.972Y154.678
X45.948Y154.663
X45.925Y154.647
X45.903Y154.631
X45.88Y154.614
X45.858Y154.598
X45.836Y154.58
X45.815Y154.562
X45.793Y154.544
X45.773Y154.526
X45.752Y154.507
X45.732Y154.488
X45.712Y154.468
X45.693Y154.448
X45.673Y154.428
X45.655Y154.408
X45.636Y154.387
X45.618Y154.366
X45.6Y154.344
X45.583Y154.322
X45.566Y154.3
X45.549Y154.278
X45.533Y154.255
X45.517Y154.232
X45.502Y154.209
X45.477Y154.169
X45.457Y154.136
X45.445Y154.113
X45.431Y154.089
X45.406Y154.039
X45.394Y154.014
X45.381Y153.985
X45.371Y153.963
X45.361Y153.937
X45.351Y153.911
X45.341Y153.885
X45.331Y153.859
X45.323Y153.834
X45.314Y153.806
X45.306Y153.779
X45.299Y153.753
X45.292Y153.725
X45.285Y153.698
X45.279Y153.671
X45.274Y153.644
X45.269Y153.616
X45.264Y153.589
X45.26Y153.561
X45.256Y153.534
X45.253Y153.506
X45.251Y153.478
X45.248Y153.451
X45.247Y153.423
X45.245Y153.395
X45.244Y153.339
X45.245Y153.311
Y153.284
X45.247Y153.256
X45.248Y153.228
X45.251Y153.2
X45.253Y153.172
X45.256Y153.145
X45.26Y153.117
X45.264Y153.089
X45.269Y153.062
X45.274Y153.035
X45.279Y153.007
X45.285Y152.98
X45.292Y152.953
X45.299Y152.926
X45.306Y152.899
X45.314Y152.872
X45.323Y152.846
X45.331Y152.82
X45.341Y152.793
X45.351Y152.767
X45.361Y152.741
X45.371Y152.715
X45.382Y152.69
X45.394Y152.664
X45.406Y152.639
X45.418Y152.614
X45.431Y152.59
X45.445Y152.565
X45.458Y152.541
X45.473Y152.517
X45.487Y152.493
X45.502Y152.47
X45.517Y152.446
X45.533Y152.424
X45.549Y152.401
X45.583Y152.356
X45.618Y152.313
X45.636Y152.292
X45.655Y152.271
X45.673Y152.25
X45.693Y152.23
X45.712Y152.21
X45.732Y152.191
X45.773Y152.153
X45.793Y152.134
X45.815Y152.116
X45.836Y152.098
X45.858Y152.081
X45.88Y152.064
X45.903Y152.048
X45.925Y152.031
X45.948Y152.015
X45.972Y152
X45.995Y151.985
X46.019Y151.971
X46.043Y151.956
X46.067Y151.943
X46.092Y151.929
X46.116Y151.917
X46.141Y151.904
X46.166Y151.892
X46.192Y151.881
X46.217Y151.869
X46.243Y151.859
X46.269Y151.849
X46.321Y151.83
X46.348Y151.821
X46.374Y151.812
G0Z1
X60.243Y153.148
G1Z-0.3F50
X60.294Y152.979F100
X60.377Y152.823
X60.49Y152.687
X60.626Y152.574
X60.782Y152.491
X60.951Y152.44
X61.127Y152.423
X61.303Y152.44
X61.472Y152.491
X61.628Y152.574
X61.764Y152.687
X61.876Y152.823
X61.96Y152.979
X62.011Y153.148
X62.028Y153.324
X62.011Y153.5
X61.96Y153.669
X61.876Y153.825
X61.764Y153.961
X61.628Y154.073
X61.472Y154.157
X61.303Y154.208
X61.127Y154.225
X60.951Y154.208
X60.782Y154.157
X60.626Y154.073
X60.49Y153.961
X60.377Y153.825
X60.294Y153.669
X60.243Y153.5
X60.226Y153.324
X60.243Y153.148
G0Z1
X76.129Y153.324
G1Z-0.3F50
X76.147Y153.148F100
X76.198Y152.979
X76.281Y152.823
X76.393Y152.687
X76.53Y152.574
X76.686Y152.491
X76.855Y152.44
X77.031Y152.423
X77.207Y152.44
X77.376Y152.491
X77.532Y152.574
X77.668Y152.687
X77.78Y152.823
X77.863Y152.979
X77.915Y153.148
X77.932Y153.324
X77.915Y153.5
X77.863Y153.669
X77.78Y153.825
X77.668Y153.961
X77.532Y154.073
X77.376Y154.157
X77.207Y154.208
X77.031Y154.225
X76.855Y154.208
X76.686Y154.157
X76.53Y154.073
X76.393Y153.961
X76.281Y153.825
X76.198Y153.669
X76.147Y153.5
X76.129Y153.324
G0Z1
X79.633Y145.398
G1Z-0.3F50
X53.178F100
X52.524Y145.404
X51.87Y145.42
X51.217Y145.448
X50.564Y145.486
X49.911Y145.535
X49.26Y145.595
X48.61Y145.666
X47.961Y145.747
X47.313Y145.839
X46.668Y145.942
X46.023Y146.056
X45.381Y146.181
X45.257Y146.207
X45.134Y146.236
X45.011Y146.266
X44.889Y146.299
X44.767Y146.334
X44.646Y146.371
X44.525Y146.41
X44.406Y146.451
X44.287Y146.494
X44.169Y146.54
X44.051Y146.587
X43.935Y146.636
X43.819Y146.688
X43.704Y146.741
X43.59Y146.796
X43.478Y146.854
X43.366Y146.913
X43.255Y146.974
X43.145Y147.037
X43.036Y147.102
X42.929Y147.169
X42.823Y147.238
X42.718Y147.308
X42.614Y147.381
X42.511Y147.455
X42.41Y147.531
X42.31Y147.608
X42.211Y147.688
X42.114Y147.769
X42.018Y147.851
X41.924Y147.936
X41.831Y148.022
X41.74Y148.109
X41.65Y148.198
X41.562Y148.289
X41.475Y148.381
X41.39Y148.475
X41.306Y148.57
X41.225Y148.667
X41.125Y148.789
X41.027Y148.913
X40.931Y149.038
X40.837Y149.166
X40.746Y149.295
X40.657Y149.425
X40.57Y149.557
X40.485Y149.69
X40.403Y149.825
X40.323Y149.961
X40.245Y150.099
X40.17Y150.237
X40.097Y150.378
X40.026Y150.519
X39.958Y150.661
X39.892Y150.805
X39.829Y150.95
X39.769Y151.096
X39.71Y151.242
X39.655Y151.39
X39.602Y151.539
X39.551Y151.689
X39.503Y151.839
X39.458Y151.99
X39.415Y152.143
X39.375Y152.295
X39.337Y152.449
X39.302Y152.603
X39.27Y152.757
X39.24Y152.913
X39.213Y153.068
X39.189Y153.224
X39.167Y153.381
X39.148Y153.538
X39.132Y153.695
X39.119Y153.852
X39.108Y154.01
X39.1Y154.167
X39.094Y154.325
X39.091Y154.483
Y154.641
X39.094Y154.799
X39.099Y154.957
X39.108Y155.115
X39.118Y155.272
X39.132Y155.429
X39.148Y155.587
X39.167Y155.743
X39.186Y155.886
X39.606Y158.777
X39.62Y158.853
X39.636Y158.929
X39.655Y159.004
X39.677Y159.078
X39.701Y159.151
X39.728Y159.225
X39.757Y159.296
X39.789Y159.367
X39.823Y159.436
X39.86Y159.505
X39.898Y159.571
X39.94Y159.637
X39.983Y159.701
X40.029Y159.764
X40.077Y159.825
X40.127Y159.884
X40.178Y159.941
X40.223Y159.987
X40.277Y160.04
X40.336Y160.093
X40.395Y160.143
X40.455Y160.191
X40.519Y160.237
X40.581Y160.28
X40.648Y160.322
X40.715Y160.361
X40.781Y160.397
X40.852Y160.432
X40.923Y160.464
X40.995Y160.493
X41.067Y160.52
X41.141Y160.545
X41.216Y160.567
X41.303Y160.588
X41.379Y160.605
X41.456Y160.618
X41.533Y160.629
X41.609Y160.637
X41.687Y160.642
X41.764Y160.645
X41.803
X46.854
X46.97Y160.644
X47.087Y160.641
X47.204Y160.636
X47.321Y160.629
X48.576Y160.539
X49.729Y160.474
X50.882Y160.428
X52.037Y160.401
X53.197Y160.391
X56.75
X56.788Y160.395
X56.827Y160.397
X56.865Y160.398
X56.903Y160.399
X84.903
X84.943Y160.398
X84.982Y160.397
X85.022Y160.394
X85.062Y160.391
X85.101Y160.386
X85.141Y160.381
X85.18Y160.374
X85.219Y160.367
X85.258Y160.359
X85.297Y160.349
X85.335Y160.339
X85.373Y160.328
X85.411Y160.315
X85.448Y160.302
X85.486Y160.288
X85.522Y160.273
X85.559Y160.257
X85.595Y160.24
X85.63Y160.223
X85.666Y160.204
X85.701Y160.184
X85.735Y160.164
X85.77Y160.142
X85.803Y160.119
X85.836Y160.096
X85.869Y160.072
X85.901Y160.047
X85.932Y160.021
X85.947Y160.008
X85.976Y159.982
X85.998Y159.962
X86.02Y159.941
X86.048Y159.912
X86.076Y159.883
X86.108Y159.847
X86.139Y159.81
X86.16Y159.782
X86.182Y159.754
X86.202Y159.726
X86.223Y159.697
X86.242Y159.667
X86.261Y159.637
X86.278Y159.608
X86.294Y159.58
X86.31Y159.551
X86.329Y159.514
X86.347Y159.476
X86.36Y159.447
X86.373Y159.417
X86.389Y159.376
X86.397Y159.354
X86.411Y159.314
X86.424Y159.274
X86.436Y159.232
X86.448Y159.189
X86.458Y159.146
X86.466Y159.106
X86.473Y159.066
X86.48Y159.015
X86.487Y158.958
X86.49Y158.925
X86.492Y158.891
X86.493Y158.857
X86.494Y158.808
Y158.575
X86.505Y158.514
X86.515Y158.437
X86.524Y158.359
X86.529Y158.282
X86.532Y158.204
Y158.165
Y147.332
Y147.292
X86.53Y147.253
X86.528Y147.213
X86.524Y147.174
X86.52Y147.135
X86.515Y147.096
X86.508Y147.057
X86.501Y147.018
X86.494Y146.985
X86.493Y146.942
X86.49Y146.899
X86.487Y146.856
X86.482Y146.814
X86.476Y146.771
X86.469Y146.728
X86.461Y146.686
X86.452Y146.644
X86.441Y146.602
X86.432Y146.568
X86.422Y146.533
X86.411Y146.499
X86.399Y146.465
X86.386Y146.432
X86.369Y146.39
X86.351Y146.35
X86.332Y146.309
X86.31Y146.266
X86.294Y146.236
X86.277Y146.206
X86.256Y146.17
X86.233Y146.135
X86.212Y146.103
X86.189Y146.071
X86.166Y146.04
X86.142Y146.01
X86.118Y145.98
X86.092Y145.951
X86.067Y145.923
X86.04Y145.895
X86.013Y145.867
X85.985Y145.841
X85.956Y145.815
X85.927Y145.79
X85.897Y145.765
X85.867Y145.742
X85.836Y145.719
X85.804Y145.696
X85.772Y145.675
X85.739Y145.654
X85.706Y145.635
X85.673Y145.615
X85.638Y145.597
X85.604Y145.58
X85.569Y145.563
X85.535Y145.547
X85.499Y145.533
X85.464Y145.519
X85.428Y145.506
X85.392Y145.494
X85.355Y145.482
X85.318Y145.472
X85.281Y145.462
X85.244Y145.454
X85.207Y145.446
X85.169Y145.439
X85.131Y145.433
X85.094Y145.428
X85.056Y145.424
X85.018Y145.421
X84.979Y145.419
X84.941Y145.417
X84.903
X80.967
X80.377Y145.404
X79.633Y145.398
G0Z1
X46.374Y151.812
G1Z-0.4F50
X46.401Y151.804F100
X46.455Y151.79
X46.482Y151.784
X46.508Y151.778
X46.537Y151.772
X46.592Y151.762
X46.619Y151.758
X46.647Y151.754
X46.674Y151.751
X46.719Y151.747
X46.765Y151.744
X46.785
X46.813Y151.743
X46.841
X46.869
X46.897Y151.744
X46.953Y151.747
X46.98Y151.749
X47.008Y151.751
X47.036Y151.754
X47.063Y151.758
X47.118Y151.767
X47.146Y151.772
X47.173Y151.777
X47.2Y151.784
X47.227Y151.79
X47.254Y151.797
X47.281Y151.804
X47.308Y151.812
X47.335Y151.821
X47.361Y151.83
X47.387Y151.839
X47.413Y151.849
X47.439Y151.859
X47.465Y151.869
X47.49Y151.881
X47.516Y151.892
X47.541Y151.904
X47.566Y151.917
X47.591Y151.929
X47.615Y151.943
X47.639Y151.956
X47.664Y151.971
X47.687Y151.985
X47.711Y152
X47.734Y152.016
X47.757Y152.031
X47.78Y152.048
X47.802Y152.064
X47.824Y152.081
X47.846Y152.098
X47.867Y152.116
X47.902Y152.146
X47.933Y152.175
X47.95Y152.191
X47.983Y152.223
X48.011Y152.252
X48.028Y152.271
X48.046Y152.292
X48.064Y152.313
X48.082Y152.334
X48.099Y152.356
X48.116Y152.378
X48.149Y152.424
X48.165Y152.446
X48.19Y152.485
X48.211Y152.519
X48.224Y152.541
X48.238Y152.565
X48.251Y152.59
X48.264Y152.614
X48.276Y152.639
X48.288Y152.664
X48.311Y152.715
X48.321Y152.741
X48.333Y152.77
X48.341Y152.793
X48.351Y152.819
X48.36Y152.846
X48.368Y152.872
X48.376Y152.899
X48.383Y152.926
X48.39Y152.953
X48.397Y152.98
X48.403Y153.007
X48.408Y153.035
X48.413Y153.062
X48.418Y153.089
X48.422Y153.117
X48.426Y153.145
X48.429Y153.172
X48.432Y153.2
X48.434Y153.228
X48.436Y153.256
X48.437Y153.284
Y153.311
X48.438Y153.339
X48.437Y153.367
Y153.395
X48.436Y153.423
X48.434Y153.45
X48.432Y153.478
X48.429Y153.506
X48.426Y153.534
X48.422Y153.561
X48.418Y153.589
X48.413Y153.616
X48.408Y153.644
X48.403Y153.671
X48.397Y153.698
X48.39Y153.725
X48.383Y153.753
X48.376Y153.779
X48.368Y153.806
X48.36Y153.833
X48.351Y153.859
X48.341Y153.885
X48.332Y153.911
X48.321Y153.937
X48.311Y153.963
X48.3Y153.989
X48.288Y154.014
X48.276Y154.039
X48.264Y154.064
X48.251Y154.089
X48.238Y154.113
X48.224Y154.138
X48.21Y154.162
X48.195Y154.185
X48.18Y154.209
X48.165Y154.232
X48.149Y154.255
X48.133Y154.278
X48.116Y154.3
X48.099Y154.322
X48.082Y154.344
X48.064Y154.366
X48.046Y154.387
X48.028Y154.407
X48.009Y154.428
X47.99Y154.448
X47.97Y154.468
X47.95Y154.488
X47.93Y154.507
X47.91Y154.526
X47.889Y154.544
X47.867Y154.562
X47.846Y154.58
X47.824Y154.598
X47.802Y154.614
X47.78Y154.631
X47.757Y154.647
X47.734Y154.663
X47.711Y154.678
X47.687Y154.693
X47.664Y154.708
X47.639Y154.722
X47.615Y154.736
X47.591Y154.749
X47.566Y154.762
X47.541Y154.774
X47.516Y154.786
X47.49Y154.798
X47.465Y154.809
X47.439Y154.82
X47.413Y154.83
X47.387Y154.84
X47.361Y154.849
X47.335Y154.858
X47.308Y154.866
X47.281Y154.874
X47.254Y154.881
X47.227Y154.888
X47.2Y154.895
X47.173Y154.901
X47.146Y154.907
X47.118Y154.912
X47.091Y154.916
X47.063Y154.92
X47.036Y154.924
X47.008Y154.927
X46.98Y154.93
X46.952Y154.932
X46.925Y154.934
X46.897Y154.935
X46.869Y154.936
X46.841
X46.818
X46.758Y154.934
X46.73Y154.932
X46.702Y154.93
X46.677Y154.927
X46.646Y154.924
X46.619Y154.92
X46.591Y154.916
X46.564Y154.912
X46.536Y154.907
X46.509Y154.901
X46.482Y154.895
X46.455Y154.888
X46.428Y154.881
X46.401Y154.874
X46.374Y154.866
X46.348Y154.858
X46.321Y154.849
X46.295Y154.84
X46.269Y154.83
X46.243Y154.82
X46.217Y154.809
X46.192Y154.798
X46.166Y154.786
X46.141Y154.774
X46.116Y154.762
X46.078Y154.741
X46.04Y154.72
X45.995Y154.693
X45.972Y154.678
X45.948Y154.663
X45.925Y154.647
X45.903Y154.631
X45.88Y154.614
X45.858Y154.598
X45.836Y154.58
X45.815Y154.562
X45.793Y154.544
X45.773Y154.526
X45.752Y154.507
X45.732Y154.488
X45.712Y154.468
X45.693Y154.448
X45.673Y154.428
X45.655Y154.408
X45.636Y154.387
X45.618Y154.366
X45.6Y154.344
X45.583Y154.322
X45.566Y154.3
X45.549Y154.278
X45.533Y154.255
X45.517Y154.232
X45.502Y154.209
X45.477Y154.169
X45.457Y154.136
X45.445Y154.113
X45.431Y154.089
X45.406Y154.039
X45.394Y154.014
X45.381Y153.985
X45.371Y153.963
X45.361Y153.937
X45.351Y153.911
X45.341Y153.885
X45.331Y153.859
X45.323Y153.834
X45.314Y153.806
X45.306Y153.779
X45.299Y153.753
X45.292Y153.725
X45.285Y153.698
X45.279Y153.671
X45.274Y153.644
X45.269Y153.616
X45.264Y153.589
X45.26Y153.561
X45.256Y153.534
X45.253Y153.506
X45.251Y153.478
X45.248Y153.451
X45.247Y153.423
X45.245Y153.395
X45.244Y153.339
X45.245Y153.311
Y153.284
X45.247Y153.256
X45.248Y153.228
X45.251Y153.2
X45.253Y153.172
X45.256Y153.145
X45.26Y153.117
X45.264Y153.089
X45.269Y153.062
X45.274Y153.035
X45.279Y153.007
X45.285Y152.98
X45.292Y152.953
X45.299Y152.926
X45.306Y152.899
X45.314Y152.872
X45.323Y152.846
X45.331Y152.82
X45.341Y152.793
X45.351Y152.767
X45.361Y152.741
X45.371Y152.715
X45.382Y152.69
X45.394Y152.664
X45.406Y152.639
X45.418Y152.614
X45.431Y152.59
X45.445Y152.565
X45.458Y152.541
X45.473Y152.517
X45.487Y152.493
X45.502Y152.47
X45.517Y152.446
X45.533Y152.424
X45.549Y152.401
X45.583Y152.356
X45.618Y152.313
X45.636Y152.292
X45.655Y152.271
X45.673Y152.25
X45.693Y152.23
X45.712Y152.21
X45.732Y152.191
X45.773Y152.153
X45.793Y152.134
X45.815Y152.116
X45.836Y152.098
X45.858Y152.081
X45.88Y152.064
X45.903Y152.048
X45.925Y152.031
X45.948Y152.015
X45.972Y152
X45.995Y151.985
X46.019Y151.971
X46.043Y151.956
X46.067Y151.943
X46.092Y151.929
X46.116Y151.917
X46.141Y151.904
X46.166Y151.892
X46.192Y151.881
X46.217Y151.869
X46.243Y151.859
X46.269Y151.849
X46.321Y151.83
X46.348Y151.821
X46.374Y151.812
G0Z1
X60.243Y153.148
G1Z-0.4F50
X60.294Y152.979F100
X60.377Y152.823
X60.49Y152.687
X60.626Y152.574
X60.782Y152.491
X60.951Y152.44
X61.127Y152.423
X61.303Y152.44
X61.472Y152.491
X61.628Y152.574
X61.764Y152.687
X61.876Y152.823
X61.96Y152.979
X62.011Y153.148
X62.028Y153.324
X62.011Y153.5
X61.96Y153.669
X61.876Y153.825
X61.764Y153.961
X61.628Y154.073
X61.472Y154.157
X61.303Y154.208
X61.127Y154.225
X60.951Y154.208
X60.782Y154.157
X60.626Y154.073
X60.49Y153.961
X60.377Y153.825
X60.294Y153.669
X60.243Y153.5
X60.226Y153.324
X60.243Y153.148
G0Z1
X76.129Y153.324
G1Z-0.4F50
X76.147Y153.148F100
X76.198Y152.979
X76.281Y152.823
X76.393Y152.687
X76.53Y152.574
X76.686Y152.491
X76.855Y152.44
X77.031Y152.423
X77.207Y152.44
X77.376Y152.491
X77.532Y152.574
X77.668Y152.687
X77.78Y152.823
X77.863Y152.979
X77.915Y153.148
X77.932Y153.324
X77.915Y153.5
X77.863Y153.669
X77.78Y153.825
X77.668Y153.961
X77.532Y154.073
X77.376Y154.157
X77.207Y154.208
X77.031Y154.225
X76.855Y154.208
X76.686Y154.157
X76.53Y154.073
X76.393Y153.961
X76.281Y153.825
X76.198Y153.669
X76.147Y153.5
X76.129Y153.324
G0Z1
X79.633Y145.398
G1Z-0.4F50
X53.178F100
X52.524Y145.404
X51.87Y145.42
X51.217Y145.448
X50.564Y145.486
X49.911Y145.535
X49.26Y145.595
X48.61Y145.666
X47.961Y145.747
X47.313Y145.839
X46.668Y145.942
X46.023Y146.056
X45.381Y146.181
X45.257Y146.207
X45.134Y146.236
X45.011Y146.266
X44.889Y146.299
X44.767Y146.334
X44.646Y146.371
X44.525Y146.41
X44.406Y146.451
X44.287Y146.494
X44.169Y146.54
X44.051Y146.587
X43.935Y146.636
X43.819Y146.688
X43.704Y146.741
X43.59Y146.796
X43.478Y146.854
X43.366Y146.913
X43.255Y146.974
X43.145Y147.037
X43.036Y147.102
X42.929Y147.169
X42.823Y147.238
X42.718Y147.308
X42.614Y147.381
X42.511Y147.455
X42.41Y147.531
X42.31Y147.608
X42.211Y147.688
X42.114Y147.769
X42.018Y147.851
X41.924Y147.936
X41.831Y148.022
X41.74Y148.109
X41.65Y148.198
X41.562Y148.289
X41.475Y148.381
X41.39Y148.475
X41.306Y148.57
X41.225Y148.667
X41.125Y148.789
X41.027Y148.913
X40.931Y149.038
X40.837Y149.166
X40.746Y149.295
X40.657Y149.425
X40.57Y149.557
X40.485Y149.69
X40.403Y149.825
X40.323Y149.961
X40.245Y150.099
X40.17Y150.237
X40.097Y150.378
X40.026Y150.519
X39.958Y150.661
X39.892Y150.805
X39.829Y150.95
X39.769Y151.096
X39.71Y151.242
X39.655Y151.39
X39.602Y151.539
X39.551Y151.689
X39.503Y151.839
X39.458Y151.99
X39.415Y152.143
X39.375Y152.295
X39.337Y152.449
X39.302Y152.603
X39.27Y152.757
X39.24Y152.913
X39.213Y153.068
X39.189Y153.224
X39.167Y153.381
X39.148Y153.538
X39.132Y153.695
X39.119Y153.852
X39.108Y154.01
X39.1Y154.167
X39.094Y154.325
X39.091Y154.483
Y154.641
X39.094Y154.799
X39.099Y154.957
X39.108Y155.115
X39.118Y155.272
X39.132Y155.429
X39.148Y155.587
X39.167Y155.743
X39.186Y155.886
X39.606Y158.777
X39.62Y158.853
X39.636Y158.929
X39.655Y159.004
X39.677Y159.078
X39.701Y159.151
X39.728Y159.225
X39.757Y159.296
X39.789Y159.367
X39.823Y159.436
X39.86Y159.505
X39.898Y159.571
X39.94Y159.637
X39.983Y159.701
X40.029Y159.764
X40.077Y159.825
X40.127Y159.884
X40.178Y159.941
X40.223Y159.987
X40.277Y160.04
X40.336Y160.093
X40.395Y160.143
X40.455Y160.191
X40.519Y160.237
X40.581Y160.28
X40.648Y160.322
X40.715Y160.361
X40.781Y160.397
X40.852Y160.432
X40.923Y160.464
X40.995Y160.493
X41.067Y160.52
X41.141Y160.545
X41.216Y160.567
X41.303Y160.588
X41.379Y160.605
X41.456Y160.618
X41.533Y160.629
X41.609Y160.637
X41.687Y160.642
X41.764Y160.645
X41.803
X46.854
X46.97Y160.644
X47.087Y160.641
X47.204Y160.636
X47.321Y160.629
X48.576Y160.539
X49.729Y160.474
X50.882Y160.428
X52.037Y160.401
X53.197Y160.391
X56.75
X56.788Y160.395
X56.827Y160.397
X56.865Y160.398
X56.903Y160.399
X84.903
X84.943Y160.398
X84.982Y160.397
X85.022Y160.394
X85.062Y160.391
X85.101Y160.386
X85.141Y160.381
X85.18Y160.374
X85.219Y160.367
X85.258Y160.359
X85.297Y160.349
X85.335Y160.339
X85.373Y160.328
X85.411Y160.315
X85.448Y160.302
X85.486Y160.288
X85.522Y160.273
X85.559Y160.257
X85.595Y160.24
X85.63Y160.223
X85.666Y160.204
X85.701Y160.184
X85.735Y160.164
X85.77Y160.142
X85.803Y160.119
X85.836Y160.096
X85.869Y160.072
X85.901Y160.047
X85.932Y160.021
X85.947Y160.008
X85.976Y159.982
X85.998Y159.962
X86.02Y159.941
X86.048Y159.912
X86.076Y159.883
X86.108Y159.847
X86.139Y159.81
X86.16Y159.782
X86.182Y159.754
X86.202Y159.726
X86.223Y159.697
X86.242Y159.667
X86.261Y159.637
X86.278Y159.608
X86.294Y159.58
X86.31Y159.551
X86.329Y159.514
X86.347Y159.476
X86.36Y159.447
X86.373Y159.417
X86.389Y159.376
X86.397Y159.354
X86.411Y159.314
X86.424Y159.274
X86.436Y159.232
X86.448Y159.189
X86.458Y159.146
X86.466Y159.106
X86.473Y159.066
X86.48Y159.015
X86.487Y158.958
X86.49Y158.925
X86.492Y158.891
X86.493Y158.857
X86.494Y158.808
Y158.575
X86.505Y158.514
X86.515Y158.437
X86.524Y158.359
X86.529Y158.282
X86.532Y158.204
Y158.165
Y147.332
Y147.292
X86.53Y147.253
X86.528Y147.213
X86.524Y147.174
X86.52Y147.135
X86.515Y147.096
X86.508Y147.057
X86.501Y147.018
X86.494Y146.985
X86.493Y146.942
X86.49Y146.899
X86.487Y146.856
X86.482Y146.814
X86.476Y146.771
X86.469Y146.728
X86.461Y146.686
X86.452Y146.644
X86.441Y146.602
X86.432Y146.568
X86.422Y146.533
X86.411Y146.499
X86.399Y146.465
X86.386Y146.432
X86.369Y146.39
X86.351Y146.35
X86.332Y146.309
X86.31Y146.266
X86.294Y146.236
X86.277Y146.206
X86.256Y146.17
X86.233Y146.135
X86.212Y146.103
X86.189Y146.071
X86.166Y146.04
X86.142Y146.01
X86.118Y145.98
X86.092Y145.951
X86.067Y145.923
X86.04Y145.895
X86.013Y145.867
X85.985Y145.841
X85.956Y145.815
X85.927Y145.79
X85.897Y145.765
X85.867Y145.742
X85.836Y145.719
X85.804Y145.696
X85.772Y145.675
X85.739Y145.654
X85.706Y145.635
X85.673Y145.615
X85.638Y145.597
X85.604Y145.58
X85.569Y145.563
X85.535Y145.547
X85.499Y145.533
X85.464Y145.519
X85.428Y145.506
X85.392Y145.494
X85.355Y145.482
X85.318Y145.472
X85.281Y145.462
X85.244Y145.454
X85.207Y145.446
X85.169Y145.439
X85.131Y145.433
X85.094Y145.428
X85.056Y145.424
X85.018Y145.421
X84.979Y145.419
X84.941Y145.417
X84.903
X80.967
X80.377Y145.404
X79.633Y145.398
G0Z1
X46.374Y151.812
G1Z-0.5F50
X46.401Y151.804F100
X46.455Y151.79
X46.482Y151.784
X46.508Y151.778
X46.537Y151.772
X46.592Y151.762
X46.619Y151.758
X46.647Y151.754
X46.674Y151.751
X46.719Y151.747
X46.765Y151.744
X46.785
X46.813Y151.743
X46.841
X46.869
X46.897Y151.744
X46.953Y151.747
X46.98Y151.749
X47.008Y151.751
X47.036Y151.754
X47.063Y151.758
X47.118Y151.767
X47.146Y151.772
X47.173Y151.777
X47.2Y151.784
X47.227Y151.79
X47.254Y151.797
X47.281Y151.804
X47.308Y151.812
X47.335Y151.821
X47.361Y151.83
X47.387Y151.839
X47.413Y151.849
X47.439Y151.859
X47.465Y151.869
X47.49Y151.881
X47.516Y151.892
X47.541Y151.904
X47.566Y151.917
X47.591Y151.929
X47.615Y151.943
X47.639Y151.956
X47.664Y151.971
X47.687Y151.985
X47.711Y152
X47.734Y152.016
X47.757Y152.031
X47.78Y152.048
X47.802Y152.064
X47.824Y152.081
X47.846Y152.098
X47.867Y152.116
X47.902Y152.146
X47.933Y152.175
X47.95Y152.191
X47.983Y152.223
X48.011Y152.252
X48.028Y152.271
X48.046Y152.292
X48.064Y152.313
X48.082Y152.334
X48.099Y152.356
X48.116Y152.378
X48.149Y152.424
X48.165Y152.446
X48.19Y152.485
X48.211Y152.519
X48.224Y152.541
X48.238Y152.565
X48.251Y152.59
X48.264Y152.614
X48.276Y152.639
X48.288Y152.664
X48.311Y152.715
X48.321Y152.741
X48.333Y152.77
X48.341Y152.793
X48.351Y152.819
X48.36Y152.846
X48.368Y152.872
X48.376Y152.899
X48.383Y152.926
X48.39Y152.953
X48.397Y152.98
X48.403Y153.007
X48.408Y153.035
X48.413Y153.062
X48.418Y153.089
X48.422Y153.117
X48.426Y153.145
X48.429Y153.172
X48.432Y153.2
X48.434Y153.228
X48.436Y153.256
X48.437Y153.284
Y153.311
X48.438Y153.339
X48.437Y153.367
Y153.395
X48.436Y153.423
X48.434Y153.45
X48.432Y153.478
X48.429Y153.506
X48.426Y153.534
X48.422Y153.561
X48.418Y153.589
X48.413Y153.616
X48.408Y153.644
X48.403Y153.671
X48.397Y153.698
X48.39Y153.725
X48.383Y153.753
X48.376Y153.779
X48.368Y153.806
X48.36Y153.833
X48.351Y153.859
X48.341Y153.885
X48.332Y153.911
X48.321Y153.937
X48.311Y153.963
X48.3Y153.989
X48.288Y154.014
X48.276Y154.039
X48.264Y154.064
X48.251Y154.089
X48.238Y154.113
X48.224Y154.138
X48.21Y154.162
X48.195Y154.185
X48.18Y154.209
X48.165Y154.232
X48.149Y154.255
X48.133Y154.278
X48.116Y154.3
X48.099Y154.322
X48.082Y154.344
X48.064Y154.366
X48.046Y154.387
X48.028Y154.407
X48.009Y154.428
X47.99Y154.448
X47.97Y154.468
X47.95Y154.488
X47.93Y154.507
X47.91Y154.526
X47.889Y154.544
X47.867Y154.562
X47.846Y154.58
X47.824Y154.598
X47.802Y154.614
X47.78Y154.631
X47.757Y154.647
X47.734Y154.663
X47.711Y154.678
X47.687Y154.693
X47.664Y154.708
X47.639Y154.722
X47.615Y154.736
X47.591Y154.749
X47.566Y154.762
X47.541Y154.774
X47.516Y154.786
X47.49Y154.798
X47.465Y154.809
X47.439Y154.82
X47.413Y154.83
X47.387Y154.84
X47.361Y154.849
X47.335Y154.858
X47.308Y154.866
X47.281Y154.874
X47.254Y154.881
X47.227Y154.888
X47.2Y154.895
X47.173Y154.901
X47.146Y154.907
X47.118Y154.912
X47.091Y154.916
X47.063Y154.92
X47.036Y154.924
X47.008Y154.927
X46.98Y154.93
X46.952Y154.932
X46.925Y154.934
X46.897Y154.935
X46.869Y154.936
X46.841
X46.818
X46.758Y154.934
X46.73Y154.932
X46.702Y154.93
X46.677Y154.927
X46.646Y154.924
X46.619Y154.92
X46.591Y154.916
X46.564Y154.912
X46.536Y154.907
X46.509Y154.901
X46.482Y154.895
X46.455Y154.888
X46.428Y154.881
X46.401Y154.874
X46.374Y154.866
X46.348Y154.858
X46.321Y154.849
X46.295Y154.84
X46.269Y154.83
X46.243Y154.82
X46.217Y154.809
X46.192Y154.798
X46.166Y154.786
X46.141Y154.774
X46.116Y154.762
X46.078Y154.741
X46.04Y154.72
X45.995Y154.693
X45.972Y154.678
X45.948Y154.663
X45.925Y154.647
X45.903Y154.631
X45.88Y154.614
X45.858Y154.598
X45.836Y154.58
X45.815Y154.562
X45.793Y154.544
X45.773Y154.526
X45.752Y154.507
X45.732Y154.488
X45.712Y154.468
X45.693Y154.448
X45.673Y154.428
X45.655Y154.408
X45.636Y154.387
X45.618Y154.366
X45.6Y154.344
X45.583Y154.322
X45.566Y154.3
X45.549Y154.278
X45.533Y154.255
X45.517Y154.232
X45.502Y154.209
X45.477Y154.169
X45.457Y154.136
X45.445Y154.113
X45.431Y154.089
X45.406Y154.039
X45.394Y154.014
X45.381Y153.985
X45.371Y153.963
X45.361Y153.937
X45.351Y153.911
X45.341Y153.885
X45.331Y153.859
X45.323Y153.834
X45.314Y153.806
X45.306Y153.779
X45.299Y153.753
X45.292Y153.725
X45.285Y153.698
X45.279Y153.671
X45.274Y153.644
X45.269Y153.616
X45.264Y153.589
X45.26Y153.561
X45.256Y153.534
X45.253Y153.506
X45.251Y153.478
X45.248Y153.451
X45.247Y153.423
X45.245Y153.395
X45.244Y153.339
X45.245Y153.311
Y153.284
X45.247Y153.256
X45.248Y153.228
X45.251Y153.2
X45.253Y153.172
X45.256Y153.145
X45.26Y153.117
X45.264Y153.089
X45.269Y153.062
X45.274Y153.035
X45.279Y153.007
X45.285Y152.98
X45.292Y152.953
X45.299Y152.926
X45.306Y152.899
X45.314Y152.872
X45.323Y152.846
X45.331Y152.82
X45.341Y152.793
X45.351Y152.767
X45.361Y152.741
X45.371Y152.715
X45.382Y152.69
X45.394Y152.664
X45.406Y152.639
X45.418Y152.614
X45.431Y152.59
X45.445Y152.565
X45.458Y152.541
X45.473Y152.517
X45.487Y152.493
X45.502Y152.47
X45.517Y152.446
X45.533Y152.424
X45.549Y152.401
X45.583Y152.356
X45.618Y152.313
X45.636Y152.292
X45.655Y152.271
X45.673Y152.25
X45.693Y152.23
X45.712Y152.21
X45.732Y152.191
X45.773Y152.153
X45.793Y152.134
X45.815Y152.116
X45.836Y152.098
X45.858Y152.081
X45.88Y152.064
X45.903Y152.048
X45.925Y152.031
X45.948Y152.015
X45.972Y152
X45.995Y151.985
X46.019Y151.971
X46.043Y151.956
X46.067Y151.943
X46.092Y151.929
X46.116Y151.917
X46.141Y151.904
X46.166Y151.892
X46.192Y151.881
X46.217Y151.869
X46.243Y151.859
X46.269Y151.849
X46.321Y151.83
X46.348Y151.821
X46.374Y151.812
G0Z1
X60.243Y153.148
G1Z-0.5F50
X60.294Y152.979F100
X60.377Y152.823
X60.49Y152.687
X60.626Y152.574
X60.782Y152.491
X60.951Y152.44
X61.127Y152.423
X61.303Y152.44
X61.472Y152.491
X61.628Y152.574
X61.764Y152.687
X61.876Y152.823
X61.96Y152.979
X62.011Y153.148
X62.028Y153.324
X62.011Y153.5
X61.96Y153.669
X61.876Y153.825
X61.764Y153.961
X61.628Y154.073
X61.472Y154.157
X61.303Y154.208
X61.127Y154.225
X60.951Y154.208
X60.782Y154.157
X60.626Y154.073
X60.49Y153.961
X60.377Y153.825
X60.294Y153.669
X60.243Y153.5
X60.226Y153.324
X60.243Y153.148
G0Z1
X76.129Y153.324
G1Z-0.5F50
X76.147Y153.148F100
X76.198Y152.979
X76.281Y152.823
X76.393Y152.687
X76.53Y152.574
X76.686Y152.491
X76.855Y152.44
X77.031Y152.423
X77.207Y152.44
X77.376Y152.491
X77.532Y152.574
X77.668Y152.687
X77.78Y152.823
X77.863Y152.979
X77.915Y153.148
X77.932Y153.324
X77.915Y153.5
X77.863Y153.669
X77.78Y153.825
X77.668Y153.961
X77.532Y154.073
X77.376Y154.157
X77.207Y154.208
X77.031Y154.225
X76.855Y154.208
X76.686Y154.157
X76.53Y154.073
X76.393Y153.961
X76.281Y153.825
X76.198Y153.669
X76.147Y153.5
X76.129Y153.324
G0Z1
X79.633Y145.398
G1Z-0.5F50
X53.178F100
X52.524Y145.404
X51.87Y145.42
X51.217Y145.448
X50.564Y145.486
X49.911Y145.535
X49.26Y145.595
X48.61Y145.666
X47.961Y145.747
X47.313Y145.839
X46.668Y145.942
X46.023Y146.056
X45.381Y146.181
X45.257Y146.207
X45.134Y146.236
X45.011Y146.266
X44.889Y146.299
X44.767Y146.334
X44.646Y146.371
X44.525Y146.41
X44.406Y146.451
X44.287Y146.494
X44.169Y146.54
X44.051Y146.587
X43.935Y146.636
X43.819Y146.688
X43.704Y146.741
X43.59Y146.796
X43.478Y146.854
X43.366Y146.913
X43.255Y146.974
X43.145Y147.037
X43.036Y147.102
X42.929Y147.169
X42.823Y147.238
X42.718Y147.308
X42.614Y147.381
X42.511Y147.455
X42.41Y147.531
X42.31Y147.608
X42.211Y147.688
X42.114Y147.769
X42.018Y147.851
X41.924Y147.936
X41.831Y148.022
X41.74Y148.109
X41.65Y148.198
X41.562Y148.289
X41.475Y148.381
X41.39Y148.475
X41.306Y148.57
X41.225Y148.667
X41.125Y148.789
X41.027Y148.913
X40.931Y149.038
X40.837Y149.166
X40.746Y149.295
X40.657Y149.425
X40.57Y149.557
X40.485Y149.69
X40.403Y149.825
X40.323Y149.961
X40.245Y150.099
X40.17Y150.237
X40.097Y150.378
X40.026Y150.519
X39.958Y150.661
X39.892Y150.805
X39.829Y150.95
X39.769Y151.096
X39.71Y151.242
X39.655Y151.39
X39.602Y151.539
X39.551Y151.689
X39.503Y151.839
X39.458Y151.99
X39.415Y152.143
X39.375Y152.295
X39.337Y152.449
X39.302Y152.603
X39.27Y152.757
X39.24Y152.913
X39.213Y153.068
X39.189Y153.224
X39.167Y153.381
X39.148Y153.538
X39.132Y153.695
X39.119Y153.852
X39.108Y154.01
X39.1Y154.167
X39.094Y154.325
X39.091Y154.483
Y154.641
X39.094Y154.799
X39.099Y154.957
X39.108Y155.115
X39.118Y155.272
X39.132Y155.429
X39.148Y155.587
X39.167Y155.743
X39.186Y155.886
X39.606Y158.777
X39.62Y158.853
X39.636Y158.929
X39.655Y159.004
X39.677Y159.078
X39.701Y159.151
X39.728Y159.225
X39.757Y159.296
X39.789Y159.367
X39.823Y159.436
X39.86Y159.505
X39.898Y159.571
X39.94Y159.637
X39.983Y159.701
X40.029Y159.764
X40.077Y159.825
X40.127Y159.884
X40.178Y159.941
X40.223Y159.987
X40.277Y160.04
X40.336Y160.093
X40.395Y160.143
X40.455Y160.191
X40.519Y160.237
X40.581Y160.28
X40.648Y160.322
X40.715Y160.361
X40.781Y160.397
X40.852Y160.432
X40.923Y160.464
X40.995Y160.493
X41.067Y160.52
X41.141Y160.545
X41.216Y160.567
X41.303Y160.588
X41.379Y160.605
X41.456Y160.618
X41.533Y160.629
X41.609Y160.637
X41.687Y160.642
X41.764Y160.645
X41.803
X46.854
X46.97Y160.644
X47.087Y160.641
X47.204Y160.636
X47.321Y160.629
X48.576Y160.539
X49.729Y160.474
X50.882Y160.428
X52.037Y160.401
X53.197Y160.391
X56.75
X56.788Y160.395
X56.827Y160.397
X56.865Y160.398
X56.903Y160.399
X84.903
X84.943Y160.398
X84.982Y160.397
X85.022Y160.394
X85.062Y160.391
X85.101Y160.386
X85.141Y160.381
X85.18Y160.374
X85.219Y160.367
X85.258Y160.359
X85.297Y160.349
X85.335Y160.339
X85.373Y160.328
X85.411Y160.315
X85.448Y160.302
X85.486Y160.288
X85.522Y160.273
X85.559Y160.257
X85.595Y160.24
X85.63Y160.223
X85.666Y160.204
X85.701Y160.184
X85.735Y160.164
X85.77Y160.142
X85.803Y160.119
X85.836Y160.096
X85.869Y160.072
X85.901Y160.047
X85.932Y160.021
X85.947Y160.008
X85.976Y159.982
X85.998Y159.962
X86.02Y159.941
X86.048Y159.912
X86.076Y159.883
X86.108Y159.847
X86.139Y159.81
X86.16Y159.782
X86.182Y159.754
X86.202Y159.726
X86.223Y159.697
X86.242Y159.667
X86.261Y159.637
X86.278Y159.608
X86.294Y159.58
X86.31Y159.551
X86.329Y159.514
X86.347Y159.476
X86.36Y159.447
X86.373Y159.417
X86.389Y159.376
X86.397Y159.354
X86.411Y159.314
X86.424Y159.274
X86.436Y159.232
X86.448Y159.189
X86.458Y159.146
X86.466Y159.106
X86.473Y159.066
X86.48Y159.015
X86.487Y158.958
X86.49Y158.925
X86.492Y158.891
X86.493Y158.857
X86.494Y158.808
Y158.575
X86.505Y158.514
X86.515Y158.437
X86.524Y158.359
X86.529Y158.282
X86.532Y158.204
Y158.165
Y147.332
Y147.292
X86.53Y147.253
X86.528Y147.213
X86.524Y147.174
X86.52Y147.135
X86.515Y147.096
X86.508Y147.057
X86.501Y147.018
X86.494Y146.985
X86.493Y146.942
X86.49Y146.899
X86.487Y146.856
X86.482Y146.814
X86.476Y146.771
X86.469Y146.728
X86.461Y146.686
X86.452Y146.644
X86.441Y146.602
X86.432Y146.568
X86.422Y146.533
X86.411Y146.499
X86.399Y146.465
X86.386Y146.432
X86.369Y146.39
X86.351Y146.35
X86.332Y146.309
X86.31Y146.266
X86.294Y146.236
X86.277Y146.206
X86.256Y146.17
X86.233Y146.135
X86.212Y146.103
X86.189Y146.071
X86.166Y146.04
X86.142Y146.01
X86.118Y145.98
X86.092Y145.951
X86.067Y145.923
X86.04Y145.895
X86.013Y145.867
X85.985Y145.841
X85.956Y145.815
X85.927Y145.79
X85.897Y145.765
X85.867Y145.742
X85.836Y145.719
X85.804Y145.696
X85.772Y145.675
X85.739Y145.654
X85.706Y145.635
X85.673Y145.615
X85.638Y145.597
X85.604Y145.58
X85.569Y145.563
X85.535Y145.547
X85.499Y145.533
X85.464Y145.519
X85.428Y145.506
X85.392Y145.494
X85.355Y145.482
X85.318Y145.472
X85.281Y145.462
X85.244Y145.454
X85.207Y145.446
X85.169Y145.439
X85.131Y145.433
X85.094Y145.428
X85.056Y145.424
X85.018Y145.421
X84.979Y145.419
X84.941Y145.417
X84.903
X80.967
X80.377Y145.404
X79.633Y145.398
G0Z1
X46.374Y151.812
G1Z-0.6F50
X46.401Y151.804F100
X46.455Y151.79
X46.482Y151.784
X46.508Y151.778
X46.537Y151.772
X46.592Y151.762
X46.619Y151.758
X46.647Y151.754
X46.674Y151.751
X46.719Y151.747
X46.765Y151.744
X46.785
X46.813Y151.743
X46.841
X46.869
X46.897Y151.744
X46.953Y151.747
X46.98Y151.749
X47.008Y151.751
X47.036Y151.754
X47.063Y151.758
X47.118Y151.767
X47.146Y151.772
X47.173Y151.777
X47.2Y151.784
X47.227Y151.79
X47.254Y151.797
X47.281Y151.804
X47.308Y151.812
X47.335Y151.821
X47.361Y151.83
X47.387Y151.839
X47.413Y151.849
X47.439Y151.859
X47.465Y151.869
X47.49Y151.881
X47.516Y151.892
X47.541Y151.904
X47.566Y151.917
X47.591Y151.929
X47.615Y151.943
X47.639Y151.956
X47.664Y151.971
X47.687Y151.985
X47.711Y152
X47.734Y152.016
X47.757Y152.031
X47.78Y152.048
X47.802Y152.064
X47.824Y152.081
X47.846Y152.098
X47.867Y152.116
X47.902Y152.146
X47.933Y152.175
X47.95Y152.191
X47.983Y152.223
X48.011Y152.252
X48.028Y152.271
X48.046Y152.292
X48.064Y152.313
X48.082Y152.334
X48.099Y152.356
X48.116Y152.378
X48.149Y152.424
X48.165Y152.446
X48.19Y152.485
X48.211Y152.519
X48.224Y152.541
X48.238Y152.565
X48.251Y152.59
X48.264Y152.614
X48.276Y152.639
X48.288Y152.664
X48.311Y152.715
X48.321Y152.741
X48.333Y152.77
X48.341Y152.793
X48.351Y152.819
X48.36Y152.846
X48.368Y152.872
X48.376Y152.899
X48.383Y152.926
X48.39Y152.953
X48.397Y152.98
X48.403Y153.007
X48.408Y153.035
X48.413Y153.062
X48.418Y153.089
X48.422Y153.117
X48.426Y153.145
X48.429Y153.172
X48.432Y153.2
X48.434Y153.228
X48.436Y153.256
X48.437Y153.284
Y153.311
X48.438Y153.339
X48.437Y153.367
Y153.395
X48.436Y153.423
X48.434Y153.45
X48.432Y153.478
X48.429Y153.506
X48.426Y153.534
X48.422Y153.561
X48.418Y153.589
X48.413Y153.616
X48.408Y153.644
X48.403Y153.671
X48.397Y153.698
X48.39Y153.725
X48.383Y153.753
X48.376Y153.779
X48.368Y153.806
X48.36Y153.833
X48.351Y153.859
X48.341Y153.885
X48.332Y153.911
X48.321Y153.937
X48.311Y153.963
X48.3Y153.989
X48.288Y154.014
X48.276Y154.039
X48.264Y154.064
X48.251Y154.089
X48.238Y154.113
X48.224Y154.138
X48.21Y154.162
X48.195Y154.185
X48.18Y154.209
X48.165Y154.232
X48.149Y154.255
X48.133Y154.278
X48.116Y154.3
X48.099Y154.322
X48.082Y154.344
X48.064Y154.366
X48.046Y154.387
X48.028Y154.407
X48.009Y154.428
X47.99Y154.448
X47.97Y154.468
X47.95Y154.488
X47.93Y154.507
X47.91Y154.526
X47.889Y154.544
X47.867Y154.562
X47.846Y154.58
X47.824Y154.598
X47.802Y154.614
X47.78Y154.631
X47.757Y154.647
X47.734Y154.663
X47.711Y154.678
X47.687Y154.693
X47.664Y154.708
X47.639Y154.722
X47.615Y154.736
X47.591Y154.749
X47.566Y154.762
X47.541Y154.774
X47.516Y154.786
X47.49Y154.798
X47.465Y154.809
X47.439Y154.82
X47.413Y154.83
X47.387Y154.84
X47.361Y154.849
X47.335Y154.858
X47.308Y154.866
X47.281Y154.874
X47.254Y154.881
X47.227Y154.888
X47.2Y154.895
X47.173Y154.901
X47.146Y154.907
X47.118Y154.912
X47.091Y154.916
X47.063Y154.92
X47.036Y154.924
X47.008Y154.927
X46.98Y154.93
X46.952Y154.932
X46.925Y154.934
X46.897Y154.935
X46.869Y154.936
X46.841
X46.818
X46.758Y154.934
X46.73Y154.932
X46.702Y154.93
X46.677Y154.927
X46.646Y154.924
X46.619Y154.92
X46.591Y154.916
X46.564Y154.912
X46.536Y154.907
X46.509Y154.901
X46.482Y154.895
X46.455Y154.888
X46.428Y154.881
X46.401Y154.874
X46.374Y154.866
X46.348Y154.858
X46.321Y154.849
X46.295Y154.84
X46.269Y154.83
X46.243Y154.82
X46.217Y154.809
X46.192Y154.798
X46.166Y154.786
X46.141Y154.774
X46.116Y154.762
X46.078Y154.741
X46.04Y154.72
X45.995Y154.693
X45.972Y154.678
X45.948Y154.663
X45.925Y154.647
X45.903Y154.631
X45.88Y154.614
X45.858Y154.598
X45.836Y154.58
X45.815Y154.562
X45.793Y154.544
X45.773Y154.526
X45.752Y154.507
X45.732Y154.488
X45.712Y154.468
X45.693Y154.448
X45.673Y154.428
X45.655Y154.408
X45.636Y154.387
X45.618Y154.366
X45.6Y154.344
X45.583Y154.322
X45.566Y154.3
X45.549Y154.278
X45.533Y154.255
X45.517Y154.232
X45.502Y154.209
X45.477Y154.169
X45.457Y154.136
X45.445Y154.113
X45.431Y154.089
X45.406Y154.039
X45.394Y154.014
X45.381Y153.985
X45.371Y153.963
X45.361Y153.937
X45.351Y153.911
X45.341Y153.885
X45.331Y153.859
X45.323Y153.834
X45.314Y153.806
X45.306Y153.779
X45.299Y153.753
X45.292Y153.725
X45.285Y153.698
X45.279Y153.671
X45.274Y153.644
X45.269Y153.616
X45.264Y153.589
X45.26Y153.561
X45.256Y153.534
X45.253Y153.506
X45.251Y153.478
X45.248Y153.451
X45.247Y153.423
X45.245Y153.395
X45.244Y153.339
X45.245Y153.311
Y153.284
X45.247Y153.256
X45.248Y153.228
X45.251Y153.2
X45.253Y153.172
X45.256Y153.145
X45.26Y153.117
X45.264Y153.089
X45.269Y153.062
X45.274Y153.035
X45.279Y153.007
X45.285Y152.98
X45.292Y152.953
X45.299Y152.926
X45.306Y152.899
X45.314Y152.872
X45.323Y152.846
X45.331Y152.82
X45.341Y152.793
X45.351Y152.767
X45.361Y152.741
X45.371Y152.715
X45.382Y152.69
X45.394Y152.664
X45.406Y152.639
X45.418Y152.614
X45.431Y152.59
X45.445Y152.565
X45.458Y152.541
X45.473Y152.517
X45.487Y152.493
X45.502Y152.47
X45.517Y152.446
X45.533Y152.424
X45.549Y152.401
X45.583Y152.356
X45.618Y152.313
X45.636Y152.292
X45.655Y152.271
X45.673Y152.25
X45.693Y152.23
X45.712Y152.21
X45.732Y152.191
X45.773Y152.153
X45.793Y152.134
X45.815Y152.116
X45.836Y152.098
X45.858Y152.081
X45.88Y152.064
X45.903Y152.048
X45.925Y152.031
X45.948Y152.015
X45.972Y152
X45.995Y151.985
X46.019Y151.971
X46.043Y151.956
X46.067Y151.943
X46.092Y151.929
X46.116Y151.917
X46.141Y151.904
X46.166Y151.892
X46.192Y151.881
X46.217Y151.869
X46.243Y151.859
X46.269Y151.849
X46.321Y151.83
X46.348Y151.821
X46.374Y151.812
G0Z1
X60.243Y153.148
G1Z-0.6F50
X60.294Y152.979F100
X60.377Y152.823
X60.49Y152.687
X60.626Y152.574
X60.782Y152.491
X60.951Y152.44
X61.127Y152.423
X61.303Y152.44
X61.472Y152.491
X61.628Y152.574
X61.764Y152.687
X61.876Y152.823
X61.96Y152.979
X62.011Y153.148
X62.028Y153.324
X62.011Y153.5
X61.96Y153.669
X61.876Y153.825
X61.764Y153.961
X61.628Y154.073
X61.472Y154.157
X61.303Y154.208
X61.127Y154.225
X60.951Y154.208
X60.782Y154.157
X60.626Y154.073
X60.49Y153.961
X60.377Y153.825
X60.294Y153.669
X60.243Y153.5
X60.226Y153.324
X60.243Y153.148
G0Z1
X76.129Y153.324
G1Z-0.6F50
X76.147Y153.148F100
X76.198Y152.979
X76.281Y152.823
X76.393Y152.687
X76.53Y152.574
X76.686Y152.491
X76.855Y152.44
X77.031Y152.423
X77.207Y152.44
X77.376Y152.491
X77.532Y152.574
X77.668Y152.687
X77.78Y152.823
X77.863Y152.979
X77.915Y153.148
X77.932Y153.324
X77.915Y153.5
X77.863Y153.669
X77.78Y153.825
X77.668Y153.961
X77.532Y154.073
X77.376Y154.157
X77.207Y154.208
X77.031Y154.225
X76.855Y154.208
X76.686Y154.157
X76.53Y154.073
X76.393Y153.961
X76.281Y153.825
X76.198Y153.669
X76.147Y153.5
X76.129Y153.324
G0Z1
X79.633Y145.398
G1Z-0.6F50
X53.178F100
X52.524Y145.404
X51.87Y145.42
X51.217Y145.448
X50.564Y145.486
X49.911Y145.535
X49.26Y145.595
X48.61Y145.666
X47.961Y145.747
X47.313Y145.839
X46.668Y145.942
X46.023Y146.056
X45.381Y146.181
X45.257Y146.207
X45.134Y146.236
X45.011Y146.266
X44.889Y146.299
X44.767Y146.334
X44.646Y146.371
X44.525Y146.41
X44.406Y146.451
X44.287Y146.494
X44.169Y146.54
X44.051Y146.587
X43.935Y146.636
X43.819Y146.688
X43.704Y146.741
X43.59Y146.796
X43.478Y146.854
X43.366Y146.913
X43.255Y146.974
X43.145Y147.037
X43.036Y147.102
X42.929Y147.169
X42.823Y147.238
X42.718Y147.308
X42.614Y147.381
X42.511Y147.455
X42.41Y147.531
X42.31Y147.608
X42.211Y147.688
X42.114Y147.769
X42.018Y147.851
X41.924Y147.936
X41.831Y148.022
X41.74Y148.109
X41.65Y148.198
X41.562Y148.289
X41.475Y148.381
X41.39Y148.475
X41.306Y148.57
X41.225Y148.667
X41.125Y148.789
X41.027Y148.913
X40.931Y149.038
X40.837Y149.166
X40.746Y149.295
X40.657Y149.425
X40.57Y149.557
X40.485Y149.69
X40.403Y149.825
X40.323Y149.961
X40.245Y150.099
X40.17Y150.237
X40.097Y150.378
X40.026Y150.519
X39.958Y150.661
X39.892Y150.805
X39.829Y150.95
X39.769Y151.096
X39.71Y151.242
X39.655Y151.39
X39.602Y151.539
X39.551Y151.689
X39.503Y151.839
X39.458Y151.99
X39.415Y152.143
X39.375Y152.295
X39.337Y152.449
X39.302Y152.603
X39.27Y152.757
X39.24Y152.913
X39.213Y153.068
X39.189Y153.224
X39.167Y153.381
X39.148Y153.538
X39.132Y153.695
X39.119Y153.852
X39.108Y154.01
X39.1Y154.167
X39.094Y154.325
X39.091Y154.483
Y154.641
X39.094Y154.799
X39.099Y154.957
X39.108Y155.115
X39.118Y155.272
X39.132Y155.429
X39.148Y155.587
X39.167Y155.743
X39.186Y155.886
X39.606Y158.777
X39.62Y158.853
X39.636Y158.929
X39.655Y159.004
X39.677Y159.078
X39.701Y159.151
X39.728Y159.225
X39.757Y159.296
X39.789Y159.367
X39.823Y159.436
X39.86Y159.505
X39.898Y159.571
X39.94Y159.637
X39.983Y159.701
X40.029Y159.764
X40.077Y159.825
X40.127Y159.884
X40.178Y159.941
X40.223Y159.987
X40.277Y160.04
X40.336Y160.093
X40.395Y160.143
X40.455Y160.191
X40.519Y160.237
X40.581Y160.28
X40.648Y160.322
X40.715Y160.361
X40.781Y160.397
X40.852Y160.432
X40.923Y160.464
X40.995Y160.493
X41.067Y160.52
X41.141Y160.545
X41.216Y160.567
X41.303Y160.588
X41.379Y160.605
X41.456Y160.618
X41.533Y160.629
X41.609Y160.637
X41.687Y160.642
X41.764Y160.645
X41.803
X46.854
X46.97Y160.644
X47.087Y160.641
X47.204Y160.636
X47.321Y160.629
X48.576Y160.539
X49.729Y160.474
X50.882Y160.428
X52.037Y160.401
X53.197Y160.391
X56.75
X56.788Y160.395
X56.827Y160.397
X56.865Y160.398
X56.903Y160.399
X84.903
X84.943Y160.398
X84.982Y160.397
X85.022Y160.394
X85.062Y160.391
X85.101Y160.386
X85.141Y160.381
X85.18Y160.374
X85.219Y160.367
X85.258Y160.359
X85.297Y160.349
X85.335Y160.339
X85.373Y160.328
X85.411Y160.315
X85.448Y160.302
X85.486Y160.288
X85.522Y160.273
X85.559Y160.257
X85.595Y160.24
X85.63Y160.223
X85.666Y160.204
X85.701Y160.184
X85.735Y160.164
X85.77Y160.142
X85.803Y160.119
X85.836Y160.096
X85.869Y160.072
X85.901Y160.047
X85.932Y160.021
X85.947Y160.008
X85.976Y159.982
X85.998Y159.962
X86.02Y159.941
X86.048Y159.912
X86.076Y159.883
X86.108Y159.847
X86.139Y159.81
X86.16Y159.782
X86.182Y159.754
X86.202Y159.726
X86.223Y159.697
X86.242Y159.667
X86.261Y159.637
X86.278Y159.608
X86.294Y159.58
X86.31Y159.551
X86.329Y159.514
X86.347Y159.476
X86.36Y159.447
X86.373Y159.417
X86.389Y159.376
X86.397Y159.354
X86.411Y159.314
X86.424Y159.274
X86.436Y159.232
X86.448Y159.189
X86.458Y159.146
X86.466Y159.106
X86.473Y159.066
X86.48Y159.015
X86.487Y158.958
X86.49Y158.925
X86.492Y158.891
X86.493Y158.857
X86.494Y158.808
Y158.575
X86.505Y158.514
X86.515Y158.437
X86.524Y158.359
X86.529Y158.282
X86.532Y158.204
Y158.165
Y147.332
Y147.292
X86.53Y147.253
X86.528Y147.213
X86.524Y147.174
X86.52Y147.135
X86.515Y147.096
X86.508Y147.057
X86.501Y147.018
X86.494Y146.985
X86.493Y146.942
X86.49Y146.899
X86.487Y146.856
X86.482Y146.814
X86.476Y146.771
X86.469Y146.728
X86.461Y146.686
X86.452Y146.644
X86.441Y146.602
X86.432Y146.568
X86.422Y146.533
X86.411Y146.499
X86.399Y146.465
X86.386Y146.432
X86.369Y146.39
X86.351Y146.35
X86.332Y146.309
X86.31Y146.266
X86.294Y146.236
X86.277Y146.206
X86.256Y146.17
X86.233Y146.135
X86.212Y146.103
X86.189Y146.071
X86.166Y146.04
X86.142Y146.01
X86.118Y145.98
X86.092Y145.951
X86.067Y145.923
X86.04Y145.895
X86.013Y145.867
X85.985Y145.841
X85.956Y145.815
X85.927Y145.79
X85.897Y145.765
X85.867Y145.742
X85.836Y145.719
X85.804Y145.696
X85.772Y145.675
X85.739Y145.654
X85.706Y145.635
X85.673Y145.615
X85.638Y145.597
X85.604Y145.58
X85.569Y145.563
X85.535Y145.547
X85.499Y145.533
X85.464Y145.519
X85.428Y145.506
X85.392Y145.494
X85.355Y145.482
X85.318Y145.472
X85.281Y145.462
X85.244Y145.454
X85.207Y145.446
X85.169Y145.439
X85.131Y145.433
X85.094Y145.428
X85.056Y145.424
X85.018Y145.421
X84.979Y145.419
X84.941Y145.417
X84.903
X80.967
X80.377Y145.404
X79.633Y145.398
G0Z1
X46.374Y151.812
G1Z-0.7F50
X46.401Y151.804F100
X46.455Y151.79
X46.482Y151.784
X46.508Y151.778
X46.537Y151.772
X46.592Y151.762
X46.619Y151.758
X46.647Y151.754
X46.674Y151.751
X46.719Y151.747
X46.765Y151.744
X46.785
X46.813Y151.743
X46.841
X46.869
X46.897Y151.744
X46.953Y151.747
X46.98Y151.749
X47.008Y151.751
X47.036Y151.754
X47.063Y151.758
X47.118Y151.767
X47.146Y151.772
X47.173Y151.777
X47.2Y151.784
X47.227Y151.79
X47.254Y151.797
X47.281Y151.804
X47.308Y151.812
X47.335Y151.821
X47.361Y151.83
X47.387Y151.839
X47.413Y151.849
X47.439Y151.859
X47.465Y151.869
X47.49Y151.881
X47.516Y151.892
X47.541Y151.904
X47.566Y151.917
X47.591Y151.929
X47.615Y151.943
X47.639Y151.956
X47.664Y151.971
X47.687Y151.985
X47.711Y152
X47.734Y152.016
X47.757Y152.031
X47.78Y152.048
X47.802Y152.064
X47.824Y152.081
X47.846Y152.098
X47.867Y152.116
X47.902Y152.146
X47.933Y152.175
X47.95Y152.191
X47.983Y152.223
X48.011Y152.252
X48.028Y152.271
X48.046Y152.292
X48.064Y152.313
X48.082Y152.334
X48.099Y152.356
X48.116Y152.378
X48.149Y152.424
X48.165Y152.446
X48.19Y152.485
X48.211Y152.519
X48.224Y152.541
X48.238Y152.565
X48.251Y152.59
X48.264Y152.614
X48.276Y152.639
X48.288Y152.664
X48.311Y152.715
X48.321Y152.741
X48.333Y152.77
X48.341Y152.793
X48.351Y152.819
X48.36Y152.846
X48.368Y152.872
X48.376Y152.899
X48.383Y152.926
X48.39Y152.953
X48.397Y152.98
X48.403Y153.007
X48.408Y153.035
X48.413Y153.062
X48.418Y153.089
X48.422Y153.117
X48.426Y153.145
X48.429Y153.172
X48.432Y153.2
X48.434Y153.228
X48.436Y153.256
X48.437Y153.284
Y153.311
X48.438Y153.339
X48.437Y153.367
Y153.395
X48.436Y153.423
X48.434Y153.45
X48.432Y153.478
X48.429Y153.506
X48.426Y153.534
X48.422Y153.561
X48.418Y153.589
X48.413Y153.616
X48.408Y153.644
X48.403Y153.671
X48.397Y153.698
X48.39Y153.725
X48.383Y153.753
X48.376Y153.779
X48.368Y153.806
X48.36Y153.833
X48.351Y153.859
X48.341Y153.885
X48.332Y153.911
X48.321Y153.937
X48.311Y153.963
X48.3Y153.989
X48.288Y154.014
X48.276Y154.039
X48.264Y154.064
X48.251Y154.089
X48.238Y154.113
X48.224Y154.138
X48.21Y154.162
X48.195Y154.185
X48.18Y154.209
X48.165Y154.232
X48.149Y154.255
X48.133Y154.278
X48.116Y154.3
X48.099Y154.322
X48.082Y154.344
X48.064Y154.366
X48.046Y154.387
X48.028Y154.407
X48.009Y154.428
X47.99Y154.448
X47.97Y154.468
X47.95Y154.488
X47.93Y154.507
X47.91Y154.526
X47.889Y154.544
X47.867Y154.562
X47.846Y154.58
X47.824Y154.598
X47.802Y154.614
X47.78Y154.631
X47.757Y154.647
X47.734Y154.663
X47.711Y154.678
X47.687Y154.693
X47.664Y154.708
X47.639Y154.722
X47.615Y154.736
X47.591Y154.749
X47.566Y154.762
X47.541Y154.774
X47.516Y154.786
X47.49Y154.798
X47.465Y154.809
X47.439Y154.82
X47.413Y154.83
X47.387Y154.84
X47.361Y154.849
X47.335Y154.858
X47.308Y154.866
X47.281Y154.874
X47.254Y154.881
X47.227Y154.888
X47.2Y154.895
X47.173Y154.901
X47.146Y154.907
X47.118Y154.912
X47.091Y154.916
X47.063Y154.92
X47.036Y154.924
X47.008Y154.927
X46.98Y154.93
X46.952Y154.932
X46.925Y154.934
X46.897Y154.935
X46.869Y154.936
X46.841
X46.818
X46.758Y154.934
X46.73Y154.932
X46.702Y154.93
X46.677Y154.927
X46.646Y154.924
X46.619Y154.92
X46.591Y154.916
X46.564Y154.912
X46.536Y154.907
X46.509Y154.901
X46.482Y154.895
X46.455Y154.888
X46.428Y154.881
X46.401Y154.874
X46.374Y154.866
X46.348Y154.858
X46.321Y154.849
X46.295Y154.84
X46.269Y154.83
X46.243Y154.82
X46.217Y154.809
X46.192Y154.798
X46.166Y154.786
X46.141Y154.774
X46.116Y154.762
X46.078Y154.741
X46.04Y154.72
X45.995Y154.693
X45.972Y154.678
X45.948Y154.663
X45.925Y154.647
X45.903Y154.631
X45.88Y154.614
X45.858Y154.598
X45.836Y154.58
X45.815Y154.562
X45.793Y154.544
X45.773Y154.526
X45.752Y154.507
X45.732Y154.488
X45.712Y154.468
X45.693Y154.448
X45.673Y154.428
X45.655Y154.408
X45.636Y154.387
X45.618Y154.366
X45.6Y154.344
X45.583Y154.322
X45.566Y154.3
X45.549Y154.278
X45.533Y154.255
X45.517Y154.232
X45.502Y154.209
X45.477Y154.169
X45.457Y154.136
X45.445Y154.113
X45.431Y154.089
X45.406Y154.039
X45.394Y154.014
X45.381Y153.985
X45.371Y153.963
X45.361Y153.937
X45.351Y153.911
X45.341Y153.885
X45.331Y153.859
X45.323Y153.834
X45.314Y153.806
X45.306Y153.779
X45.299Y153.753
X45.292Y153.725
X45.285Y153.698
X45.279Y153.671
X45.274Y153.644
X45.269Y153.616
X45.264Y153.589
X45.26Y153.561
X45.256Y153.534
X45.253Y153.506
X45.251Y153.478
X45.248Y153.451
X45.247Y153.423
X45.245Y153.395
X45.244Y153.339
X45.245Y153.311
Y153.284
X45.247Y153.256
X45.248Y153.228
X45.251Y153.2
X45.253Y153.172
X45.256Y153.145
X45.26Y153.117
X45.264Y153.089
X45.269Y153.062
X45.274Y153.035
X45.279Y153.007
X45.285Y152.98
X45.292Y152.953
X45.299Y152.926
X45.306Y152.899
X45.314Y152.872
X45.323Y152.846
X45.331Y152.82
X45.341Y152.793
X45.351Y152.767
X45.361Y152.741
X45.371Y152.715
X45.382Y152.69
X45.394Y152.664
X45.406Y152.639
X45.418Y152.614
X45.431Y152.59
X45.445Y152.565
X45.458Y152.541
X45.473Y152.517
X45.487Y152.493
X45.502Y152.47
X45.517Y152.446
X45.533Y152.424
X45.549Y152.401
X45.583Y152.356
X45.618Y152.313
X45.636Y152.292
X45.655Y152.271
X45.673Y152.25
X45.693Y152.23
X45.712Y152.21
X45.732Y152.191
X45.773Y152.153
X45.793Y152.134
X45.815Y152.116
X45.836Y152.098
X45.858Y152.081
X45.88Y152.064
X45.903Y152.048
X45.925Y152.031
X45.948Y152.015
X45.972Y152
X45.995Y151.985
X46.019Y151.971
X46.043Y151.956
X46.067Y151.943
X46.092Y151.929
X46.116Y151.917
X46.141Y151.904
X46.166Y151.892
X46.192Y151.881
X46.217Y151.869
X46.243Y151.859
X46.269Y151.849
X46.321Y151.83
X46.348Y151.821
X46.374Y151.812
G0Z1
X60.243Y153.148
G1Z-0.7F50
X60.294Y152.979F100
X60.377Y152.823
X60.49Y152.687
X60.626Y152.574
X60.782Y152.491
X60.951Y152.44
X61.127Y152.423
X61.303Y152.44
X61.472Y152.491
X61.628Y152.574
X61.764Y152.687
X61.876Y152.823
X61.96Y152.979
X62.011Y153.148
X62.028Y153.324
X62.011Y153.5
X61.96Y153.669
X61.876Y153.825
X61.764Y153.961
X61.628Y154.073
X61.472Y154.157
X61.303Y154.208
X61.127Y154.225
X60.951Y154.208
X60.782Y154.157
X60.626Y154.073
X60.49Y153.961
X60.377Y153.825
X60.294Y153.669
X60.243Y153.5
X60.226Y153.324
X60.243Y153.148
G0Z1
X76.129Y153.324
G1Z-0.7F50
X76.147Y153.148F100
X76.198Y152.979
X76.281Y152.823
X76.393Y152.687
X76.53Y152.574
X76.686Y152.491
X76.855Y152.44
X77.031Y152.423
X77.207Y152.44
X77.376Y152.491
X77.532Y152.574
X77.668Y152.687
X77.78Y152.823
X77.863Y152.979
X77.915Y153.148
X77.932Y153.324
X77.915Y153.5
X77.863Y153.669
X77.78Y153.825
X77.668Y153.961
X77.532Y154.073
X77.376Y154.157
X77.207Y154.208
X77.031Y154.225
X76.855Y154.208
X76.686Y154.157
X76.53Y154.073
X76.393Y153.961
X76.281Y153.825
X76.198Y153.669
X76.147Y153.5
X76.129Y153.324
G0Z1
X79.633Y145.398
G1Z-0.7F50
X53.178F100
X52.524Y145.404
X51.87Y145.42
X51.217Y145.448
X50.564Y145.486
X49.911Y145.535
X49.26Y145.595
X48.61Y145.666
X47.961Y145.747
X47.313Y145.839
X46.668Y145.942
X46.023Y146.056
X45.381Y146.181
X45.257Y146.207
X45.134Y146.236
X45.011Y146.266
X44.889Y146.299
X44.767Y146.334
X44.646Y146.371
X44.525Y146.41
X44.406Y146.451
X44.287Y146.494
X44.169Y146.54
X44.051Y146.587
X43.935Y146.636
X43.819Y146.688
X43.704Y146.741
X43.59Y146.796
X43.478Y146.854
X43.366Y146.913
X43.255Y146.974
X43.145Y147.037
X43.036Y147.102
X42.929Y147.169
X42.823Y147.238
X42.718Y147.308
X42.614Y147.381
X42.511Y147.455
X42.41Y147.531
X42.31Y147.608
X42.211Y147.688
X42.114Y147.769
X42.018Y147.851
X41.924Y147.936
X41.831Y148.022
X41.74Y148.109
X41.65Y148.198
X41.562Y148.289
X41.475Y148.381
X41.39Y148.475
X41.306Y148.57
X41.225Y148.667
X41.125Y148.789
X41.027Y148.913
X40.931Y149.038
X40.837Y149.166
X40.746Y149.295
X40.657Y149.425
X40.57Y149.557
X40.485Y149.69
X40.403Y149.825
X40.323Y149.961
X40.245Y150.099
X40.17Y150.237
X40.097Y150.378
X40.026Y150.519
X39.958Y150.661
X39.892Y150.805
X39.829Y150.95
X39.769Y151.096
X39.71Y151.242
X39.655Y151.39
X39.602Y151.539
X39.551Y151.689
X39.503Y151.839
X39.458Y151.99
X39.415Y152.143
X39.375Y152.295
X39.337Y152.449
X39.302Y152.603
X39.27Y152.757
X39.24Y152.913
X39.213Y153.068
X39.189Y153.224
X39.167Y153.381
X39.148Y153.538
X39.132Y153.695
X39.119Y153.852
X39.108Y154.01
X39.1Y154.167
X39.094Y154.325
X39.091Y154.483
Y154.641
X39.094Y154.799
X39.099Y154.957
X39.108Y155.115
X39.118Y155.272
X39.132Y155.429
X39.148Y155.587
X39.167Y155.743
X39.186Y155.886
X39.606Y158.777
X39.62Y158.853
X39.636Y158.929
X39.655Y159.004
X39.677Y159.078
X39.701Y159.151
X39.728Y159.225
X39.757Y159.296
X39.789Y159.367
X39.823Y159.436
X39.86Y159.505
X39.898Y159.571
X39.94Y159.637
X39.983Y159.701
X40.029Y159.764
X40.077Y159.825
X40.127Y159.884
X40.178Y159.941
X40.223Y159.987
X40.277Y160.04
X40.336Y160.093
X40.395Y160.143
X40.455Y160.191
X40.519Y160.237
X40.581Y160.28
X40.648Y160.322
X40.715Y160.361
X40.781Y160.397
X40.852Y160.432
X40.923Y160.464
X40.995Y160.493
X41.067Y160.52
X41.141Y160.545
X41.216Y160.567
X41.303Y160.588
X41.379Y160.605
X41.456Y160.618
X41.533Y160.629
X41.609Y160.637
X41.687Y160.642
X41.764Y160.645
X41.803
X46.854
X46.97Y160.644
X47.087Y160.641
X47.204Y160.636
X47.321Y160.629
X48.576Y160.539
X49.729Y160.474
X50.882Y160.428
X52.037Y160.401
X53.197Y160.391
X56.75
X56.788Y160.395
X56.827Y160.397
X56.865Y160.398
X56.903Y160.399
X84.903
X84.943Y160.398
X84.982Y160.397
X85.022Y160.394
X85.062Y160.391
X85.101Y160.386
X85.141Y160.381
X85.18Y160.374
X85.219Y160.367
X85.258Y160.359
X85.297Y160.349
X85.335Y160.339
X85.373Y160.328
X85.411Y160.315
X85.448Y160.302
X85.486Y160.288
X85.522Y160.273
X85.559Y160.257
X85.595Y160.24
X85.63Y160.223
X85.666Y160.204
X85.701Y160.184
X85.735Y160.164
X85.77Y160.142
X85.803Y160.119
X85.836Y160.096
X85.869Y160.072
X85.901Y160.047
X85.932Y160.021
X85.947Y160.008
X85.976Y159.982
X85.998Y159.962
X86.02Y159.941
X86.048Y159.912
X86.076Y159.883
X86.108Y159.847
X86.139Y159.81
X86.16Y159.782
X86.182Y159.754
X86.202Y159.726
X86.223Y159.697
X86.242Y159.667
X86.261Y159.637
X86.278Y159.608
X86.294Y159.58
X86.31Y159.551
X86.329Y159.514
X86.347Y159.476
X86.36Y159.447
X86.373Y159.417
X86.389Y159.376
X86.397Y159.354
X86.411Y159.314
X86.424Y159.274
X86.436Y159.232
X86.448Y159.189
X86.458Y159.146
X86.466Y159.106
X86.473Y159.066
X86.48Y159.015
X86.487Y158.958
X86.49Y158.925
X86.492Y158.891
X86.493Y158.857
X86.494Y158.808
Y158.575
X86.505Y158.514
X86.515Y158.437
X86.524Y158.359
X86.529Y158.282
X86.532Y158.204
Y158.165
Y147.332
Y147.292
X86.53Y147.253
X86.528Y147.213
X86.524Y147.174
X86.52Y147.135
X86.515Y147.096
X86.508Y147.057
X86.501Y147.018
X86.494Y146.985
X86.493Y146.942
X86.49Y146.899
X86.487Y146.856
X86.482Y146.814
X86.476Y146.771
X86.469Y146.728
X86.461Y146.686
X86.452Y146.644
X86.441Y146.602
X86.432Y146.568
X86.422Y146.533
X86.411Y146.499
X86.399Y146.465
X86.386Y146.432
X86.369Y146.39
X86.351Y146.35
X86.332Y146.309
X86.31Y146.266
X86.294Y146.236
X86.277Y146.206
X86.256Y146.17
X86.233Y146.135
X86.212Y146.103
X86.189Y146.071
X86.166Y146.04
X86.142Y146.01
X86.118Y145.98
X86.092Y145.951
X86.067Y145.923
X86.04Y145.895
X86.013Y145.867
X85.985Y145.841
X85.956Y145.815
X85.927Y145.79
X85.897Y145.765
X85.867Y145.742
X85.836Y145.719
X85.804Y145.696
X85.772Y145.675
X85.739Y145.654
X85.706Y145.635
X85.673Y145.615
X85.638Y145.597
X85.604Y145.58
X85.569Y145.563
X85.535Y145.547
X85.499Y145.533
X85.464Y145.519
X85.428Y145.506
X85.392Y145.494
X85.355Y145.482
X85.318Y145.472
X85.281Y145.462
X85.244Y145.454
X85.207Y145.446
X85.169Y145.439
X85.131Y145.433
X85.094Y145.428
X85.056Y145.424
X85.018Y145.421
X84.979Y145.419
X84.941Y145.417
X84.903
X80.967
X80.377Y145.404
X79.633Y145.398
G0Z1
X46.374Y151.812
G1Z-0.8F50
X46.401Y151.804F100
X46.455Y151.79
X46.482Y151.784
X46.508Y151.778
X46.537Y151.772
X46.592Y151.762
X46.619Y151.758
X46.647Y151.754
X46.674Y151.751
X46.719Y151.747
X46.765Y151.744
X46.785
X46.813Y151.743
X46.841
X46.869
X46.897Y151.744
X46.953Y151.747
X46.98Y151.749
X47.008Y151.751
X47.036Y151.754
X47.063Y151.758
X47.118Y151.767
X47.146Y151.772
X47.173Y151.777
X47.2Y151.784
X47.227Y151.79
X47.254Y151.797
X47.281Y151.804
X47.308Y151.812
X47.335Y151.821
X47.361Y151.83
X47.387Y151.839
X47.413Y151.849
X47.439Y151.859
X47.465Y151.869
X47.49Y151.881
X47.516Y151.892
X47.541Y151.904
X47.566Y151.917
X47.591Y151.929
X47.615Y151.943
X47.639Y151.956
X47.664Y151.971
X47.687Y151.985
X47.711Y152
X47.734Y152.016
X47.757Y152.031
X47.78Y152.048
X47.802Y152.064
X47.824Y152.081
X47.846Y152.098
X47.867Y152.116
X47.902Y152.146
X47.933Y152.175
X47.95Y152.191
X47.983Y152.223
X48.011Y152.252
X48.028Y152.271
X48.046Y152.292
X48.064Y152.313
X48.082Y152.334
X48.099Y152.356
X48.116Y152.378
X48.149Y152.424
X48.165Y152.446
X48.19Y152.485
X48.211Y152.519
X48.224Y152.541
X48.238Y152.565
X48.251Y152.59
X48.264Y152.614
X48.276Y152.639
X48.288Y152.664
X48.311Y152.715
X48.321Y152.741
X48.333Y152.77
X48.341Y152.793
X48.351Y152.819
X48.36Y152.846
X48.368Y152.872
X48.376Y152.899
X48.383Y152.926
X48.39Y152.953
X48.397Y152.98
X48.403Y153.007
X48.408Y153.035
X48.413Y153.062
X48.418Y153.089
X48.422Y153.117
X48.426Y153.145
X48.429Y153.172
X48.432Y153.2
X48.434Y153.228
X48.436Y153.256
X48.437Y153.284
Y153.311
X48.438Y153.339
X48.437Y153.367
Y153.395
X48.436Y153.423
X48.434Y153.45
X48.432Y153.478
X48.429Y153.506
X48.426Y153.534
X48.422Y153.561
X48.418Y153.589
X48.413Y153.616
X48.408Y153.644
X48.403Y153.671
X48.397Y153.698
X48.39Y153.725
X48.383Y153.753
X48.376Y153.779
X48.368Y153.806
X48.36Y153.833
X48.351Y153.859
X48.341Y153.885
X48.332Y153.911
X48.321Y153.937
X48.311Y153.963
X48.3Y153.989
X48.288Y154.014
X48.276Y154.039
X48.264Y154.064
X48.251Y154.089
X48.238Y154.113
X48.224Y154.138
X48.21Y154.162
X48.195Y154.185
X48.18Y154.209
X48.165Y154.232
X48.149Y154.255
X48.133Y154.278
X48.116Y154.3
X48.099Y154.322
X48.082Y154.344
X48.064Y154.366
X48.046Y154.387
X48.028Y154.407
X48.009Y154.428
X47.99Y154.448
X47.97Y154.468
X47.95Y154.488
X47.93Y154.507
X47.91Y154.526
X47.889Y154.544
X47.867Y154.562
X47.846Y154.58
X47.824Y154.598
X47.802Y154.614
X47.78Y154.631
X47.757Y154.647
X47.734Y154.663
X47.711Y154.678
X47.687Y154.693
X47.664Y154.708
X47.639Y154.722
X47.615Y154.736
X47.591Y154.749
X47.566Y154.762
X47.541Y154.774
X47.516Y154.786
X47.49Y154.798
X47.465Y154.809
X47.439Y154.82
X47.413Y154.83
X47.387Y154.84
X47.361Y154.849
X47.335Y154.858
X47.308Y154.866
X47.281Y154.874
X47.254Y154.881
X47.227Y154.888
X47.2Y154.895
X47.173Y154.901
X47.146Y154.907
X47.118Y154.912
X47.091Y154.916
X47.063Y154.92
X47.036Y154.924
X47.008Y154.927
X46.98Y154.93
X46.952Y154.932
X46.925Y154.934
X46.897Y154.935
X46.869Y154.936
X46.841
X46.818
X46.758Y154.934
X46.73Y154.932
X46.702Y154.93
X46.677Y154.927
X46.646Y154.924
X46.619Y154.92
X46.591Y154.916
X46.564Y154.912
X46.536Y154.907
X46.509Y154.901
X46.482Y154.895
X46.455Y154.888
X46.428Y154.881
X46.401Y154.874
X46.374Y154.866
X46.348Y154.858
X46.321Y154.849
X46.295Y154.84
X46.269Y154.83
X46.243Y154.82
X46.217Y154.809
X46.192Y154.798
X46.166Y154.786
X46.141Y154.774
X46.116Y154.762
X46.078Y154.741
X46.04Y154.72
X45.995Y154.693
X45.972Y154.678
X45.948Y154.663
X45.925Y154.647
X45.903Y154.631
X45.88Y154.614
X45.858Y154.598
X45.836Y154.58
X45.815Y154.562
X45.793Y154.544
X45.773Y154.526
X45.752Y154.507
X45.732Y154.488
X45.712Y154.468
X45.693Y154.448
X45.673Y154.428
X45.655Y154.408
X45.636Y154.387
X45.618Y154.366
X45.6Y154.344
X45.583Y154.322
X45.566Y154.3
X45.549Y154.278
X45.533Y154.255
X45.517Y154.232
X45.502Y154.209
X45.477Y154.169
X45.457Y154.136
X45.445Y154.113
X45.431Y154.089
X45.406Y154.039
X45.394Y154.014
X45.381Y153.985
X45.371Y153.963
X45.361Y153.937
X45.351Y153.911
X45.341Y153.885
X45.331Y153.859
X45.323Y153.834
X45.314Y153.806
X45.306Y153.779
X45.299Y153.753
X45.292Y153.725
X45.285Y153.698
X45.279Y153.671
X45.274Y153.644
X45.269Y153.616
X45.264Y153.589
X45.26Y153.561
X45.256Y153.534
X45.253Y153.506
X45.251Y153.478
X45.248Y153.451
X45.247Y153.423
X45.245Y153.395
X45.244Y153.339
X45.245Y153.311
Y153.284
X45.247Y153.256
X45.248Y153.228
X45.251Y153.2
X45.253Y153.172
X45.256Y153.145
X45.26Y153.117
X45.264Y153.089
X45.269Y153.062
X45.274Y153.035
X45.279Y153.007
X45.285Y152.98
X45.292Y152.953
X45.299Y152.926
X45.306Y152.899
X45.314Y152.872
X45.323Y152.846
X45.331Y152.82
X45.341Y152.793
X45.351Y152.767
X45.361Y152.741
X45.371Y152.715
X45.382Y152.69
X45.394Y152.664
X45.406Y152.639
X45.418Y152.614
X45.431Y152.59
X45.445Y152.565
X45.458Y152.541
X45.473Y152.517
X45.487Y152.493
X45.502Y152.47
X45.517Y152.446
X45.533Y152.424
X45.549Y152.401
X45.583Y152.356
X45.618Y152.313
X45.636Y152.292
X45.655Y152.271
X45.673Y152.25
X45.693Y152.23
X45.712Y152.21
X45.732Y152.191
X45.773Y152.153
X45.793Y152.134
X45.815Y152.116
X45.836Y152.098
X45.858Y152.081
X45.88Y152.064
X45.903Y152.048
X45.925Y152.031
X45.948Y152.015
X45.972Y152
X45.995Y151.985
X46.019Y151.971
X46.043Y151.956
X46.067Y151.943
X46.092Y151.929
X46.116Y151.917
X46.141Y151.904
X46.166Y151.892
X46.192Y151.881
X46.217Y151.869
X46.243Y151.859
X46.269Y151.849
X46.321Y151.83
X46.348Y151.821
X46.374Y151.812
G0Z1
X60.243Y153.148
G1Z-0.8F50
X60.294Y152.979F100
X60.377Y152.823
X60.49Y152.687
X60.626Y152.574
X60.782Y152.491
X60.951Y152.44
X61.127Y152.423
X61.303Y152.44
X61.472Y152.491
X61.628Y152.574
X61.764Y152.687
X61.876Y152.823
X61.96Y152.979
X62.011Y153.148
X62.028Y153.324
X62.011Y153.5
X61.96Y153.669
X61.876Y153.825
X61.764Y153.961
X61.628Y154.073
X61.472Y154.157
X61.303Y154.208
X61.127Y154.225
X60.951Y154.208
X60.782Y154.157
X60.626Y154.073
X60.49Y153.961
X60.377Y153.825
X60.294Y153.669
X60.243Y153.5
X60.226Y153.324
X60.243Y153.148
G0Z1
X76.129Y153.324
G1Z-0.8F50
X76.147Y153.148F100
X76.198Y152.979
X76.281Y152.823
X76.393Y152.687
X76.53Y152.574
X76.686Y152.491
X76.855Y152.44
X77.031Y152.423
X77.207Y152.44
X77.376Y152.491
X77.532Y152.574
X77.668Y152.687
X77.78Y152.823
X77.863Y152.979
X77.915Y153.148
X77.932Y153.324
X77.915Y153.5
X77.863Y153.669
X77.78Y153.825
X77.668Y153.961
X77.532Y154.073
X77.376Y154.157
X77.207Y154.208
X77.031Y154.225
X76.855Y154.208
X76.686Y154.157
X76.53Y154.073
X76.393Y153.961
X76.281Y153.825
X76.198Y153.669
X76.147Y153.5
X76.129Y153.324
G0Z1
X79.633Y145.398
G1Z-0.8F50
X53.178F100
X52.524Y145.404
X51.87Y145.42
X51.217Y145.448
X50.564Y145.486
X49.911Y145.535
X49.26Y145.595
X48.61Y145.666
X47.961Y145.747
X47.313Y145.839
X46.668Y145.942
X46.023Y146.056
X45.381Y146.181
X45.257Y146.207
X45.134Y146.236
X45.011Y146.266
X44.889Y146.299
X44.767Y146.334
X44.646Y146.371
X44.525Y146.41
X44.406Y146.451
X44.287Y146.494
X44.169Y146.54
X44.051Y146.587
X43.935Y146.636
X43.819Y146.688
X43.704Y146.741
X43.59Y146.796
X43.478Y146.854
X43.366Y146.913
X43.255Y146.974
X43.145Y147.037
X43.036Y147.102
X42.929Y147.169
X42.823Y147.238
X42.718Y147.308
X42.614Y147.381
X42.511Y147.455
X42.41Y147.531
X42.31Y147.608
X42.211Y147.688
X42.114Y147.769
X42.018Y147.851
X41.924Y147.936
X41.831Y148.022
X41.74Y148.109
X41.65Y148.198
X41.562Y148.289
X41.475Y148.381
X41.39Y148.475
X41.306Y148.57
X41.225Y148.667
X41.125Y148.789
X41.027Y148.913
X40.931Y149.038
X40.837Y149.166
X40.746Y149.295
X40.657Y149.425
X40.57Y149.557
X40.485Y149.69
X40.403Y149.825
X40.323Y149.961
X40.245Y150.099
X40.17Y150.237
X40.097Y150.378
X40.026Y150.519
X39.958Y150.661
X39.892Y150.805
X39.829Y150.95
X39.769Y151.096
X39.71Y151.242
X39.655Y151.39
X39.602Y151.539
X39.551Y151.689
X39.503Y151.839
X39.458Y151.99
X39.415Y152.143
X39.375Y152.295
X39.337Y152.449
X39.302Y152.603
X39.27Y152.757
X39.24Y152.913
X39.213Y153.068
X39.189Y153.224
X39.167Y153.381
X39.148Y153.538
X39.132Y153.695
X39.119Y153.852
X39.108Y154.01
X39.1Y154.167
X39.094Y154.325
X39.091Y154.483
Y154.641
X39.094Y154.799
X39.099Y154.957
X39.108Y155.115
X39.118Y155.272
X39.132Y155.429
X39.148Y155.587
X39.167Y155.743
X39.186Y155.886
X39.606Y158.777
X39.62Y158.853
X39.636Y158.929
X39.655Y159.004
X39.677Y159.078
X39.701Y159.151
X39.728Y159.225
X39.757Y159.296
X39.789Y159.367
X39.823Y159.436
X39.86Y159.505
X39.898Y159.571
X39.94Y159.637
X39.983Y159.701
X40.029Y159.764
X40.077Y159.825
X40.127Y159.884
X40.178Y159.941
X40.223Y159.987
X40.277Y160.04
X40.336Y160.093
X40.395Y160.143
X40.455Y160.191
X40.519Y160.237
X40.581Y160.28
X40.648Y160.322
X40.715Y160.361
X40.781Y160.397
X40.852Y160.432
X40.923Y160.464
X40.995Y160.493
X41.067Y160.52
X41.141Y160.545
X41.216Y160.567
X41.303Y160.588
X41.379Y160.605
X41.456Y160.618
X41.533Y160.629
X41.609Y160.637
X41.687Y160.642
X41.764Y160.645
X41.803
X46.854
X46.97Y160.644
X47.087Y160.641
X47.204Y160.636
X47.321Y160.629
X48.576Y160.539
X49.729Y160.474
X50.882Y160.428
X52.037Y160.401
X53.197Y160.391
X56.75
X56.788Y160.395
X56.827Y160.397
X56.865Y160.398
X56.903Y160.399
X84.903
X84.943Y160.398
X84.982Y160.397
X85.022Y160.394
X85.062Y160.391
X85.101Y160.386
X85.141Y160.381
X85.18Y160.374
X85.219Y160.367
X85.258Y160.359
X85.297Y160.349
X85.335Y160.339
X85.373Y160.328
X85.411Y160.315
X85.448Y160.302
X85.486Y160.288
X85.522Y160.273
X85.559Y160.257
X85.595Y160.24
X85.63Y160.223
X85.666Y160.204
X85.701Y160.184
X85.735Y160.164
X85.77Y160.142
X85.803Y160.119
X85.836Y160.096
X85.869Y160.072
X85.901Y160.047
X85.932Y160.021
X85.947Y160.008
X85.976Y159.982
X85.998Y159.962
X86.02Y159.941
X86.048Y159.912
X86.076Y159.883
X86.108Y159.847
X86.139Y159.81
X86.16Y159.782
X86.182Y159.754
X86.202Y159.726
X86.223Y159.697
X86.242Y159.667
X86.261Y159.637
X86.278Y159.608
X86.294Y159.58
X86.31Y159.551
X86.329Y159.514
X86.347Y159.476
X86.36Y159.447
X86.373Y159.417
X86.389Y159.376
X86.397Y159.354
X86.411Y159.314
X86.424Y159.274
X86.436Y159.232
X86.448Y159.189
X86.458Y159.146
X86.466Y159.106
X86.473Y159.066
X86.48Y159.015
X86.487Y158.958
X86.49Y158.925
X86.492Y158.891
X86.493Y158.857
X86.494Y158.808
Y158.575
X86.505Y158.514
X86.515Y158.437
X86.524Y158.359
X86.529Y158.282
X86.532Y158.204
Y158.165
Y147.332
Y147.292
X86.53Y147.253
X86.528Y147.213
X86.524Y147.174
X86.52Y147.135
X86.515Y147.096
X86.508Y147.057
X86.501Y147.018
X86.494Y146.985
X86.493Y146.942
X86.49Y146.899
X86.487Y146.856
X86.482Y146.814
X86.476Y146.771
X86.469Y146.728
X86.461Y146.686
X86.452Y146.644
X86.441Y146.602
X86.432Y146.568
X86.422Y146.533
X86.411Y146.499
X86.399Y146.465
X86.386Y146.432
X86.369Y146.39
X86.351Y146.35
X86.332Y146.309
X86.31Y146.266
X86.294Y146.236
X86.277Y146.206
X86.256Y146.17
X86.233Y146.135
X86.212Y146.103
X86.189Y146.071
X86.166Y146.04
X86.142Y146.01
X86.118Y145.98
X86.092Y145.951
X86.067Y145.923
X86.04Y145.895
X86.013Y145.867
X85.985Y145.841
X85.956Y145.815
X85.927Y145.79
X85.897Y145.765
X85.867Y145.742
X85.836Y145.719
X85.804Y145.696
X85.772Y145.675
X85.739Y145.654
X85.706Y145.635
X85.673Y145.615
X85.638Y145.597
X85.604Y145.58
X85.569Y145.563
X85.535Y145.547
X85.499Y145.533
X85.464Y145.519
X85.428Y145.506
X85.392Y145.494
X85.355Y145.482
X85.318Y145.472
X85.281Y145.462
X85.244Y145.454
X85.207Y145.446
X85.169Y145.439
X85.131Y145.433
X85.094Y145.428
X85.056Y145.424
X85.018Y145.421
X84.979Y145.419
X84.941Y145.417
X84.903
X80.967
X80.377Y145.404
X79.633Y145.398
G0Z1
X46.374Y151.812
G1Z-0.9F50
X46.401Y151.804F100
X46.455Y151.79
X46.482Y151.784
X46.508Y151.778
X46.537Y151.772
X46.592Y151.762
X46.619Y151.758
X46.647Y151.754
X46.674Y151.751
X46.719Y151.747
X46.765Y151.744
X46.785
X46.813Y151.743
X46.841
X46.869
X46.897Y151.744
X46.953Y151.747
X46.98Y151.749
X47.008Y151.751
X47.036Y151.754
X47.063Y151.758
X47.118Y151.767
X47.146Y151.772
X47.173Y151.777
X47.2Y151.784
X47.227Y151.79
X47.254Y151.797
X47.281Y151.804
X47.308Y151.812
X47.335Y151.821
X47.361Y151.83
X47.387Y151.839
X47.413Y151.849
X47.439Y151.859
X47.465Y151.869
X47.49Y151.881
X47.516Y151.892
X47.541Y151.904
X47.566Y151.917
X47.591Y151.929
X47.615Y151.943
X47.639Y151.956
X47.664Y151.971
X47.687Y151.985
X47.711Y152
X47.734Y152.016
X47.757Y152.031
X47.78Y152.048
X47.802Y152.064
X47.824Y152.081
X47.846Y152.098
X47.867Y152.116
X47.902Y152.146
X47.933Y152.175
X47.95Y152.191
X47.983Y152.223
X48.011Y152.252
X48.028Y152.271
X48.046Y152.292
X48.064Y152.313
X48.082Y152.334
X48.099Y152.356
X48.116Y152.378
X48.149Y152.424
X48.165Y152.446
X48.19Y152.485
X48.211Y152.519
X48.224Y152.541
X48.238Y152.565
X48.251Y152.59
X48.264Y152.614
X48.276Y152.639
X48.288Y152.664
X48.311Y152.715
X48.321Y152.741
X48.333Y152.77
X48.341Y152.793
X48.351Y152.819
X48.36Y152.846
X48.368Y152.872
X48.376Y152.899
X48.383Y152.926
X48.39Y152.953
X48.397Y152.98
X48.403Y153.007
X48.408Y153.035
X48.413Y153.062
X48.418Y153.089
X48.422Y153.117
X48.426Y153.145
X48.429Y153.172
X48.432Y153.2
X48.434Y153.228
X48.436Y153.256
X48.437Y153.284
Y153.311
X48.438Y153.339
X48.437Y153.367
Y153.395
X48.436Y153.423
X48.434Y153.45
X48.432Y153.478
X48.429Y153.506
X48.426Y153.534
X48.422Y153.561
X48.418Y153.589
X48.413Y153.616
X48.408Y153.644
X48.403Y153.671
X48.397Y153.698
X48.39Y153.725
X48.383Y153.753
X48.376Y153.779
X48.368Y153.806
X48.36Y153.833
X48.351Y153.859
X48.341Y153.885
X48.332Y153.911
X48.321Y153.937
X48.311Y153.963
X48.3Y153.989
X48.288Y154.014
X48.276Y154.039
X48.264Y154.064
X48.251Y154.089
X48.238Y154.113
X48.224Y154.138
X48.21Y154.162
X48.195Y154.185
X48.18Y154.209
X48.165Y154.232
X48.149Y154.255
X48.133Y154.278
X48.116Y154.3
X48.099Y154.322
X48.082Y154.344
X48.064Y154.366
X48.046Y154.387
X48.028Y154.407
X48.009Y154.428
X47.99Y154.448
X47.97Y154.468
X47.95Y154.488
X47.93Y154.507
X47.91Y154.526
X47.889Y154.544
X47.867Y154.562
X47.846Y154.58
X47.824Y154.598
X47.802Y154.614
X47.78Y154.631
X47.757Y154.647
X47.734Y154.663
X47.711Y154.678
X47.687Y154.693
X47.664Y154.708
X47.639Y154.722
X47.615Y154.736
X47.591Y154.749
X47.566Y154.762
X47.541Y154.774
X47.516Y154.786
X47.49Y154.798
X47.465Y154.809
X47.439Y154.82
X47.413Y154.83
X47.387Y154.84
X47.361Y154.849
X47.335Y154.858
X47.308Y154.866
X47.281Y154.874
X47.254Y154.881
X47.227Y154.888
X47.2Y154.895
X47.173Y154.901
X47.146Y154.907
X47.118Y154.912
X47.091Y154.916
X47.063Y154.92
X47.036Y154.924
X47.008Y154.927
X46.98Y154.93
X46.952Y154.932
X46.925Y154.934
X46.897Y154.935
X46.869Y154.936
X46.841
X46.818
X46.758Y154.934
X46.73Y154.932
X46.702Y154.93
X46.677Y154.927
X46.646Y154.924
X46.619Y154.92
X46.591Y154.916
X46.564Y154.912
X46.536Y154.907
X46.509Y154.901
X46.482Y154.895
X46.455Y154.888
X46.428Y154.881
X46.401Y154.874
X46.374Y154.866
X46.348Y154.858
X46.321Y154.849
X46.295Y154.84
X46.269Y154.83
X46.243Y154.82
X46.217Y154.809
X46.192Y154.798
X46.166Y154.786
X46.141Y154.774
X46.116Y154.762
X46.078Y154.741
X46.04Y154.72
X45.995Y154.693
X45.972Y154.678
X45.948Y154.663
X45.925Y154.647
X45.903Y154.631
X45.88Y154.614
X45.858Y154.598
X45.836Y154.58
X45.815Y154.562
X45.793Y154.544
X45.773Y154.526
X45.752Y154.507
X45.732Y154.488
X45.712Y154.468
X45.693Y154.448
X45.673Y154.428
X45.655Y154.408
X45.636Y154.387
X45.618Y154.366
X45.6Y154.344
X45.583Y154.322
X45.566Y154.3
X45.549Y154.278
X45.533Y154.255
X45.517Y154.232
X45.502Y154.209
X45.477Y154.169
X45.457Y154.136
X45.445Y154.113
X45.431Y154.089
X45.406Y154.039
X45.394Y154.014
X45.381Y153.985
X45.371Y153.963
X45.361Y153.937
X45.351Y153.911
X45.341Y153.885
X45.331Y153.859
X45.323Y153.834
X45.314Y153.806
X45.306Y153.779
X45.299Y153.753
X45.292Y153.725
X45.285Y153.698
X45.279Y153.671
X45.274Y153.644
X45.269Y153.616
X45.264Y153.589
X45.26Y153.561
X45.256Y153.534
X45.253Y153.506
X45.251Y153.478
X45.248Y153.451
X45.247Y153.423
X45.245Y153.395
X45.244Y153.339
X45.245Y153.311
Y153.284
X45.247Y153.256
X45.248Y153.228
X45.251Y153.2
X45.253Y153.172
X45.256Y153.145
X45.26Y153.117
X45.264Y153.089
X45.269Y153.062
X45.274Y153.035
X45.279Y153.007
X45.285Y152.98
X45.292Y152.953
X45.299Y152.926
X45.306Y152.899
X45.314Y152.872
X45.323Y152.846
X45.331Y152.82
X45.341Y152.793
X45.351Y152.767
X45.361Y152.741
X45.371Y152.715
X45.382Y152.69
X45.394Y152.664
X45.406Y152.639
X45.418Y152.614
X45.431Y152.59
X45.445Y152.565
X45.458Y152.541
X45.473Y152.517
X45.487Y152.493
X45.502Y152.47
X45.517Y152.446
X45.533Y152.424
X45.549Y152.401
X45.583Y152.356
X45.618Y152.313
X45.636Y152.292
X45.655Y152.271
X45.673Y152.25
X45.693Y152.23
X45.712Y152.21
X45.732Y152.191
X45.773Y152.153
X45.793Y152.134
X45.815Y152.116
X45.836Y152.098
X45.858Y152.081
X45.88Y152.064
X45.903Y152.048
X45.925Y152.031
X45.948Y152.015
X45.972Y152
X45.995Y151.985
X46.019Y151.971
X46.043Y151.956
X46.067Y151.943
X46.092Y151.929
X46.116Y151.917
X46.141Y151.904
X46.166Y151.892
X46.192Y151.881
X46.217Y151.869
X46.243Y151.859
X46.269Y151.849
X46.321Y151.83
X46.348Y151.821
X46.374Y151.812
G0Z1
X60.243Y153.148
G1Z-0.9F50
X60.294Y152.979F100
X60.377Y152.823
X60.49Y152.687
X60.626Y152.574
X60.782Y152.491
X60.951Y152.44
X61.127Y152.423
X61.303Y152.44
X61.472Y152.491
X61.628Y152.574
X61.764Y152.687
X61.876Y152.823
X61.96Y152.979
X62.011Y153.148
X62.028Y153.324
X62.011Y153.5
X61.96Y153.669
X61.876Y153.825
X61.764Y153.961
X61.628Y154.073
X61.472Y154.157
X61.303Y154.208
X61.127Y154.225
X60.951Y154.208
X60.782Y154.157
X60.626Y154.073
X60.49Y153.961
X60.377Y153.825
X60.294Y153.669
X60.243Y153.5
X60.226Y153.324
X60.243Y153.148
G0Z1
X76.129Y153.324
G1Z-0.9F50
X76.147Y153.148F100
X76.198Y152.979
X76.281Y152.823
X76.393Y152.687
X76.53Y152.574
X76.686Y152.491
X76.855Y152.44
X77.031Y152.423
X77.207Y152.44
X77.376Y152.491
X77.532Y152.574
X77.668Y152.687
X77.78Y152.823
X77.863Y152.979
X77.915Y153.148
X77.932Y153.324
X77.915Y153.5
X77.863Y153.669
X77.78Y153.825
X77.668Y153.961
X77.532Y154.073
X77.376Y154.157
X77.207Y154.208
X77.031Y154.225
X76.855Y154.208
X76.686Y154.157
X76.53Y154.073
X76.393Y153.961
X76.281Y153.825
X76.198Y153.669
X76.147Y153.5
X76.129Y153.324
G0Z1
X79.633Y145.398
G1Z-0.9F50
X53.178F100
X52.524Y145.404
X51.87Y145.42
X51.217Y145.448
X50.564Y145.486
X49.911Y145.535
X49.26Y145.595
X48.61Y145.666
X47.961Y145.747
X47.313Y145.839
X46.668Y145.942
X46.023Y146.056
X45.381Y146.181
X45.257Y146.207
X45.134Y146.236
X45.011Y146.266
X44.889Y146.299
X44.767Y146.334
X44.646Y146.371
X44.525Y146.41
X44.406Y146.451
X44.287Y146.494
X44.169Y146.54
X44.051Y146.587
X43.935Y146.636
X43.819Y146.688
X43.704Y146.741
X43.59Y146.796
X43.478Y146.854
X43.366Y146.913
X43.255Y146.974
X43.145Y147.037
X43.036Y147.102
X42.929Y147.169
X42.823Y147.238
X42.718Y147.308
X42.614Y147.381
X42.511Y147.455
X42.41Y147.531
X42.31Y147.608
X42.211Y147.688
X42.114Y147.769
X42.018Y147.851
X41.924Y147.936
X41.831Y148.022
X41.74Y148.109
X41.65Y148.198
X41.562Y148.289
X41.475Y148.381
X41.39Y148.475
X41.306Y148.57
X41.225Y148.667
X41.125Y148.789
X41.027Y148.913
X40.931Y149.038
X40.837Y149.166
X40.746Y149.295
X40.657Y149.425
X40.57Y149.557
X40.485Y149.69
X40.403Y149.825
X40.323Y149.961
X40.245Y150.099
X40.17Y150.237
X40.097Y150.378
X40.026Y150.519
X39.958Y150.661
X39.892Y150.805
X39.829Y150.95
X39.769Y151.096
X39.71Y151.242
X39.655Y151.39
X39.602Y151.539
X39.551Y151.689
X39.503Y151.839
X39.458Y151.99
X39.415Y152.143
X39.375Y152.295
X39.337Y152.449
X39.302Y152.603
X39.27Y152.757
X39.24Y152.913
X39.213Y153.068
X39.189Y153.224
X39.167Y153.381
X39.148Y153.538
X39.132Y153.695
X39.119Y153.852
X39.108Y154.01
X39.1Y154.167
X39.094Y154.325
X39.091Y154.483
Y154.641
X39.094Y154.799
X39.099Y154.957
X39.108Y155.115
X39.118Y155.272
X39.132Y155.429
X39.148Y155.587
X39.167Y155.743
X39.186Y155.886
X39.606Y158.777
X39.62Y158.853
X39.636Y158.929
X39.655Y159.004
X39.677Y159.078
X39.701Y159.151
X39.728Y159.225
X39.757Y159.296
X39.789Y159.367
X39.823Y159.436
X39.86Y159.505
X39.898Y159.571
X39.94Y159.637
X39.983Y159.701
X40.029Y159.764
X40.077Y159.825
X40.127Y159.884
X40.178Y159.941
X40.223Y159.987
X40.277Y160.04
X40.336Y160.093
X40.395Y160.143
X40.455Y160.191
X40.519Y160.237
X40.581Y160.28
X40.648Y160.322
X40.715Y160.361
X40.781Y160.397
X40.852Y160.432
X40.923Y160.464
X40.995Y160.493
X41.067Y160.52
X41.141Y160.545
X41.216Y160.567
X41.303Y160.588
X41.379Y160.605
X41.456Y160.618
X41.533Y160.629
X41.609Y160.637
X41.687Y160.642
X41.764Y160.645
X41.803
X46.854
X46.97Y160.644
X47.087Y160.641
X47.204Y160.636
X47.321Y160.629
X48.576Y160.539
X49.729Y160.474
X50.882Y160.428
X52.037Y160.401
X53.197Y160.391
X56.75
X56.788Y160.395
X56.827Y160.397
X56.865Y160.398
X56.903Y160.399
X84.903
X84.943Y160.398
X84.982Y160.397
X85.022Y160.394
X85.062Y160.391
X85.101Y160.386
X85.141Y160.381
X85.18Y160.374
X85.219Y160.367
X85.258Y160.359
X85.297Y160.349
X85.335Y160.339
X85.373Y160.328
X85.411Y160.315
X85.448Y160.302
X85.486Y160.288
X85.522Y160.273
X85.559Y160.257
X85.595Y160.24
X85.63Y160.223
X85.666Y160.204
X85.701Y160.184
X85.735Y160.164
X85.77Y160.142
X85.803Y160.119
X85.836Y160.096
X85.869Y160.072
X85.901Y160.047
X85.932Y160.021
X85.947Y160.008
X85.976Y159.982
X85.998Y159.962
X86.02Y159.941
X86.048Y159.912
X86.076Y159.883
X86.108Y159.847
X86.139Y159.81
X86.16Y159.782
X86.182Y159.754
X86.202Y159.726
X86.223Y159.697
X86.242Y159.667
X86.261Y159.637
X86.278Y159.608
X86.294Y159.58
X86.31Y159.551
X86.329Y159.514
X86.347Y159.476
X86.36Y159.447
X86.373Y159.417
X86.389Y159.376
X86.397Y159.354
X86.411Y159.314
X86.424Y159.274
X86.436Y159.232
X86.448Y159.189
X86.458Y159.146
X86.466Y159.106
X86.473Y159.066
X86.48Y159.015
X86.487Y158.958
X86.49Y158.925
X86.492Y158.891
X86.493Y158.857
X86.494Y158.808
Y158.575
X86.505Y158.514
X86.515Y158.437
X86.524Y158.359
X86.529Y158.282
X86.532Y158.204
Y158.165
Y147.332
Y147.292
X86.53Y147.253
X86.528Y147.213
X86.524Y147.174
X86.52Y147.135
X86.515Y147.096
X86.508Y147.057
X86.501Y147.018
X86.494Y146.985
X86.493Y146.942
X86.49Y146.899
X86.487Y146.856
X86.482Y146.814
X86.476Y146.771
