(Created with grbl post processor 2025/02/04 15:31)
G21
(G-code generated with BlenderCAM and NC library)
G17G90
(Tool: D = 3.18 mm  type END flutes 2)
S1000M03
G00 Z1.0

G0X0Y0Z1
X1.655Y128.408
G1Z-0.05F50
X1.616Y128.41F100
X1.578Y128.412
X1.539Y128.415
X1.5Y128.42
X1.461Y128.425
X1.423Y128.431
X1.384Y128.438
X1.346Y128.446
X1.308Y128.455
X1.271Y128.465
X1.233Y128.476
X1.196Y128.488
X1.159Y128.5
X1.123Y128.514
X1.086Y128.529
X1.051Y128.544
X1.015Y128.56
X0.98Y128.577
X0.946Y128.595
X0.911Y128.614
X0.878Y128.633
X0.844Y128.654
X0.812Y128.675
X0.78Y128.697
X0.748Y128.72
X0.717Y128.744
X0.687Y128.768
X0.657Y128.793
X0.627Y128.819
X0.598Y128.846
X0.57Y128.874
X0.543Y128.901
X0.516Y128.93
X0.49Y128.959
X0.465Y128.989
X0.441Y129.02
X0.417Y129.051
X0.394Y129.082
X0.372Y129.114
X0.351Y129.147
X0.33Y129.18
X0.311Y129.214
X0.292Y129.248
X0.274Y129.283
X0.257Y129.318
X0.24Y129.353
X0.225Y129.389
X0.21Y129.425
X0.197Y129.462
X0.184Y129.499
X0.172Y129.536
X0.161Y129.573
X0.151Y129.611
X0.142Y129.649
X0.134Y129.687
X0.127Y129.726
X0.121Y129.764
X0.115Y129.803
X0.111Y129.842
X0.108Y129.88
X0.105Y129.919
X0.104Y129.958
X0.103Y129.999
Y141.967
X0.105Y142.105
X0.109Y142.243
X0.115Y142.381
X0.124Y142.519
X0.135Y142.656
X0.148Y142.794
X0.164Y142.931
X0.182Y143.068
X0.203Y143.205
X0.226Y143.341
X0.251Y143.476
X0.279Y143.611
X0.309Y143.746
X0.341Y143.881
X0.376Y144.014
X0.413Y144.148
X0.452Y144.28
X0.494Y144.412
X0.538Y144.543
X0.584Y144.673
X0.632Y144.802
X0.683Y144.931
X0.736Y145.058
X0.791Y145.185
X0.848Y145.311
X0.908Y145.435
X0.969Y145.559
X1.033Y145.681
X1.099Y145.803
X1.167Y145.923
X1.237Y146.042
X1.309Y146.16
X1.383Y146.276
X1.459Y146.391
X1.538Y146.505
X1.618Y146.618
X1.7Y146.729
X1.784Y146.838
X1.87Y146.946
X1.958Y147.053
X2.048Y147.158
X2.139Y147.262
X2.232Y147.364
X2.327Y147.464
X2.424Y147.562
X2.522Y147.659
X2.622Y147.755
X2.724Y147.848
X2.827Y147.939
X2.932Y148.029
X3.038Y148.117
X3.147Y148.204
X3.255Y148.287
X3.367Y148.37
X3.479Y148.451
X3.593Y148.529
X3.708Y148.605
X3.824Y148.679
X3.942Y148.752
X4.06Y148.822
X4.181Y148.891
X4.302Y148.957
X4.425Y149.021
X4.547Y149.082
X4.673Y149.143
X4.798Y149.2
X4.924Y149.255
X5.052Y149.308
X5.181Y149.36
X5.309Y149.408
X5.44Y149.455
X5.558Y149.494
X16.693Y153.166
X16.736Y153.18
X16.779Y153.192
X16.823Y153.203
X16.856Y153.21
X16.89Y153.217
X16.924Y153.223
X16.994Y153.234
X33.123Y155.572
X33.194Y155.582
X33.262Y155.59
X33.338Y155.597
X33.407Y155.602
X33.476Y155.607
X33.547Y155.61
X33.619Y155.612
X33.689Y155.613
X33.766Y155.612
X33.832Y155.611
X33.905Y155.608
X33.976Y155.603
X34.047Y155.598
X34.122Y155.591
X34.194Y155.583
X34.261Y155.574
X34.331Y155.564
X34.407Y155.552
X34.473Y155.54
X34.543Y155.526
X34.612Y155.51
X34.687Y155.493
X34.757Y155.475
X34.825Y155.456
X34.893Y155.436
X34.961Y155.415
X35.03Y155.392
X35.093Y155.37
X35.164Y155.344
X35.231Y155.318
X35.298Y155.29
X35.362Y155.263
X35.428Y155.233
X35.493Y155.203
X35.557Y155.171
X35.62Y155.138
X35.683Y155.104
X35.745Y155.07
X35.804Y155.036
X35.869Y154.997
X35.926Y154.961
X35.988Y154.92
X36.045Y154.881
X36.104Y154.84
X36.165Y154.795
X36.221Y154.753
X36.275Y154.711
X36.334Y154.663
X36.388Y154.617
X36.439Y154.573
X36.492Y154.524
X36.544Y154.476
X36.598Y154.424
X36.65Y154.372
X36.696Y154.324
X36.745Y154.272
X36.793Y154.219
X36.842Y154.162
X36.886Y154.11
X36.931Y154.054
X36.975Y153.998
X37.021Y153.936
X37.077Y153.859
X37.137Y153.771
X37.196Y153.681
X37.252Y153.589
X37.306Y153.495
X37.356Y153.402
X37.405Y153.305
X37.451Y153.209
X37.495Y153.111
X37.536Y153.012
X37.574Y152.912
X37.61Y152.81
X37.643Y152.708
X37.673Y152.607
X37.701Y152.502
X37.726Y152.398
X37.749Y152.294
X37.763Y152.221
X37.78Y152.116
X37.795Y152.01
X37.808Y151.903
X37.817Y151.797
X37.824Y151.69
X37.828Y151.583
X37.829Y151.482
Y141.3
X37.827Y141.192
X37.821Y141.085
X37.816Y141.012
X37.806Y140.904
X37.793Y140.798
X37.778Y140.692
X37.759Y140.586
X37.738Y140.48
X37.714Y140.374
X37.688Y140.27
X37.668Y140.199
X37.637Y140.098
X37.604Y139.996
X37.567Y139.893
X37.528Y139.793
X37.486Y139.693
X37.441Y139.594
X37.395Y139.499
X37.345Y139.402
X37.294Y139.308
X37.239Y139.215
X37.182Y139.123
X37.124Y139.033
X37.062Y138.944
X36.998Y138.857
X36.933Y138.772
X36.864Y138.689
X36.812Y138.628
X36.763Y138.572
X36.716Y138.522
X36.664Y138.467
X36.613Y138.415
X36.565Y138.368
X36.513Y138.319
X36.457Y138.268
X36.406Y138.222
X36.352Y138.176
X36.296Y138.131
X36.24Y138.086
X36.182Y138.042
X36.121Y137.997
X36.063Y137.955
X36.003Y137.914
X35.944Y137.875
X35.887Y137.839
X35.825Y137.801
X35.759Y137.762
X35.701Y137.729
X35.637Y137.695
X35.574Y137.662
X35.509Y137.63
X35.445Y137.599
X35.375Y137.567
X35.313Y137.54
X35.246Y137.513
X35.177Y137.485
X35.109Y137.46
X35.045Y137.437
X34.977Y137.414
X34.904Y137.391
X34.836Y137.371
X34.771Y137.353
X34.7Y137.335
X34.631Y137.318
X34.557Y137.302
X34.487Y137.287
X34.419Y137.275
X34.349Y137.263
X34.291Y137.254
X18.786Y135.006
X18.779Y132.475
X18.777Y132.394
X18.762Y132.23
X18.745Y132.117
X18.715Y131.975
X18.696Y131.902
X18.66Y131.785
X18.637Y131.723
X18.608Y131.649
X18.559Y131.54
X18.506Y131.436
X18.428Y131.305
X18.374Y131.224
X18.315Y131.144
X18.261Y131.077
X18.211Y131.019
X18.168Y130.973
X18.114Y130.918
X18.057Y130.864
X17.99Y130.805
X17.94Y130.764
X17.878Y130.716
X17.804Y130.664
X17.726Y130.613
X17.634Y130.559
X17.569Y130.524
X17.502Y130.491
X17.43Y130.459
X17.338Y130.422
X17.261Y130.394
X17.16Y130.363
X17.101Y130.347
X17.009Y130.326
X16.926Y130.31
X16.873Y130.302
X9.785Y129.274
X9.764Y129.235
X9.745Y129.201
X9.725Y129.168
X9.705Y129.135
X9.683Y129.103
X9.661Y129.071
X9.638Y129.04
X9.615Y129.009
X9.59Y128.979
X9.565Y128.95
X9.539Y128.921
X9.513Y128.893
X9.486Y128.866
X9.458Y128.839
X9.429Y128.813
X9.4Y128.788
X9.369Y128.762
X9.339Y128.738
X9.308Y128.715
X9.277Y128.692
X9.245Y128.671
X9.212Y128.65
X9.179Y128.63
X9.146Y128.61
X9.112Y128.592
X9.077Y128.574
X9.042Y128.558
X9.007Y128.542
X8.972Y128.526
X8.936Y128.512
X8.899Y128.499
X8.863Y128.486
X8.826Y128.475
X8.789Y128.464
X8.751Y128.454
X8.714Y128.446
X8.676Y128.438
X8.638Y128.431
X8.6Y128.425
X8.562Y128.419
X8.523Y128.415
X8.485Y128.412
X8.446Y128.41
X8.407Y128.408
X8.369
X1.694
X1.655
Z-0.1F50
X1.616Y128.41F100
X1.578Y128.412
X1.539Y128.415
X1.5Y128.42
X1.461Y128.425
X1.423Y128.431
X1.384Y128.438
X1.346Y128.446
X1.308Y128.455
X1.271Y128.465
X1.233Y128.476
X1.196Y128.488
X1.159Y128.5
X1.123Y128.514
X1.086Y128.529
X1.051Y128.544
X1.015Y128.56
X0.98Y128.577
X0.946Y128.595
X0.911Y128.614
X0.878Y128.633
X0.844Y128.654
X0.812Y128.675
X0.78Y128.697
X0.748Y128.72
X0.717Y128.744
X0.687Y128.768
X0.657Y128.793
X0.627Y128.819
X0.598Y128.846
X0.57Y128.874
X0.543Y128.901
X0.516Y128.93
X0.49Y128.959
X0.465Y128.989
X0.441Y129.02
X0.417Y129.051
X0.394Y129.082
X0.372Y129.114
X0.351Y129.147
X0.33Y129.18
X0.311Y129.214
X0.292Y129.248
X0.274Y129.283
X0.257Y129.318
X0.24Y129.353
X0.225Y129.389
X0.21Y129.425
X0.197Y129.462
X0.184Y129.499
X0.172Y129.536
X0.161Y129.573
X0.151Y129.611
X0.142Y129.649
X0.134Y129.687
X0.127Y129.726
X0.121Y129.764
X0.115Y129.803
X0.111Y129.842
X0.108Y129.88
X0.105Y129.919
X0.104Y129.958
X0.103Y129.999
Y141.967
X0.105Y142.105
X0.109Y142.243
X0.115Y142.381
X0.124Y142.519
X0.135Y142.656
X0.148Y142.794
X0.164Y142.931
X0.182Y143.068
X0.203Y143.205
X0.226Y143.341
X0.251Y143.476
X0.279Y143.611
X0.309Y143.746
X0.341Y143.881
X0.376Y144.014
X0.413Y144.148
X0.452Y144.28
X0.494Y144.412
X0.538Y144.543
X0.584Y144.673
X0.632Y144.802
X0.683Y144.931
X0.736Y145.058
X0.791Y145.185
X0.848Y145.311
X0.908Y145.435
X0.969Y145.559
X1.033Y145.681
X1.099Y145.803
X1.167Y145.923
X1.237Y146.042
X1.309Y146.16
X1.383Y146.276
X1.459Y146.391
X1.538Y146.505
X1.618Y146.618
X1.7Y146.729
X1.784Y146.838
X1.87Y146.946
X1.958Y147.053
X2.048Y147.158
X2.139Y147.262
X2.232Y147.364
X2.327Y147.464
X2.424Y147.562
X2.522Y147.659
X2.622Y147.755
X2.724Y147.848
X2.827Y147.939
X2.932Y148.029
X3.038Y148.117
X3.147Y148.204
X3.255Y148.287
X3.367Y148.37
X3.479Y148.451
X3.593Y148.529
X3.708Y148.605
X3.824Y148.679
X3.942Y148.752
X4.06Y148.822
X4.181Y148.891
X4.302Y148.957
X4.425Y149.021
X4.547Y149.082
X4.673Y149.143
X4.798Y149.2
X4.924Y149.255
X5.052Y149.308
X5.181Y149.36
X5.309Y149.408
X5.44Y149.455
X5.558Y149.494
X16.693Y153.166
X16.736Y153.18
X16.779Y153.192
X16.823Y153.203
X16.856Y153.21
X16.89Y153.217
X16.924Y153.223
X16.994Y153.234
X33.123Y155.572
X33.194Y155.582
X33.262Y155.59
X33.338Y155.597
X33.407Y155.602
X33.476Y155.607
X33.547Y155.61
X33.619Y155.612
X33.689Y155.613
X33.766Y155.612
X33.832Y155.611
X33.905Y155.608
X33.976Y155.603
X34.047Y155.598
X34.122Y155.591
X34.194Y155.583
X34.261Y155.574
X34.331Y155.564
X34.407Y155.552
X34.473Y155.54
X34.543Y155.526
X34.612Y155.51
X34.687Y155.493
X34.757Y155.475
X34.825Y155.456
X34.893Y155.436
X34.961Y155.415
X35.03Y155.392
X35.093Y155.37
X35.164Y155.344
X35.231Y155.318
X35.298Y155.29
X35.362Y155.263
X35.428Y155.233
X35.493Y155.203
X35.557Y155.171
X35.62Y155.138
X35.683Y155.104
X35.745Y155.07
X35.804Y155.036
X35.869Y154.997
X35.926Y154.961
X35.988Y154.92
X36.045Y154.881
X36.104Y154.84
X36.165Y154.795
X36.221Y154.753
X36.275Y154.711
X36.334Y154.663
X36.388Y154.617
X36.439Y154.573
X36.492Y154.524
X36.544Y154.476
X36.598Y154.424
X36.65Y154.372
X36.696Y154.324
X36.745Y154.272
X36.793Y154.219
X36.842Y154.162
X36.886Y154.11
X36.931Y154.054
X36.975Y153.998
X37.021Y153.936
X37.077Y153.859
X37.137Y153.771
X37.196Y153.681
X37.252Y153.589
X37.306Y153.495
X37.356Y153.402
X37.405Y153.305
X37.451Y153.209
X37.495Y153.111
X37.536Y153.012
X37.574Y152.912
X37.61Y152.81
X37.643Y152.708
X37.673Y152.607
X37.701Y152.502
X37.726Y152.398
X37.749Y152.294
X37.763Y152.221
X37.78Y152.116
X37.795Y152.01
X37.808Y151.903
X37.817Y151.797
X37.824Y151.69
X37.828Y151.583
X37.829Y151.482
Y141.3
X37.827Y141.192
X37.821Y141.085
X37.816Y141.012
X37.806Y140.904
X37.793Y140.798
X37.778Y140.692
X37.759Y140.586
X37.738Y140.48
X37.714Y140.374
X37.688Y140.27
X37.668Y140.199
X37.637Y140.098
X37.604Y139.996
X37.567Y139.893
X37.528Y139.793
X37.486Y139.693
X37.441Y139.594
X37.395Y139.499
X37.345Y139.402
X37.294Y139.308
X37.239Y139.215
X37.182Y139.123
X37.124Y139.033
X37.062Y138.944
X36.998Y138.857
X36.933Y138.772
X36.864Y138.689
X36.812Y138.628
X36.763Y138.572
X36.716Y138.522
X36.664Y138.467
X36.613Y138.415
X36.565Y138.368
X36.513Y138.319
X36.457Y138.268
X36.406Y138.222
X36.352Y138.176
X36.296Y138.131
X36.24Y138.086
X36.182Y138.042
X36.121Y137.997
X36.063Y137.955
X36.003Y137.914
X35.944Y137.875
X35.887Y137.839
X35.825Y137.801
X35.759Y137.762
X35.701Y137.729
X35.637Y137.695
X35.574Y137.662
X35.509Y137.63
X35.445Y137.599
X35.375Y137.567
X35.313Y137.54
X35.246Y137.513
X35.177Y137.485
X35.109Y137.46
X35.045Y137.437
X34.977Y137.414
X34.904Y137.391
X34.836Y137.371
X34.771Y137.353
X34.7Y137.335
X34.631Y137.318
X34.557Y137.302
X34.487Y137.287
X34.419Y137.275
X34.349Y137.263
X34.291Y137.254
X18.786Y135.006
X18.779Y132.475
X18.777Y132.394
X18.762Y132.23
X18.745Y132.117
X18.715Y131.975
X18.696Y131.902
X18.66Y131.785
X18.637Y131.723
X18.608Y131.649
X18.559Y131.54
X18.506Y131.436
X18.428Y131.305
X18.374Y131.224
X18.315Y131.144
X18.261Y131.077
X18.211Y131.019
X18.168Y130.973
X18.114Y130.918
X18.057Y130.864
X17.99Y130.805
X17.94Y130.764
X17.878Y130.716
X17.804Y130.664
X17.726Y130.613
X17.634Y130.559
X17.569Y130.524
X17.502Y130.491
X17.43Y130.459
X17.338Y130.422
X17.261Y130.394
X17.16Y130.363
X17.101Y130.347
X17.009Y130.326
X16.926Y130.31
X16.873Y130.302
X9.785Y129.274
X9.764Y129.235
X9.745Y129.201
X9.725Y129.168
X9.705Y129.135
X9.683Y129.103
X9.661Y129.071
X9.638Y129.04
X9.615Y129.009
X9.59Y128.979
X9.565Y128.95
X9.539Y128.921
X9.513Y128.893
X9.486Y128.866
X9.458Y128.839
X9.429Y128.813
X9.4Y128.788
X9.369Y128.762
X9.339Y128.738
X9.308Y128.715
X9.277Y128.692
X9.245Y128.671
X9.212Y128.65
X9.179Y128.63
X9.146Y128.61
X9.112Y128.592
X9.077Y128.574
X9.042Y128.558
X9.007Y128.542
X8.972Y128.526
X8.936Y128.512
X8.899Y128.499
X8.863Y128.486
X8.826Y128.475
X8.789Y128.464
X8.751Y128.454
X8.714Y128.446
X8.676Y128.438
X8.638Y128.431
X8.6Y128.425
X8.562Y128.419
X8.523Y128.415
X8.485Y128.412
X8.446Y128.41
X8.407Y128.408
X8.369
X1.694
X1.655
Z-0.15F50
X1.616Y128.41F100
X1.578Y128.412
X1.539Y128.415
X1.5Y128.42
X1.461Y128.425
X1.423Y128.431
X1.384Y128.438
X1.346Y128.446
X1.308Y128.455
X1.271Y128.465
X1.233Y128.476
X1.196Y128.488
X1.159Y128.5
X1.123Y128.514
X1.086Y128.529
X1.051Y128.544
X1.015Y128.56
X0.98Y128.577
X0.946Y128.595
X0.911Y128.614
X0.878Y128.633
X0.844Y128.654
X0.812Y128.675
X0.78Y128.697
X0.748Y128.72
X0.717Y128.744
X0.687Y128.768
X0.657Y128.793
X0.627Y128.819
X0.598Y128.846
X0.57Y128.874
X0.543Y128.901
X0.516Y128.93
X0.49Y128.959
X0.465Y128.989
X0.441Y129.02
X0.417Y129.051
X0.394Y129.082
X0.372Y129.114
X0.351Y129.147
X0.33Y129.18
X0.311Y129.214
X0.292Y129.248
X0.274Y129.283
X0.257Y129.318
X0.24Y129.353
X0.225Y129.389
X0.21Y129.425
X0.197Y129.462
X0.184Y129.499
X0.172Y129.536
X0.161Y129.573
X0.151Y129.611
X0.142Y129.649
X0.134Y129.687
X0.127Y129.726
X0.121Y129.764
X0.115Y129.803
X0.111Y129.842
X0.108Y129.88
X0.105Y129.919
X0.104Y129.958
X0.103Y129.999
Y141.967
X0.105Y142.105
X0.109Y142.243
X0.115Y142.381
X0.124Y142.519
X0.135Y142.656
X0.148Y142.794
X0.164Y142.931
X0.182Y143.068
X0.203Y143.205
X0.226Y143.341
X0.251Y143.476
X0.279Y143.611
X0.309Y143.746
X0.341Y143.881
X0.376Y144.014
X0.413Y144.148
X0.452Y144.28
X0.494Y144.412
X0.538Y144.543
X0.584Y144.673
X0.632Y144.802
X0.683Y144.931
X0.736Y145.058
X0.791Y145.185
X0.848Y145.311
X0.908Y145.435
X0.969Y145.559
X1.033Y145.681
X1.099Y145.803
X1.167Y145.923
X1.237Y146.042
X1.309Y146.16
X1.383Y146.276
X1.459Y146.391
X1.538Y146.505
X1.618Y146.618
X1.7Y146.729
X1.784Y146.838
X1.87Y146.946
X1.958Y147.053
X2.048Y147.158
X2.139Y147.262
X2.232Y147.364
X2.327Y147.464
X2.424Y147.562
X2.522Y147.659
X2.622Y147.755
X2.724Y147.848
X2.827Y147.939
X2.932Y148.029
X3.038Y148.117
X3.147Y148.204
X3.255Y148.287
X3.367Y148.37
X3.479Y148.451
X3.593Y148.529
X3.708Y148.605
X3.824Y148.679
X3.942Y148.752
X4.06Y148.822
X4.181Y148.891
X4.302Y148.957
X4.425Y149.021
X4.547Y149.082
X4.673Y149.143
X4.798Y149.2
X4.924Y149.255
X5.052Y149.308
X5.181Y149.36
X5.309Y149.408
X5.44Y149.455
X5.558Y149.494
X16.693Y153.166
X16.736Y153.18
X16.779Y153.192
X16.823Y153.203
X16.856Y153.21
X16.89Y153.217
X16.924Y153.223
X16.994Y153.234
X33.123Y155.572
X33.194Y155.582
X33.262Y155.59
X33.338Y155.597
X33.407Y155.602
X33.476Y155.607
X33.547Y155.61
X33.619Y155.612
X33.689Y155.613
X33.766Y155.612
X33.832Y155.611
X33.905Y155.608
X33.976Y155.603
X34.047Y155.598
X34.122Y155.591
X34.194Y155.583
X34.261Y155.574
X34.331Y155.564
X34.407Y155.552
X34.473Y155.54
X34.543Y155.526
X34.612Y155.51
X34.687Y155.493
X34.757Y155.475
X34.825Y155.456
X34.893Y155.436
X34.961Y155.415
X35.03Y155.392
X35.093Y155.37
X35.164Y155.344
X35.231Y155.318
X35.298Y155.29
X35.362Y155.263
X35.428Y155.233
X35.493Y155.203
X35.557Y155.171
X35.62Y155.138
X35.683Y155.104
X35.745Y155.07
X35.804Y155.036
X35.869Y154.997
X35.926Y154.961
X35.988Y154.92
X36.045Y154.881
X36.104Y154.84
X36.165Y154.795
X36.221Y154.753
X36.275Y154.711
X36.334Y154.663
X36.388Y154.617
X36.439Y154.573
X36.492Y154.524
X36.544Y154.476
X36.598Y154.424
X36.65Y154.372
X36.696Y154.324
X36.745Y154.272
X36.793Y154.219
X36.842Y154.162
X36.886Y154.11
X36.931Y154.054
X36.975Y153.998
X37.021Y153.936
X37.077Y153.859
X37.137Y153.771
X37.196Y153.681
X37.252Y153.589
X37.306Y153.495
X37.356Y153.402
X37.405Y153.305
X37.451Y153.209
X37.495Y153.111
X37.536Y153.012
X37.574Y152.912
X37.61Y152.81
X37.643Y152.708
X37.673Y152.607
X37.701Y152.502
X37.726Y152.398
X37.749Y152.294
X37.763Y152.221
X37.78Y152.116
X37.795Y152.01
X37.808Y151.903
X37.817Y151.797
X37.824Y151.69
X37.828Y151.583
X37.829Y151.482
Y141.3
X37.827Y141.192
X37.821Y141.085
X37.816Y141.012
X37.806Y140.904
X37.793Y140.798
X37.778Y140.692
X37.759Y140.586
X37.738Y140.48
X37.714Y140.374
X37.688Y140.27
X37.668Y140.199
X37.637Y140.098
X37.604Y139.996
X37.567Y139.893
X37.528Y139.793
X37.486Y139.693
X37.441Y139.594
X37.395Y139.499
X37.345Y139.402
X37.294Y139.308
X37.239Y139.215
X37.182Y139.123
X37.124Y139.033
X37.062Y138.944
X36.998Y138.857
X36.933Y138.772
X36.864Y138.689
X36.812Y138.628
X36.763Y138.572
X36.716Y138.522
X36.664Y138.467
X36.613Y138.415
X36.565Y138.368
X36.513Y138.319
X36.457Y138.268
X36.406Y138.222
X36.352Y138.176
X36.296Y138.131
X36.24Y138.086
X36.182Y138.042
X36.121Y137.997
X36.063Y137.955
X36.003Y137.914
X35.944Y137.875
X35.887Y137.839
X35.825Y137.801
X35.759Y137.762
X35.701Y137.729
X35.637Y137.695
X35.574Y137.662
X35.509Y137.63
X35.445Y137.599
X35.375Y137.567
X35.313Y137.54
X35.246Y137.513
X35.177Y137.485
X35.109Y137.46
X35.045Y137.437
X34.977Y137.414
X34.904Y137.391
X34.836Y137.371
X34.771Y137.353
X34.7Y137.335
X34.631Y137.318
X34.557Y137.302
X34.487Y137.287
X34.419Y137.275
X34.349Y137.263
X34.291Y137.254
X18.786Y135.006
X18.779Y132.475
X18.777Y132.394
X18.762Y132.23
X18.745Y132.117
X18.715Y131.975
X18.696Y131.902
X18.66Y131.785
X18.637Y131.723
X18.608Y131.649
X18.559Y131.54
X18.506Y131.436
X18.428Y131.305
X18.374Y131.224
X18.315Y131.144
X18.261Y131.077
X18.211Y131.019
X18.168Y130.973
X18.114Y130.918
X18.057Y130.864
X17.99Y130.805
X17.94Y130.764
X17.878Y130.716
X17.804Y130.664
X17.726Y130.613
X17.634Y130.559
X17.569Y130.524
X17.502Y130.491
X17.43Y130.459
X17.338Y130.422
X17.261Y130.394
X17.16Y130.363
X17.101Y130.347
X17.009Y130.326
X16.926Y130.31
X16.873Y130.302
X9.785Y129.274
X9.764Y129.235
X9.745Y129.201
X9.725Y129.168
X9.705Y129.135
X9.683Y129.103
X9.661Y129.071
X9.638Y129.04
X9.615Y129.009
X9.59Y128.979
X9.565Y128.95
X9.539Y128.921
X9.513Y128.893
X9.486Y128.866
X9.458Y128.839
X9.429Y128.813
X9.4Y128.788
X9.369Y128.762
X9.339Y128.738
X9.308Y128.715
X9.277Y128.692
X9.245Y128.671
X9.212Y128.65
X9.179Y128.63
X9.146Y128.61
X9.112Y128.592
X9.077Y128.574
X9.042Y128.558
X9.007Y128.542
X8.972Y128.526
X8.936Y128.512
X8.899Y128.499
X8.863Y128.486
X8.826Y128.475
X8.789Y128.464
X8.751Y128.454
X8.714Y128.446
X8.676Y128.438
X8.638Y128.431
X8.6Y128.425
X8.562Y128.419
X8.523Y128.415
X8.485Y128.412
X8.446Y128.41
X8.407Y128.408
X8.369
X1.694
X1.655
Z-0.2F50
X1.616Y128.41F100
X1.578Y128.412
X1.539Y128.415
X1.5Y128.42
X1.461Y128.425
X1.423Y128.431
X1.384Y128.438
X1.346Y128.446
X1.308Y128.455
X1.271Y128.465
X1.233Y128.476
X1.196Y128.488
X1.159Y128.5
X1.123Y128.514
X1.086Y128.529
X1.051Y128.544
X1.015Y128.56
X0.98Y128.577
X0.946Y128.595
X0.911Y128.614
X0.878Y128.633
X0.844Y128.654
X0.812Y128.675
X0.78Y128.697
X0.748Y128.72
X0.717Y128.744
X0.687Y128.768
X0.657Y128.793
X0.627Y128.819
X0.598Y128.846
X0.57Y128.874
X0.543Y128.901
X0.516Y128.93
X0.49Y128.959
X0.465Y128.989
X0.441Y129.02
X0.417Y129.051
X0.394Y129.082
X0.372Y129.114
X0.351Y129.147
X0.33Y129.18
X0.311Y129.214
X0.292Y129.248
X0.274Y129.283
X0.257Y129.318
X0.24Y129.353
X0.225Y129.389
X0.21Y129.425
X0.197Y129.462
X0.184Y129.499
X0.172Y129.536
X0.161Y129.573
X0.151Y129.611
X0.142Y129.649
X0.134Y129.687
X0.127Y129.726
X0.121Y129.764
X0.115Y129.803
X0.111Y129.842
X0.108Y129.88
X0.105Y129.919
X0.104Y129.958
X0.103Y129.999
Y141.967
X0.105Y142.105
X0.109Y142.243
X0.115Y142.381
X0.124Y142.519
X0.135Y142.656
X0.148Y142.794
X0.164Y142.931
X0.182Y143.068
X0.203Y143.205
X0.226Y143.341
X0.251Y143.476
X0.279Y143.611
X0.309Y143.746
X0.341Y143.881
X0.376Y144.014
X0.413Y144.148
X0.452Y144.28
X0.494Y144.412
X0.538Y144.543
X0.584Y144.673
X0.632Y144.802
X0.683Y144.931
X0.736Y145.058
X0.791Y145.185
X0.848Y145.311
X0.908Y145.435
X0.969Y145.559
X1.033Y145.681
X1.099Y145.803
X1.167Y145.923
X1.237Y146.042
X1.309Y146.16
X1.383Y146.276
X1.459Y146.391
X1.538Y146.505
X1.618Y146.618
X1.7Y146.729
X1.784Y146.838
X1.87Y146.946
X1.958Y147.053
X2.048Y147.158
X2.139Y147.262
X2.232Y147.364
X2.327Y147.464
X2.424Y147.562
X2.522Y147.659
X2.622Y147.755
X2.724Y147.848
X2.827Y147.939
X2.932Y148.029
X3.038Y148.117
X3.147Y148.204
X3.255Y148.287
X3.367Y148.37
X3.479Y148.451
X3.593Y148.529
X3.708Y148.605
X3.824Y148.679
X3.942Y148.752
X4.06Y148.822
X4.181Y148.891
X4.302Y148.957
X4.425Y149.021
X4.547Y149.082
X4.673Y149.143
X4.798Y149.2
X4.924Y149.255
X5.052Y149.308
X5.181Y149.36
X5.309Y149.408
X5.44Y149.455
X5.558Y149.494
X16.693Y153.166
X16.736Y153.18
X16.779Y153.192
X16.823Y153.203
X16.856Y153.21
X16.89Y153.217
X16.924Y153.223
X16.994Y153.234
X33.123Y155.572
X33.194Y155.582
X33.262Y155.59
X33.338Y155.597
X33.407Y155.602
X33.476Y155.607
X33.547Y155.61
X33.619Y155.612
X33.689Y155.613
X33.766Y155.612
X33.832Y155.611
X33.905Y155.608
X33.976Y155.603
X34.047Y155.598
X34.122Y155.591
X34.194Y155.583
X34.261Y155.574
X34.331Y155.564
X34.407Y155.552
X34.473Y155.54
X34.543Y155.526
X34.612Y155.51
X34.687Y155.493
X34.757Y155.475
X34.825Y155.456
X34.893Y155.436
X34.961Y155.415
X35.03Y155.392
X35.093Y155.37
X35.164Y155.344
X35.231Y155.318
X35.298Y155.29
X35.362Y155.263
X35.428Y155.233
X35.493Y155.203
X35.557Y155.171
X35.62Y155.138
X35.683Y155.104
X35.745Y155.07
X35.804Y155.036
X35.869Y154.997
X35.926Y154.961
X35.988Y154.92
X36.045Y154.881
X36.104Y154.84
X36.165Y154.795
X36.221Y154.753
X36.275Y154.711
X36.334Y154.663
X36.388Y154.617
X36.439Y154.573
X36.492Y154.524
X36.544Y154.476
X36.598Y154.424
X36.65Y154.372
X36.696Y154.324
X36.745Y154.272
X36.793Y154.219
X36.842Y154.162
X36.886Y154.11
X36.931Y154.054
X36.975Y153.998
X37.021Y153.936
X37.077Y153.859
X37.137Y153.771
X37.196Y153.681
X37.252Y153.589
X37.306Y153.495
X37.356Y153.402
X37.405Y153.305
X37.451Y153.209
X37.495Y153.111
X37.536Y153.012
X37.574Y152.912
X37.61Y152.81
X37.643Y152.708
X37.673Y152.607
X37.701Y152.502
X37.726Y152.398
X37.749Y152.294
X37.763Y152.221
X37.78Y152.116
X37.795Y152.01
X37.808Y151.903
X37.817Y151.797
X37.824Y151.69
X37.828Y151.583
X37.829Y151.482
Y141.3
X37.827Y141.192
X37.821Y141.085
X37.816Y141.012
X37.806Y140.904
X37.793Y140.798
X37.778Y140.692
X37.759Y140.586
X37.738Y140.48
X37.714Y140.374
X37.688Y140.27
X37.668Y140.199
X37.637Y140.098
X37.604Y139.996
X37.567Y139.893
X37.528Y139.793
X37.486Y139.693
X37.441Y139.594
X37.395Y139.499
X37.345Y139.402
X37.294Y139.308
X37.239Y139.215
X37.182Y139.123
X37.124Y139.033
X37.062Y138.944
X36.998Y138.857
X36.933Y138.772
X36.864Y138.689
X36.812Y138.628
X36.763Y138.572
X36.716Y138.522
X36.664Y138.467
X36.613Y138.415
X36.565Y138.368
X36.513Y138.319
X36.457Y138.268
X36.406Y138.222
X36.352Y138.176
X36.296Y138.131
X36.24Y138.086
X36.182Y138.042
X36.121Y137.997
X36.063Y137.955
X36.003Y137.914
X35.944Y137.875
X35.887Y137.839
X35.825Y137.801
X35.759Y137.762
X35.701Y137.729
X35.637Y137.695
X35.574Y137.662
X35.509Y137.63
X35.445Y137.599
X35.375Y137.567
X35.313Y137.54
X35.246Y137.513
X35.177Y137.485
X35.109Y137.46
X35.045Y137.437
X34.977Y137.414
X34.904Y137.391
X34.836Y137.371
X34.771Y137.353
X34.7Y137.335
X34.631Y137.318
X34.557Y137.302
X34.487Y137.287
X34.419Y137.275
X34.349Y137.263
X34.291Y137.254
X18.786Y135.006
X18.779Y132.475
X18.777Y132.394
X18.762Y132.23
X18.745Y132.117
X18.715Y131.975
X18.696Y131.902
X18.66Y131.785
X18.637Y131.723
X18.608Y131.649
X18.559Y131.54
X18.506Y131.436
X18.428Y131.305
X18.374Y131.224
X18.315Y131.144
X18.261Y131.077
X18.211Y131.019
X18.168Y130.973
X18.114Y130.918
X18.057Y130.864
X17.99Y130.805
X17.94Y130.764
X17.878Y130.716
X17.804Y130.664
X17.726Y130.613
X17.634Y130.559
X17.569Y130.524
X17.502Y130.491
X17.43Y130.459
X17.338Y130.422
X17.261Y130.394
X17.16Y130.363
X17.101Y130.347
X17.009Y130.326
X16.926Y130.31
X16.873Y130.302
X9.785Y129.274
X9.764Y129.235
X9.745Y129.201
X9.725Y129.168
X9.705Y129.135
X9.683Y129.103
X9.661Y129.071
X9.638Y129.04
X9.615Y129.009
X9.59Y128.979
X9.565Y128.95
X9.539Y128.921
X9.513Y128.893
X9.486Y128.866
X9.458Y128.839
X9.429Y128.813
X9.4Y128.788
X9.369Y128.762
X9.339Y128.738
X9.308Y128.715
X9.277Y128.692
X9.245Y128.671
X9.212Y128.65
X9.179Y128.63
X9.146Y128.61
X9.112Y128.592
X9.077Y128.574
X9.042Y128.558
X9.007Y128.542
X8.972Y128.526
X8.936Y128.512
X8.899Y128.499
X8.863Y128.486
X8.826Y128.475
X8.789Y128.464
X8.751Y128.454
X8.714Y128.446
X8.676Y128.438
X8.638Y128.431
X8.6Y128.425
X8.562Y128.419
X8.523Y128.415
X8.485Y128.412
X8.446Y128.41
X8.407Y128.408
X8.369
X1.694
X1.655
Z-0.25F50
X1.616Y128.41F100
X1.578Y128.412
X1.539Y128.415
X1.5Y128.42
X1.461Y128.425
X1.423Y128.431
X1.384Y128.438
X1.346Y128.446
X1.308Y128.455
X1.271Y128.465
X1.233Y128.476
X1.196Y128.488
X1.159Y128.5
X1.123Y128.514
X1.086Y128.529
X1.051Y128.544
X1.015Y128.56
X0.98Y128.577
X0.946Y128.595
X0.911Y128.614
X0.878Y128.633
X0.844Y128.654
X0.812Y128.675
X0.78Y128.697
X0.748Y128.72
X0.717Y128.744
X0.687Y128.768
X0.657Y128.793
X0.627Y128.819
X0.598Y128.846
X0.57Y128.874
X0.543Y128.901
X0.516Y128.93
X0.49Y128.959
X0.465Y128.989
X0.441Y129.02
X0.417Y129.051
X0.394Y129.082
X0.372Y129.114
X0.351Y129.147
X0.33Y129.18
X0.311Y129.214
X0.292Y129.248
X0.274Y129.283
X0.257Y129.318
X0.24Y129.353
X0.225Y129.389
X0.21Y129.425
X0.197Y129.462
X0.184Y129.499
X0.172Y129.536
X0.161Y129.573
X0.151Y129.611
X0.142Y129.649
X0.134Y129.687
X0.127Y129.726
X0.121Y129.764
X0.115Y129.803
X0.111Y129.842
X0.108Y129.88
X0.105Y129.919
X0.104Y129.958
X0.103Y129.999
Y141.967
X0.105Y142.105
X0.109Y142.243
X0.115Y142.381
X0.124Y142.519
X0.135Y142.656
X0.148Y142.794
X0.164Y142.931
X0.182Y143.068
X0.203Y143.205
X0.226Y143.341
X0.251Y143.476
X0.279Y143.611
X0.309Y143.746
X0.341Y143.881
X0.376Y144.014
X0.413Y144.148
X0.452Y144.28
X0.494Y144.412
X0.538Y144.543
X0.584Y144.673
X0.632Y144.802
X0.683Y144.931
X0.736Y145.058
X0.791Y145.185
X0.848Y145.311
X0.908Y145.435
X0.969Y145.559
X1.033Y145.681
X1.099Y145.803
X1.167Y145.923
X1.237Y146.042
X1.309Y146.16
X1.383Y146.276
X1.459Y146.391
X1.538Y146.505
X1.618Y146.618
X1.7Y146.729
X1.784Y146.838
X1.87Y146.946
X1.958Y147.053
X2.048Y147.158
X2.139Y147.262
X2.232Y147.364
X2.327Y147.464
X2.424Y147.562
X2.522Y147.659
X2.622Y147.755
X2.724Y147.848
X2.827Y147.939
X2.932Y148.029
X3.038Y148.117
X3.147Y148.204
X3.255Y148.287
X3.367Y148.37
X3.479Y148.451
X3.593Y148.529
X3.708Y148.605
X3.824Y148.679
X3.942Y148.752
X4.06Y148.822
X4.181Y148.891
X4.302Y148.957
X4.425Y149.021
X4.547Y149.082
X4.673Y149.143
X4.798Y149.2
X4.924Y149.255
X5.052Y149.308
X5.181Y149.36
X5.309Y149.408
X5.44Y149.455
X5.558Y149.494
X16.693Y153.166
X16.736Y153.18
X16.779Y153.192
X16.823Y153.203
X16.856Y153.21
X16.89Y153.217
X16.924Y153.223
X16.994Y153.234
X33.123Y155.572
X33.194Y155.582
X33.262Y155.59
X33.338Y155.597
X33.407Y155.602
X33.476Y155.607
X33.547Y155.61
X33.619Y155.612
X33.689Y155.613
X33.766Y155.612
X33.832Y155.611
X33.905Y155.608
X33.976Y155.603
X34.047Y155.598
X34.122Y155.591
X34.194Y155.583
X34.261Y155.574
X34.331Y155.564
X34.407Y155.552
X34.473Y155.54
X34.543Y155.526
X34.612Y155.51
X34.687Y155.493
X34.757Y155.475
X34.825Y155.456
X34.893Y155.436
X34.961Y155.415
X35.03Y155.392
X35.093Y155.37
X35.164Y155.344
X35.231Y155.318
X35.298Y155.29
X35.362Y155.263
X35.428Y155.233
X35.493Y155.203
X35.557Y155.171
X35.62Y155.138
X35.683Y155.104
X35.745Y155.07
X35.804Y155.036
X35.869Y154.997
X35.926Y154.961
X35.988Y154.92
X36.045Y154.881
X36.104Y154.84
X36.165Y154.795
X36.221Y154.753
X36.275Y154.711
X36.334Y154.663
X36.388Y154.617
X36.439Y154.573
X36.492Y154.524
X36.544Y154.476
X36.598Y154.424
X36.65Y154.372
X36.696Y154.324
X36.745Y154.272
X36.793Y154.219
X36.842Y154.162
X36.886Y154.11
X36.931Y154.054
X36.975Y153.998
X37.021Y153.936
X37.077Y153.859
X37.137Y153.771
X37.196Y153.681
X37.252Y153.589
X37.306Y153.495
X37.356Y153.402
X37.405Y153.305
X37.451Y153.209
X37.495Y153.111
X37.536Y153.012
X37.574Y152.912
X37.61Y152.81
X37.643Y152.708
X37.673Y152.607
X37.701Y152.502
X37.726Y152.398
X37.749Y152.294
X37.763Y152.221
X37.78Y152.116
X37.795Y152.01
X37.808Y151.903
X37.817Y151.797
X37.824Y151.69
X37.828Y151.583
X37.829Y151.482
Y141.3
X37.827Y141.192
X37.821Y141.085
X37.816Y141.012
X37.806Y140.904
X37.793Y140.798
X37.778Y140.692
X37.759Y140.586
X37.738Y140.48
X37.714Y140.374
X37.688Y140.27
X37.668Y140.199
X37.637Y140.098
X37.604Y139.996
X37.567Y139.893
X37.528Y139.793
X37.486Y139.693
X37.441Y139.594
X37.395Y139.499
X37.345Y139.402
X37.294Y139.308
X37.239Y139.215
X37.182Y139.123
X37.124Y139.033
X37.062Y138.944
X36.998Y138.857
X36.933Y138.772
X36.864Y138.689
X36.812Y138.628
X36.763Y138.572
X36.716Y138.522
X36.664Y138.467
X36.613Y138.415
X36.565Y138.368
X36.513Y138.319
X36.457Y138.268
X36.406Y138.222
X36.352Y138.176
X36.296Y138.131
X36.24Y138.086
X36.182Y138.042
X36.121Y137.997
X36.063Y137.955
X36.003Y137.914
X35.944Y137.875
X35.887Y137.839
X35.825Y137.801
X35.759Y137.762
X35.701Y137.729
X35.637Y137.695
X35.574Y137.662
X35.509Y137.63
X35.445Y137.599
X35.375Y137.567
X35.313Y137.54
X35.246Y137.513
X35.177Y137.485
X35.109Y137.46
X35.045Y137.437
X34.977Y137.414
X34.904Y137.391
X34.836Y137.371
X34.771Y137.353
X34.7Y137.335
X34.631Y137.318
X34.557Y137.302
X34.487Y137.287
X34.419Y137.275
X34.349Y137.263
X34.291Y137.254
X18.786Y135.006
X18.779Y132.475
X18.777Y132.394
X18.762Y132.23
X18.745Y132.117
X18.715Y131.975
X18.696Y131.902
X18.66Y131.785
X18.637Y131.723
X18.608Y131.649
X18.559Y131.54
X18.506Y131.436
X18.428Y131.305
X18.374Y131.224
X18.315Y131.144
X18.261Y131.077
X18.211Y131.019
X18.168Y130.973
X18.114Y130.918
X18.057Y130.864
X17.99Y130.805
X17.94Y130.764
X17.878Y130.716
X17.804Y130.664
X17.726Y130.613
X17.634Y130.559
X17.569Y130.524
X17.502Y130.491
X17.43Y130.459
X17.338Y130.422
X17.261Y130.394
X17.16Y130.363
X17.101Y130.347
X17.009Y130.326
X16.926Y130.31
X16.873Y130.302
X9.785Y129.274
X9.764Y129.235
X9.745Y129.201
X9.725Y129.168
X9.705Y129.135
X9.683Y129.103
X9.661Y129.071
X9.638Y129.04
X9.615Y129.009
X9.59Y128.979
X9.565Y128.95
X9.539Y128.921
X9.513Y128.893
X9.486Y128.866
X9.458Y128.839
X9.429Y128.813
X9.4Y128.788
X9.369Y128.762
X9.339Y128.738
X9.308Y128.715
X9.277Y128.692
X9.245Y128.671
X9.212Y128.65
X9.179Y128.63
X9.146Y128.61
X9.112Y128.592
X9.077Y128.574
X9.042Y128.558
X9.007Y128.542
X8.972Y128.526
X8.936Y128.512
X8.899Y128.499
X8.863Y128.486
X8.826Y128.475
X8.789Y128.464
X8.751Y128.454
X8.714Y128.446
X8.676Y128.438
X8.638Y128.431
X8.6Y128.425
X8.562Y128.419
X8.523Y128.415
X8.485Y128.412
X8.446Y128.41
X8.407Y128.408
X8.369
X1.694
X1.655
Z-0.3F50
X1.616Y128.41F100
X1.578Y128.412
X1.539Y128.415
X1.5Y128.42
X1.461Y128.425
X1.423Y128.431
X1.384Y128.438
X1.346Y128.446
X1.308Y128.455
X1.271Y128.465
X1.233Y128.476
X1.196Y128.488
X1.159Y128.5
X1.123Y128.514
X1.086Y128.529
X1.051Y128.544
X1.015Y128.56
X0.98Y128.577
X0.946Y128.595
X0.911Y128.614
X0.878Y128.633
X0.844Y128.654
X0.812Y128.675
X0.78Y128.697
X0.748Y128.72
X0.717Y128.744
X0.687Y128.768
X0.657Y128.793
X0.627Y128.819
X0.598Y128.846
X0.57Y128.874
X0.543Y128.901
X0.516Y128.93
X0.49Y128.959
X0.465Y128.989
X0.441Y129.02
X0.417Y129.051
X0.394Y129.082
X0.372Y129.114
X0.351Y129.147
X0.33Y129.18
X0.311Y129.214
X0.292Y129.248
X0.274Y129.283
X0.257Y129.318
X0.24Y129.353
X0.225Y129.389
X0.21Y129.425
X0.197Y129.462
X0.184Y129.499
X0.172Y129.536
X0.161Y129.573
X0.151Y129.611
X0.142Y129.649
X0.134Y129.687
X0.127Y129.726
X0.121Y129.764
X0.115Y129.803
X0.111Y129.842
X0.108Y129.88
X0.105Y129.919
X0.104Y129.958
X0.103Y129.999
Y141.967
X0.105Y142.105
X0.109Y142.243
X0.115Y142.381
X0.124Y142.519
X0.135Y142.656
X0.148Y142.794
X0.164Y142.931
X0.182Y143.068
X0.203Y143.205
X0.226Y143.341
X0.251Y143.476
X0.279Y143.611
X0.309Y143.746
X0.341Y143.881
X0.376Y144.014
X0.413Y144.148
X0.452Y144.28
X0.494Y144.412
X0.538Y144.543
X0.584Y144.673
X0.632Y144.802
X0.683Y144.931
X0.736Y145.058
X0.791Y145.185
X0.848Y145.311
X0.908Y145.435
X0.969Y145.559
X1.033Y145.681
X1.099Y145.803
X1.167Y145.923
X1.237Y146.042
X1.309Y146.16
X1.383Y146.276
X1.459Y146.391
X1.538Y146.505
X1.618Y146.618
X1.7Y146.729
X1.784Y146.838
X1.87Y146.946
X1.958Y147.053
X2.048Y147.158
X2.139Y147.262
X2.232Y147.364
X2.327Y147.464
X2.424Y147.562
X2.522Y147.659
X2.622Y147.755
X2.724Y147.848
X2.827Y147.939
X2.932Y148.029
X3.038Y148.117
X3.147Y148.204
X3.255Y148.287
X3.367Y148.37
X3.479Y148.451
X3.593Y148.529
X3.708Y148.605
X3.824Y148.679
X3.942Y148.752
X4.06Y148.822
X4.181Y148.891
X4.302Y148.957
X4.425Y149.021
X4.547Y149.082
X4.673Y149.143
X4.798Y149.2
X4.924Y149.255
X5.052Y149.308
X5.181Y149.36
X5.309Y149.408
X5.44Y149.455
X5.558Y149.494
X16.693Y153.166
X16.736Y153.18
X16.779Y153.192
X16.823Y153.203
X16.856Y153.21
X16.89Y153.217
X16.924Y153.223
X16.994Y153.234
X33.123Y155.572
X33.194Y155.582
X33.262Y155.59
X33.338Y155.597
X33.407Y155.602
X33.476Y155.607
X33.547Y155.61
X33.619Y155.612
X33.689Y155.613
X33.766Y155.612
X33.832Y155.611
X33.905Y155.608
X33.976Y155.603
X34.047Y155.598
X34.122Y155.591
X34.194Y155.583
X34.261Y155.574
X34.331Y155.564
X34.407Y155.552
X34.473Y155.54
X34.543Y155.526
X34.612Y155.51
X34.687Y155.493
X34.757Y155.475
X34.825Y155.456
X34.893Y155.436
X34.961Y155.415
X35.03Y155.392
X35.093Y155.37
X35.164Y155.344
X35.231Y155.318
X35.298Y155.29
X35.362Y155.263
X35.428Y155.233
X35.493Y155.203
X35.557Y155.171
X35.62Y155.138
X35.683Y155.104
X35.745Y155.07
X35.804Y155.036
X35.869Y154.997
X35.926Y154.961
X35.988Y154.92
X36.045Y154.881
X36.104Y154.84
X36.165Y154.795
X36.221Y154.753
X36.275Y154.711
X36.334Y154.663
X36.388Y154.617
X36.439Y154.573
X36.492Y154.524
X36.544Y154.476
X36.598Y154.424
X36.65Y154.372
X36.696Y154.324
X36.745Y154.272
X36.793Y154.219
X36.842Y154.162
X36.886Y154.11
X36.931Y154.054
X36.975Y153.998
X37.021Y153.936
X37.077Y153.859
X37.137Y153.771
X37.196Y153.681
X37.252Y153.589
X37.306Y153.495
X37.356Y153.402
X37.405Y153.305
X37.451Y153.209
X37.495Y153.111
X37.536Y153.012
X37.574Y152.912
X37.61Y152.81
X37.643Y152.708
X37.673Y152.607
X37.701Y152.502
X37.726Y152.398
X37.749Y152.294
X37.763Y152.221
X37.78Y152.116
X37.795Y152.01
X37.808Y151.903
X37.817Y151.797
X37.824Y151.69
X37.828Y151.583
X37.829Y151.482
Y141.3
X37.827Y141.192
X37.821Y141.085
X37.816Y141.012
X37.806Y140.904
X37.793Y140.798
X37.778Y140.692
X37.759Y140.586
X37.738Y140.48
X37.714Y140.374
X37.688Y140.27
X37.668Y140.199
X37.637Y140.098
X37.604Y139.996
X37.567Y139.893
X37.528Y139.793
X37.486Y139.693
X37.441Y139.594
X37.395Y139.499
X37.345Y139.402
X37.294Y139.308
X37.239Y139.215
X37.182Y139.123
X37.124Y139.033
X37.062Y138.944
X36.998Y138.857
X36.933Y138.772
X36.864Y138.689
X36.812Y138.628
X36.763Y138.572
X36.716Y138.522
X36.664Y138.467
X36.613Y138.415
X36.565Y138.368
X36.513Y138.319
X36.457Y138.268
X36.406Y138.222
X36.352Y138.176
X36.296Y138.131
X36.24Y138.086
X36.182Y138.042
X36.121Y137.997
X36.063Y137.955
X36.003Y137.914
X35.944Y137.875
X35.887Y137.839
X35.825Y137.801
X35.759Y137.762
X35.701Y137.729
X35.637Y137.695
X35.574Y137.662
X35.509Y137.63
X35.445Y137.599
X35.375Y137.567
X35.313Y137.54
X35.246Y137.513
X35.177Y137.485
X35.109Y137.46
X35.045Y137.437
X34.977Y137.414
X34.904Y137.391
X34.836Y137.371
X34.771Y137.353
X34.7Y137.335
X34.631Y137.318
X34.557Y137.302
X34.487Y137.287
X34.419Y137.275
X34.349Y137.263
X34.291Y137.254
X18.786Y135.006
X18.779Y132.475
X18.777Y132.394
X18.762Y132.23
X18.745Y132.117
X18.715Y131.975
X18.696Y131.902
X18.66Y131.785
X18.637Y131.723
X18.608Y131.649
X18.559Y131.54
X18.506Y131.436
X18.428Y131.305
X18.374Y131.224
X18.315Y131.144
X18.261Y131.077
X18.211Y131.019
X18.168Y130.973
X18.114Y130.918
X18.057Y130.864
X17.99Y130.805
X17.94Y130.764
X17.878Y130.716
X17.804Y130.664
X17.726Y130.613
X17.634Y130.559
X17.569Y130.524
X17.502Y130.491
X17.43Y130.459
X17.338Y130.422
X17.261Y130.394
X17.16Y130.363
X17.101Y130.347
X17.009Y130.326
X16.926Y130.31
X16.873Y130.302
X9.785Y129.274
X9.764Y129.235
X9.745Y129.201
X9.725Y129.168
X9.705Y129.135
X9.683Y129.103
X9.661Y129.071
X9.638Y129.04
X9.615Y129.009
X9.59Y128.979
X9.565Y128.95
X9.539Y128.921
X9.513Y128.893
X9.486Y128.866
X9.458Y128.839
X9.429Y128.813
X9.4Y128.788
X9.369Y128.762
X9.339Y128.738
X9.308Y128.715
X9.277Y128.692
X9.245Y128.671
X9.212Y128.65
X9.179Y128.63
X9.146Y128.61
X9.112Y128.592
X9.077Y128.574
X9.042Y128.558
X9.007Y128.542
X8.972Y128.526
X8.936Y128.512
X8.899Y128.499
X8.863Y128.486
X8.826Y128.475
X8.789Y128.464
X8.751Y128.454
X8.714Y128.446
X8.676Y128.438
X8.638Y128.431
X8.6Y128.425
X8.562Y128.419
X8.523Y128.415
X8.485Y128.412
X8.446Y128.41
X8.407Y128.408
X8.369
X1.694
X1.655
Z-0.35F50
X1.616Y128.41F100
X1.578Y128.412
X1.539Y128.415
X1.5Y128.42
X1.461Y128.425
X1.423Y128.431
X1.384Y128.438
X1.346Y128.446
X1.308Y128.455
X1.271Y128.465
X1.233Y128.476
X1.196Y128.488
X1.159Y128.5
X1.123Y128.514
X1.086Y128.529
X1.051Y128.544
X1.015Y128.56
X0.98Y128.577
X0.946Y128.595
X0.911Y128.614
X0.878Y128.633
X0.844Y128.654
X0.812Y128.675
X0.78Y128.697
X0.748Y128.72
X0.717Y128.744
X0.687Y128.768
X0.657Y128.793
X0.627Y128.819
X0.598Y128.846
X0.57Y128.874
X0.543Y128.901
X0.516Y128.93
X0.49Y128.959
X0.465Y128.989
X0.441Y129.02
X0.417Y129.051
X0.394Y129.082
X0.372Y129.114
X0.351Y129.147
X0.33Y129.18
X0.311Y129.214
X0.292Y129.248
X0.274Y129.283
X0.257Y129.318
X0.24Y129.353
X0.225Y129.389
X0.21Y129.425
X0.197Y129.462
X0.184Y129.499
X0.172Y129.536
X0.161Y129.573
X0.151Y129.611
X0.142Y129.649
X0.134Y129.687
X0.127Y129.726
X0.121Y129.764
X0.115Y129.803
X0.111Y129.842
X0.108Y129.88
X0.105Y129.919
X0.104Y129.958
X0.103Y129.999
Y141.967
X0.105Y142.105
X0.109Y142.243
X0.115Y142.381
X0.124Y142.519
X0.135Y142.656
X0.148Y142.794
X0.164Y142.931
X0.182Y143.068
X0.203Y143.205
X0.226Y143.341
X0.251Y143.476
X0.279Y143.611
X0.309Y143.746
X0.341Y143.881
X0.376Y144.014
X0.413Y144.148
X0.452Y144.28
X0.494Y144.412
X0.538Y144.543
X0.584Y144.673
X0.632Y144.802
X0.683Y144.931
X0.736Y145.058
X0.791Y145.185
X0.848Y145.311
X0.908Y145.435
X0.969Y145.559
X1.033Y145.681
X1.099Y145.803
X1.167Y145.923
X1.237Y146.042
X1.309Y146.16
X1.383Y146.276
X1.459Y146.391
X1.538Y146.505
X1.618Y146.618
X1.7Y146.729
X1.784Y146.838
X1.87Y146.946
X1.958Y147.053
X2.048Y147.158
X2.139Y147.262
X2.232Y147.364
X2.327Y147.464
X2.424Y147.562
X2.522Y147.659
X2.622Y147.755
X2.724Y147.848
X2.827Y147.939
X2.932Y148.029
X3.038Y148.117
X3.147Y148.204
X3.255Y148.287
X3.367Y148.37
X3.479Y148.451
X3.593Y148.529
X3.708Y148.605
X3.824Y148.679
X3.942Y148.752
X4.06Y148.822
X4.181Y148.891
X4.302Y148.957
X4.425Y149.021
X4.547Y149.082
X4.673Y149.143
X4.798Y149.2
X4.924Y149.255
X5.052Y149.308
X5.181Y149.36
X5.309Y149.408
X5.44Y149.455
X5.558Y149.494
X16.693Y153.166
X16.736Y153.18
X16.779Y153.192
X16.823Y153.203
X16.856Y153.21
X16.89Y153.217
X16.924Y153.223
X16.994Y153.234
X33.123Y155.572
X33.194Y155.582
X33.262Y155.59
X33.338Y155.597
X33.407Y155.602
X33.476Y155.607
X33.547Y155.61
X33.619Y155.612
X33.689Y155.613
X33.766Y155.612
X33.832Y155.611
X33.905Y155.608
X33.976Y155.603
X34.047Y155.598
X34.122Y155.591
X34.194Y155.583
X34.261Y155.574
X34.331Y155.564
X34.407Y155.552
X34.473Y155.54
X34.543Y155.526
X34.612Y155.51
X34.687Y155.493
X34.757Y155.475
X34.825Y155.456
X34.893Y155.436
X34.961Y155.415
X35.03Y155.392
X35.093Y155.37
X35.164Y155.344
X35.231Y155.318
X35.298Y155.29
X35.362Y155.263
X35.428Y155.233
X35.493Y155.203
X35.557Y155.171
X35.62Y155.138
X35.683Y155.104
X35.745Y155.07
X35.804Y155.036
X35.869Y154.997
X35.926Y154.961
X35.988Y154.92
X36.045Y154.881
X36.104Y154.84
X36.165Y154.795
X36.221Y154.753
X36.275Y154.711
X36.334Y154.663
X36.388Y154.617
X36.439Y154.573
X36.492Y154.524
X36.544Y154.476
X36.598Y154.424
X36.65Y154.372
X36.696Y154.324
X36.745Y154.272
X36.793Y154.219
X36.842Y154.162
X36.886Y154.11
X36.931Y154.054
X36.975Y153.998
X37.021Y153.936
X37.077Y153.859
X37.137Y153.771
X37.196Y153.681
X37.252Y153.589
X37.306Y153.495
X37.356Y153.402
X37.405Y153.305
X37.451Y153.209
X37.495Y153.111
X37.536Y153.012
X37.574Y152.912
X37.61Y152.81
X37.643Y152.708
X37.673Y152.607
X37.701Y152.502
X37.726Y152.398
X37.749Y152.294
X37.763Y152.221
X37.78Y152.116
X37.795Y152.01
X37.808Y151.903
X37.817Y151.797
X37.824Y151.69
X37.828Y151.583
X37.829Y151.482
Y141.3
X37.827Y141.192
X37.821Y141.085
X37.816Y141.012
X37.806Y140.904
X37.793Y140.798
X37.778Y140.692
X37.759Y140.586
X37.738Y140.48
X37.714Y140.374
X37.688Y140.27
X37.668Y140.199
X37.637Y140.098
X37.604Y139.996
X37.567Y139.893
X37.528Y139.793
X37.486Y139.693
X37.441Y139.594
X37.395Y139.499
X37.345Y139.402
X37.294Y139.308
X37.239Y139.215
X37.182Y139.123
X37.124Y139.033
X37.062Y138.944
X36.998Y138.857
X36.933Y138.772
X36.864Y138.689
X36.812Y138.628
X36.763Y138.572
X36.716Y138.522
X36.664Y138.467
X36.613Y138.415
X36.565Y138.368
X36.513Y138.319
X36.457Y138.268
X36.406Y138.222
X36.352Y138.176
X36.296Y138.131
X36.24Y138.086
X36.182Y138.042
X36.121Y137.997
X36.063Y137.955
X36.003Y137.914
X35.944Y137.875
X35.887Y137.839
X35.825Y137.801
X35.759Y137.762
X35.701Y137.729
X35.637Y137.695
X35.574Y137.662
X35.509Y137.63
X35.445Y137.599
X35.375Y137.567
X35.313Y137.54
X35.246Y137.513
X35.177Y137.485
X35.109Y137.46
X35.045Y137.437
X34.977Y137.414
X34.904Y137.391
X34.836Y137.371
X34.771Y137.353
X34.7Y137.335
X34.631Y137.318
X34.557Y137.302
X34.487Y137.287
X34.419Y137.275
X34.349Y137.263
X34.291Y137.254
X18.786Y135.006
X18.779Y132.475
X18.777Y132.394
X18.762Y132.23
X18.745Y132.117
X18.715Y131.975
X18.696Y131.902
X18.66Y131.785
X18.637Y131.723
X18.608Y131.649
X18.559Y131.54
X18.506Y131.436
X18.428Y131.305
X18.374Y131.224
X18.315Y131.144
X18.261Y131.077
X18.211Y131.019
X18.168Y130.973
X18.114Y130.918
X18.057Y130.864
X17.99Y130.805
X17.94Y130.764
X17.878Y130.716
X17.804Y130.664
X17.726Y130.613
X17.634Y130.559
X17.569Y130.524
X17.502Y130.491
X17.43Y130.459
X17.338Y130.422
X17.261Y130.394
X17.16Y130.363
X17.101Y130.347
X17.009Y130.326
X16.926Y130.31
X16.873Y130.302
X9.785Y129.274
X9.764Y129.235
X9.745Y129.201
X9.725Y129.168
X9.705Y129.135
X9.683Y129.103
X9.661Y129.071
X9.638Y129.04
X9.615Y129.009
X9.59Y128.979
X9.565Y128.95
X9.539Y128.921
X9.513Y128.893
X9.486Y128.866
X9.458Y128.839
X9.429Y128.813
X9.4Y128.788
X9.369Y128.762
X9.339Y128.738
X9.308Y128.715
X9.277Y128.692
X9.245Y128.671
X9.212Y128.65
X9.179Y128.63
X9.146Y128.61
X9.112Y128.592
X9.077Y128.574
X9.042Y128.558
X9.007Y128.542
X8.972Y128.526
X8.936Y128.512
X8.899Y128.499
X8.863Y128.486
X8.826Y128.475
X8.789Y128.464
X8.751Y128.454
X8.714Y128.446
X8.676Y128.438
X8.638Y128.431
X8.6Y128.425
X8.562Y128.419
X8.523Y128.415
X8.485Y128.412
X8.446Y128.41
X8.407Y128.408
X8.369
X1.694
X1.655
Z-0.4F50
X1.616Y128.41F100
X1.578Y128.412
X1.539Y128.415
X1.5Y128.42
X1.461Y128.425
X1.423Y128.431
X1.384Y128.438
X1.346Y128.446
X1.308Y128.455
X1.271Y128.465
X1.233Y128.476
X1.196Y128.488
X1.159Y128.5
X1.123Y128.514
X1.086Y128.529
X1.051Y128.544
X1.015Y128.56
X0.98Y128.577
X0.946Y128.595
X0.911Y128.614
X0.878Y128.633
X0.844Y128.654
X0.812Y128.675
X0.78Y128.697
X0.748Y128.72
X0.717Y128.744
X0.687Y128.768
X0.657Y128.793
X0.627Y128.819
X0.598Y128.846
X0.57Y128.874
X0.543Y128.901
X0.516Y128.93
X0.49Y128.959
X0.465Y128.989
X0.441Y129.02
X0.417Y129.051
X0.394Y129.082
X0.372Y129.114
X0.351Y129.147
X0.33Y129.18
X0.311Y129.214
X0.292Y129.248
X0.274Y129.283
X0.257Y129.318
X0.24Y129.353
X0.225Y129.389
X0.21Y129.425
X0.197Y129.462
X0.184Y129.499
X0.172Y129.536
X0.161Y129.573
X0.151Y129.611
X0.142Y129.649
X0.134Y129.687
X0.127Y129.726
X0.121Y129.764
X0.115Y129.803
X0.111Y129.842
X0.108Y129.88
X0.105Y129.919
X0.104Y129.958
X0.103Y129.999
Y141.967
X0.105Y142.105
X0.109Y142.243
X0.115Y142.381
X0.124Y142.519
X0.135Y142.656
X0.148Y142.794
X0.164Y142.931
X0.182Y143.068
X0.203Y143.205
X0.226Y143.341
X0.251Y143.476
X0.279Y143.611
X0.309Y143.746
X0.341Y143.881
X0.376Y144.014
X0.413Y144.148
X0.452Y144.28
X0.494Y144.412
X0.538Y144.543
X0.584Y144.673
X0.632Y144.802
X0.683Y144.931
X0.736Y145.058
X0.791Y145.185
X0.848Y145.311
X0.908Y145.435
X0.969Y145.559
X1.033Y145.681
X1.099Y145.803
X1.167Y145.923
X1.237Y146.042
X1.309Y146.16
X1.383Y146.276
X1.459Y146.391
X1.538Y146.505
X1.618Y146.618
X1.7Y146.729
X1.784Y146.838
X1.87Y146.946
X1.958Y147.053
X2.048Y147.158
X2.139Y147.262
X2.232Y147.364
X2.327Y147.464
X2.424Y147.562
X2.522Y147.659
X2.622Y147.755
X2.724Y147.848
X2.827Y147.939
X2.932Y148.029
X3.038Y148.117
X3.147Y148.204
X3.255Y148.287
X3.367Y148.37
X3.479Y148.451
X3.593Y148.529
X3.708Y148.605
X3.824Y148.679
X3.942Y148.752
X4.06Y148.822
X4.181Y148.891
X4.302Y148.957
X4.425Y149.021
X4.547Y149.082
X4.673Y149.143
X4.798Y149.2
X4.924Y149.255
X5.052Y149.308
X5.181Y149.36
X5.309Y149.408
X5.44Y149.455
X5.558Y149.494
X16.693Y153.166
X16.736Y153.18
X16.779Y153.192
X16.823Y153.203
X16.856Y153.21
X16.89Y153.217
X16.924Y153.223
X16.994Y153.234
X33.123Y155.572
X33.194Y155.582
X33.262Y155.59
X33.338Y155.597
X33.407Y155.602
X33.476Y155.607
X33.547Y155.61
X33.619Y155.612
X33.689Y155.613
X33.766Y155.612
X33.832Y155.611
X33.905Y155.608
X33.976Y155.603
X34.047Y155.598
X34.122Y155.591
X34.194Y155.583
X34.261Y155.574
X34.331Y155.564
X34.407Y155.552
X34.473Y155.54
X34.543Y155.526
X34.612Y155.51
X34.687Y155.493
X34.757Y155.475
X34.825Y155.456
X34.893Y155.436
X34.961Y155.415
X35.03Y155.392
X35.093Y155.37
X35.164Y155.344
X35.231Y155.318
X35.298Y155.29
X35.362Y155.263
X35.428Y155.233
X35.493Y155.203
X35.557Y155.171
X35.62Y155.138
X35.683Y155.104
X35.745Y155.07
X35.804Y155.036
X35.869Y154.997
X35.926Y154.961
X35.988Y154.92
X36.045Y154.881
X36.104Y154.84
X36.165Y154.795
X36.221Y154.753
X36.275Y154.711
X36.334Y154.663
X36.388Y154.617
X36.439Y154.573
X36.492Y154.524
X36.544Y154.476
X36.598Y154.424
X36.65Y154.372
X36.696Y154.324
X36.745Y154.272
X36.793Y154.219
X36.842Y154.162
X36.886Y154.11
X36.931Y154.054
X36.975Y153.998
X37.021Y153.936
X37.077Y153.859
X37.137Y153.771
X37.196Y153.681
X37.252Y153.589
X37.306Y153.495
X37.356Y153.402
X37.405Y153.305
X37.451Y153.209
X37.495Y153.111
X37.536Y153.012
X37.574Y152.912
X37.61Y152.81
X37.643Y152.708
X37.673Y152.607
X37.701Y152.502
X37.726Y152.398
X37.749Y152.294
X37.763Y152.221
X37.78Y152.116
X37.795Y152.01
X37.808Y151.903
X37.817Y151.797
X37.824Y151.69
X37.828Y151.583
X37.829Y151.482
Y141.3
X37.827Y141.192
X37.821Y141.085
X37.816Y141.012
X37.806Y140.904
X37.793Y140.798
X37.778Y140.692
X37.759Y140.586
X37.738Y140.48
X37.714Y140.374
X37.688Y140.27
X37.668Y140.199
X37.637Y140.098
X37.604Y139.996
X37.567Y139.893
X37.528Y139.793
X37.486Y139.693
X37.441Y139.594
X37.395Y139.499
X37.345Y139.402
X37.294Y139.308
X37.239Y139.215
X37.182Y139.123
X37.124Y139.033
X37.062Y138.944
X36.998Y138.857
X36.933Y138.772
X36.864Y138.689
X36.812Y138.628
X36.763Y138.572
X36.716Y138.522
X36.664Y138.467
X36.613Y138.415
X36.565Y138.368
X36.513Y138.319
X36.457Y138.268
X36.406Y138.222
X36.352Y138.176
X36.296Y138.131
X36.24Y138.086
X36.182Y138.042
X36.121Y137.997
X36.063Y137.955
X36.003Y137.914
X35.944Y137.875
X35.887Y137.839
X35.825Y137.801
X35.759Y137.762
X35.701Y137.729
X35.637Y137.695
X35.574Y137.662
X35.509Y137.63
X35.445Y137.599
X35.375Y137.567
X35.313Y137.54
X35.246Y137.513
X35.177Y137.485
X35.109Y137.46
X35.045Y137.437
X34.977Y137.414
X34.904Y137.391
X34.836Y137.371
X34.771Y137.353
X34.7Y137.335
X34.631Y137.318
X34.557Y137.302
X34.487Y137.287
X34.419Y137.275
X34.349Y137.263
X34.291Y137.254
X18.786Y135.006
X18.779Y132.475
X18.777Y132.394
X18.762Y132.23
X18.745Y132.117
X18.715Y131.975
X18.696Y131.902
X18.66Y131.785
X18.637Y131.723
X18.608Y131.649
X18.559Y131.54
X18.506Y131.436
X18.428Y131.305
X18.374Y131.224
X18.315Y131.144
X18.261Y131.077
X18.211Y131.019
X18.168Y130.973
X18.114Y130.918
X18.057Y130.864
X17.99Y130.805
X17.94Y130.764
X17.878Y130.716
X17.804Y130.664
X17.726Y130.613
X17.634Y130.559
X17.569Y130.524
X17.502Y130.491
X17.43Y130.459
X17.338Y130.422
X17.261Y130.394
X17.16Y130.363
X17.101Y130.347
X17.009Y130.326
X16.926Y130.31
X16.873Y130.302
X9.785Y129.274
X9.764Y129.235
X9.745Y129.201
X9.725Y129.168
X9.705Y129.135
X9.683Y129.103
X9.661Y129.071
X9.638Y129.04
X9.615Y129.009
X9.59Y128.979
X9.565Y128.95
X9.539Y128.921
X9.513Y128.893
X9.486Y128.866
X9.458Y128.839
X9.429Y128.813
X9.4Y128.788
X9.369Y128.762
X9.339Y128.738
X9.308Y128.715
X9.277Y128.692
X9.245Y128.671
X9.212Y128.65
X9.179Y128.63
X9.146Y128.61
X9.112Y128.592
X9.077Y128.574
X9.042Y128.558
X9.007Y128.542
X8.972Y128.526
X8.936Y128.512
X8.899Y128.499
X8.863Y128.486
X8.826Y128.475
X8.789Y128.464
X8.751Y128.454
X8.714Y128.446
X8.676Y128.438
X8.638Y128.431
X8.6Y128.425
X8.562Y128.419
X8.523Y128.415
X8.485Y128.412
X8.446Y128.41
X8.407Y128.408
X8.369
X1.694
X1.655
Z-0.45F50
X1.616Y128.41F100
X1.578Y128.412
X1.539Y128.415
X1.5Y128.42
X1.461Y128.425
X1.423Y128.431
X1.384Y128.438
X1.346Y128.446
X1.308Y128.455
X1.271Y128.465
X1.233Y128.476
X1.196Y128.488
X1.159Y128.5
X1.123Y128.514
X1.086Y128.529
X1.051Y128.544
X1.015Y128.56
X0.98Y128.577
X0.946Y128.595
X0.911Y128.614
X0.878Y128.633
X0.844Y128.654
X0.812Y128.675
X0.78Y128.697
X0.748Y128.72
X0.717Y128.744
X0.687Y128.768
X0.657Y128.793
X0.627Y128.819
X0.598Y128.846
X0.57Y128.874
X0.543Y128.901
X0.516Y128.93
X0.49Y128.959
X0.465Y128.989
X0.441Y129.02
X0.417Y129.051
X0.394Y129.082
X0.372Y129.114
X0.351Y129.147
X0.33Y129.18
X0.311Y129.214
X0.292Y129.248
X0.274Y129.283
X0.257Y129.318
X0.24Y129.353
X0.225Y129.389
X0.21Y129.425
X0.197Y129.462
X0.184Y129.499
X0.172Y129.536
X0.161Y129.573
X0.151Y129.611
X0.142Y129.649
X0.134Y129.687
X0.127Y129.726
X0.121Y129.764
X0.115Y129.803
X0.111Y129.842
X0.108Y129.88
X0.105Y129.919
X0.104Y129.958
X0.103Y129.999
Y141.967
X0.105Y142.105
X0.109Y142.243
X0.115Y142.381
X0.124Y142.519
X0.135Y142.656
X0.148Y142.794
X0.164Y142.931
X0.182Y143.068
X0.203Y143.205
X0.226Y143.341
X0.251Y143.476
X0.279Y143.611
X0.309Y143.746
X0.341Y143.881
X0.376Y144.014
X0.413Y144.148
X0.452Y144.28
X0.494Y144.412
X0.538Y144.543
X0.584Y144.673
X0.632Y144.802
X0.683Y144.931
X0.736Y145.058
X0.791Y145.185
X0.848Y145.311
X0.908Y145.435
X0.969Y145.559
X1.033Y145.681
X1.099Y145.803
X1.167Y145.923
X1.237Y146.042
X1.309Y146.16
X1.383Y146.276
X1.459Y146.391
X1.538Y146.505
X1.618Y146.618
X1.7Y146.729
X1.784Y146.838
X1.87Y146.946
X1.958Y147.053
X2.048Y147.158
X2.139Y147.262
X2.232Y147.364
X2.327Y147.464
X2.424Y147.562
X2.522Y147.659
X2.622Y147.755
X2.724Y147.848
X2.827Y147.939
X2.932Y148.029
X3.038Y148.117
X3.147Y148.204
X3.255Y148.287
X3.367Y148.37
X3.479Y148.451
X3.593Y148.529
X3.708Y148.605
X3.824Y148.679
X3.942Y148.752
X4.06Y148.822
X4.181Y148.891
X4.302Y148.957
X4.425Y149.021
X4.547Y149.082
X4.673Y149.143
X4.798Y149.2
X4.924Y149.255
X5.052Y149.308
X5.181Y149.36
X5.309Y149.408
X5.44Y149.455
X5.558Y149.494
X16.693Y153.166
X16.736Y153.18
X16.779Y153.192
X16.823Y153.203
X16.856Y153.21
X16.89Y153.217
X16.924Y153.223
X16.994Y153.234
X33.123Y155.572
X33.194Y155.582
X33.262Y155.59
X33.338Y155.597
X33.407Y155.602
X33.476Y155.607
X33.547Y155.61
X33.619Y155.612
X33.689Y155.613
X33.766Y155.612
X33.832Y155.611
X33.905Y155.608
X33.976Y155.603
X34.047Y155.598
X34.122Y155.591
X34.194Y155.583
X34.261Y155.574
X34.331Y155.564
X34.407Y155.552
X34.473Y155.54
X34.543Y155.526
X34.612Y155.51
X34.687Y155.493
X34.757Y155.475
X34.825Y155.456
X34.893Y155.436
X34.961Y155.415
X35.03Y155.392
X35.093Y155.37
X35.164Y155.344
X35.231Y155.318
X35.298Y155.29
X35.362Y155.263
X35.428Y155.233
X35.493Y155.203
X35.557Y155.171
X35.62Y155.138
X35.683Y155.104
X35.745Y155.07
X35.804Y155.036
X35.869Y154.997
X35.926Y154.961
X35.988Y154.92
X36.045Y154.881
X36.104Y154.84
X36.165Y154.795
X36.221Y154.753
X36.275Y154.711
X36.334Y154.663
X36.388Y154.617
X36.439Y154.573
X36.492Y154.524
X36.544Y154.476
X36.598Y154.424
X36.65Y154.372
X36.696Y154.324
X36.745Y154.272
X36.793Y154.219
X36.842Y154.162
X36.886Y154.11
X36.931Y154.054
X36.975Y153.998
X37.021Y153.936
X37.077Y153.859
X37.137Y153.771
X37.196Y153.681
X37.252Y153.589
X37.306Y153.495
X37.356Y153.402
X37.405Y153.305
X37.451Y153.209
X37.495Y153.111
X37.536Y153.012
X37.574Y152.912
X37.61Y152.81
X37.643Y152.708
X37.673Y152.607
X37.701Y152.502
X37.726Y152.398
X37.749Y152.294
X37.763Y152.221
X37.78Y152.116
X37.795Y152.01
X37.808Y151.903
X37.817Y151.797
X37.824Y151.69
X37.828Y151.583
X37.829Y151.482
Y141.3
X37.827Y141.192
X37.821Y141.085
X37.816Y141.012
X37.806Y140.904
X37.793Y140.798
X37.778Y140.692
X37.759Y140.586
X37.738Y140.48
X37.714Y140.374
X37.688Y140.27
X37.668Y140.199
X37.637Y140.098
X37.604Y139.996
X37.567Y139.893
X37.528Y139.793
X37.486Y139.693
X37.441Y139.594
X37.395Y139.499
X37.345Y139.402
X37.294Y139.308
X37.239Y139.215
X37.182Y139.123
X37.124Y139.033
X37.062Y138.944
X36.998Y138.857
X36.933Y138.772
X36.864Y138.689
X36.812Y138.628
X36.763Y138.572
X36.716Y138.522
X36.664Y138.467
X36.613Y138.415
X36.565Y138.368
X36.513Y138.319
X36.457Y138.268
X36.406Y138.222
X36.352Y138.176
X36.296Y138.131
X36.24Y138.086
X36.182Y138.042
X36.121Y137.997
X36.063Y137.955
X36.003Y137.914
X35.944Y137.875
X35.887Y137.839
X35.825Y137.801
X35.759Y137.762
X35.701Y137.729
X35.637Y137.695
X35.574Y137.662
X35.509Y137.63
X35.445Y137.599
X35.375Y137.567
X35.313Y137.54
X35.246Y137.513
X35.177Y137.485
X35.109Y137.46
X35.045Y137.437
X34.977Y137.414
X34.904Y137.391
X34.836Y137.371
X34.771Y137.353
X34.7Y137.335
X34.631Y137.318
X34.557Y137.302
X34.487Y137.287
X34.419Y137.275
X34.349Y137.263
X34.291Y137.254
X18.786Y135.006
X18.779Y132.475
X18.777Y132.394
X18.762Y132.23
X18.745Y132.117
X18.715Y131.975
X18.696Y131.902
X18.66Y131.785
X18.637Y131.723
X18.608Y131.649
X18.559Y131.54
X18.506Y131.436
X18.428Y131.305
X18.374Y131.224
X18.315Y131.144
X18.261Y131.077
X18.211Y131.019
X18.168Y130.973
X18.114Y130.918
X18.057Y130.864
X17.99Y130.805
X17.94Y130.764
X17.878Y130.716
X17.804Y130.664
X17.726Y130.613
X17.634Y130.559
X17.569Y130.524
X17.502Y130.491
X17.43Y130.459
X17.338Y130.422
X17.261Y130.394
X17.16Y130.363
X17.101Y130.347
X17.009Y130.326
X16.926Y130.31
X16.873Y130.302
X9.785Y129.274
X9.764Y129.235
X9.745Y129.201
X9.725Y129.168
X9.705Y129.135
X9.683Y129.103
X9.661Y129.071
X9.638Y129.04
X9.615Y129.009
X9.59Y128.979
X9.565Y128.95
X9.539Y128.921
X9.513Y128.893
X9.486Y128.866
X9.458Y128.839
X9.429Y128.813
X9.4Y128.788
X9.369Y128.762
X9.339Y128.738
X9.308Y128.715
X9.277Y128.692
X9.245Y128.671
X9.212Y128.65
X9.179Y128.63
X9.146Y128.61
X9.112Y128.592
X9.077Y128.574
X9.042Y128.558
X9.007Y128.542
X8.972Y128.526
X8.936Y128.512
X8.899Y128.499
X8.863Y128.486
X8.826Y128.475
X8.789Y128.464
X8.751Y128.454
X8.714Y128.446
X8.676Y128.438
X8.638Y128.431
X8.6Y128.425
X8.562Y128.419
X8.523Y128.415
X8.485Y128.412
X8.446Y128.41
X8.407Y128.408
X8.369
X1.694
X1.655
Z-0.5F50
X1.616Y128.41F100
X1.578Y128.412
X1.539Y128.415
X1.5Y128.42
X1.461Y128.425
X1.423Y128.431
X1.384Y128.438
X1.346Y128.446
X1.308Y128.455
X1.271Y128.465
X1.233Y128.476
X1.196Y128.488
X1.159Y128.5
X1.123Y128.514
X1.086Y128.529
X1.051Y128.544
X1.015Y128.56
X0.98Y128.577
X0.946Y128.595
X0.911Y128.614
X0.878Y128.633
X0.844Y128.654
X0.812Y128.675
X0.78Y128.697
X0.748Y128.72
X0.717Y128.744
X0.687Y128.768
X0.657Y128.793
X0.627Y128.819
X0.598Y128.846
X0.57Y128.874
X0.543Y128.901
X0.516Y128.93
X0.49Y128.959
X0.465Y128.989
X0.441Y129.02
X0.417Y129.051
X0.394Y129.082
X0.372Y129.114
X0.351Y129.147
X0.33Y129.18
X0.311Y129.214
X0.292Y129.248
X0.274Y129.283
X0.257Y129.318
X0.24Y129.353
X0.225Y129.389
X0.21Y129.425
X0.197Y129.462
X0.184Y129.499
X0.172Y129.536
X0.161Y129.573
X0.151Y129.611
X0.142Y129.649
X0.134Y129.687
X0.127Y129.726
X0.121Y129.764
X0.115Y129.803
X0.111Y129.842
X0.108Y129.88
X0.105Y129.919
X0.104Y129.958
X0.103Y129.999
Y141.967
X0.105Y142.105
X0.109Y142.243
X0.115Y142.381
X0.124Y142.519
X0.135Y142.656
X0.148Y142.794
X0.164Y142.931
X0.182Y143.068
X0.203Y143.205
X0.226Y143.341
X0.251Y143.476
X0.279Y143.611
X0.309Y143.746
X0.341Y143.881
X0.376Y144.014
X0.413Y144.148
X0.452Y144.28
X0.494Y144.412
X0.538Y144.543
X0.584Y144.673
X0.632Y144.802
X0.683Y144.931
X0.736Y145.058
X0.791Y145.185
X0.848Y145.311
X0.908Y145.435
X0.969Y145.559
X1.033Y145.681
X1.099Y145.803
X1.167Y145.923
X1.237Y146.042
X1.309Y146.16
X1.383Y146.276
X1.459Y146.391
X1.538Y146.505
X1.618Y146.618
X1.7Y146.729
X1.784Y146.838
X1.87Y146.946
X1.958Y147.053
X2.048Y147.158
X2.139Y147.262
X2.232Y147.364
X2.327Y147.464
X2.424Y147.562
X2.522Y147.659
X2.622Y147.755
X2.724Y147.848
X2.827Y147.939
X2.932Y148.029
X3.038Y148.117
X3.147Y148.204
X3.255Y148.287
X3.367Y148.37
X3.479Y148.451
X3.593Y148.529
X3.708Y148.605
X3.824Y148.679
X3.942Y148.752
X4.06Y148.822
X4.181Y148.891
X4.302Y148.957
X4.425Y149.021
X4.547Y149.082
X4.673Y149.143
X4.798Y149.2
X4.924Y149.255
X5.052Y149.308
X5.181Y149.36
X5.309Y149.408
X5.44Y149.455
X5.558Y149.494
X16.693Y153.166
X16.736Y153.18
X16.779Y153.192
X16.823Y153.203
X16.856Y153.21
X16.89Y153.217
X16.924Y153.223
X16.994Y153.234
X33.123Y155.572
X33.194Y155.582
X33.262Y155.59
X33.338Y155.597
X33.407Y155.602
X33.476Y155.607
X33.547Y155.61
X33.619Y155.612
X33.689Y155.613
X33.766Y155.612
X33.832Y155.611
X33.905Y155.608
X33.976Y155.603
X34.047Y155.598
X34.122Y155.591
X34.194Y155.583
X34.261Y155.574
X34.331Y155.564
X34.407Y155.552
X34.473Y155.54
X34.543Y155.526
X34.612Y155.51
X34.687Y155.493
X34.757Y155.475
X34.825Y155.456
X34.893Y155.436
X34.961Y155.415
X35.03Y155.392
X35.093Y155.37
X35.164Y155.344
X35.231Y155.318
X35.298Y155.29
X35.362Y155.263
X35.428Y155.233
X35.493Y155.203
X35.557Y155.171
X35.62Y155.138
X35.683Y155.104
X35.745Y155.07
X35.804Y155.036
X35.869Y154.997
X35.926Y154.961
X35.988Y154.92
X36.045Y154.881
X36.104Y154.84
X36.165Y154.795
X36.221Y154.753
X36.275Y154.711
X36.334Y154.663
X36.388Y154.617
X36.439Y154.573
X36.492Y154.524
X36.544Y154.476
X36.598Y154.424
X36.65Y154.372
X36.696Y154.324
X36.745Y154.272
X36.793Y154.219
X36.842Y154.162
X36.886Y154.11
X36.931Y154.054
X36.975Y153.998
X37.021Y153.936
X37.077Y153.859
X37.137Y153.771
X37.196Y153.681
X37.252Y153.589
X37.306Y153.495
X37.356Y153.402
X37.405Y153.305
X37.451Y153.209
X37.495Y153.111
X37.536Y153.012
X37.574Y152.912
X37.61Y152.81
X37.643Y152.708
X37.673Y152.607
X37.701Y152.502
X37.726Y152.398
X37.749Y152.294
X37.763Y152.221
X37.78Y152.116
X37.795Y152.01
X37.808Y151.903
X37.817Y151.797
X37.824Y151.69
X37.828Y151.583
X37.829Y151.482
Y141.3
X37.827Y141.192
X37.821Y141.085
X37.816Y141.012
X37.806Y140.904
X37.793Y140.798
X37.778Y140.692
X37.759Y140.586
X37.738Y140.48
X37.714Y140.374
X37.688Y140.27
X37.668Y140.199
X37.637Y140.098
X37.604Y139.996
X37.567Y139.893
X37.528Y139.793
X37.486Y139.693
X37.441Y139.594
X37.395Y139.499
X37.345Y139.402
X37.294Y139.308
X37.239Y139.215
X37.182Y139.123
X37.124Y139.033
X37.062Y138.944
X36.998Y138.857
X36.933Y138.772
X36.864Y138.689
X36.812Y138.628
X36.763Y138.572
X36.716Y138.522
X36.664Y138.467
X36.613Y138.415
X36.565Y138.368
X36.513Y138.319
X36.457Y138.268
X36.406Y138.222
X36.352Y138.176
X36.296Y138.131
X36.24Y138.086
X36.182Y138.042
X36.121Y137.997
X36.063Y137.955
X36.003Y137.914
X35.944Y137.875
X35.887Y137.839
X35.825Y137.801
X35.759Y137.762
X35.701Y137.729
X35.637Y137.695
X35.574Y137.662
X35.509Y137.63
X35.445Y137.599
X35.375Y137.567
X35.313Y137.54
X35.246Y137.513
X35.177Y137.485
X35.109Y137.46
X35.045Y137.437
X34.977Y137.414
X34.904Y137.391
X34.836Y137.371
X34.771Y137.353
X34.7Y137.335
X34.631Y137.318
X34.557Y137.302
X34.487Y137.287
X34.419Y137.275
X34.349Y137.263
X34.291Y137.254
X18.786Y135.006
X18.779Y132.475
X18.777Y132.394
X18.762Y132.23
X18.745Y132.117
X18.715Y131.975
X18.696Y131.902
X18.66Y131.785
X18.637Y131.723
X18.608Y131.649
X18.559Y131.54
X18.506Y131.436
X18.428Y131.305
X18.374Y131.224
X18.315Y131.144
X18.261Y131.077
X18.211Y131.019
X18.168Y130.973
X18.114Y130.918
X18.057Y130.864
X17.99Y130.805
X17.94Y130.764
X17.878Y130.716
X17.804Y130.664
X17.726Y130.613
X17.634Y130.559
X17.569Y130.524
X17.502Y130.491
X17.43Y130.459
X17.338Y130.422
X17.261Y130.394
X17.16Y130.363
X17.101Y130.347
X17.009Y130.326
X16.926Y130.31
X16.873Y130.302
X9.785Y129.274
X9.764Y129.235
X9.745Y129.201
X9.725Y129.168
X9.705Y129.135
X9.683Y129.103
X9.661Y129.071
X9.638Y129.04
X9.615Y129.009
X9.59Y128.979
X9.565Y128.95
X9.539Y128.921
X9.513Y128.893
X9.486Y128.866
X9.458Y128.839
X9.429Y128.813
X9.4Y128.788
X9.369Y128.762
X9.339Y128.738
X9.308Y128.715
X9.277Y128.692
X9.245Y128.671
X9.212Y128.65
X9.179Y128.63
X9.146Y128.61
X9.112Y128.592
X9.077Y128.574
X9.042Y128.558
X9.007Y128.542
X8.972Y128.526
X8.936Y128.512
X8.899Y128.499
X8.863Y128.486
X8.826Y128.475
X8.789Y128.464
X8.751Y128.454
X8.714Y128.446
X8.676Y128.438
X8.638Y128.431
X8.6Y128.425
X8.562Y128.419
X8.523Y128.415
X8.485Y128.412
X8.446Y128.41
X8.407Y128.408
X8.369
X1.694
X1.655
Z-0.55F50
X1.616Y128.41F100
X1.578Y128.412
X1.539Y128.415
X1.5Y128.42
X1.461Y128.425
X1.423Y128.431
X1.384Y128.438
X1.346Y128.446
X1.308Y128.455
X1.271Y128.465
X1.233Y128.476
X1.196Y128.488
X1.159Y128.5
X1.123Y128.514
X1.086Y128.529
X1.051Y128.544
X1.015Y128.56
X0.98Y128.577
X0.946Y128.595
X0.911Y128.614
X0.878Y128.633
X0.844Y128.654
X0.812Y128.675
X0.78Y128.697
X0.748Y128.72
X0.717Y128.744
X0.687Y128.768
X0.657Y128.793
X0.627Y128.819
X0.598Y128.846
X0.57Y128.874
X0.543Y128.901
X0.516Y128.93
X0.49Y128.959
X0.465Y128.989
X0.441Y129.02
X0.417Y129.051
X0.394Y129.082
X0.372Y129.114
X0.351Y129.147
X0.33Y129.18
X0.311Y129.214
X0.292Y129.248
X0.274Y129.283
X0.257Y129.318
X0.24Y129.353
X0.225Y129.389
X0.21Y129.425
X0.197Y129.462
X0.184Y129.499
X0.172Y129.536
X0.161Y129.573
X0.151Y129.611
X0.142Y129.649
X0.134Y129.687
X0.127Y129.726
X0.121Y129.764
X0.115Y129.803
X0.111Y129.842
X0.108Y129.88
X0.105Y129.919
X0.104Y129.958
X0.103Y129.999
Y141.967
X0.105Y142.105
X0.109Y142.243
X0.115Y142.381
X0.124Y142.519
X0.135Y142.656
X0.148Y142.794
X0.164Y142.931
X0.182Y143.068
X0.203Y143.205
X0.226Y143.341
X0.251Y143.476
X0.279Y143.611
X0.309Y143.746
X0.341Y143.881
X0.376Y144.014
X0.413Y144.148
X0.452Y144.28
X0.494Y144.412
X0.538Y144.543
X0.584Y144.673
X0.632Y144.802
X0.683Y144.931
X0.736Y145.058
X0.791Y145.185
X0.848Y145.311
X0.908Y145.435
X0.969Y145.559
X1.033Y145.681
X1.099Y145.803
X1.167Y145.923
X1.237Y146.042
X1.309Y146.16
X1.383Y146.276
X1.459Y146.391
X1.538Y146.505
X1.618Y146.618
X1.7Y146.729
X1.784Y146.838
X1.87Y146.946
X1.958Y147.053
X2.048Y147.158
X2.139Y147.262
X2.232Y147.364
X2.327Y147.464
X2.424Y147.562
X2.522Y147.659
X2.622Y147.755
X2.724Y147.848
X2.827Y147.939
X2.932Y148.029
X3.038Y148.117
X3.147Y148.204
X3.255Y148.287
X3.367Y148.37
X3.479Y148.451
X3.593Y148.529
X3.708Y148.605
X3.824Y148.679
X3.942Y148.752
X4.06Y148.822
X4.181Y148.891
X4.302Y148.957
X4.425Y149.021
X4.547Y149.082
X4.673Y149.143
X4.798Y149.2
X4.924Y149.255
X5.052Y149.308
X5.181Y149.36
X5.309Y149.408
X5.44Y149.455
X5.558Y149.494
X16.693Y153.166
X16.736Y153.18
X16.779Y153.192
X16.823Y153.203
X16.856Y153.21
X16.89Y153.217
X16.924Y153.223
X16.994Y153.234
X33.123Y155.572
X33.194Y155.582
X33.262Y155.59
X33.338Y155.597
X33.407Y155.602
X33.476Y155.607
X33.547Y155.61
X33.619Y155.612
X33.689Y155.613
X33.766Y155.612
X33.832Y155.611
X33.905Y155.608
X33.976Y155.603
X34.047Y155.598
X34.122Y155.591
X34.194Y155.583
X34.261Y155.574
X34.331Y155.564
X34.407Y155.552
X34.473Y155.54
X34.543Y155.526
X34.612Y155.51
X34.687Y155.493
X34.757Y155.475
X34.825Y155.456
X34.893Y155.436
X34.961Y155.415
X35.03Y155.392
X35.093Y155.37
X35.164Y155.344
X35.231Y155.318
X35.298Y155.29
X35.362Y155.263
X35.428Y155.233
X35.493Y155.203
X35.557Y155.171
X35.62Y155.138
X35.683Y155.104
X35.745Y155.07
X35.804Y155.036
X35.869Y154.997
X35.926Y154.961
X35.988Y154.92
X36.045Y154.881
X36.104Y154.84
X36.165Y154.795
X36.221Y154.753
X36.275Y154.711
X36.334Y154.663
X36.388Y154.617
X36.439Y154.573
X36.492Y154.524
X36.544Y154.476
X36.598Y154.424
X36.65Y154.372
X36.696Y154.324
X36.745Y154.272
X36.793Y154.219
X36.842Y154.162
X36.886Y154.11
X36.931Y154.054
X36.975Y153.998
X37.021Y153.936
X37.077Y153.859
X37.137Y153.771
X37.196Y153.681
X37.252Y153.589
X37.306Y153.495
X37.356Y153.402
X37.405Y153.305
X37.451Y153.209
X37.495Y153.111
X37.536Y153.012
X37.574Y152.912
X37.61Y152.81
X37.643Y152.708
X37.673Y152.607
X37.701Y152.502
X37.726Y152.398
X37.749Y152.294
X37.763Y152.221
X37.78Y152.116
X37.795Y152.01
X37.808Y151.903
X37.817Y151.797
X37.824Y151.69
X37.828Y151.583
X37.829Y151.482
Y141.3
X37.827Y141.192
X37.821Y141.085
X37.816Y141.012
X37.806Y140.904
X37.793Y140.798
X37.778Y140.692
X37.759Y140.586
X37.738Y140.48
X37.714Y140.374
X37.688Y140.27
X37.668Y140.199
X37.637Y140.098
X37.604Y139.996
X37.567Y139.893
X37.528Y139.793
X37.486Y139.693
X37.441Y139.594
X37.395Y139.499
X37.345Y139.402
X37.294Y139.308
X37.239Y139.215
X37.182Y139.123
X37.124Y139.033
X37.062Y138.944
X36.998Y138.857
X36.933Y138.772
X36.864Y138.689
X36.812Y138.628
X36.763Y138.572
X36.716Y138.522
X36.664Y138.467
X36.613Y138.415
X36.565Y138.368
X36.513Y138.319
X36.457Y138.268
X36.406Y138.222
X36.352Y138.176
X36.296Y138.131
X36.24Y138.086
X36.182Y138.042
X36.121Y137.997
X36.063Y137.955
X36.003Y137.914
X35.944Y137.875
X35.887Y137.839
X35.825Y137.801
X35.759Y137.762
X35.701Y137.729
X35.637Y137.695
X35.574Y137.662
X35.509Y137.63
X35.445Y137.599
X35.375Y137.567
X35.313Y137.54
X35.246Y137.513
X35.177Y137.485
X35.109Y137.46
X35.045Y137.437
X34.977Y137.414
X34.904Y137.391
X34.836Y137.371
X34.771Y137.353
X34.7Y137.335
X34.631Y137.318
X34.557Y137.302
X34.487Y137.287
X34.419Y137.275
X34.349Y137.263
X34.291Y137.254
X18.786Y135.006
X18.779Y132.475
X18.777Y132.394
X18.762Y132.23
X18.745Y132.117
X18.715Y131.975
X18.696Y131.902
X18.66Y131.785
X18.637Y131.723
X18.608Y131.649
X18.559Y131.54
X18.506Y131.436
X18.428Y131.305
X18.374Y131.224
X18.315Y131.144
X18.261Y131.077
X18.211Y131.019
X18.168Y130.973
X18.114Y130.918
X18.057Y130.864
X17.99Y130.805
X17.94Y130.764
X17.878Y130.716
X17.804Y130.664
X17.726Y130.613
X17.634Y130.559
X17.569Y130.524
X17.502Y130.491
X17.43Y130.459
X17.338Y130.422
X17.261Y130.394
X17.16Y130.363
X17.101Y130.347
X17.009Y130.326
X16.926Y130.31
X16.873Y130.302
X9.785Y129.274
X9.764Y129.235
X9.745Y129.201
X9.725Y129.168
X9.705Y129.135
X9.683Y129.103
X9.661Y129.071
X9.638Y129.04
X9.615Y129.009
X9.59Y128.979
X9.565Y128.95
X9.539Y128.921
X9.513Y128.893
X9.486Y128.866
X9.458Y128.839
X9.429Y128.813
X9.4Y128.788
X9.369Y128.762
X9.339Y128.738
X9.308Y128.715
X9.277Y128.692
X9.245Y128.671
X9.212Y128.65
X9.179Y128.63
X9.146Y128.61
X9.112Y128.592
X9.077Y128.574
X9.042Y128.558
X9.007Y128.542
X8.972Y128.526
X8.936Y128.512
X8.899Y128.499
X8.863Y128.486
X8.826Y128.475
X8.789Y128.464
X8.751Y128.454
X8.714Y128.446
X8.676Y128.438
X8.638Y128.431
X8.6Y128.425
X8.562Y128.419
X8.523Y128.415
X8.485Y128.412
X8.446Y128.41
X8.407Y128.408
X8.369
X1.694
X1.655
Z-0.6F50
X1.616Y128.41F100
X1.578Y128.412
X1.539Y128.415
X1.5Y128.42
X1.461Y128.425
X1.423Y128.431
X1.384Y128.438
X1.346Y128.446
X1.308Y128.455
X1.271Y128.465
X1.233Y128.476
X1.196Y128.488
X1.159Y128.5
X1.123Y128.514
X1.086Y128.529
X1.051Y128.544
X1.015Y128.56
X0.98Y128.577
X0.946Y128.595
X0.911Y128.614
X0.878Y128.633
X0.844Y128.654
X0.812Y128.675
X0.78Y128.697
X0.748Y128.72
X0.717Y128.744
X0.687Y128.768
X0.657Y128.793
X0.627Y128.819
X0.598Y128.846
X0.57Y128.874
X0.543Y128.901
X0.516Y128.93
X0.49Y128.959
X0.465Y128.989
X0.441Y129.02
X0.417Y129.051
X0.394Y129.082
X0.372Y129.114
X0.351Y129.147
X0.33Y129.18
X0.311Y129.214
X0.292Y129.248
X0.274Y129.283
X0.257Y129.318
X0.24Y129.353
X0.225Y129.389
X0.21Y129.425
X0.197Y129.462
X0.184Y129.499
X0.172Y129.536
X0.161Y129.573
X0.151Y129.611
X0.142Y129.649
X0.134Y129.687
X0.127Y129.726
X0.121Y129.764
X0.115Y129.803
X0.111Y129.842
X0.108Y129.88
X0.105Y129.919
X0.104Y129.958
X0.103Y129.999
Y141.967
X0.105Y142.105
X0.109Y142.243
X0.115Y142.381
X0.124Y142.519
X0.135Y142.656
X0.148Y142.794
X0.164Y142.931
X0.182Y143.068
X0.203Y143.205
X0.226Y143.341
X0.251Y143.476
X0.279Y143.611
X0.309Y143.746
X0.341Y143.881
X0.376Y144.014
X0.413Y144.148
X0.452Y144.28
X0.494Y144.412
X0.538Y144.543
X0.584Y144.673
X0.632Y144.802
X0.683Y144.931
X0.736Y145.058
X0.791Y145.185
X0.848Y145.311
X0.908Y145.435
X0.969Y145.559
X1.033Y145.681
X1.099Y145.803
X1.167Y145.923
X1.237Y146.042
X1.309Y146.16
X1.383Y146.276
X1.459Y146.391
X1.538Y146.505
X1.618Y146.618
X1.7Y146.729
X1.784Y146.838
X1.87Y146.946
X1.958Y147.053
X2.048Y147.158
X2.139Y147.262
X2.232Y147.364
X2.327Y147.464
X2.424Y147.562
X2.522Y147.659
X2.622Y147.755
X2.724Y147.848
X2.827Y147.939
X2.932Y148.029
X3.038Y148.117
X3.147Y148.204
X3.255Y148.287
X3.367Y148.37
X3.479Y148.451
X3.593Y148.529
X3.708Y148.605
X3.824Y148.679
X3.942Y148.752
X4.06Y148.822
X4.181Y148.891
X4.302Y148.957
X4.425Y149.021
X4.547Y149.082
X4.673Y149.143
X4.798Y149.2
X4.924Y149.255
X5.052Y149.308
X5.181Y149.36
X5.309Y149.408
X5.44Y149.455
X5.558Y149.494
X16.693Y153.166
X16.736Y153.18
X16.779Y153.192
X16.823Y153.203
X16.856Y153.21
X16.89Y153.217
X16.924Y153.223
X16.994Y153.234
X33.123Y155.572
X33.194Y155.582
X33.262Y155.59
X33.338Y155.597
X33.407Y155.602
X33.476Y155.607
X33.547Y155.61
X33.619Y155.612
X33.689Y155.613
X33.766Y155.612
X33.832Y155.611
X33.905Y155.608
X33.976Y155.603
X34.047Y155.598
X34.122Y155.591
X34.194Y155.583
X34.261Y155.574
X34.331Y155.564
X34.407Y155.552
X34.473Y155.54
X34.543Y155.526
X34.612Y155.51
X34.687Y155.493
X34.757Y155.475
X34.825Y155.456
X34.893Y155.436
X34.961Y155.415
X35.03Y155.392
X35.093Y155.37
X35.164Y155.344
X35.231Y155.318
X35.298Y155.29
X35.362Y155.263
X35.428Y155.233
X35.493Y155.203
X35.557Y155.171
X35.62Y155.138
X35.683Y155.104
X35.745Y155.07
X35.804Y155.036
X35.869Y154.997
X35.926Y154.961
X35.988Y154.92
X36.045Y154.881
X36.104Y154.84
X36.165Y154.795
X36.221Y154.753
X36.275Y154.711
X36.334Y154.663
X36.388Y154.617
X36.439Y154.573
X36.492Y154.524
X36.544Y154.476
X36.598Y154.424
X36.65Y154.372
X36.696Y154.324
X36.745Y154.272
X36.793Y154.219
X36.842Y154.162
X36.886Y154.11
X36.931Y154.054
X36.975Y153.998
X37.021Y153.936
X37.077Y153.859
X37.137Y153.771
X37.196Y153.681
X37.252Y153.589
X37.306Y153.495
X37.356Y153.402
X37.405Y153.305
X37.451Y153.209
X37.495Y153.111
X37.536Y153.012
X37.574Y152.912
X37.61Y152.81
X37.643Y152.708
X37.673Y152.607
X37.701Y152.502
X37.726Y152.398
X37.749Y152.294
X37.763Y152.221
X37.78Y152.116
X37.795Y152.01
X37.808Y151.903
X37.817Y151.797
X37.824Y151.69
X37.828Y151.583
X37.829Y151.482
Y141.3
X37.827Y141.192
X37.821Y141.085
X37.816Y141.012
X37.806Y140.904
X37.793Y140.798
X37.778Y140.692
X37.759Y140.586
X37.738Y140.48
X37.714Y140.374
X37.688Y140.27
X37.668Y140.199
X37.637Y140.098
X37.604Y139.996
X37.567Y139.893
X37.528Y139.793
X37.486Y139.693
X37.441Y139.594
X37.395Y139.499
X37.345Y139.402
X37.294Y139.308
X37.239Y139.215
X37.182Y139.123
X37.124Y139.033
X37.062Y138.944
X36.998Y138.857
X36.933Y138.772
X36.864Y138.689
X36.812Y138.628
X36.763Y138.572
X36.716Y138.522
X36.664Y138.467
X36.613Y138.415
X36.565Y138.368
X36.513Y138.319
X36.457Y138.268
X36.406Y138.222
X36.352Y138.176
X36.296Y138.131
X36.24Y138.086
X36.182Y138.042
X36.121Y137.997
X36.063Y137.955
X36.003Y137.914
X35.944Y137.875
X35.887Y137.839
X35.825Y137.801
X35.759Y137.762
X35.701Y137.729
X35.637Y137.695
X35.574Y137.662
X35.509Y137.63
X35.445Y137.599
X35.375Y137.567
X35.313Y137.54
X35.246Y137.513
X35.177Y137.485
X35.109Y137.46
X35.045Y137.437
X34.977Y137.414
X34.904Y137.391
X34.836Y137.371
X34.771Y137.353
X34.7Y137.335
X34.631Y137.318
X34.557Y137.302
X34.487Y137.287
X34.419Y137.275
X34.349Y137.263
X34.291Y137.254
X18.786Y135.006
X18.779Y132.475
X18.777Y132.394
X18.762Y132.23
X18.745Y132.117
X18.715Y131.975
X18.696Y131.902
X18.66Y131.785
X18.637Y131.723
X18.608Y131.649
X18.559Y131.54
X18.506Y131.436
X18.428Y131.305
X18.374Y131.224
X18.315Y131.144
X18.261Y131.077
X18.211Y131.019
X18.168Y130.973
X18.114Y130.918
X18.057Y130.864
X17.99Y130.805
X17.94Y130.764
X17.878Y130.716
X17.804Y130.664
X17.726Y130.613
X17.634Y130.559
X17.569Y130.524
X17.502Y130.491
X17.43Y130.459
X17.338Y130.422
X17.261Y130.394
X17.16Y130.363
X17.101Y130.347
X17.009Y130.326
X16.926Y130.31
X16.873Y130.302
X9.785Y129.274
X9.764Y129.235
X9.745Y129.201
X9.725Y129.168
X9.705Y129.135
X9.683Y129.103
X9.661Y129.071
X9.638Y129.04
X9.615Y129.009
X9.59Y128.979
X9.565Y128.95
X9.539Y128.921
X9.513Y128.893
X9.486Y128.866
X9.458Y128.839
X9.429Y128.813
X9.4Y128.788
X9.369Y128.762
X9.339Y128.738
X9.308Y128.715
X9.277Y128.692
X9.245Y128.671
X9.212Y128.65
X9.179Y128.63
X9.146Y128.61
X9.112Y128.592
X9.077Y128.574
X9.042Y128.558
X9.007Y128.542
X8.972Y128.526
X8.936Y128.512
X8.899Y128.499
X8.863Y128.486
X8.826Y128.475
X8.789Y128.464
X8.751Y128.454
X8.714Y128.446
X8.676Y128.438
X8.638Y128.431
X8.6Y128.425
X8.562Y128.419
X8.523Y128.415
X8.485Y128.412
X8.446Y128.41
X8.407Y128.408
X8.369
X1.694
X1.655
Z-0.65F50
X1.616Y128.41F100
X1.578Y128.412
X1.539Y128.415
X1.5Y128.42
X1.461Y128.425
X1.423Y128.431
X1.384Y128.438
X1.346Y128.446
X1.308Y128.455
X1.271Y128.465
X1.233Y128.476
X1.196Y128.488
X1.159Y128.5
X1.123Y128.514
X1.086Y128.529
X1.051Y128.544
X1.015Y128.56
X0.98Y128.577
X0.946Y128.595
X0.911Y128.614
X0.878Y128.633
X0.844Y128.654
X0.812Y128.675
X0.78Y128.697
X0.748Y128.72
X0.717Y128.744
X0.687Y128.768
X0.657Y128.793
X0.627Y128.819
X0.598Y128.846
X0.57Y128.874
X0.543Y128.901
X0.516Y128.93
X0.49Y128.959
X0.465Y128.989
X0.441Y129.02
X0.417Y129.051
X0.394Y129.082
X0.372Y129.114
X0.351Y129.147
X0.33Y129.18
X0.311Y129.214
X0.292Y129.248
X0.274Y129.283
X0.257Y129.318
X0.24Y129.353
X0.225Y129.389
X0.21Y129.425
X0.197Y129.462
X0.184Y129.499
X0.172Y129.536
X0.161Y129.573
X0.151Y129.611
X0.142Y129.649
X0.134Y129.687
X0.127Y129.726
X0.121Y129.764
X0.115Y129.803
X0.111Y129.842
X0.108Y129.88
X0.105Y129.919
X0.104Y129.958
X0.103Y129.999
Y141.967
X0.105Y142.105
X0.109Y142.243
X0.115Y142.381
X0.124Y142.519
X0.135Y142.656
X0.148Y142.794
X0.164Y142.931
X0.182Y143.068
X0.203Y143.205
X0.226Y143.341
X0.251Y143.476
X0.279Y143.611
X0.309Y143.746
X0.341Y143.881
X0.376Y144.014
X0.413Y144.148
X0.452Y144.28
X0.494Y144.412
X0.538Y144.543
X0.584Y144.673
X0.632Y144.802
X0.683Y144.931
X0.736Y145.058
X0.791Y145.185
X0.848Y145.311
X0.908Y145.435
X0.969Y145.559
X1.033Y145.681
X1.099Y145.803
X1.167Y145.923
X1.237Y146.042
X1.309Y146.16
X1.383Y146.276
X1.459Y146.391
X1.538Y146.505
X1.618Y146.618
X1.7Y146.729
X1.784Y146.838
X1.87Y146.946
X1.958Y147.053
X2.048Y147.158
X2.139Y147.262
X2.232Y147.364
X2.327Y147.464
X2.424Y147.562
X2.522Y147.659
X2.622Y147.755
X2.724Y147.848
X2.827Y147.939
X2.932Y148.029
X3.038Y148.117
X3.147Y148.204
X3.255Y148.287
X3.367Y148.37
X3.479Y148.451
X3.593Y148.529
X3.708Y148.605
X3.824Y148.679
X3.942Y148.752
X4.06Y148.822
X4.181Y148.891
X4.302Y148.957
X4.425Y149.021
X4.547Y149.082
X4.673Y149.143
X4.798Y149.2
X4.924Y149.255
X5.052Y149.308
X5.181Y149.36
X5.309Y149.408
X5.44Y149.455
X5.558Y149.494
X16.693Y153.166
X16.736Y153.18
X16.779Y153.192
X16.823Y153.203
X16.856Y153.21
X16.89Y153.217
X16.924Y153.223
X16.994Y153.234
X33.123Y155.572
X33.194Y155.582
X33.262Y155.59
X33.338Y155.597
X33.407Y155.602
X33.476Y155.607
X33.547Y155.61
X33.619Y155.612
X33.689Y155.613
X33.766Y155.612
X33.832Y155.611
X33.905Y155.608
X33.976Y155.603
X34.047Y155.598
X34.122Y155.591
X34.194Y155.583
X34.261Y155.574
X34.331Y155.564
X34.407Y155.552
X34.473Y155.54
X34.543Y155.526
X34.612Y155.51
X34.687Y155.493
X34.757Y155.475
X34.825Y155.456
X34.893Y155.436
X34.961Y155.415
X35.03Y155.392
X35.093Y155.37
X35.164Y155.344
X35.231Y155.318
X35.298Y155.29
X35.362Y155.263
X35.428Y155.233
X35.493Y155.203
X35.557Y155.171
X35.62Y155.138
X35.683Y155.104
X35.745Y155.07
X35.804Y155.036
X35.869Y154.997
X35.926Y154.961
X35.988Y154.92
X36.045Y154.881
X36.104Y154.84
X36.165Y154.795
X36.221Y154.753
X36.275Y154.711
X36.334Y154.663
X36.388Y154.617
X36.439Y154.573
X36.492Y154.524
X36.544Y154.476
X36.598Y154.424
X36.65Y154.372
X36.696Y154.324
X36.745Y154.272
X36.793Y154.219
X36.842Y154.162
X36.886Y154.11
X36.931Y154.054
X36.975Y153.998
X37.021Y153.936
X37.077Y153.859
X37.137Y153.771
X37.196Y153.681
X37.252Y153.589
X37.306Y153.495
X37.356Y153.402
X37.405Y153.305
X37.451Y153.209
X37.495Y153.111
X37.536Y153.012
X37.574Y152.912
X37.61Y152.81
X37.643Y152.708
X37.673Y152.607
X37.701Y152.502
X37.726Y152.398
X37.749Y152.294
X37.763Y152.221
X37.78Y152.116
X37.795Y152.01
X37.808Y151.903
X37.817Y151.797
X37.824Y151.69
X37.828Y151.583
X37.829Y151.482
Y141.3
X37.827Y141.192
X37.821Y141.085
X37.816Y141.012
X37.806Y140.904
X37.793Y140.798
X37.778Y140.692
X37.759Y140.586
X37.738Y140.48
X37.714Y140.374
X37.688Y140.27
X37.668Y140.199
X37.637Y140.098
X37.604Y139.996
X37.567Y139.893
X37.528Y139.793
X37.486Y139.693
X37.441Y139.594
X37.395Y139.499
X37.345Y139.402
X37.294Y139.308
X37.239Y139.215
X37.182Y139.123
X37.124Y139.033
X37.062Y138.944
X36.998Y138.857
X36.933Y138.772
X36.864Y138.689
X36.812Y138.628
X36.763Y138.572
X36.716Y138.522
X36.664Y138.467
X36.613Y138.415
X36.565Y138.368
X36.513Y138.319
X36.457Y138.268
X36.406Y138.222
X36.352Y138.176
X36.296Y138.131
X36.24Y138.086
X36.182Y138.042
X36.121Y137.997
X36.063Y137.955
X36.003Y137.914
X35.944Y137.875
X35.887Y137.839
X35.825Y137.801
X35.759Y137.762
X35.701Y137.729
X35.637Y137.695
X35.574Y137.662
X35.509Y137.63
X35.445Y137.599
X35.375Y137.567
X35.313Y137.54
X35.246Y137.513
X35.177Y137.485
X35.109Y137.46
X35.045Y137.437
X34.977Y137.414
X34.904Y137.391
X34.836Y137.371
X34.771Y137.353
X34.7Y137.335
X34.631Y137.318
X34.557Y137.302
X34.487Y137.287
X34.419Y137.275
X34.349Y137.263
X34.291Y137.254
X18.786Y135.006
X18.779Y132.475
X18.777Y132.394
X18.762Y132.23
X18.745Y132.117
X18.715Y131.975
X18.696Y131.902
X18.66Y131.785
X18.637Y131.723
X18.608Y131.649
X18.559Y131.54
X18.506Y131.436
X18.428Y131.305
X18.374Y131.224
X18.315Y131.144
X18.261Y131.077
X18.211Y131.019
X18.168Y130.973
X18.114Y130.918
X18.057Y130.864
X17.99Y130.805
X17.94Y130.764
X17.878Y130.716
X17.804Y130.664
X17.726Y130.613
X17.634Y130.559
X17.569Y130.524
X17.502Y130.491
X17.43Y130.459
X17.338Y130.422
X17.261Y130.394
X17.16Y130.363
X17.101Y130.347
X17.009Y130.326
X16.926Y130.31
X16.873Y130.302
X9.785Y129.274
X9.764Y129.235
X9.745Y129.201
X9.725Y129.168
X9.705Y129.135
X9.683Y129.103
X9.661Y129.071
X9.638Y129.04
X9.615Y129.009
X9.59Y128.979
X9.565Y128.95
X9.539Y128.921
X9.513Y128.893
X9.486Y128.866
X9.458Y128.839
X9.429Y128.813
X9.4Y128.788
X9.369Y128.762
X9.339Y128.738
X9.308Y128.715
X9.277Y128.692
X9.245Y128.671
X9.212Y128.65
X9.179Y128.63
X9.146Y128.61
X9.112Y128.592
X9.077Y128.574
X9.042Y128.558
X9.007Y128.542
X8.972Y128.526
X8.936Y128.512
X8.899Y128.499
X8.863Y128.486
X8.826Y128.475
X8.789Y128.464
X8.751Y128.454
X8.714Y128.446
X8.676Y128.438
X8.638Y128.431
X8.6Y128.425
X8.562Y128.419
X8.523Y128.415
X8.485Y128.412
X8.446Y128.41
X8.407Y128.408
X8.369
X1.694
X1.655
Z-0.7F50
X1.616Y128.41F100
X1.578Y128.412
X1.539Y128.415
X1.5Y128.42
X1.461Y128.425
X1.423Y128.431
X1.384Y128.438
X1.346Y128.446
X1.308Y128.455
X1.271Y128.465
X1.233Y128.476
X1.196Y128.488
X1.159Y128.5
X1.123Y128.514
X1.086Y128.529
X1.051Y128.544
X1.015Y128.56
X0.98Y128.577
X0.946Y128.595
X0.911Y128.614
X0.878Y128.633
X0.844Y128.654
X0.812Y128.675
X0.78Y128.697
X0.748Y128.72
X0.717Y128.744
X0.687Y128.768
X0.657Y128.793
X0.627Y128.819
X0.598Y128.846
X0.57Y128.874
X0.543Y128.901
X0.516Y128.93
X0.49Y128.959
X0.465Y128.989
X0.441Y129.02
X0.417Y129.051
X0.394Y129.082
X0.372Y129.114
X0.351Y129.147
X0.33Y129.18
X0.311Y129.214
X0.292Y129.248
X0.274Y129.283
X0.257Y129.318
X0.24Y129.353
X0.225Y129.389
X0.21Y129.425
X0.197Y129.462
X0.184Y129.499
X0.172Y129.536
X0.161Y129.573
X0.151Y129.611
X0.142Y129.649
X0.134Y129.687
X0.127Y129.726
X0.121Y129.764
X0.115Y129.803
X0.111Y129.842
X0.108Y129.88
X0.105Y129.919
X0.104Y129.958
X0.103Y129.999
Y141.967
X0.105Y142.105
X0.109Y142.243
X0.115Y142.381
X0.124Y142.519
X0.135Y142.656
X0.148Y142.794
X0.164Y142.931
X0.182Y143.068
X0.203Y143.205
X0.226Y143.341
X0.251Y143.476
X0.279Y143.611
X0.309Y143.746
X0.341Y143.881
X0.376Y144.014
X0.413Y144.148
X0.452Y144.28
X0.494Y144.412
X0.538Y144.543
X0.584Y144.673
X0.632Y144.802
X0.683Y144.931
X0.736Y145.058
X0.791Y145.185
X0.848Y145.311
X0.908Y145.435
X0.969Y145.559
X1.033Y145.681
X1.099Y145.803
X1.167Y145.923
X1.237Y146.042
X1.309Y146.16
X1.383Y146.276
X1.459Y146.391
X1.538Y146.505
X1.618Y146.618
X1.7Y146.729
X1.784Y146.838
X1.87Y146.946
X1.958Y147.053
X2.048Y147.158
X2.139Y147.262
X2.232Y147.364
X2.327Y147.464
X2.424Y147.562
X2.522Y147.659
X2.622Y147.755
X2.724Y147.848
X2.827Y147.939
X2.932Y148.029
X3.038Y148.117
X3.147Y148.204
X3.255Y148.287
X3.367Y148.37
X3.479Y148.451
X3.593Y148.529
X3.708Y148.605
X3.824Y148.679
X3.942Y148.752
X4.06Y148.822
X4.181Y148.891
X4.302Y148.957
X4.425Y149.021
X4.547Y149.082
X4.673Y149.143
X4.798Y149.2
X4.924Y149.255
X5.052Y149.308
X5.181Y149.36
X5.309Y149.408
X5.44Y149.455
X5.558Y149.494
X16.693Y153.166
X16.736Y153.18
X16.779Y153.192
X16.823Y153.203
X16.856Y153.21
X16.89Y153.217
X16.924Y153.223
X16.994Y153.234
X33.123Y155.572
X33.194Y155.582
X33.262Y155.59
X33.338Y155.597
X33.407Y155.602
X33.476Y155.607
X33.547Y155.61
X33.619Y155.612
X33.689Y155.613
X33.766Y155.612
X33.832Y155.611
X33.905Y155.608
X33.976Y155.603
X34.047Y155.598
X34.122Y155.591
X34.194Y155.583
X34.261Y155.574
X34.331Y155.564
X34.407Y155.552
X34.473Y155.54
X34.543Y155.526
X34.612Y155.51
X34.687Y155.493
X34.757Y155.475
X34.825Y155.456
X34.893Y155.436
X34.961Y155.415
X35.03Y155.392
X35.093Y155.37
X35.164Y155.344
X35.231Y155.318
X35.298Y155.29
X35.362Y155.263
X35.428Y155.233
X35.493Y155.203
X35.557Y155.171
X35.62Y155.138
X35.683Y155.104
X35.745Y155.07
X35.804Y155.036
X35.869Y154.997
X35.926Y154.961
X35.988Y154.92
X36.045Y154.881
X36.104Y154.84
X36.165Y154.795
X36.221Y154.753
X36.275Y154.711
X36.334Y154.663
X36.388Y154.617
X36.439Y154.573
X36.492Y154.524
X36.544Y154.476
X36.598Y154.424
X36.65Y154.372
X36.696Y154.324
X36.745Y154.272
X36.793Y154.219
X36.842Y154.162
X36.886Y154.11
X36.931Y154.054
X36.975Y153.998
X37.021Y153.936
X37.077Y153.859
X37.137Y153.771
X37.196Y153.681
X37.252Y153.589
X37.306Y153.495
X37.356Y153.402
X37.405Y153.305
X37.451Y153.209
X37.495Y153.111
X37.536Y153.012
X37.574Y152.912
X37.61Y152.81
X37.643Y152.708
X37.673Y152.607
X37.701Y152.502
X37.726Y152.398
X37.749Y152.294
X37.763Y152.221
X37.78Y152.116
X37.795Y152.01
X37.808Y151.903
X37.817Y151.797
X37.824Y151.69
X37.828Y151.583
X37.829Y151.482
Y141.3
X37.827Y141.192
X37.821Y141.085
X37.816Y141.012
X37.806Y140.904
X37.793Y140.798
X37.778Y140.692
X37.759Y140.586
X37.738Y140.48
X37.714Y140.374
X37.688Y140.27
X37.668Y140.199
X37.637Y140.098
X37.604Y139.996
X37.567Y139.893
X37.528Y139.793
X37.486Y139.693
X37.441Y139.594
X37.395Y139.499
X37.345Y139.402
X37.294Y139.308
X37.239Y139.215
X37.182Y139.123
X37.124Y139.033
X37.062Y138.944
X36.998Y138.857
X36.933Y138.772
X36.864Y138.689
X36.812Y138.628
X36.763Y138.572
X36.716Y138.522
X36.664Y138.467
X36.613Y138.415
X36.565Y138.368
X36.513Y138.319
X36.457Y138.268
X36.406Y138.222
X36.352Y138.176
X36.296Y138.131
X36.24Y138.086
X36.182Y138.042
X36.121Y137.997
X36.063Y137.955
X36.003Y137.914
X35.944Y137.875
X35.887Y137.839
X35.825Y137.801
X35.759Y137.762
X35.701Y137.729
X35.637Y137.695
X35.574Y137.662
X35.509Y137.63
X35.445Y137.599
X35.375Y137.567
X35.313Y137.54
X35.246Y137.513
X35.177Y137.485
X35.109Y137.46
X35.045Y137.437
X34.977Y137.414
X34.904Y137.391
X34.836Y137.371
X34.771Y137.353
X34.7Y137.335
X34.631Y137.318
X34.557Y137.302
X34.487Y137.287
X34.419Y137.275
X34.349Y137.263
X34.291Y137.254
X18.786Y135.006
X18.779Y132.475
X18.777Y132.394
X18.762Y132.23
X18.745Y132.117
X18.715Y131.975
X18.696Y131.902
X18.66Y131.785
X18.637Y131.723
X18.608Y131.649
X18.559Y131.54
X18.506Y131.436
X18.428Y131.305
X18.374Y131.224
X18.315Y131.144
X18.261Y131.077
X18.211Y131.019
X18.168Y130.973
X18.114Y130.918
X18.057Y130.864
X17.99Y130.805
X17.94Y130.764
X17.878Y130.716
X17.804Y130.664
X17.726Y130.613
X17.634Y130.559
X17.569Y130.524
X17.502Y130.491
X17.43Y130.459
X17.338Y130.422
X17.261Y130.394
X17.16Y130.363
X17.101Y130.347
X17.009Y130.326
X16.926Y130.31
X16.873Y130.302
X9.785Y129.274
X9.764Y129.235
X9.745Y129.201
X9.725Y129.168
X9.705Y129.135
X9.683Y129.103
X9.661Y129.071
X9.638Y129.04
X9.615Y129.009
X9.59Y128.979
X9.565Y128.95
X9.539Y128.921
X9.513Y128.893
X9.486Y128.866
X9.458Y128.839
X9.429Y128.813
X9.4Y128.788
X9.369Y128.762
X9.339Y128.738
X9.308Y128.715
X9.277Y128.692
X9.245Y128.671
X9.212Y128.65
X9.179Y128.63
X9.146Y128.61
X9.112Y128.592
X9.077Y128.574
X9.042Y128.558
X9.007Y128.542
X8.972Y128.526
X8.936Y128.512
X8.899Y128.499
X8.863Y128.486
X8.826Y128.475
X8.789Y128.464
X8.751Y128.454
X8.714Y128.446
X8.676Y128.438
X8.638Y128.431
X8.6Y128.425
X8.562Y128.419
X8.523Y128.415
X8.485Y128.412
X8.446Y128.41
X8.407Y128.408
X8.369
X1.694
X1.655
Z-0.75F50
X1.616Y128.41F100
X1.578Y128.412
X1.539Y128.415
X1.5Y128.42
X1.461Y128.425
X1.423Y128.431
X1.384Y128.438
X1.346Y128.446
X1.308Y128.455
X1.271Y128.465
X1.233Y128.476
X1.196Y128.488
X1.159Y128.5
X1.123Y128.514
X1.086Y128.529
X1.051Y128.544
X1.015Y128.56
X0.98Y128.577
X0.946Y128.595
X0.911Y128.614
X0.878Y128.633
X0.844Y128.654
X0.812Y128.675
X0.78Y128.697
X0.748Y128.72
X0.717Y128.744
X0.687Y128.768
X0.657Y128.793
X0.627Y128.819
X0.598Y128.846
X0.57Y128.874
X0.543Y128.901
X0.516Y128.93
X0.49Y128.959
X0.465Y128.989
X0.441Y129.02
X0.417Y129.051
X0.394Y129.082
X0.372Y129.114
X0.351Y129.147
X0.33Y129.18
X0.311Y129.214
X0.292Y129.248
X0.274Y129.283
X0.257Y129.318
X0.24Y129.353
X0.225Y129.389
X0.21Y129.425
X0.197Y129.462
X0.184Y129.499
X0.172Y129.536
X0.161Y129.573
X0.151Y129.611
X0.142Y129.649
X0.134Y129.687
X0.127Y129.726
X0.121Y129.764
X0.115Y129.803
X0.111Y129.842
X0.108Y129.88
X0.105Y129.919
X0.104Y129.958
X0.103Y129.999
Y141.967
X0.105Y142.105
X0.109Y142.243
X0.115Y142.381
X0.124Y142.519
X0.135Y142.656
X0.148Y142.794
X0.164Y142.931
X0.182Y143.068
X0.203Y143.205
X0.226Y143.341
X0.251Y143.476
X0.279Y143.611
X0.309Y143.746
X0.341Y143.881
X0.376Y144.014
X0.413Y144.148
X0.452Y144.28
X0.494Y144.412
X0.538Y144.543
X0.584Y144.673
X0.632Y144.802
X0.683Y144.931
X0.736Y145.058
X0.791Y145.185
X0.848Y145.311
X0.908Y145.435
X0.969Y145.559
X1.033Y145.681
X1.099Y145.803
X1.167Y145.923
X1.237Y146.042
X1.309Y146.16
X1.383Y146.276
X1.459Y146.391
X1.538Y146.505
X1.618Y146.618
X1.7Y146.729
X1.784Y146.838
X1.87Y146.946
X1.958Y147.053
X2.048Y147.158
X2.139Y147.262
X2.232Y147.364
X2.327Y147.464
X2.424Y147.562
X2.522Y147.659
X2.622Y147.755
X2.724Y147.848
X2.827Y147.939
X2.932Y148.029
X3.038Y148.117
X3.147Y148.204
X3.255Y148.287
X3.367Y148.37
X3.479Y148.451
X3.593Y148.529
X3.708Y148.605
X3.824Y148.679
X3.942Y148.752
X4.06Y148.822
X4.181Y148.891
X4.302Y148.957
X4.425Y149.021
X4.547Y149.082
X4.673Y149.143
X4.798Y149.2
X4.924Y149.255
X5.052Y149.308
X5.181Y149.36
X5.309Y149.408
X5.44Y149.455
X5.558Y149.494
X16.693Y153.166
X16.736Y153.18
X16.779Y153.192
X16.823Y153.203
X16.856Y153.21
X16.89Y153.217
X16.924Y153.223
X16.994Y153.234
X33.123Y155.572
X33.194Y155.582
X33.262Y155.59
X33.338Y155.597
X33.407Y155.602
X33.476Y155.607
X33.547Y155.61
X33.619Y155.612
X33.689Y155.613
X33.766Y155.612
X33.832Y155.611
X33.905Y155.608
X33.976Y155.603
X34.047Y155.598
X34.122Y155.591
X34.194Y155.583
X34.261Y155.574
X34.331Y155.564
X34.407Y155.552
X34.473Y155.54
X34.543Y155.526
X34.612Y155.51
X34.687Y155.493
X34.757Y155.475
X34.825Y155.456
X34.893Y155.436
X34.961Y155.415
X35.03Y155.392
X35.093Y155.37
X35.164Y155.344
X35.231Y155.318
X35.298Y155.29
X35.362Y155.263
X35.428Y155.233
X35.493Y155.203
X35.557Y155.171
X35.62Y155.138
X35.683Y155.104
X35.745Y155.07
X35.804Y155.036
X35.869Y154.997
X35.926Y154.961
X35.988Y154.92
X36.045Y154.881
X36.104Y154.84
X36.165Y154.795
X36.221Y154.753
X36.275Y154.711
X36.334Y154.663
X36.388Y154.617
X36.439Y154.573
X36.492Y154.524
X36.544Y154.476
X36.598Y154.424
X36.65Y154.372
X36.696Y154.324
X36.745Y154.272
X36.793Y154.219
X36.842Y154.162
X36.886Y154.11
X36.931Y154.054
X36.975Y153.998
X37.021Y153.936
X37.077Y153.859
X37.137Y153.771
X37.196Y153.681
X37.252Y153.589
X37.306Y153.495
X37.356Y153.402
X37.405Y153.305
X37.451Y153.209
X37.495Y153.111
X37.536Y153.012
X37.574Y152.912
X37.61Y152.81
X37.643Y152.708
X37.673Y152.607
X37.701Y152.502
X37.726Y152.398
X37.749Y152.294
X37.763Y152.221
X37.78Y152.116
X37.795Y152.01
X37.808Y151.903
X37.817Y151.797
X37.824Y151.69
X37.828Y151.583
X37.829Y151.482
Y141.3
X37.827Y141.192
X37.821Y141.085
X37.816Y141.012
X37.806Y140.904
X37.793Y140.798
X37.778Y140.692
X37.759Y140.586
X37.738Y140.48
X37.714Y140.374
X37.688Y140.27
X37.668Y140.199
X37.637Y140.098
X37.604Y139.996
X37.567Y139.893
X37.528Y139.793
X37.486Y139.693
X37.441Y139.594
X37.395Y139.499
X37.345Y139.402
X37.294Y139.308
X37.239Y139.215
X37.182Y139.123
X37.124Y139.033
X37.062Y138.944
X36.998Y138.857
X36.933Y138.772
X36.864Y138.689
X36.812Y138.628
X36.763Y138.572
X36.716Y138.522
X36.664Y138.467
X36.613Y138.415
X36.565Y138.368
X36.513Y138.319
X36.457Y138.268
X36.406Y138.222
X36.352Y138.176
X36.296Y138.131
X36.24Y138.086
X36.182Y138.042
X36.121Y137.997
X36.063Y137.955
X36.003Y137.914
X35.944Y137.875
X35.887Y137.839
X35.825Y137.801
X35.759Y137.762
X35.701Y137.729
X35.637Y137.695
X35.574Y137.662
X35.509Y137.63
X35.445Y137.599
X35.375Y137.567
X35.313Y137.54
X35.246Y137.513
X35.177Y137.485
X35.109Y137.46
X35.045Y137.437
X34.977Y137.414
X34.904Y137.391
X34.836Y137.371
X34.771Y137.353
X34.7Y137.335
X34.631Y137.318
X34.557Y137.302
X34.487Y137.287
X34.419Y137.275
X34.349Y137.263
X34.291Y137.254
X18.786Y135.006
X18.779Y132.475
X18.777Y132.394
X18.762Y132.23
X18.745Y132.117
X18.715Y131.975
X18.696Y131.902
X18.66Y131.785
X18.637Y131.723
X18.608Y131.649
X18.559Y131.54
X18.506Y131.436
X18.428Y131.305
X18.374Y131.224
X18.315Y131.144
X18.261Y131.077
X18.211Y131.019
X18.168Y130.973
X18.114Y130.918
X18.057Y130.864
X17.99Y130.805
X17.94Y130.764
X17.878Y130.716
X17.804Y130.664
X17.726Y130.613
X17.634Y130.559
X17.569Y130.524
X17.502Y130.491
X17.43Y130.459
X17.338Y130.422
X17.261Y130.394
X17.16Y130.363
X17.101Y130.347
X17.009Y130.326
X16.926Y130.31
X16.873Y130.302
X9.785Y129.274
X9.764Y129.235
X9.745Y129.201
X9.725Y129.168
X9.705Y129.135
X9.683Y129.103
X9.661Y129.071
X9.638Y129.04
X9.615Y129.009
X9.59Y128.979
X9.565Y128.95
X9.539Y128.921
X9.513Y128.893
X9.486Y128.866
X9.458Y128.839
X9.429Y128.813
X9.4Y128.788
X9.369Y128.762
X9.339Y128.738
X9.308Y128.715
X9.277Y128.692
X9.245Y128.671
X9.212Y128.65
X9.179Y128.63
X9.146Y128.61
X9.112Y128.592
X9.077Y128.574
X9.042Y128.558
X9.007Y128.542
X8.972Y128.526
X8.936Y128.512
X8.899Y128.499
X8.863Y128.486
X8.826Y128.475
X8.789Y128.464
X8.751Y128.454
X8.714Y128.446
X8.676Y128.438
X8.638Y128.431
X8.6Y128.425
X8.562Y128.419
X8.523Y128.415
X8.485Y128.412
X8.446Y128.41
X8.407Y128.408
X8.369
X1.694
X1.655
Z-0.8F50
X1.616Y128.41F100
X1.578Y128.412
X1.539Y128.415
X1.5Y128.42
X1.461Y128.425
X1.423Y128.431
X1.384Y128.438
X1.346Y128.446
X1.308Y128.455
X1.271Y128.465
X1.233Y128.476
X1.196Y128.488
X1.159Y128.5
X1.123Y128.514
X1.086Y128.529
X1.051Y128.544
X1.015Y128.56
X0.98Y128.577
X0.946Y128.595
X0.911Y128.614
X0.878Y128.633
X0.844Y128.654
X0.812Y128.675
X0.78Y128.697
X0.748Y128.72
X0.717Y128.744
X0.687Y128.768
X0.657Y128.793
X0.627Y128.819
X0.598Y128.846
X0.57Y128.874
X0.543Y128.901
X0.516Y128.93
X0.49Y128.959
X0.465Y128.989
X0.441Y129.02
X0.417Y129.051
X0.394Y129.082
X0.372Y129.114
X0.351Y129.147
X0.33Y129.18
X0.311Y129.214
X0.292Y129.248
X0.274Y129.283
X0.257Y129.318
X0.24Y129.353
X0.225Y129.389
X0.21Y129.425
X0.197Y129.462
X0.184Y129.499
X0.172Y129.536
X0.161Y129.573
X0.151Y129.611
X0.142Y129.649
X0.134Y129.687
X0.127Y129.726
X0.121Y129.764
X0.115Y129.803
X0.111Y129.842
X0.108Y129.88
X0.105Y129.919
X0.104Y129.958
X0.103Y129.999
Y141.967
X0.105Y142.105
X0.109Y142.243
X0.115Y142.381
X0.124Y142.519
X0.135Y142.656
X0.148Y142.794
X0.164Y142.931
X0.182Y143.068
X0.203Y143.205
X0.226Y143.341
X0.251Y143.476
X0.279Y143.611
X0.309Y143.746
X0.341Y143.881
X0.376Y144.014
X0.413Y144.148
X0.452Y144.28
X0.494Y144.412
X0.538Y144.543
X0.584Y144.673
X0.632Y144.802
X0.683Y144.931
X0.736Y145.058
X0.791Y145.185
X0.848Y145.311
X0.908Y145.435
X0.969Y145.559
X1.033Y145.681
X1.099Y145.803
X1.167Y145.923
X1.237Y146.042
X1.309Y146.16
X1.383Y146.276
X1.459Y146.391
X1.538Y146.505
X1.618Y146.618
X1.7Y146.729
X1.784Y146.838
X1.87Y146.946
X1.958Y147.053
X2.048Y147.158
X2.139Y147.262
X2.232Y147.364
X2.327Y147.464
X2.424Y147.562
X2.522Y147.659
X2.622Y147.755
X2.724Y147.848
X2.827Y147.939
X2.932Y148.029
X3.038Y148.117
X3.147Y148.204
X3.255Y148.287
X3.367Y148.37
X3.479Y148.451
X3.593Y148.529
X3.708Y148.605
X3.824Y148.679
X3.942Y148.752
X4.06Y148.822
X4.181Y148.891
X4.302Y148.957
X4.425Y149.021
X4.547Y149.082
X4.673Y149.143
X4.798Y149.2
X4.924Y149.255
X5.052Y149.308
X5.181Y149.36
X5.309Y149.408
X5.44Y149.455
X5.558Y149.494
X16.693Y153.166
X16.736Y153.18
X16.779Y153.192
X16.823Y153.203
X16.856Y153.21
X16.89Y153.217
X16.924Y153.223
X16.994Y153.234
X33.123Y155.572
X33.194Y155.582
X33.262Y155.59
X33.338Y155.597
X33.407Y155.602
X33.476Y155.607
X33.547Y155.61
X33.619Y155.612
X33.689Y155.613
X33.766Y155.612
X33.832Y155.611
X33.905Y155.608
X33.976Y155.603
X34.047Y155.598
X34.122Y155.591
X34.194Y155.583
X34.261Y155.574
X34.331Y155.564
X34.407Y155.552
X34.473Y155.54
X34.543Y155.526
X34.612Y155.51
X34.687Y155.493
X34.757Y155.475
X34.825Y155.456
X34.893Y155.436
X34.961Y155.415
X35.03Y155.392
X35.093Y155.37
X35.164Y155.344
X35.231Y155.318
X35.298Y155.29
X35.362Y155.263
X35.428Y155.233
X35.493Y155.203
X35.557Y155.171
X35.62Y155.138
X35.683Y155.104
X35.745Y155.07
X35.804Y155.036
X35.869Y154.997
X35.926Y154.961
X35.988Y154.92
X36.045Y154.881
X36.104Y154.84
X36.165Y154.795
X36.221Y154.753
X36.275Y154.711
X36.334Y154.663
X36.388Y154.617
X36.439Y154.573
X36.492Y154.524
X36.544Y154.476
X36.598Y154.424
X36.65Y154.372
X36.696Y154.324
X36.745Y154.272
X36.793Y154.219
X36.842Y154.162
X36.886Y154.11
X36.931Y154.054
X36.975Y153.998
X37.021Y153.936
X37.077Y153.859
X37.137Y153.771
X37.196Y153.681
X37.252Y153.589
X37.306Y153.495
X37.356Y153.402
X37.405Y153.305
X37.451Y153.209
X37.495Y153.111
X37.536Y153.012
X37.574Y152.912
X37.61Y152.81
X37.643Y152.708
X37.673Y152.607
X37.701Y152.502
X37.726Y152.398
X37.749Y152.294
X37.763Y152.221
X37.78Y152.116
X37.795Y152.01
X37.808Y151.903
X37.817Y151.797
X37.824Y151.69
X37.828Y151.583
X37.829Y151.482
Y141.3
X37.827Y141.192
X37.821Y141.085
X37.816Y141.012
X37.806Y140.904
X37.793Y140.798
X37.778Y140.692
X37.759Y140.586
X37.738Y140.48
X37.714Y140.374
X37.688Y140.27
X37.668Y140.199
X37.637Y140.098
X37.604Y139.996
X37.567Y139.893
X37.528Y139.793
X37.486Y139.693
X37.441Y139.594
X37.395Y139.499
X37.345Y139.402
X37.294Y139.308
X37.239Y139.215
X37.182Y139.123
X37.124Y139.033
X37.062Y138.944
X36.998Y138.857
X36.933Y138.772
X36.864Y138.689
X36.812Y138.628
X36.763Y138.572
X36.716Y138.522
X36.664Y138.467
X36.613Y138.415
X36.565Y138.368
X36.513Y138.319
X36.457Y138.268
X36.406Y138.222
X36.352Y138.176
X36.296Y138.131
X36.24Y138.086
X36.182Y138.042
X36.121Y137.997
X36.063Y137.955
X36.003Y137.914
X35.944Y137.875
X35.887Y137.839
X35.825Y137.801
X35.759Y137.762
X35.701Y137.729
X35.637Y137.695
X35.574Y137.662
X35.509Y137.63
X35.445Y137.599
X35.375Y137.567
X35.313Y137.54
X35.246Y137.513
X35.177Y137.485
X35.109Y137.46
X35.045Y137.437
X34.977Y137.414
X34.904Y137.391
X34.836Y137.371
X34.771Y137.353
X34.7Y137.335
X34.631Y137.318
X34.557Y137.302
X34.487Y137.287
X34.419Y137.275
X34.349Y137.263
X34.291Y137.254
X18.786Y135.006
X18.779Y132.475
X18.777Y132.394
X18.762Y132.23
X18.745Y132.117
X18.715Y131.975
X18.696Y131.902
X18.66Y131.785
X18.637Y131.723
X18.608Y131.649
X18.559Y131.54
X18.506Y131.436
X18.428Y131.305
X18.374Y131.224
X18.315Y131.144
X18.261Y131.077
X18.211Y131.019
X18.168Y130.973
X18.114Y130.918
X18.057Y130.864
X17.99Y130.805
X17.94Y130.764
X17.878Y130.716
X17.804Y130.664
X17.726Y130.613
X17.634Y130.559
X17.569Y130.524
X17.502Y130.491
X17.43Y130.459
X17.338Y130.422
X17.261Y130.394
X17.16Y130.363
X17.101Y130.347
X17.009Y130.326
X16.926Y130.31
X16.873Y130.302
X9.785Y129.274
X9.764Y129.235
X9.745Y129.201
X9.725Y129.168
X9.705Y129.135
X9.683Y129.103
X9.661Y129.071
X9.638Y129.04
X9.615Y129.009
X9.59Y128.979
X9.565Y128.95
X9.539Y128.921
X9.513Y128.893
X9.486Y128.866
X9.458Y128.839
X9.429Y128.813
X9.4Y128.788
X9.369Y128.762
X9.339Y128.738
X9.308Y128.715
X9.277Y128.692
X9.245Y128.671
X9.212Y128.65
X9.179Y128.63
X9.146Y128.61
X9.112Y128.592
X9.077Y128.574
X9.042Y128.558
X9.007Y128.542
X8.972Y128.526
X8.936Y128.512
X8.899Y128.499
X8.863Y128.486
X8.826Y128.475
X8.789Y128.464
X8.751Y128.454
X8.714Y128.446
X8.676Y128.438
X8.638Y128.431
X8.6Y128.425
X8.562Y128.419
X8.523Y128.415
X8.485Y128.412
X8.446Y128.41
X8.407Y128.408
X8.369
X1.694
X1.655
Z-0.85F50
X1.616Y128.41F100
X1.578Y128.412
X1.539Y128.415
X1.5Y128.42
X1.461Y128.425
X1.423Y128.431
X1.384Y128.438
X1.346Y128.446
X1.308Y128.455
X1.271Y128.465
X1.233Y128.476
X1.196Y128.488
X1.159Y128.5
X1.123Y128.514
X1.086Y128.529
X1.051Y128.544
X1.015Y128.56
X0.98Y128.577
X0.946Y128.595
X0.911Y128.614
X0.878Y128.633
X0.844Y128.654
X0.812Y128.675
X0.78Y128.697
X0.748Y128.72
X0.717Y128.744
X0.687Y128.768
X0.657Y128.793
X0.627Y128.819
X0.598Y128.846
X0.57Y128.874
X0.543Y128.901
X0.516Y128.93
X0.49Y128.959
X0.465Y128.989
X0.441Y129.02
X0.417Y129.051
X0.394Y129.082
X0.372Y129.114
X0.351Y129.147
X0.33Y129.18
X0.311Y129.214
X0.292Y129.248
X0.274Y129.283
X0.257Y129.318
X0.24Y129.353
X0.225Y129.389
X0.21Y129.425
X0.197Y129.462
X0.184Y129.499
X0.172Y129.536
X0.161Y129.573
X0.151Y129.611
X0.142Y129.649
X0.134Y129.687
X0.127Y129.726
X0.121Y129.764
X0.115Y129.803
X0.111Y129.842
X0.108Y129.88
X0.105Y129.919
X0.104Y129.958
X0.103Y129.999
Y141.967
X0.105Y142.105
X0.109Y142.243
X0.115Y142.381
X0.124Y142.519
X0.135Y142.656
X0.148Y142.794
X0.164Y142.931
X0.182Y143.068
X0.203Y143.205
X0.226Y143.341
X0.251Y143.476
X0.279Y143.611
X0.309Y143.746
X0.341Y143.881
X0.376Y144.014
X0.413Y144.148
X0.452Y144.28
X0.494Y144.412
X0.538Y144.543
X0.584Y144.673
X0.632Y144.802
X0.683Y144.931
X0.736Y145.058
X0.791Y145.185
X0.848Y145.311
X0.908Y145.435
X0.969Y145.559
X1.033Y145.681
X1.099Y145.803
X1.167Y145.923
X1.237Y146.042
X1.309Y146.16
X1.383Y146.276
X1.459Y146.391
X1.538Y146.505
X1.618Y146.618
X1.7Y146.729
X1.784Y146.838
X1.87Y146.946
X1.958Y147.053
X2.048Y147.158
X2.139Y147.262
X2.232Y147.364
X2.327Y147.464
X2.424Y147.562
X2.522Y147.659
X2.622Y147.755
X2.724Y147.848
X2.827Y147.939
X2.932Y148.029
X3.038Y148.117
X3.147Y148.204
X3.255Y148.287
X3.367Y148.37
X3.479Y148.451
X3.593Y148.529
X3.708Y148.605
X3.824Y148.679
X3.942Y148.752
X4.06Y148.822
X4.181Y148.891
X4.302Y148.957
X4.425Y149.021
X4.547Y149.082
X4.673Y149.143
X4.798Y149.2
X4.924Y149.255
X5.052Y149.308
X5.181Y149.36
X5.309Y149.408
X5.44Y149.455
X5.558Y149.494
X16.693Y153.166
X16.736Y153.18
X16.779Y153.192
X16.823Y153.203
X16.856Y153.21
X16.89Y153.217
X16.924Y153.223
X16.994Y153.234
X33.123Y155.572
X33.194Y155.582
X33.262Y155.59
X33.338Y155.597
X33.407Y155.602
X33.476Y155.607
X33.547Y155.61
X33.619Y155.612
X33.689Y155.613
X33.766Y155.612
X33.832Y155.611
X33.905Y155.608
X33.976Y155.603
X34.047Y155.598
X34.122Y155.591
X34.194Y155.583
X34.261Y155.574
X34.331Y155.564
X34.407Y155.552
X34.473Y155.54
X34.543Y155.526
X34.612Y155.51
X34.687Y155.493
X34.757Y155.475
X34.825Y155.456
X34.893Y155.436
X34.961Y155.415
X35.03Y155.392
X35.093Y155.37
X35.164Y155.344
X35.231Y155.318
X35.298Y155.29
X35.362Y155.263
X35.428Y155.233
X35.493Y155.203
X35.557Y155.171
X35.62Y155.138
X35.683Y155.104
X35.745Y155.07
X35.804Y155.036
X35.869Y154.997
X35.926Y154.961
X35.988Y154.92
X36.045Y154.881
X36.104Y154.84
X36.165Y154.795
X36.221Y154.753
X36.275Y154.711
X36.334Y154.663
X36.388Y154.617
X36.439Y154.573
X36.492Y154.524
X36.544Y154.476
X36.598Y154.424
X36.65Y154.372
X36.696Y154.324
X36.745Y154.272
X36.793Y154.219
X36.842Y154.162
X36.886Y154.11
X36.931Y154.054
X36.975Y153.998
X37.021Y153.936
X37.077Y153.859
X37.137Y153.771
X37.196Y153.681
X37.252Y153.589
X37.306Y153.495
X37.356Y153.402
X37.405Y153.305
X37.451Y153.209
X37.495Y153.111
X37.536Y153.012
X37.574Y152.912
X37.61Y152.81
X37.643Y152.708
X37.673Y152.607
X37.701Y152.502
X37.726Y152.398
X37.749Y152.294
X37.763Y152.221
X37.78Y152.116
X37.795Y152.01
X37.808Y151.903
X37.817Y151.797
X37.824Y151.69
X37.828Y151.583
X37.829Y151.482
Y141.3
X37.827Y141.192
X37.821Y141.085
X37.816Y141.012
X37.806Y140.904
X37.793Y140.798
X37.778Y140.692
X37.759Y140.586
X37.738Y140.48
X37.714Y140.374
X37.688Y140.27
X37.668Y140.199
X37.637Y140.098
X37.604Y139.996
X37.567Y139.893
X37.528Y139.793
X37.486Y139.693
X37.441Y139.594
X37.395Y139.499
X37.345Y139.402
X37.294Y139.308
X37.239Y139.215
X37.182Y139.123
X37.124Y139.033
X37.062Y138.944
X36.998Y138.857
X36.933Y138.772
X36.864Y138.689
X36.812Y138.628
X36.763Y138.572
X36.716Y138.522
X36.664Y138.467
X36.613Y138.415
X36.565Y138.368
X36.513Y138.319
X36.457Y138.268
X36.406Y138.222
X36.352Y138.176
X36.296Y138.131
X36.24Y138.086
X36.182Y138.042
X36.121Y137.997
X36.063Y137.955
X36.003Y137.914
X35.944Y137.875
X35.887Y137.839
X35.825Y137.801
X35.759Y137.762
X35.701Y137.729
X35.637Y137.695
X35.574Y137.662
X35.509Y137.63
X35.445Y137.599
X35.375Y137.567
X35.313Y137.54
X35.246Y137.513
X35.177Y137.485
X35.109Y137.46
X35.045Y137.437
X34.977Y137.414
X34.904Y137.391
X34.836Y137.371
X34.771Y137.353
X34.7Y137.335
X34.631Y137.318
X34.557Y137.302
X34.487Y137.287
X34.419Y137.275
X34.349Y137.263
X34.291Y137.254
X18.786Y135.006
X18.779Y132.475
X18.777Y132.394
X18.762Y132.23
X18.745Y132.117
X18.715Y131.975
X18.696Y131.902
X18.66Y131.785
X18.637Y131.723
X18.608Y131.649
X18.559Y131.54
X18.506Y131.436
X18.428Y131.305
X18.374Y131.224
X18.315Y131.144
X18.261Y131.077
X18.211Y131.019
X18.168Y130.973
X18.114Y130.918
X18.057Y130.864
X17.99Y130.805
X17.94Y130.764
X17.878Y130.716
X17.804Y130.664
X17.726Y130.613
X17.634Y130.559
X17.569Y130.524
X17.502Y130.491
X17.43Y130.459
X17.338Y130.422
X17.261Y130.394
X17.16Y130.363
X17.101Y130.347
X17.009Y130.326
X16.926Y130.31
X16.873Y130.302
X9.785Y129.274
X9.764Y129.235
X9.745Y129.201
X9.725Y129.168
X9.705Y129.135
X9.683Y129.103
X9.661Y129.071
X9.638Y129.04
X9.615Y129.009
X9.59Y128.979
X9.565Y128.95
X9.539Y128.921
X9.513Y128.893
X9.486Y128.866
X9.458Y128.839
X9.429Y128.813
X9.4Y128.788
X9.369Y128.762
X9.339Y128.738
X9.308Y128.715
X9.277Y128.692
X9.245Y128.671
X9.212Y128.65
X9.179Y128.63
X9.146Y128.61
X9.112Y128.592
