(Created with grbl post processor 2025/02/04 15:31)
G21
(G-code generated with BlenderCAM and NC library)
G17G90
(Tool: D = 3.18 mm  type END flutes 2)
S1000M03
G00 Z1.0

G0X0Y0Z1
X121.106Y134.296
G1Z-0.05F50
X121.136Y134.269F100
X121.155Y134.253
X121.177Y134.235
X121.199Y134.218
X121.221Y134.201
X121.243Y134.184
X121.266Y134.168
X121.292Y134.15
X121.312Y134.137
X121.335Y134.122
X121.359Y134.107
X121.383Y134.093
X121.408Y134.079
X121.432Y134.066
X121.457Y134.053
X121.482Y134.041
X121.507Y134.029
X121.532Y134.017
X121.558Y134.006
X121.583Y133.996
X121.609Y133.985
X121.662Y133.966
X121.688Y133.957
X121.742Y133.941
X121.797Y133.926
X121.852Y133.914
X121.877Y133.909
X121.904Y133.904
X121.932Y133.899
X121.96Y133.895
X121.987Y133.891
X122.015Y133.888
X122.042Y133.885
X122.07Y133.883
X122.098Y133.881
X122.126Y133.88
X122.154
X122.182Y133.879
X122.21Y133.88
X122.237
X122.265Y133.881
X122.293Y133.883
X122.321Y133.885
X122.349Y133.888
X122.376Y133.891
X122.404Y133.895
X122.431Y133.899
X122.459Y133.904
X122.486Y133.909
X122.514Y133.914
X122.541Y133.92
X122.568Y133.927
X122.595Y133.934
X122.622Y133.941
X122.649Y133.949
X122.675Y133.957
X122.701Y133.966
X122.728Y133.976
X122.754Y133.985
X122.78Y133.996
X122.805Y134.006
X122.831Y134.017
X122.856Y134.029
X122.882Y134.041
X122.907Y134.053
X122.931Y134.066
X122.956Y134.079
X122.98Y134.093
X123.004Y134.107
X123.028Y134.122
X123.051Y134.137
X123.074Y134.152
X123.097Y134.168
X123.12Y134.184
X123.143Y134.201
X123.165Y134.218
X123.186Y134.235
X123.208Y134.253
X123.25Y134.289
X123.27Y134.308
X123.291Y134.327
X123.311Y134.347
X123.33Y134.367
X123.349Y134.387
X123.387Y134.428
X123.405Y134.45
X123.422Y134.471
X123.44Y134.493
X123.457Y134.515
X123.473Y134.537
X123.49Y134.56
X123.505Y134.583
X123.536Y134.63
X123.55Y134.654
X123.564Y134.678
X123.578Y134.702
X123.591Y134.726
X123.604Y134.751
X123.617Y134.776
X123.629Y134.801
X123.64Y134.827
X123.651Y134.852
X123.662Y134.878
X123.672Y134.904
X123.682Y134.93
X123.691Y134.956
X123.7Y134.983
X123.709Y135.009
X123.716Y135.036
X123.731Y135.092
X123.737Y135.117
X123.743Y135.144
X123.754Y135.199
X123.759Y135.226
X123.763Y135.254
X123.766Y135.281
X123.77Y135.309
X123.772Y135.337
X123.774Y135.365
X123.776Y135.392
X123.777Y135.42
X123.778Y135.448
Y135.476
Y135.504
X123.777Y135.532
X123.776Y135.559
X123.774Y135.587
X123.772Y135.615
X123.77Y135.643
X123.766Y135.671
X123.763Y135.698
X123.759Y135.726
X123.754Y135.753
X123.749Y135.781
X123.743Y135.808
X123.737Y135.835
X123.731Y135.862
X123.724Y135.889
X123.716Y135.916
X123.709Y135.943
X123.7Y135.969
X123.691Y135.996
X123.682Y136.022
X123.672Y136.048
X123.662Y136.074
X123.651Y136.1
X123.64Y136.125
X123.629Y136.151
X123.617Y136.176
X123.604Y136.201
X123.591Y136.225
X123.578Y136.25
X123.564Y136.274
X123.55Y136.298
X123.536Y136.322
X123.521Y136.345
X123.505Y136.369
X123.49Y136.392
X123.473Y136.414
X123.457Y136.437
X123.44Y136.459
X123.423Y136.481
X123.405Y136.502
X123.387Y136.524
X123.368Y136.544
X123.349Y136.565
X123.33Y136.585
X123.311Y136.605
X123.291Y136.625
X123.27Y136.644
X123.25Y136.662
X123.229Y136.681
X123.208Y136.699
X123.186Y136.717
X123.165Y136.734
X123.143Y136.751
X123.12Y136.768
X123.097Y136.784
X123.075Y136.8
X123.051Y136.815
X123.028Y136.83
X123.004Y136.844
X122.98Y136.859
X122.956Y136.872
X122.931Y136.886
X122.907Y136.899
X122.882Y136.911
X122.857Y136.923
X122.831Y136.935
X122.805Y136.946
X122.78Y136.956
X122.754Y136.967
X122.727Y136.976
X122.701Y136.986
X122.675Y136.994
X122.649Y137.003
X122.622Y137.011
X122.595Y137.018
X122.568Y137.025
X122.541Y137.032
X122.514Y137.038
X122.486Y137.043
X122.459Y137.048
X122.431Y137.053
X122.404Y137.057
X122.376Y137.061
X122.349Y137.064
X122.321Y137.066
X122.293Y137.069
X122.265Y137.07
X122.237Y137.072
X122.21
X122.163
X122.123Y137.071
X122.098Y137.07
X122.07Y137.069
X122.015Y137.064
X121.987Y137.061
X121.96Y137.057
X121.932Y137.053
X121.904Y137.048
X121.877Y137.043
X121.85Y137.038
X121.823Y137.032
X121.795Y137.025
X121.768Y137.018
X121.742Y137.011
X121.715Y137.003
X121.688Y136.994
X121.662Y136.986
X121.636Y136.976
X121.609Y136.967
X121.583Y136.956
X121.558Y136.946
X121.532Y136.935
X121.507Y136.923
X121.482Y136.911
X121.457Y136.899
X121.432Y136.886
X121.408Y136.872
X121.383Y136.859
X121.359Y136.844
X121.336Y136.83
X121.312Y136.815
X121.289Y136.8
X121.27Y136.787
X121.242Y136.767
X121.221Y136.751
X121.199Y136.734
X121.177Y136.717
X121.155Y136.699
X121.134Y136.681
X121.113Y136.662
X121.093Y136.644
X121.073Y136.625
X121.053Y136.605
X121.033Y136.585
X121.014Y136.565
X120.995Y136.544
X120.966Y136.51
X120.939Y136.478
X120.923Y136.459
X120.907Y136.437
X120.89Y136.414
X120.874Y136.392
X120.858Y136.369
X120.842Y136.345
X120.828Y136.322
X120.811Y136.294
X120.799Y136.274
X120.785Y136.25
X120.772Y136.225
X120.747Y136.176
X120.735Y136.151
X120.723Y136.125
X120.712Y136.1
X120.701Y136.074
X120.691Y136.048
X120.672Y135.996
X120.663Y135.969
X120.656Y135.946
X120.647Y135.915
X120.639Y135.889
X120.632Y135.862
X120.626Y135.835
X120.62Y135.808
X120.614Y135.781
X120.609Y135.753
X120.605Y135.726
X120.601Y135.698
X120.597Y135.671
X120.594Y135.643
X120.591Y135.615
X120.589Y135.587
X120.587Y135.559
X120.586Y135.532
X120.585Y135.504
Y135.459
X120.586Y135.418
X120.587Y135.392
X120.589Y135.365
X120.591Y135.337
X120.593Y135.316
X120.597Y135.28
X120.601Y135.254
X120.605Y135.226
X120.609Y135.199
X120.614Y135.171
X120.62Y135.144
X120.626Y135.117
X120.632Y135.09
X120.639Y135.063
X120.647Y135.036
X120.655Y135.009
X120.663Y134.983
X120.672Y134.956
X120.681Y134.93
X120.691Y134.904
X120.703Y134.874
X120.712Y134.852
X120.723Y134.827
X120.735Y134.801
X120.747Y134.776
X120.759Y134.751
X120.772Y134.726
X120.786Y134.7
X120.799Y134.678
X120.813Y134.654
X120.828Y134.63
X120.842Y134.606
X120.858Y134.583
X120.874Y134.56
X120.908Y134.513
X120.935Y134.479
X120.96Y134.448
X120.977Y134.428
X120.995Y134.408
X121.033Y134.367
X121.053Y134.347
X121.072Y134.327
X121.106Y134.296
G0Z1
X135.566Y135.461
G1Z-0.05F50
X135.583Y135.285F100
X135.635Y135.116
X135.718Y134.96
X135.83Y134.823
X135.967Y134.711
X136.122Y134.628
X136.292Y134.577
X136.467Y134.559
X136.643Y134.577
X136.812Y134.628
X136.968Y134.711
X137.105Y134.823
X137.217Y134.96
X137.3Y135.116
X137.351Y135.285
X137.369Y135.461
X137.351Y135.636
X137.3Y135.805
X137.217Y135.961
X137.105Y136.098
X136.968Y136.21
X136.812Y136.293
X136.643Y136.344
X136.467Y136.362
X136.292Y136.344
X136.122Y136.293
X135.967Y136.21
X135.83Y136.098
X135.718Y135.961
X135.635Y135.805
X135.583Y135.636
X135.566Y135.461
G0Z1
X151.47
G1Z-0.05F50
X151.487Y135.285F100
X151.539Y135.116
X151.622Y134.96
X151.734Y134.823
X151.871Y134.711
X152.026Y134.628
X152.195Y134.577
X152.371Y134.559
X152.547Y134.577
X152.716Y134.628
X152.872Y134.711
X153.009Y134.823
X153.121Y134.96
X153.204Y135.116
X153.255Y135.285
X153.273Y135.461
X153.255Y135.636
X153.204Y135.805
X153.121Y135.961
X153.009Y136.098
X152.872Y136.21
X152.716Y136.293
X152.547Y136.344
X152.371Y136.362
X152.195Y136.344
X152.026Y136.293
X151.871Y136.21
X151.734Y136.098
X151.622Y135.961
X151.539Y135.805
X151.487Y135.636
X151.47Y135.461
G0Z1
X154.973Y127.535
G1Z-0.05F50
X128.518F100
X127.864Y127.541
X127.211Y127.557
X126.557Y127.585
X125.904Y127.623
X125.252Y127.672
X124.601Y127.732
X123.95Y127.802
X123.302Y127.884
X122.654Y127.976
X122.008Y128.079
X121.364Y128.193
X120.721Y128.317
X120.598Y128.344
X120.474Y128.372
X120.351Y128.403
X120.229Y128.436
X120.108Y128.471
X119.986Y128.508
X119.866Y128.547
X119.746Y128.588
X119.627Y128.631
X119.509Y128.676
X119.392Y128.724
X119.275Y128.773
X119.16Y128.824
X119.045Y128.878
X118.931Y128.933
X118.818Y128.99
X118.706Y129.05
X118.596Y129.111
X118.486Y129.174
X118.377Y129.239
X118.27Y129.306
X118.163Y129.374
X118.058Y129.445
X117.954Y129.517
X117.852Y129.591
X117.75Y129.667
X117.65Y129.745
X117.552Y129.824
X117.455Y129.905
X117.359Y129.988
X117.264Y130.072
X117.172Y130.158
X117.08Y130.246
X116.99Y130.335
X116.902Y130.426
X116.815Y130.518
X116.73Y130.612
X116.647Y130.707
X116.565Y130.804
X116.465Y130.926
X116.367Y131.05
X116.272Y131.175
X116.178Y131.302
X116.086Y131.431
X115.997Y131.562
X115.91Y131.694
X115.826Y131.827
X115.743Y131.962
X115.663Y132.098
X115.585Y132.235
X115.51Y132.374
X115.437Y132.514
X115.367Y132.656
X115.299Y132.798
X115.233Y132.942
X115.17Y133.086
X115.109Y133.232
X115.051Y133.379
X114.995Y133.527
X114.942Y133.676
X114.892Y133.825
X114.844Y133.976
X114.798Y134.127
X114.755Y134.279
X114.715Y134.432
X114.678Y134.585
X114.643Y134.739
X114.61Y134.894
X114.581Y135.049
X114.554Y135.205
X114.529Y135.361
X114.508Y135.517
X114.489Y135.674
X114.473Y135.831
X114.459Y135.989
X114.448Y136.146
X114.44Y136.304
X114.435Y136.462
X114.432Y136.62
Y136.778
X114.435Y136.936
X114.44Y137.093
X114.448Y137.251
X114.459Y137.409
X114.472Y137.566
X114.488Y137.723
X114.507Y137.88
X114.527Y138.023
X114.946Y140.914
X114.96Y140.989
X114.977Y141.066
X114.996Y141.141
X115.017Y141.215
X115.041Y141.288
X115.068Y141.361
X115.098Y141.433
X115.129Y141.504
X115.163Y141.573
X115.2Y141.642
X115.239Y141.708
X115.28Y141.774
X115.324Y141.838
X115.369Y141.901
X115.418Y141.962
X115.467Y142.021
X115.519Y142.078
X115.574Y142.135
X115.628Y142.187
X115.687Y142.239
X115.746Y142.289
X115.807Y142.336
X115.87Y142.382
X115.934Y142.425
X116.001Y142.466
X116.067Y142.504
X116.135Y142.54
X116.206Y142.575
X116.276Y142.606
X116.348Y142.635
X116.42Y142.661
X116.495Y142.685
X116.57Y142.707
X116.644Y142.725
X116.72Y142.741
X116.797Y142.755
X116.873Y142.765
X116.95Y142.773
X117.028Y142.779
X117.104Y142.782
X117.143
X122.194
X122.311Y142.781
X122.428Y142.778
X122.545Y142.773
X122.661Y142.766
X123.917Y142.676
X125.069Y142.611
X126.223Y142.565
X127.377Y142.537
X128.538Y142.528
X132.091
X132.129Y142.531
X132.167Y142.534
X132.205Y142.535
X132.244
X160.244
X160.283
X160.323Y142.533
X160.363Y142.531
X160.402Y142.527
X160.442Y142.523
X160.481Y142.518
X160.521Y142.511
X160.56Y142.504
X160.599Y142.495
X160.637Y142.486
X160.676Y142.476
X160.714Y142.464
X160.751Y142.452
X160.789Y142.439
X160.826Y142.425
X160.863Y142.41
X160.899Y142.394
X160.935Y142.377
X160.971Y142.359
X161.006Y142.341
X161.041Y142.321
X161.076Y142.3
X161.11Y142.279
X161.144Y142.256
X161.177Y142.233
X161.209Y142.209
X161.241Y142.184
X161.272Y142.158
X161.287Y142.145
X161.317Y142.119
X161.339Y142.098
X161.361Y142.077
X161.389Y142.049
X161.416Y142.02
X161.448Y141.984
X161.479Y141.947
X161.501Y141.919
X161.522Y141.891
X161.543Y141.862
X161.563Y141.833
X161.583Y141.804
X161.601Y141.773
X161.618Y141.745
X161.635Y141.717
X161.65Y141.688
X161.669Y141.65
X161.687Y141.613
X161.701Y141.583
X161.713Y141.554
X161.729Y141.513
X161.738Y141.491
X161.752Y141.451
X161.765Y141.41
X161.777Y141.368
X161.788Y141.326
X161.798Y141.283
X161.806Y141.243
X161.813Y141.202
X161.821Y141.151
X161.827Y141.095
X161.83Y141.061
X161.832Y141.028
X161.834Y140.994
X161.835Y140.944
Y140.712
X161.845Y140.65
X161.856Y140.573
X161.864Y140.496
X161.87Y140.419
X161.872Y140.34
X161.873Y140.302
Y129.468
X161.872Y129.429
X161.871Y129.389
X161.868Y129.35
X161.865Y129.311
X161.86Y129.272
X161.855Y129.232
X161.849Y129.194
X161.841Y129.155
X161.834Y129.121
X161.833Y129.079
X161.831Y129.036
X161.827Y128.993
X161.823Y128.95
X161.817Y128.908
X161.81Y128.865
X161.802Y128.823
X161.792Y128.781
X161.782Y128.739
X161.772Y128.704
X161.762Y128.67
X161.751Y128.636
X161.739Y128.602
X161.727Y128.568
X161.71Y128.527
X161.692Y128.486
X161.673Y128.446
X161.651Y128.402
X161.635Y128.373
X161.618Y128.343
X161.596Y128.307
X161.574Y128.271
X161.552Y128.239
X161.53Y128.208
X161.507Y128.177
X161.483Y128.147
X161.458Y128.117
X161.433Y128.088
X161.407Y128.059
X161.38Y128.031
X161.353Y128.004
X161.325Y127.978
X161.297Y127.952
X161.267Y127.927
X161.238Y127.902
X161.207Y127.878
X161.176Y127.855
X161.145Y127.833
X161.113Y127.812
X161.08Y127.791
X161.047Y127.771
X161.013Y127.752
X160.979Y127.733
X160.944Y127.716
X160.91Y127.7
X160.875Y127.684
X160.84Y127.669
X160.804Y127.656
X160.768Y127.642
X160.732Y127.63
X160.696Y127.619
X160.659Y127.609
X160.622Y127.599
X160.585Y127.59
X160.547Y127.583
X160.51Y127.576
X160.472Y127.57
X160.434Y127.565
X160.396Y127.561
X160.358Y127.557
X160.32Y127.555
X160.282Y127.554
X160.244Y127.553
X156.307
X155.717Y127.54
X154.973Y127.535
G0Z1
X121.106Y134.296
G1Z-0.1F50
X121.136Y134.269F100
X121.155Y134.253
X121.177Y134.235
X121.199Y134.218
X121.221Y134.201
X121.243Y134.184
X121.266Y134.168
X121.292Y134.15
X121.312Y134.137
X121.335Y134.122
X121.359Y134.107
X121.383Y134.093
X121.408Y134.079
X121.432Y134.066
X121.457Y134.053
X121.482Y134.041
X121.507Y134.029
X121.532Y134.017
X121.558Y134.006
X121.583Y133.996
X121.609Y133.985
X121.662Y133.966
X121.688Y133.957
X121.742Y133.941
X121.797Y133.926
X121.852Y133.914
X121.877Y133.909
X121.904Y133.904
X121.932Y133.899
X121.96Y133.895
X121.987Y133.891
X122.015Y133.888
X122.042Y133.885
X122.07Y133.883
X122.098Y133.881
X122.126Y133.88
X122.154
X122.182Y133.879
X122.21Y133.88
X122.237
X122.265Y133.881
X122.293Y133.883
X122.321Y133.885
X122.349Y133.888
X122.376Y133.891
X122.404Y133.895
X122.431Y133.899
X122.459Y133.904
X122.486Y133.909
X122.514Y133.914
X122.541Y133.92
X122.568Y133.927
X122.595Y133.934
X122.622Y133.941
X122.649Y133.949
X122.675Y133.957
X122.701Y133.966
X122.728Y133.976
X122.754Y133.985
X122.78Y133.996
X122.805Y134.006
X122.831Y134.017
X122.856Y134.029
X122.882Y134.041
X122.907Y134.053
X122.931Y134.066
X122.956Y134.079
X122.98Y134.093
X123.004Y134.107
X123.028Y134.122
X123.051Y134.137
X123.074Y134.152
X123.097Y134.168
X123.12Y134.184
X123.143Y134.201
X123.165Y134.218
X123.186Y134.235
X123.208Y134.253
X123.25Y134.289
X123.27Y134.308
X123.291Y134.327
X123.311Y134.347
X123.33Y134.367
X123.349Y134.387
X123.387Y134.428
X123.405Y134.45
X123.422Y134.471
X123.44Y134.493
X123.457Y134.515
X123.473Y134.537
X123.49Y134.56
X123.505Y134.583
X123.536Y134.63
X123.55Y134.654
X123.564Y134.678
X123.578Y134.702
X123.591Y134.726
X123.604Y134.751
X123.617Y134.776
X123.629Y134.801
X123.64Y134.827
X123.651Y134.852
X123.662Y134.878
X123.672Y134.904
X123.682Y134.93
X123.691Y134.956
X123.7Y134.983
X123.709Y135.009
X123.716Y135.036
X123.731Y135.092
X123.737Y135.117
X123.743Y135.144
X123.754Y135.199
X123.759Y135.226
X123.763Y135.254
X123.766Y135.281
X123.77Y135.309
X123.772Y135.337
X123.774Y135.365
X123.776Y135.392
X123.777Y135.42
X123.778Y135.448
Y135.476
Y135.504
X123.777Y135.532
X123.776Y135.559
X123.774Y135.587
X123.772Y135.615
X123.77Y135.643
X123.766Y135.671
X123.763Y135.698
X123.759Y135.726
X123.754Y135.753
X123.749Y135.781
X123.743Y135.808
X123.737Y135.835
X123.731Y135.862
X123.724Y135.889
X123.716Y135.916
X123.709Y135.943
X123.7Y135.969
X123.691Y135.996
X123.682Y136.022
X123.672Y136.048
X123.662Y136.074
X123.651Y136.1
X123.64Y136.125
X123.629Y136.151
X123.617Y136.176
X123.604Y136.201
X123.591Y136.225
X123.578Y136.25
X123.564Y136.274
X123.55Y136.298
X123.536Y136.322
X123.521Y136.345
X123.505Y136.369
X123.49Y136.392
X123.473Y136.414
X123.457Y136.437
X123.44Y136.459
X123.423Y136.481
X123.405Y136.502
X123.387Y136.524
X123.368Y136.544
X123.349Y136.565
X123.33Y136.585
X123.311Y136.605
X123.291Y136.625
X123.27Y136.644
X123.25Y136.662
X123.229Y136.681
X123.208Y136.699
X123.186Y136.717
X123.165Y136.734
X123.143Y136.751
X123.12Y136.768
X123.097Y136.784
X123.075Y136.8
X123.051Y136.815
X123.028Y136.83
X123.004Y136.844
X122.98Y136.859
X122.956Y136.872
X122.931Y136.886
X122.907Y136.899
X122.882Y136.911
X122.857Y136.923
X122.831Y136.935
X122.805Y136.946
X122.78Y136.956
X122.754Y136.967
X122.727Y136.976
X122.701Y136.986
X122.675Y136.994
X122.649Y137.003
X122.622Y137.011
X122.595Y137.018
X122.568Y137.025
X122.541Y137.032
X122.514Y137.038
X122.486Y137.043
X122.459Y137.048
X122.431Y137.053
X122.404Y137.057
X122.376Y137.061
X122.349Y137.064
X122.321Y137.066
X122.293Y137.069
X122.265Y137.07
X122.237Y137.072
X122.21
X122.163
X122.123Y137.071
X122.098Y137.07
X122.07Y137.069
X122.015Y137.064
X121.987Y137.061
X121.96Y137.057
X121.932Y137.053
X121.904Y137.048
X121.877Y137.043
X121.85Y137.038
X121.823Y137.032
X121.795Y137.025
X121.768Y137.018
X121.742Y137.011
X121.715Y137.003
X121.688Y136.994
X121.662Y136.986
X121.636Y136.976
X121.609Y136.967
X121.583Y136.956
X121.558Y136.946
X121.532Y136.935
X121.507Y136.923
X121.482Y136.911
X121.457Y136.899
X121.432Y136.886
X121.408Y136.872
X121.383Y136.859
X121.359Y136.844
X121.336Y136.83
X121.312Y136.815
X121.289Y136.8
X121.27Y136.787
X121.242Y136.767
X121.221Y136.751
X121.199Y136.734
X121.177Y136.717
X121.155Y136.699
X121.134Y136.681
X121.113Y136.662
X121.093Y136.644
X121.073Y136.625
X121.053Y136.605
X121.033Y136.585
X121.014Y136.565
X120.995Y136.544
X120.966Y136.51
X120.939Y136.478
X120.923Y136.459
X120.907Y136.437
X120.89Y136.414
X120.874Y136.392
X120.858Y136.369
X120.842Y136.345
X120.828Y136.322
X120.811Y136.294
X120.799Y136.274
X120.785Y136.25
X120.772Y136.225
X120.747Y136.176
X120.735Y136.151
X120.723Y136.125
X120.712Y136.1
X120.701Y136.074
X120.691Y136.048
X120.672Y135.996
X120.663Y135.969
X120.656Y135.946
X120.647Y135.915
X120.639Y135.889
X120.632Y135.862
X120.626Y135.835
X120.62Y135.808
X120.614Y135.781
X120.609Y135.753
X120.605Y135.726
X120.601Y135.698
X120.597Y135.671
X120.594Y135.643
X120.591Y135.615
X120.589Y135.587
X120.587Y135.559
X120.586Y135.532
X120.585Y135.504
Y135.459
X120.586Y135.418
X120.587Y135.392
X120.589Y135.365
X120.591Y135.337
X120.593Y135.316
X120.597Y135.28
X120.601Y135.254
X120.605Y135.226
X120.609Y135.199
X120.614Y135.171
X120.62Y135.144
X120.626Y135.117
X120.632Y135.09
X120.639Y135.063
X120.647Y135.036
X120.655Y135.009
X120.663Y134.983
X120.672Y134.956
X120.681Y134.93
X120.691Y134.904
X120.703Y134.874
X120.712Y134.852
X120.723Y134.827
X120.735Y134.801
X120.747Y134.776
X120.759Y134.751
X120.772Y134.726
X120.786Y134.7
X120.799Y134.678
X120.813Y134.654
X120.828Y134.63
X120.842Y134.606
X120.858Y134.583
X120.874Y134.56
X120.908Y134.513
X120.935Y134.479
X120.96Y134.448
X120.977Y134.428
X120.995Y134.408
X121.033Y134.367
X121.053Y134.347
X121.072Y134.327
X121.106Y134.296
G0Z1
X135.566Y135.461
G1Z-0.1F50
X135.583Y135.285F100
X135.635Y135.116
X135.718Y134.96
X135.83Y134.823
X135.967Y134.711
X136.122Y134.628
X136.292Y134.577
X136.467Y134.559
X136.643Y134.577
X136.812Y134.628
X136.968Y134.711
X137.105Y134.823
X137.217Y134.96
X137.3Y135.116
X137.351Y135.285
X137.369Y135.461
X137.351Y135.636
X137.3Y135.805
X137.217Y135.961
X137.105Y136.098
X136.968Y136.21
X136.812Y136.293
X136.643Y136.344
X136.467Y136.362
X136.292Y136.344
X136.122Y136.293
X135.967Y136.21
X135.83Y136.098
X135.718Y135.961
X135.635Y135.805
X135.583Y135.636
X135.566Y135.461
G0Z1
X151.47
G1Z-0.1F50
X151.487Y135.285F100
X151.539Y135.116
X151.622Y134.96
X151.734Y134.823
X151.871Y134.711
X152.026Y134.628
X152.195Y134.577
X152.371Y134.559
X152.547Y134.577
X152.716Y134.628
X152.872Y134.711
X153.009Y134.823
X153.121Y134.96
X153.204Y135.116
X153.255Y135.285
X153.273Y135.461
X153.255Y135.636
X153.204Y135.805
X153.121Y135.961
X153.009Y136.098
X152.872Y136.21
X152.716Y136.293
X152.547Y136.344
X152.371Y136.362
X152.195Y136.344
X152.026Y136.293
X151.871Y136.21
X151.734Y136.098
X151.622Y135.961
X151.539Y135.805
X151.487Y135.636
X151.47Y135.461
G0Z1
X154.973Y127.535
G1Z-0.1F50
X128.518F100
X127.864Y127.541
X127.211Y127.557
X126.557Y127.585
X125.904Y127.623
X125.252Y127.672
X124.601Y127.732
X123.95Y127.802
X123.302Y127.884
X122.654Y127.976
X122.008Y128.079
X121.364Y128.193
X120.721Y128.317
X120.598Y128.344
X120.474Y128.372
X120.351Y128.403
X120.229Y128.436
X120.108Y128.471
X119.986Y128.508
X119.866Y128.547
X119.746Y128.588
X119.627Y128.631
X119.509Y128.676
X119.392Y128.724
X119.275Y128.773
X119.16Y128.824
X119.045Y128.878
X118.931Y128.933
X118.818Y128.99
X118.706Y129.05
X118.596Y129.111
X118.486Y129.174
X118.377Y129.239
X118.27Y129.306
X118.163Y129.374
X118.058Y129.445
X117.954Y129.517
X117.852Y129.591
X117.75Y129.667
X117.65Y129.745
X117.552Y129.824
X117.455Y129.905
X117.359Y129.988
X117.264Y130.072
X117.172Y130.158
X117.08Y130.246
X116.99Y130.335
X116.902Y130.426
X116.815Y130.518
X116.73Y130.612
X116.647Y130.707
X116.565Y130.804
X116.465Y130.926
X116.367Y131.05
X116.272Y131.175
X116.178Y131.302
X116.086Y131.431
X115.997Y131.562
X115.91Y131.694
X115.826Y131.827
X115.743Y131.962
X115.663Y132.098
X115.585Y132.235
X115.51Y132.374
X115.437Y132.514
X115.367Y132.656
X115.299Y132.798
X115.233Y132.942
X115.17Y133.086
X115.109Y133.232
X115.051Y133.379
X114.995Y133.527
X114.942Y133.676
X114.892Y133.825
X114.844Y133.976
X114.798Y134.127
X114.755Y134.279
X114.715Y134.432
X114.678Y134.585
X114.643Y134.739
X114.61Y134.894
X114.581Y135.049
X114.554Y135.205
X114.529Y135.361
X114.508Y135.517
X114.489Y135.674
X114.473Y135.831
X114.459Y135.989
X114.448Y136.146
X114.44Y136.304
X114.435Y136.462
X114.432Y136.62
Y136.778
X114.435Y136.936
X114.44Y137.093
X114.448Y137.251
X114.459Y137.409
X114.472Y137.566
X114.488Y137.723
X114.507Y137.88
X114.527Y138.023
X114.946Y140.914
X114.96Y140.989
X114.977Y141.066
X114.996Y141.141
X115.017Y141.215
X115.041Y141.288
X115.068Y141.361
X115.098Y141.433
X115.129Y141.504
X115.163Y141.573
X115.2Y141.642
X115.239Y141.708
X115.28Y141.774
X115.324Y141.838
X115.369Y141.901
X115.418Y141.962
X115.467Y142.021
X115.519Y142.078
X115.574Y142.135
X115.628Y142.187
X115.687Y142.239
X115.746Y142.289
X115.807Y142.336
X115.87Y142.382
X115.934Y142.425
X116.001Y142.466
X116.067Y142.504
X116.135Y142.54
X116.206Y142.575
X116.276Y142.606
X116.348Y142.635
X116.42Y142.661
X116.495Y142.685
X116.57Y142.707
X116.644Y142.725
X116.72Y142.741
X116.797Y142.755
X116.873Y142.765
X116.95Y142.773
X117.028Y142.779
X117.104Y142.782
X117.143
X122.194
X122.311Y142.781
X122.428Y142.778
X122.545Y142.773
X122.661Y142.766
X123.917Y142.676
X125.069Y142.611
X126.223Y142.565
X127.377Y142.537
X128.538Y142.528
X132.091
X132.129Y142.531
X132.167Y142.534
X132.205Y142.535
X132.244
X160.244
X160.283
X160.323Y142.533
X160.363Y142.531
X160.402Y142.527
X160.442Y142.523
X160.481Y142.518
X160.521Y142.511
X160.56Y142.504
X160.599Y142.495
X160.637Y142.486
X160.676Y142.476
X160.714Y142.464
X160.751Y142.452
X160.789Y142.439
X160.826Y142.425
X160.863Y142.41
X160.899Y142.394
X160.935Y142.377
X160.971Y142.359
X161.006Y142.341
X161.041Y142.321
X161.076Y142.3
X161.11Y142.279
X161.144Y142.256
X161.177Y142.233
X161.209Y142.209
X161.241Y142.184
X161.272Y142.158
X161.287Y142.145
X161.317Y142.119
X161.339Y142.098
X161.361Y142.077
X161.389Y142.049
X161.416Y142.02
X161.448Y141.984
X161.479Y141.947
X161.501Y141.919
X161.522Y141.891
X161.543Y141.862
X161.563Y141.833
X161.583Y141.804
X161.601Y141.773
X161.618Y141.745
X161.635Y141.717
X161.65Y141.688
X161.669Y141.65
X161.687Y141.613
X161.701Y141.583
X161.713Y141.554
X161.729Y141.513
X161.738Y141.491
X161.752Y141.451
X161.765Y141.41
X161.777Y141.368
X161.788Y141.326
X161.798Y141.283
X161.806Y141.243
X161.813Y141.202
X161.821Y141.151
X161.827Y141.095
X161.83Y141.061
X161.832Y141.028
X161.834Y140.994
X161.835Y140.944
Y140.712
X161.845Y140.65
X161.856Y140.573
X161.864Y140.496
X161.87Y140.419
X161.872Y140.34
X161.873Y140.302
Y129.468
X161.872Y129.429
X161.871Y129.389
X161.868Y129.35
X161.865Y129.311
X161.86Y129.272
X161.855Y129.232
X161.849Y129.194
X161.841Y129.155
X161.834Y129.121
X161.833Y129.079
X161.831Y129.036
X161.827Y128.993
X161.823Y128.95
X161.817Y128.908
X161.81Y128.865
X161.802Y128.823
X161.792Y128.781
X161.782Y128.739
X161.772Y128.704
X161.762Y128.67
X161.751Y128.636
X161.739Y128.602
X161.727Y128.568
X161.71Y128.527
X161.692Y128.486
X161.673Y128.446
X161.651Y128.402
X161.635Y128.373
X161.618Y128.343
X161.596Y128.307
X161.574Y128.271
X161.552Y128.239
X161.53Y128.208
X161.507Y128.177
X161.483Y128.147
X161.458Y128.117
X161.433Y128.088
X161.407Y128.059
X161.38Y128.031
X161.353Y128.004
X161.325Y127.978
X161.297Y127.952
X161.267Y127.927
X161.238Y127.902
X161.207Y127.878
X161.176Y127.855
X161.145Y127.833
X161.113Y127.812
X161.08Y127.791
X161.047Y127.771
X161.013Y127.752
X160.979Y127.733
X160.944Y127.716
X160.91Y127.7
X160.875Y127.684
X160.84Y127.669
X160.804Y127.656
X160.768Y127.642
X160.732Y127.63
X160.696Y127.619
X160.659Y127.609
X160.622Y127.599
X160.585Y127.59
X160.547Y127.583
X160.51Y127.576
X160.472Y127.57
X160.434Y127.565
X160.396Y127.561
X160.358Y127.557
X160.32Y127.555
X160.282Y127.554
X160.244Y127.553
X156.307
X155.717Y127.54
X154.973Y127.535
G0Z1
X121.106Y134.296
G1Z-0.15F50
X121.136Y134.269F100
X121.155Y134.253
X121.177Y134.235
X121.199Y134.218
X121.221Y134.201
X121.243Y134.184
X121.266Y134.168
X121.292Y134.15
X121.312Y134.137
X121.335Y134.122
X121.359Y134.107
X121.383Y134.093
X121.408Y134.079
X121.432Y134.066
X121.457Y134.053
X121.482Y134.041
X121.507Y134.029
X121.532Y134.017
X121.558Y134.006
X121.583Y133.996
X121.609Y133.985
X121.662Y133.966
X121.688Y133.957
X121.742Y133.941
X121.797Y133.926
X121.852Y133.914
X121.877Y133.909
X121.904Y133.904
X121.932Y133.899
X121.96Y133.895
X121.987Y133.891
X122.015Y133.888
X122.042Y133.885
X122.07Y133.883
X122.098Y133.881
X122.126Y133.88
X122.154
X122.182Y133.879
X122.21Y133.88
X122.237
X122.265Y133.881
X122.293Y133.883
X122.321Y133.885
X122.349Y133.888
X122.376Y133.891
X122.404Y133.895
X122.431Y133.899
X122.459Y133.904
X122.486Y133.909
X122.514Y133.914
X122.541Y133.92
X122.568Y133.927
X122.595Y133.934
X122.622Y133.941
X122.649Y133.949
X122.675Y133.957
X122.701Y133.966
X122.728Y133.976
X122.754Y133.985
X122.78Y133.996
X122.805Y134.006
X122.831Y134.017
X122.856Y134.029
X122.882Y134.041
X122.907Y134.053
X122.931Y134.066
X122.956Y134.079
X122.98Y134.093
X123.004Y134.107
X123.028Y134.122
X123.051Y134.137
X123.074Y134.152
X123.097Y134.168
X123.12Y134.184
X123.143Y134.201
X123.165Y134.218
X123.186Y134.235
X123.208Y134.253
X123.25Y134.289
X123.27Y134.308
X123.291Y134.327
X123.311Y134.347
X123.33Y134.367
X123.349Y134.387
X123.387Y134.428
X123.405Y134.45
X123.422Y134.471
X123.44Y134.493
X123.457Y134.515
X123.473Y134.537
X123.49Y134.56
X123.505Y134.583
X123.536Y134.63
X123.55Y134.654
X123.564Y134.678
X123.578Y134.702
X123.591Y134.726
X123.604Y134.751
X123.617Y134.776
X123.629Y134.801
X123.64Y134.827
X123.651Y134.852
X123.662Y134.878
X123.672Y134.904
X123.682Y134.93
X123.691Y134.956
X123.7Y134.983
X123.709Y135.009
X123.716Y135.036
X123.731Y135.092
X123.737Y135.117
X123.743Y135.144
X123.754Y135.199
X123.759Y135.226
X123.763Y135.254
X123.766Y135.281
X123.77Y135.309
X123.772Y135.337
X123.774Y135.365
X123.776Y135.392
X123.777Y135.42
X123.778Y135.448
Y135.476
Y135.504
X123.777Y135.532
X123.776Y135.559
X123.774Y135.587
X123.772Y135.615
X123.77Y135.643
X123.766Y135.671
X123.763Y135.698
X123.759Y135.726
X123.754Y135.753
X123.749Y135.781
X123.743Y135.808
X123.737Y135.835
X123.731Y135.862
X123.724Y135.889
X123.716Y135.916
X123.709Y135.943
X123.7Y135.969
X123.691Y135.996
X123.682Y136.022
X123.672Y136.048
X123.662Y136.074
X123.651Y136.1
X123.64Y136.125
X123.629Y136.151
X123.617Y136.176
X123.604Y136.201
X123.591Y136.225
X123.578Y136.25
X123.564Y136.274
X123.55Y136.298
X123.536Y136.322
X123.521Y136.345
X123.505Y136.369
X123.49Y136.392
X123.473Y136.414
X123.457Y136.437
X123.44Y136.459
X123.423Y136.481
X123.405Y136.502
X123.387Y136.524
X123.368Y136.544
X123.349Y136.565
X123.33Y136.585
X123.311Y136.605
X123.291Y136.625
X123.27Y136.644
X123.25Y136.662
X123.229Y136.681
X123.208Y136.699
X123.186Y136.717
X123.165Y136.734
X123.143Y136.751
X123.12Y136.768
X123.097Y136.784
X123.075Y136.8
X123.051Y136.815
X123.028Y136.83
X123.004Y136.844
X122.98Y136.859
X122.956Y136.872
X122.931Y136.886
X122.907Y136.899
X122.882Y136.911
X122.857Y136.923
X122.831Y136.935
X122.805Y136.946
X122.78Y136.956
X122.754Y136.967
X122.727Y136.976
X122.701Y136.986
X122.675Y136.994
X122.649Y137.003
X122.622Y137.011
X122.595Y137.018
X122.568Y137.025
X122.541Y137.032
X122.514Y137.038
X122.486Y137.043
X122.459Y137.048
X122.431Y137.053
X122.404Y137.057
X122.376Y137.061
X122.349Y137.064
X122.321Y137.066
X122.293Y137.069
X122.265Y137.07
X122.237Y137.072
X122.21
X122.163
X122.123Y137.071
X122.098Y137.07
X122.07Y137.069
X122.015Y137.064
X121.987Y137.061
X121.96Y137.057
X121.932Y137.053
X121.904Y137.048
X121.877Y137.043
X121.85Y137.038
X121.823Y137.032
X121.795Y137.025
X121.768Y137.018
X121.742Y137.011
X121.715Y137.003
X121.688Y136.994
X121.662Y136.986
X121.636Y136.976
X121.609Y136.967
X121.583Y136.956
X121.558Y136.946
X121.532Y136.935
X121.507Y136.923
X121.482Y136.911
X121.457Y136.899
X121.432Y136.886
X121.408Y136.872
X121.383Y136.859
X121.359Y136.844
X121.336Y136.83
X121.312Y136.815
X121.289Y136.8
X121.27Y136.787
X121.242Y136.767
X121.221Y136.751
X121.199Y136.734
X121.177Y136.717
X121.155Y136.699
X121.134Y136.681
X121.113Y136.662
X121.093Y136.644
X121.073Y136.625
X121.053Y136.605
X121.033Y136.585
X121.014Y136.565
X120.995Y136.544
X120.966Y136.51
X120.939Y136.478
X120.923Y136.459
X120.907Y136.437
X120.89Y136.414
X120.874Y136.392
X120.858Y136.369
X120.842Y136.345
X120.828Y136.322
X120.811Y136.294
X120.799Y136.274
X120.785Y136.25
X120.772Y136.225
X120.747Y136.176
X120.735Y136.151
X120.723Y136.125
X120.712Y136.1
X120.701Y136.074
X120.691Y136.048
X120.672Y135.996
X120.663Y135.969
X120.656Y135.946
X120.647Y135.915
X120.639Y135.889
X120.632Y135.862
X120.626Y135.835
X120.62Y135.808
X120.614Y135.781
X120.609Y135.753
X120.605Y135.726
X120.601Y135.698
X120.597Y135.671
X120.594Y135.643
X120.591Y135.615
X120.589Y135.587
X120.587Y135.559
X120.586Y135.532
X120.585Y135.504
Y135.459
X120.586Y135.418
X120.587Y135.392
X120.589Y135.365
X120.591Y135.337
X120.593Y135.316
X120.597Y135.28
X120.601Y135.254
X120.605Y135.226
X120.609Y135.199
X120.614Y135.171
X120.62Y135.144
X120.626Y135.117
X120.632Y135.09
X120.639Y135.063
X120.647Y135.036
X120.655Y135.009
X120.663Y134.983
X120.672Y134.956
X120.681Y134.93
X120.691Y134.904
X120.703Y134.874
X120.712Y134.852
X120.723Y134.827
X120.735Y134.801
X120.747Y134.776
X120.759Y134.751
X120.772Y134.726
X120.786Y134.7
X120.799Y134.678
X120.813Y134.654
X120.828Y134.63
X120.842Y134.606
X120.858Y134.583
X120.874Y134.56
X120.908Y134.513
X120.935Y134.479
X120.96Y134.448
X120.977Y134.428
X120.995Y134.408
X121.033Y134.367
X121.053Y134.347
X121.072Y134.327
X121.106Y134.296
G0Z1
X135.566Y135.461
G1Z-0.15F50
X135.583Y135.285F100
X135.635Y135.116
X135.718Y134.96
X135.83Y134.823
X135.967Y134.711
X136.122Y134.628
X136.292Y134.577
X136.467Y134.559
X136.643Y134.577
X136.812Y134.628
X136.968Y134.711
X137.105Y134.823
X137.217Y134.96
X137.3Y135.116
X137.351Y135.285
X137.369Y135.461
X137.351Y135.636
X137.3Y135.805
X137.217Y135.961
X137.105Y136.098
X136.968Y136.21
X136.812Y136.293
X136.643Y136.344
X136.467Y136.362
X136.292Y136.344
X136.122Y136.293
X135.967Y136.21
X135.83Y136.098
X135.718Y135.961
X135.635Y135.805
X135.583Y135.636
X135.566Y135.461
G0Z1
X151.47
G1Z-0.15F50
X151.487Y135.285F100
X151.539Y135.116
X151.622Y134.96
X151.734Y134.823
X151.871Y134.711
X152.026Y134.628
X152.195Y134.577
X152.371Y134.559
X152.547Y134.577
X152.716Y134.628
X152.872Y134.711
X153.009Y134.823
X153.121Y134.96
X153.204Y135.116
X153.255Y135.285
X153.273Y135.461
X153.255Y135.636
X153.204Y135.805
X153.121Y135.961
X153.009Y136.098
X152.872Y136.21
X152.716Y136.293
X152.547Y136.344
X152.371Y136.362
X152.195Y136.344
X152.026Y136.293
X151.871Y136.21
X151.734Y136.098
X151.622Y135.961
X151.539Y135.805
X151.487Y135.636
X151.47Y135.461
G0Z1
X154.973Y127.535
G1Z-0.15F50
X128.518F100
X127.864Y127.541
X127.211Y127.557
X126.557Y127.585
X125.904Y127.623
X125.252Y127.672
X124.601Y127.732
X123.95Y127.802
X123.302Y127.884
X122.654Y127.976
X122.008Y128.079
X121.364Y128.193
X120.721Y128.317
X120.598Y128.344
X120.474Y128.372
X120.351Y128.403
X120.229Y128.436
X120.108Y128.471
X119.986Y128.508
X119.866Y128.547
X119.746Y128.588
X119.627Y128.631
X119.509Y128.676
X119.392Y128.724
X119.275Y128.773
X119.16Y128.824
X119.045Y128.878
X118.931Y128.933
X118.818Y128.99
X118.706Y129.05
X118.596Y129.111
X118.486Y129.174
X118.377Y129.239
X118.27Y129.306
X118.163Y129.374
X118.058Y129.445
X117.954Y129.517
X117.852Y129.591
X117.75Y129.667
X117.65Y129.745
X117.552Y129.824
X117.455Y129.905
X117.359Y129.988
X117.264Y130.072
X117.172Y130.158
X117.08Y130.246
X116.99Y130.335
X116.902Y130.426
X116.815Y130.518
X116.73Y130.612
X116.647Y130.707
X116.565Y130.804
X116.465Y130.926
X116.367Y131.05
X116.272Y131.175
X116.178Y131.302
X116.086Y131.431
X115.997Y131.562
X115.91Y131.694
X115.826Y131.827
X115.743Y131.962
X115.663Y132.098
X115.585Y132.235
X115.51Y132.374
X115.437Y132.514
X115.367Y132.656
X115.299Y132.798
X115.233Y132.942
X115.17Y133.086
X115.109Y133.232
X115.051Y133.379
X114.995Y133.527
X114.942Y133.676
X114.892Y133.825
X114.844Y133.976
X114.798Y134.127
X114.755Y134.279
X114.715Y134.432
X114.678Y134.585
X114.643Y134.739
X114.61Y134.894
X114.581Y135.049
X114.554Y135.205
X114.529Y135.361
X114.508Y135.517
X114.489Y135.674
X114.473Y135.831
X114.459Y135.989
X114.448Y136.146
X114.44Y136.304
X114.435Y136.462
X114.432Y136.62
Y136.778
X114.435Y136.936
X114.44Y137.093
X114.448Y137.251
X114.459Y137.409
X114.472Y137.566
X114.488Y137.723
X114.507Y137.88
X114.527Y138.023
X114.946Y140.914
X114.96Y140.989
X114.977Y141.066
X114.996Y141.141
X115.017Y141.215
X115.041Y141.288
X115.068Y141.361
X115.098Y141.433
X115.129Y141.504
X115.163Y141.573
X115.2Y141.642
X115.239Y141.708
X115.28Y141.774
X115.324Y141.838
X115.369Y141.901
X115.418Y141.962
X115.467Y142.021
X115.519Y142.078
X115.574Y142.135
X115.628Y142.187
X115.687Y142.239
X115.746Y142.289
X115.807Y142.336
X115.87Y142.382
X115.934Y142.425
X116.001Y142.466
X116.067Y142.504
X116.135Y142.54
X116.206Y142.575
X116.276Y142.606
X116.348Y142.635
X116.42Y142.661
X116.495Y142.685
X116.57Y142.707
X116.644Y142.725
X116.72Y142.741
X116.797Y142.755
X116.873Y142.765
X116.95Y142.773
X117.028Y142.779
X117.104Y142.782
X117.143
X122.194
X122.311Y142.781
X122.428Y142.778
X122.545Y142.773
X122.661Y142.766
X123.917Y142.676
X125.069Y142.611
X126.223Y142.565
X127.377Y142.537
X128.538Y142.528
X132.091
X132.129Y142.531
X132.167Y142.534
X132.205Y142.535
X132.244
X160.244
X160.283
X160.323Y142.533
X160.363Y142.531
X160.402Y142.527
X160.442Y142.523
X160.481Y142.518
X160.521Y142.511
X160.56Y142.504
X160.599Y142.495
X160.637Y142.486
X160.676Y142.476
X160.714Y142.464
X160.751Y142.452
X160.789Y142.439
X160.826Y142.425
X160.863Y142.41
X160.899Y142.394
X160.935Y142.377
X160.971Y142.359
X161.006Y142.341
X161.041Y142.321
X161.076Y142.3
X161.11Y142.279
X161.144Y142.256
X161.177Y142.233
X161.209Y142.209
X161.241Y142.184
X161.272Y142.158
X161.287Y142.145
X161.317Y142.119
X161.339Y142.098
X161.361Y142.077
X161.389Y142.049
X161.416Y142.02
X161.448Y141.984
X161.479Y141.947
X161.501Y141.919
X161.522Y141.891
X161.543Y141.862
X161.563Y141.833
X161.583Y141.804
X161.601Y141.773
X161.618Y141.745
X161.635Y141.717
X161.65Y141.688
X161.669Y141.65
X161.687Y141.613
X161.701Y141.583
X161.713Y141.554
X161.729Y141.513
X161.738Y141.491
X161.752Y141.451
X161.765Y141.41
X161.777Y141.368
X161.788Y141.326
X161.798Y141.283
X161.806Y141.243
X161.813Y141.202
X161.821Y141.151
X161.827Y141.095
X161.83Y141.061
X161.832Y141.028
X161.834Y140.994
X161.835Y140.944
Y140.712
X161.845Y140.65
X161.856Y140.573
X161.864Y140.496
X161.87Y140.419
X161.872Y140.34
X161.873Y140.302
Y129.468
X161.872Y129.429
X161.871Y129.389
X161.868Y129.35
X161.865Y129.311
X161.86Y129.272
X161.855Y129.232
X161.849Y129.194
X161.841Y129.155
X161.834Y129.121
X161.833Y129.079
X161.831Y129.036
X161.827Y128.993
X161.823Y128.95
X161.817Y128.908
X161.81Y128.865
X161.802Y128.823
X161.792Y128.781
X161.782Y128.739
X161.772Y128.704
X161.762Y128.67
X161.751Y128.636
X161.739Y128.602
X161.727Y128.568
X161.71Y128.527
X161.692Y128.486
X161.673Y128.446
X161.651Y128.402
X161.635Y128.373
X161.618Y128.343
X161.596Y128.307
X161.574Y128.271
X161.552Y128.239
X161.53Y128.208
X161.507Y128.177
X161.483Y128.147
X161.458Y128.117
X161.433Y128.088
X161.407Y128.059
X161.38Y128.031
X161.353Y128.004
X161.325Y127.978
X161.297Y127.952
X161.267Y127.927
X161.238Y127.902
X161.207Y127.878
X161.176Y127.855
X161.145Y127.833
X161.113Y127.812
X161.08Y127.791
X161.047Y127.771
X161.013Y127.752
X160.979Y127.733
X160.944Y127.716
X160.91Y127.7
X160.875Y127.684
X160.84Y127.669
X160.804Y127.656
X160.768Y127.642
X160.732Y127.63
X160.696Y127.619
X160.659Y127.609
X160.622Y127.599
X160.585Y127.59
X160.547Y127.583
X160.51Y127.576
X160.472Y127.57
X160.434Y127.565
X160.396Y127.561
X160.358Y127.557
X160.32Y127.555
X160.282Y127.554
X160.244Y127.553
X156.307
X155.717Y127.54
X154.973Y127.535
G0Z1
X121.106Y134.296
G1Z-0.2F50
X121.136Y134.269F100
X121.155Y134.253
X121.177Y134.235
X121.199Y134.218
X121.221Y134.201
X121.243Y134.184
X121.266Y134.168
X121.292Y134.15
X121.312Y134.137
X121.335Y134.122
X121.359Y134.107
X121.383Y134.093
X121.408Y134.079
X121.432Y134.066
X121.457Y134.053
X121.482Y134.041
X121.507Y134.029
X121.532Y134.017
X121.558Y134.006
X121.583Y133.996
X121.609Y133.985
X121.662Y133.966
X121.688Y133.957
X121.742Y133.941
X121.797Y133.926
X121.852Y133.914
X121.877Y133.909
X121.904Y133.904
X121.932Y133.899
X121.96Y133.895
X121.987Y133.891
X122.015Y133.888
X122.042Y133.885
X122.07Y133.883
X122.098Y133.881
X122.126Y133.88
X122.154
X122.182Y133.879
X122.21Y133.88
X122.237
X122.265Y133.881
X122.293Y133.883
X122.321Y133.885
X122.349Y133.888
X122.376Y133.891
X122.404Y133.895
X122.431Y133.899
X122.459Y133.904
X122.486Y133.909
X122.514Y133.914
X122.541Y133.92
X122.568Y133.927
X122.595Y133.934
X122.622Y133.941
X122.649Y133.949
X122.675Y133.957
X122.701Y133.966
X122.728Y133.976
X122.754Y133.985
X122.78Y133.996
X122.805Y134.006
X122.831Y134.017
X122.856Y134.029
X122.882Y134.041
X122.907Y134.053
X122.931Y134.066
X122.956Y134.079
X122.98Y134.093
X123.004Y134.107
X123.028Y134.122
X123.051Y134.137
X123.074Y134.152
X123.097Y134.168
X123.12Y134.184
X123.143Y134.201
X123.165Y134.218
X123.186Y134.235
X123.208Y134.253
X123.25Y134.289
X123.27Y134.308
X123.291Y134.327
X123.311Y134.347
X123.33Y134.367
X123.349Y134.387
X123.387Y134.428
X123.405Y134.45
X123.422Y134.471
X123.44Y134.493
X123.457Y134.515
X123.473Y134.537
X123.49Y134.56
X123.505Y134.583
X123.536Y134.63
X123.55Y134.654
X123.564Y134.678
X123.578Y134.702
X123.591Y134.726
X123.604Y134.751
X123.617Y134.776
X123.629Y134.801
X123.64Y134.827
X123.651Y134.852
X123.662Y134.878
X123.672Y134.904
X123.682Y134.93
X123.691Y134.956
X123.7Y134.983
X123.709Y135.009
X123.716Y135.036
X123.731Y135.092
X123.737Y135.117
X123.743Y135.144
X123.754Y135.199
X123.759Y135.226
X123.763Y135.254
X123.766Y135.281
X123.77Y135.309
X123.772Y135.337
X123.774Y135.365
X123.776Y135.392
X123.777Y135.42
X123.778Y135.448
Y135.476
Y135.504
X123.777Y135.532
X123.776Y135.559
X123.774Y135.587
X123.772Y135.615
X123.77Y135.643
X123.766Y135.671
X123.763Y135.698
X123.759Y135.726
X123.754Y135.753
X123.749Y135.781
X123.743Y135.808
X123.737Y135.835
X123.731Y135.862
X123.724Y135.889
X123.716Y135.916
X123.709Y135.943
X123.7Y135.969
X123.691Y135.996
X123.682Y136.022
X123.672Y136.048
X123.662Y136.074
X123.651Y136.1
X123.64Y136.125
X123.629Y136.151
X123.617Y136.176
X123.604Y136.201
X123.591Y136.225
X123.578Y136.25
X123.564Y136.274
X123.55Y136.298
X123.536Y136.322
X123.521Y136.345
X123.505Y136.369
X123.49Y136.392
X123.473Y136.414
X123.457Y136.437
X123.44Y136.459
X123.423Y136.481
X123.405Y136.502
X123.387Y136.524
X123.368Y136.544
X123.349Y136.565
X123.33Y136.585
X123.311Y136.605
X123.291Y136.625
X123.27Y136.644
X123.25Y136.662
X123.229Y136.681
X123.208Y136.699
X123.186Y136.717
X123.165Y136.734
X123.143Y136.751
X123.12Y136.768
X123.097Y136.784
X123.075Y136.8
X123.051Y136.815
X123.028Y136.83
X123.004Y136.844
X122.98Y136.859
X122.956Y136.872
X122.931Y136.886
X122.907Y136.899
X122.882Y136.911
X122.857Y136.923
X122.831Y136.935
X122.805Y136.946
X122.78Y136.956
X122.754Y136.967
X122.727Y136.976
X122.701Y136.986
X122.675Y136.994
X122.649Y137.003
X122.622Y137.011
X122.595Y137.018
X122.568Y137.025
X122.541Y137.032
X122.514Y137.038
X122.486Y137.043
X122.459Y137.048
X122.431Y137.053
X122.404Y137.057
X122.376Y137.061
X122.349Y137.064
X122.321Y137.066
X122.293Y137.069
X122.265Y137.07
X122.237Y137.072
X122.21
X122.163
X122.123Y137.071
X122.098Y137.07
X122.07Y137.069
X122.015Y137.064
X121.987Y137.061
X121.96Y137.057
X121.932Y137.053
X121.904Y137.048
X121.877Y137.043
X121.85Y137.038
X121.823Y137.032
X121.795Y137.025
X121.768Y137.018
X121.742Y137.011
X121.715Y137.003
X121.688Y136.994
X121.662Y136.986
X121.636Y136.976
X121.609Y136.967
X121.583Y136.956
X121.558Y136.946
X121.532Y136.935
X121.507Y136.923
X121.482Y136.911
X121.457Y136.899
X121.432Y136.886
X121.408Y136.872
X121.383Y136.859
X121.359Y136.844
X121.336Y136.83
X121.312Y136.815
X121.289Y136.8
X121.27Y136.787
X121.242Y136.767
X121.221Y136.751
X121.199Y136.734
X121.177Y136.717
X121.155Y136.699
X121.134Y136.681
X121.113Y136.662
X121.093Y136.644
X121.073Y136.625
X121.053Y136.605
X121.033Y136.585
X121.014Y136.565
X120.995Y136.544
X120.966Y136.51
X120.939Y136.478
X120.923Y136.459
X120.907Y136.437
X120.89Y136.414
X120.874Y136.392
X120.858Y136.369
X120.842Y136.345
X120.828Y136.322
X120.811Y136.294
X120.799Y136.274
X120.785Y136.25
X120.772Y136.225
X120.747Y136.176
X120.735Y136.151
X120.723Y136.125
X120.712Y136.1
X120.701Y136.074
X120.691Y136.048
X120.672Y135.996
X120.663Y135.969
X120.656Y135.946
X120.647Y135.915
X120.639Y135.889
X120.632Y135.862
X120.626Y135.835
X120.62Y135.808
X120.614Y135.781
X120.609Y135.753
X120.605Y135.726
X120.601Y135.698
X120.597Y135.671
X120.594Y135.643
X120.591Y135.615
X120.589Y135.587
X120.587Y135.559
X120.586Y135.532
X120.585Y135.504
Y135.459
X120.586Y135.418
X120.587Y135.392
X120.589Y135.365
X120.591Y135.337
X120.593Y135.316
X120.597Y135.28
X120.601Y135.254
X120.605Y135.226
X120.609Y135.199
X120.614Y135.171
X120.62Y135.144
X120.626Y135.117
X120.632Y135.09
X120.639Y135.063
X120.647Y135.036
X120.655Y135.009
X120.663Y134.983
X120.672Y134.956
X120.681Y134.93
X120.691Y134.904
X120.703Y134.874
X120.712Y134.852
X120.723Y134.827
X120.735Y134.801
X120.747Y134.776
X120.759Y134.751
X120.772Y134.726
X120.786Y134.7
X120.799Y134.678
X120.813Y134.654
X120.828Y134.63
X120.842Y134.606
X120.858Y134.583
X120.874Y134.56
X120.908Y134.513
X120.935Y134.479
X120.96Y134.448
X120.977Y134.428
X120.995Y134.408
X121.033Y134.367
X121.053Y134.347
X121.072Y134.327
X121.106Y134.296
G0Z1
X135.566Y135.461
G1Z-0.2F50
X135.583Y135.285F100
X135.635Y135.116
X135.718Y134.96
X135.83Y134.823
X135.967Y134.711
X136.122Y134.628
X136.292Y134.577
X136.467Y134.559
X136.643Y134.577
X136.812Y134.628
X136.968Y134.711
X137.105Y134.823
X137.217Y134.96
X137.3Y135.116
X137.351Y135.285
X137.369Y135.461
X137.351Y135.636
X137.3Y135.805
X137.217Y135.961
X137.105Y136.098
X136.968Y136.21
X136.812Y136.293
X136.643Y136.344
X136.467Y136.362
X136.292Y136.344
X136.122Y136.293
X135.967Y136.21
X135.83Y136.098
X135.718Y135.961
X135.635Y135.805
X135.583Y135.636
X135.566Y135.461
G0Z1
X151.47
G1Z-0.2F50
X151.487Y135.285F100
X151.539Y135.116
X151.622Y134.96
X151.734Y134.823
X151.871Y134.711
X152.026Y134.628
X152.195Y134.577
X152.371Y134.559
X152.547Y134.577
X152.716Y134.628
X152.872Y134.711
X153.009Y134.823
X153.121Y134.96
X153.204Y135.116
X153.255Y135.285
X153.273Y135.461
X153.255Y135.636
X153.204Y135.805
X153.121Y135.961
X153.009Y136.098
X152.872Y136.21
X152.716Y136.293
X152.547Y136.344
X152.371Y136.362
X152.195Y136.344
X152.026Y136.293
X151.871Y136.21
X151.734Y136.098
X151.622Y135.961
X151.539Y135.805
X151.487Y135.636
X151.47Y135.461
G0Z1
X154.973Y127.535
G1Z-0.2F50
X128.518F100
X127.864Y127.541
X127.211Y127.557
X126.557Y127.585
X125.904Y127.623
X125.252Y127.672
X124.601Y127.732
X123.95Y127.802
X123.302Y127.884
X122.654Y127.976
X122.008Y128.079
X121.364Y128.193
X120.721Y128.317
X120.598Y128.344
X120.474Y128.372
X120.351Y128.403
X120.229Y128.436
X120.108Y128.471
X119.986Y128.508
X119.866Y128.547
X119.746Y128.588
X119.627Y128.631
X119.509Y128.676
X119.392Y128.724
X119.275Y128.773
X119.16Y128.824
X119.045Y128.878
X118.931Y128.933
X118.818Y128.99
X118.706Y129.05
X118.596Y129.111
X118.486Y129.174
X118.377Y129.239
X118.27Y129.306
X118.163Y129.374
X118.058Y129.445
X117.954Y129.517
X117.852Y129.591
X117.75Y129.667
X117.65Y129.745
X117.552Y129.824
X117.455Y129.905
X117.359Y129.988
X117.264Y130.072
X117.172Y130.158
X117.08Y130.246
X116.99Y130.335
X116.902Y130.426
X116.815Y130.518
X116.73Y130.612
X116.647Y130.707
X116.565Y130.804
X116.465Y130.926
X116.367Y131.05
X116.272Y131.175
X116.178Y131.302
X116.086Y131.431
X115.997Y131.562
X115.91Y131.694
X115.826Y131.827
X115.743Y131.962
X115.663Y132.098
X115.585Y132.235
X115.51Y132.374
X115.437Y132.514
X115.367Y132.656
X115.299Y132.798
X115.233Y132.942
X115.17Y133.086
X115.109Y133.232
X115.051Y133.379
X114.995Y133.527
X114.942Y133.676
X114.892Y133.825
X114.844Y133.976
X114.798Y134.127
X114.755Y134.279
X114.715Y134.432
X114.678Y134.585
X114.643Y134.739
X114.61Y134.894
X114.581Y135.049
X114.554Y135.205
X114.529Y135.361
X114.508Y135.517
X114.489Y135.674
X114.473Y135.831
X114.459Y135.989
X114.448Y136.146
X114.44Y136.304
X114.435Y136.462
X114.432Y136.62
Y136.778
X114.435Y136.936
X114.44Y137.093
X114.448Y137.251
X114.459Y137.409
X114.472Y137.566
X114.488Y137.723
X114.507Y137.88
X114.527Y138.023
X114.946Y140.914
X114.96Y140.989
X114.977Y141.066
X114.996Y141.141
X115.017Y141.215
X115.041Y141.288
X115.068Y141.361
X115.098Y141.433
X115.129Y141.504
X115.163Y141.573
X115.2Y141.642
X115.239Y141.708
X115.28Y141.774
X115.324Y141.838
X115.369Y141.901
X115.418Y141.962
X115.467Y142.021
X115.519Y142.078
X115.574Y142.135
X115.628Y142.187
X115.687Y142.239
X115.746Y142.289
X115.807Y142.336
X115.87Y142.382
X115.934Y142.425
X116.001Y142.466
X116.067Y142.504
X116.135Y142.54
X116.206Y142.575
X116.276Y142.606
X116.348Y142.635
X116.42Y142.661
X116.495Y142.685
X116.57Y142.707
X116.644Y142.725
X116.72Y142.741
X116.797Y142.755
X116.873Y142.765
X116.95Y142.773
X117.028Y142.779
X117.104Y142.782
X117.143
X122.194
X122.311Y142.781
X122.428Y142.778
X122.545Y142.773
X122.661Y142.766
X123.917Y142.676
X125.069Y142.611
X126.223Y142.565
X127.377Y142.537
X128.538Y142.528
X132.091
X132.129Y142.531
X132.167Y142.534
X132.205Y142.535
X132.244
X160.244
X160.283
X160.323Y142.533
X160.363Y142.531
X160.402Y142.527
X160.442Y142.523
X160.481Y142.518
X160.521Y142.511
X160.56Y142.504
X160.599Y142.495
X160.637Y142.486
X160.676Y142.476
X160.714Y142.464
X160.751Y142.452
X160.789Y142.439
X160.826Y142.425
X160.863Y142.41
X160.899Y142.394
X160.935Y142.377
X160.971Y142.359
X161.006Y142.341
X161.041Y142.321
X161.076Y142.3
X161.11Y142.279
X161.144Y142.256
X161.177Y142.233
X161.209Y142.209
X161.241Y142.184
X161.272Y142.158
X161.287Y142.145
X161.317Y142.119
X161.339Y142.098
X161.361Y142.077
X161.389Y142.049
X161.416Y142.02
X161.448Y141.984
X161.479Y141.947
X161.501Y141.919
X161.522Y141.891
X161.543Y141.862
X161.563Y141.833
X161.583Y141.804
X161.601Y141.773
X161.618Y141.745
X161.635Y141.717
X161.65Y141.688
X161.669Y141.65
X161.687Y141.613
X161.701Y141.583
X161.713Y141.554
X161.729Y141.513
X161.738Y141.491
X161.752Y141.451
X161.765Y141.41
X161.777Y141.368
X161.788Y141.326
X161.798Y141.283
X161.806Y141.243
X161.813Y141.202
X161.821Y141.151
X161.827Y141.095
X161.83Y141.061
X161.832Y141.028
X161.834Y140.994
X161.835Y140.944
Y140.712
X161.845Y140.65
X161.856Y140.573
X161.864Y140.496
X161.87Y140.419
X161.872Y140.34
X161.873Y140.302
Y129.468
X161.872Y129.429
X161.871Y129.389
X161.868Y129.35
X161.865Y129.311
X161.86Y129.272
X161.855Y129.232
X161.849Y129.194
X161.841Y129.155
X161.834Y129.121
X161.833Y129.079
X161.831Y129.036
X161.827Y128.993
X161.823Y128.95
X161.817Y128.908
X161.81Y128.865
X161.802Y128.823
X161.792Y128.781
X161.782Y128.739
X161.772Y128.704
X161.762Y128.67
X161.751Y128.636
X161.739Y128.602
X161.727Y128.568
X161.71Y128.527
X161.692Y128.486
X161.673Y128.446
X161.651Y128.402
X161.635Y128.373
X161.618Y128.343
X161.596Y128.307
X161.574Y128.271
X161.552Y128.239
X161.53Y128.208
X161.507Y128.177
X161.483Y128.147
X161.458Y128.117
X161.433Y128.088
X161.407Y128.059
X161.38Y128.031
X161.353Y128.004
X161.325Y127.978
X161.297Y127.952
X161.267Y127.927
X161.238Y127.902
X161.207Y127.878
X161.176Y127.855
X161.145Y127.833
X161.113Y127.812
X161.08Y127.791
X161.047Y127.771
X161.013Y127.752
X160.979Y127.733
X160.944Y127.716
X160.91Y127.7
X160.875Y127.684
X160.84Y127.669
X160.804Y127.656
X160.768Y127.642
X160.732Y127.63
X160.696Y127.619
X160.659Y127.609
X160.622Y127.599
X160.585Y127.59
X160.547Y127.583
X160.51Y127.576
X160.472Y127.57
X160.434Y127.565
X160.396Y127.561
X160.358Y127.557
X160.32Y127.555
X160.282Y127.554
X160.244Y127.553
X156.307
X155.717Y127.54
X154.973Y127.535
G0Z1
X121.106Y134.296
G1Z-0.25F50
X121.136Y134.269F100
X121.155Y134.253
X121.177Y134.235
X121.199Y134.218
X121.221Y134.201
X121.243Y134.184
X121.266Y134.168
X121.292Y134.15
X121.312Y134.137
X121.335Y134.122
X121.359Y134.107
X121.383Y134.093
X121.408Y134.079
X121.432Y134.066
X121.457Y134.053
X121.482Y134.041
X121.507Y134.029
X121.532Y134.017
X121.558Y134.006
X121.583Y133.996
X121.609Y133.985
X121.662Y133.966
X121.688Y133.957
X121.742Y133.941
X121.797Y133.926
X121.852Y133.914
X121.877Y133.909
X121.904Y133.904
X121.932Y133.899
X121.96Y133.895
X121.987Y133.891
X122.015Y133.888
X122.042Y133.885
X122.07Y133.883
X122.098Y133.881
X122.126Y133.88
X122.154
X122.182Y133.879
X122.21Y133.88
X122.237
X122.265Y133.881
X122.293Y133.883
X122.321Y133.885
X122.349Y133.888
X122.376Y133.891
X122.404Y133.895
X122.431Y133.899
X122.459Y133.904
X122.486Y133.909
X122.514Y133.914
X122.541Y133.92
X122.568Y133.927
X122.595Y133.934
X122.622Y133.941
X122.649Y133.949
X122.675Y133.957
X122.701Y133.966
X122.728Y133.976
X122.754Y133.985
X122.78Y133.996
X122.805Y134.006
X122.831Y134.017
X122.856Y134.029
X122.882Y134.041
X122.907Y134.053
X122.931Y134.066
X122.956Y134.079
X122.98Y134.093
X123.004Y134.107
X123.028Y134.122
X123.051Y134.137
X123.074Y134.152
X123.097Y134.168
X123.12Y134.184
X123.143Y134.201
X123.165Y134.218
X123.186Y134.235
X123.208Y134.253
X123.25Y134.289
X123.27Y134.308
X123.291Y134.327
X123.311Y134.347
X123.33Y134.367
X123.349Y134.387
X123.387Y134.428
X123.405Y134.45
X123.422Y134.471
X123.44Y134.493
X123.457Y134.515
X123.473Y134.537
X123.49Y134.56
X123.505Y134.583
X123.536Y134.63
X123.55Y134.654
X123.564Y134.678
X123.578Y134.702
X123.591Y134.726
X123.604Y134.751
X123.617Y134.776
X123.629Y134.801
X123.64Y134.827
X123.651Y134.852
X123.662Y134.878
X123.672Y134.904
X123.682Y134.93
X123.691Y134.956
X123.7Y134.983
X123.709Y135.009
X123.716Y135.036
X123.731Y135.092
X123.737Y135.117
X123.743Y135.144
X123.754Y135.199
X123.759Y135.226
X123.763Y135.254
X123.766Y135.281
X123.77Y135.309
X123.772Y135.337
X123.774Y135.365
X123.776Y135.392
X123.777Y135.42
X123.778Y135.448
Y135.476
Y135.504
X123.777Y135.532
X123.776Y135.559
X123.774Y135.587
X123.772Y135.615
X123.77Y135.643
X123.766Y135.671
X123.763Y135.698
X123.759Y135.726
X123.754Y135.753
X123.749Y135.781
X123.743Y135.808
X123.737Y135.835
X123.731Y135.862
X123.724Y135.889
X123.716Y135.916
X123.709Y135.943
X123.7Y135.969
X123.691Y135.996
X123.682Y136.022
X123.672Y136.048
X123.662Y136.074
X123.651Y136.1
X123.64Y136.125
X123.629Y136.151
X123.617Y136.176
X123.604Y136.201
X123.591Y136.225
X123.578Y136.25
X123.564Y136.274
X123.55Y136.298
X123.536Y136.322
X123.521Y136.345
X123.505Y136.369
X123.49Y136.392
X123.473Y136.414
X123.457Y136.437
X123.44Y136.459
X123.423Y136.481
X123.405Y136.502
X123.387Y136.524
X123.368Y136.544
X123.349Y136.565
X123.33Y136.585
X123.311Y136.605
X123.291Y136.625
X123.27Y136.644
X123.25Y136.662
X123.229Y136.681
X123.208Y136.699
X123.186Y136.717
X123.165Y136.734
X123.143Y136.751
X123.12Y136.768
X123.097Y136.784
X123.075Y136.8
X123.051Y136.815
X123.028Y136.83
X123.004Y136.844
X122.98Y136.859
X122.956Y136.872
X122.931Y136.886
X122.907Y136.899
X122.882Y136.911
X122.857Y136.923
X122.831Y136.935
X122.805Y136.946
X122.78Y136.956
X122.754Y136.967
X122.727Y136.976
X122.701Y136.986
X122.675Y136.994
X122.649Y137.003
X122.622Y137.011
X122.595Y137.018
X122.568Y137.025
X122.541Y137.032
X122.514Y137.038
X122.486Y137.043
X122.459Y137.048
X122.431Y137.053
X122.404Y137.057
X122.376Y137.061
X122.349Y137.064
X122.321Y137.066
X122.293Y137.069
X122.265Y137.07
X122.237Y137.072
X122.21
X122.163
X122.123Y137.071
X122.098Y137.07
X122.07Y137.069
X122.015Y137.064
X121.987Y137.061
X121.96Y137.057
X121.932Y137.053
X121.904Y137.048
X121.877Y137.043
X121.85Y137.038
X121.823Y137.032
X121.795Y137.025
X121.768Y137.018
X121.742Y137.011
X121.715Y137.003
X121.688Y136.994
X121.662Y136.986
X121.636Y136.976
X121.609Y136.967
X121.583Y136.956
X121.558Y136.946
X121.532Y136.935
X121.507Y136.923
X121.482Y136.911
X121.457Y136.899
X121.432Y136.886
X121.408Y136.872
X121.383Y136.859
X121.359Y136.844
X121.336Y136.83
X121.312Y136.815
X121.289Y136.8
X121.27Y136.787
X121.242Y136.767
X121.221Y136.751
X121.199Y136.734
X121.177Y136.717
X121.155Y136.699
X121.134Y136.681
X121.113Y136.662
X121.093Y136.644
X121.073Y136.625
X121.053Y136.605
X121.033Y136.585
X121.014Y136.565
X120.995Y136.544
X120.966Y136.51
X120.939Y136.478
X120.923Y136.459
X120.907Y136.437
X120.89Y136.414
X120.874Y136.392
X120.858Y136.369
X120.842Y136.345
X120.828Y136.322
X120.811Y136.294
X120.799Y136.274
X120.785Y136.25
X120.772Y136.225
X120.747Y136.176
X120.735Y136.151
X120.723Y136.125
X120.712Y136.1
X120.701Y136.074
X120.691Y136.048
X120.672Y135.996
X120.663Y135.969
X120.656Y135.946
X120.647Y135.915
X120.639Y135.889
X120.632Y135.862
X120.626Y135.835
X120.62Y135.808
X120.614Y135.781
X120.609Y135.753
X120.605Y135.726
X120.601Y135.698
X120.597Y135.671
X120.594Y135.643
X120.591Y135.615
X120.589Y135.587
X120.587Y135.559
X120.586Y135.532
X120.585Y135.504
Y135.459
X120.586Y135.418
X120.587Y135.392
X120.589Y135.365
X120.591Y135.337
X120.593Y135.316
X120.597Y135.28
X120.601Y135.254
X120.605Y135.226
X120.609Y135.199
X120.614Y135.171
X120.62Y135.144
X120.626Y135.117
X120.632Y135.09
X120.639Y135.063
X120.647Y135.036
X120.655Y135.009
X120.663Y134.983
X120.672Y134.956
X120.681Y134.93
X120.691Y134.904
X120.703Y134.874
X120.712Y134.852
X120.723Y134.827
X120.735Y134.801
X120.747Y134.776
X120.759Y134.751
X120.772Y134.726
X120.786Y134.7
X120.799Y134.678
X120.813Y134.654
X120.828Y134.63
X120.842Y134.606
X120.858Y134.583
X120.874Y134.56
X120.908Y134.513
X120.935Y134.479
X120.96Y134.448
X120.977Y134.428
X120.995Y134.408
X121.033Y134.367
X121.053Y134.347
X121.072Y134.327
X121.106Y134.296
G0Z1
X135.566Y135.461
G1Z-0.25F50
X135.583Y135.285F100
X135.635Y135.116
X135.718Y134.96
X135.83Y134.823
X135.967Y134.711
X136.122Y134.628
X136.292Y134.577
X136.467Y134.559
X136.643Y134.577
X136.812Y134.628
X136.968Y134.711
X137.105Y134.823
X137.217Y134.96
X137.3Y135.116
X137.351Y135.285
X137.369Y135.461
X137.351Y135.636
X137.3Y135.805
X137.217Y135.961
X137.105Y136.098
X136.968Y136.21
X136.812Y136.293
X136.643Y136.344
X136.467Y136.362
X136.292Y136.344
X136.122Y136.293
X135.967Y136.21
X135.83Y136.098
X135.718Y135.961
X135.635Y135.805
X135.583Y135.636
X135.566Y135.461
G0Z1
X151.47
G1Z-0.25F50
X151.487Y135.285F100
X151.539Y135.116
X151.622Y134.96
X151.734Y134.823
X151.871Y134.711
X152.026Y134.628
X152.195Y134.577
X152.371Y134.559
X152.547Y134.577
X152.716Y134.628
X152.872Y134.711
X153.009Y134.823
X153.121Y134.96
X153.204Y135.116
X153.255Y135.285
X153.273Y135.461
X153.255Y135.636
X153.204Y135.805
X153.121Y135.961
X153.009Y136.098
X152.872Y136.21
X152.716Y136.293
X152.547Y136.344
X152.371Y136.362
X152.195Y136.344
X152.026Y136.293
X151.871Y136.21
X151.734Y136.098
X151.622Y135.961
X151.539Y135.805
X151.487Y135.636
X151.47Y135.461
G0Z1
X154.973Y127.535
G1Z-0.25F50
X128.518F100
X127.864Y127.541
X127.211Y127.557
X126.557Y127.585
X125.904Y127.623
X125.252Y127.672
X124.601Y127.732
X123.95Y127.802
X123.302Y127.884
X122.654Y127.976
X122.008Y128.079
X121.364Y128.193
X120.721Y128.317
X120.598Y128.344
X120.474Y128.372
X120.351Y128.403
X120.229Y128.436
X120.108Y128.471
X119.986Y128.508
X119.866Y128.547
X119.746Y128.588
X119.627Y128.631
X119.509Y128.676
X119.392Y128.724
X119.275Y128.773
X119.16Y128.824
X119.045Y128.878
X118.931Y128.933
X118.818Y128.99
X118.706Y129.05
X118.596Y129.111
X118.486Y129.174
X118.377Y129.239
X118.27Y129.306
X118.163Y129.374
X118.058Y129.445
X117.954Y129.517
X117.852Y129.591
X117.75Y129.667
X117.65Y129.745
X117.552Y129.824
X117.455Y129.905
X117.359Y129.988
X117.264Y130.072
X117.172Y130.158
X117.08Y130.246
X116.99Y130.335
X116.902Y130.426
X116.815Y130.518
X116.73Y130.612
X116.647Y130.707
X116.565Y130.804
X116.465Y130.926
X116.367Y131.05
X116.272Y131.175
X116.178Y131.302
X116.086Y131.431
X115.997Y131.562
X115.91Y131.694
X115.826Y131.827
X115.743Y131.962
X115.663Y132.098
X115.585Y132.235
X115.51Y132.374
X115.437Y132.514
X115.367Y132.656
X115.299Y132.798
X115.233Y132.942
X115.17Y133.086
X115.109Y133.232
X115.051Y133.379
X114.995Y133.527
X114.942Y133.676
X114.892Y133.825
X114.844Y133.976
X114.798Y134.127
X114.755Y134.279
X114.715Y134.432
X114.678Y134.585
X114.643Y134.739
X114.61Y134.894
X114.581Y135.049
X114.554Y135.205
X114.529Y135.361
X114.508Y135.517
X114.489Y135.674
X114.473Y135.831
X114.459Y135.989
X114.448Y136.146
X114.44Y136.304
X114.435Y136.462
X114.432Y136.62
Y136.778
X114.435Y136.936
X114.44Y137.093
X114.448Y137.251
X114.459Y137.409
X114.472Y137.566
X114.488Y137.723
X114.507Y137.88
X114.527Y138.023
X114.946Y140.914
X114.96Y140.989
X114.977Y141.066
X114.996Y141.141
X115.017Y141.215
X115.041Y141.288
X115.068Y141.361
X115.098Y141.433
X115.129Y141.504
X115.163Y141.573
X115.2Y141.642
X115.239Y141.708
X115.28Y141.774
X115.324Y141.838
X115.369Y141.901
X115.418Y141.962
X115.467Y142.021
X115.519Y142.078
X115.574Y142.135
X115.628Y142.187
X115.687Y142.239
X115.746Y142.289
X115.807Y142.336
X115.87Y142.382
X115.934Y142.425
X116.001Y142.466
X116.067Y142.504
X116.135Y142.54
X116.206Y142.575
X116.276Y142.606
X116.348Y142.635
X116.42Y142.661
X116.495Y142.685
X116.57Y142.707
X116.644Y142.725
X116.72Y142.741
X116.797Y142.755
X116.873Y142.765
X116.95Y142.773
X117.028Y142.779
X117.104Y142.782
X117.143
X122.194
X122.311Y142.781
X122.428Y142.778
X122.545Y142.773
X122.661Y142.766
X123.917Y142.676
X125.069Y142.611
X126.223Y142.565
X127.377Y142.537
X128.538Y142.528
X132.091
X132.129Y142.531
X132.167Y142.534
X132.205Y142.535
X132.244
X160.244
X160.283
X160.323Y142.533
X160.363Y142.531
X160.402Y142.527
X160.442Y142.523
X160.481Y142.518
X160.521Y142.511
X160.56Y142.504
X160.599Y142.495
X160.637Y142.486
X160.676Y142.476
X160.714Y142.464
X160.751Y142.452
X160.789Y142.439
X160.826Y142.425
X160.863Y142.41
X160.899Y142.394
X160.935Y142.377
X160.971Y142.359
X161.006Y142.341
X161.041Y142.321
X161.076Y142.3
X161.11Y142.279
X161.144Y142.256
X161.177Y142.233
X161.209Y142.209
X161.241Y142.184
X161.272Y142.158
X161.287Y142.145
X161.317Y142.119
X161.339Y142.098
X161.361Y142.077
X161.389Y142.049
X161.416Y142.02
X161.448Y141.984
X161.479Y141.947
X161.501Y141.919
X161.522Y141.891
X161.543Y141.862
X161.563Y141.833
X161.583Y141.804
X161.601Y141.773
X161.618Y141.745
X161.635Y141.717
X161.65Y141.688
X161.669Y141.65
X161.687Y141.613
X161.701Y141.583
X161.713Y141.554
X161.729Y141.513
X161.738Y141.491
X161.752Y141.451
X161.765Y141.41
X161.777Y141.368
X161.788Y141.326
X161.798Y141.283
X161.806Y141.243
X161.813Y141.202
X161.821Y141.151
X161.827Y141.095
X161.83Y141.061
X161.832Y141.028
X161.834Y140.994
X161.835Y140.944
Y140.712
X161.845Y140.65
X161.856Y140.573
X161.864Y140.496
X161.87Y140.419
X161.872Y140.34
X161.873Y140.302
Y129.468
X161.872Y129.429
X161.871Y129.389
X161.868Y129.35
X161.865Y129.311
X161.86Y129.272
X161.855Y129.232
X161.849Y129.194
X161.841Y129.155
X161.834Y129.121
X161.833Y129.079
X161.831Y129.036
X161.827Y128.993
X161.823Y128.95
X161.817Y128.908
X161.81Y128.865
X161.802Y128.823
X161.792Y128.781
X161.782Y128.739
X161.772Y128.704
X161.762Y128.67
X161.751Y128.636
X161.739Y128.602
X161.727Y128.568
X161.71Y128.527
X161.692Y128.486
X161.673Y128.446
X161.651Y128.402
X161.635Y128.373
X161.618Y128.343
X161.596Y128.307
X161.574Y128.271
X161.552Y128.239
X161.53Y128.208
X161.507Y128.177
X161.483Y128.147
X161.458Y128.117
X161.433Y128.088
X161.407Y128.059
X161.38Y128.031
X161.353Y128.004
X161.325Y127.978
X161.297Y127.952
X161.267Y127.927
X161.238Y127.902
X161.207Y127.878
X161.176Y127.855
X161.145Y127.833
X161.113Y127.812
X161.08Y127.791
X161.047Y127.771
X161.013Y127.752
X160.979Y127.733
X160.944Y127.716
X160.91Y127.7
X160.875Y127.684
X160.84Y127.669
X160.804Y127.656
X160.768Y127.642
X160.732Y127.63
X160.696Y127.619
X160.659Y127.609
X160.622Y127.599
X160.585Y127.59
X160.547Y127.583
X160.51Y127.576
X160.472Y127.57
X160.434Y127.565
X160.396Y127.561
X160.358Y127.557
X160.32Y127.555
X160.282Y127.554
X160.244Y127.553
X156.307
X155.717Y127.54
X154.973Y127.535
G0Z1
X121.106Y134.296
G1Z-0.3F50
X121.136Y134.269F100
X121.155Y134.253
X121.177Y134.235
X121.199Y134.218
X121.221Y134.201
X121.243Y134.184
X121.266Y134.168
X121.292Y134.15
X121.312Y134.137
X121.335Y134.122
X121.359Y134.107
X121.383Y134.093
X121.408Y134.079
X121.432Y134.066
X121.457Y134.053
X121.482Y134.041
X121.507Y134.029
X121.532Y134.017
X121.558Y134.006
X121.583Y133.996
X121.609Y133.985
X121.662Y133.966
X121.688Y133.957
X121.742Y133.941
X121.797Y133.926
X121.852Y133.914
X121.877Y133.909
X121.904Y133.904
X121.932Y133.899
X121.96Y133.895
X121.987Y133.891
X122.015Y133.888
X122.042Y133.885
X122.07Y133.883
X122.098Y133.881
X122.126Y133.88
X122.154
X122.182Y133.879
X122.21Y133.88
X122.237
X122.265Y133.881
X122.293Y133.883
X122.321Y133.885
X122.349Y133.888
X122.376Y133.891
X122.404Y133.895
X122.431Y133.899
X122.459Y133.904
X122.486Y133.909
X122.514Y133.914
X122.541Y133.92
X122.568Y133.927
X122.595Y133.934
X122.622Y133.941
X122.649Y133.949
X122.675Y133.957
X122.701Y133.966
X122.728Y133.976
X122.754Y133.985
X122.78Y133.996
X122.805Y134.006
X122.831Y134.017
X122.856Y134.029
X122.882Y134.041
X122.907Y134.053
X122.931Y134.066
X122.956Y134.079
X122.98Y134.093
X123.004Y134.107
X123.028Y134.122
X123.051Y134.137
X123.074Y134.152
X123.097Y134.168
X123.12Y134.184
X123.143Y134.201
X123.165Y134.218
X123.186Y134.235
X123.208Y134.253
X123.25Y134.289
X123.27Y134.308
X123.291Y134.327
X123.311Y134.347
X123.33Y134.367
X123.349Y134.387
X123.387Y134.428
X123.405Y134.45
X123.422Y134.471
X123.44Y134.493
X123.457Y134.515
X123.473Y134.537
X123.49Y134.56
X123.505Y134.583
X123.536Y134.63
X123.55Y134.654
X123.564Y134.678
X123.578Y134.702
X123.591Y134.726
X123.604Y134.751
X123.617Y134.776
X123.629Y134.801
X123.64Y134.827
X123.651Y134.852
X123.662Y134.878
X123.672Y134.904
X123.682Y134.93
X123.691Y134.956
X123.7Y134.983
X123.709Y135.009
X123.716Y135.036
X123.731Y135.092
X123.737Y135.117
X123.743Y135.144
X123.754Y135.199
X123.759Y135.226
X123.763Y135.254
X123.766Y135.281
X123.77Y135.309
X123.772Y135.337
X123.774Y135.365
X123.776Y135.392
X123.777Y135.42
X123.778Y135.448
Y135.476
Y135.504
X123.777Y135.532
X123.776Y135.559
X123.774Y135.587
X123.772Y135.615
X123.77Y135.643
X123.766Y135.671
X123.763Y135.698
X123.759Y135.726
X123.754Y135.753
X123.749Y135.781
X123.743Y135.808
X123.737Y135.835
X123.731Y135.862
X123.724Y135.889
X123.716Y135.916
X123.709Y135.943
X123.7Y135.969
X123.691Y135.996
X123.682Y136.022
X123.672Y136.048
X123.662Y136.074
X123.651Y136.1
X123.64Y136.125
X123.629Y136.151
X123.617Y136.176
X123.604Y136.201
X123.591Y136.225
X123.578Y136.25
X123.564Y136.274
X123.55Y136.298
X123.536Y136.322
X123.521Y136.345
X123.505Y136.369
X123.49Y136.392
X123.473Y136.414
X123.457Y136.437
X123.44Y136.459
X123.423Y136.481
X123.405Y136.502
X123.387Y136.524
X123.368Y136.544
X123.349Y136.565
X123.33Y136.585
X123.311Y136.605
X123.291Y136.625
X123.27Y136.644
X123.25Y136.662
X123.229Y136.681
X123.208Y136.699
X123.186Y136.717
X123.165Y136.734
X123.143Y136.751
X123.12Y136.768
X123.097Y136.784
X123.075Y136.8
X123.051Y136.815
X123.028Y136.83
X123.004Y136.844
X122.98Y136.859
X122.956Y136.872
X122.931Y136.886
X122.907Y136.899
X122.882Y136.911
X122.857Y136.923
X122.831Y136.935
X122.805Y136.946
X122.78Y136.956
X122.754Y136.967
X122.727Y136.976
X122.701Y136.986
X122.675Y136.994
X122.649Y137.003
X122.622Y137.011
X122.595Y137.018
X122.568Y137.025
X122.541Y137.032
X122.514Y137.038
X122.486Y137.043
X122.459Y137.048
X122.431Y137.053
X122.404Y137.057
X122.376Y137.061
X122.349Y137.064
X122.321Y137.066
X122.293Y137.069
X122.265Y137.07
X122.237Y137.072
X122.21
X122.163
X122.123Y137.071
X122.098Y137.07
X122.07Y137.069
X122.015Y137.064
X121.987Y137.061
X121.96Y137.057
X121.932Y137.053
X121.904Y137.048
X121.877Y137.043
X121.85Y137.038
X121.823Y137.032
X121.795Y137.025
X121.768Y137.018
X121.742Y137.011
X121.715Y137.003
X121.688Y136.994
X121.662Y136.986
X121.636Y136.976
X121.609Y136.967
X121.583Y136.956
X121.558Y136.946
X121.532Y136.935
X121.507Y136.923
X121.482Y136.911
X121.457Y136.899
X121.432Y136.886
X121.408Y136.872
X121.383Y136.859
X121.359Y136.844
X121.336Y136.83
X121.312Y136.815
X121.289Y136.8
X121.27Y136.787
X121.242Y136.767
X121.221Y136.751
X121.199Y136.734
X121.177Y136.717
X121.155Y136.699
X121.134Y136.681
X121.113Y136.662
X121.093Y136.644
X121.073Y136.625
X121.053Y136.605
X121.033Y136.585
X121.014Y136.565
X120.995Y136.544
X120.966Y136.51
X120.939Y136.478
X120.923Y136.459
X120.907Y136.437
X120.89Y136.414
X120.874Y136.392
X120.858Y136.369
X120.842Y136.345
X120.828Y136.322
X120.811Y136.294
X120.799Y136.274
X120.785Y136.25
X120.772Y136.225
X120.747Y136.176
X120.735Y136.151
X120.723Y136.125
X120.712Y136.1
X120.701Y136.074
X120.691Y136.048
X120.672Y135.996
X120.663Y135.969
X120.656Y135.946
X120.647Y135.915
X120.639Y135.889
X120.632Y135.862
X120.626Y135.835
X120.62Y135.808
X120.614Y135.781
X120.609Y135.753
X120.605Y135.726
X120.601Y135.698
X120.597Y135.671
X120.594Y135.643
X120.591Y135.615
X120.589Y135.587
X120.587Y135.559
X120.586Y135.532
X120.585Y135.504
Y135.459
X120.586Y135.418
X120.587Y135.392
X120.589Y135.365
X120.591Y135.337
X120.593Y135.316
X120.597Y135.28
X120.601Y135.254
X120.605Y135.226
X120.609Y135.199
X120.614Y135.171
X120.62Y135.144
X120.626Y135.117
X120.632Y135.09
X120.639Y135.063
X120.647Y135.036
X120.655Y135.009
X120.663Y134.983
X120.672Y134.956
X120.681Y134.93
X120.691Y134.904
X120.703Y134.874
X120.712Y134.852
X120.723Y134.827
X120.735Y134.801
X120.747Y134.776
X120.759Y134.751
X120.772Y134.726
X120.786Y134.7
X120.799Y134.678
X120.813Y134.654
X120.828Y134.63
X120.842Y134.606
X120.858Y134.583
X120.874Y134.56
X120.908Y134.513
X120.935Y134.479
X120.96Y134.448
X120.977Y134.428
X120.995Y134.408
X121.033Y134.367
X121.053Y134.347
X121.072Y134.327
X121.106Y134.296
G0Z1
X135.566Y135.461
G1Z-0.3F50
X135.583Y135.285F100
X135.635Y135.116
X135.718Y134.96
X135.83Y134.823
X135.967Y134.711
X136.122Y134.628
X136.292Y134.577
X136.467Y134.559
X136.643Y134.577
X136.812Y134.628
X136.968Y134.711
X137.105Y134.823
X137.217Y134.96
X137.3Y135.116
X137.351Y135.285
X137.369Y135.461
X137.351Y135.636
X137.3Y135.805
X137.217Y135.961
X137.105Y136.098
X136.968Y136.21
X136.812Y136.293
X136.643Y136.344
X136.467Y136.362
X136.292Y136.344
X136.122Y136.293
X135.967Y136.21
X135.83Y136.098
X135.718Y135.961
X135.635Y135.805
X135.583Y135.636
X135.566Y135.461
G0Z1
X151.47
G1Z-0.3F50
X151.487Y135.285F100
X151.539Y135.116
X151.622Y134.96
X151.734Y134.823
X151.871Y134.711
X152.026Y134.628
X152.195Y134.577
X152.371Y134.559
X152.547Y134.577
X152.716Y134.628
X152.872Y134.711
X153.009Y134.823
X153.121Y134.96
X153.204Y135.116
X153.255Y135.285
X153.273Y135.461
X153.255Y135.636
X153.204Y135.805
X153.121Y135.961
X153.009Y136.098
X152.872Y136.21
X152.716Y136.293
X152.547Y136.344
X152.371Y136.362
X152.195Y136.344
X152.026Y136.293
X151.871Y136.21
X151.734Y136.098
X151.622Y135.961
X151.539Y135.805
X151.487Y135.636
X151.47Y135.461
G0Z1
X154.973Y127.535
G1Z-0.3F50
X128.518F100
X127.864Y127.541
X127.211Y127.557
X126.557Y127.585
X125.904Y127.623
X125.252Y127.672
X124.601Y127.732
X123.95Y127.802
X123.302Y127.884
X122.654Y127.976
X122.008Y128.079
X121.364Y128.193
X120.721Y128.317
X120.598Y128.344
X120.474Y128.372
X120.351Y128.403
X120.229Y128.436
X120.108Y128.471
X119.986Y128.508
X119.866Y128.547
X119.746Y128.588
X119.627Y128.631
X119.509Y128.676
X119.392Y128.724
X119.275Y128.773
X119.16Y128.824
X119.045Y128.878
X118.931Y128.933
X118.818Y128.99
X118.706Y129.05
X118.596Y129.111
X118.486Y129.174
X118.377Y129.239
X118.27Y129.306
X118.163Y129.374
X118.058Y129.445
X117.954Y129.517
X117.852Y129.591
X117.75Y129.667
X117.65Y129.745
X117.552Y129.824
X117.455Y129.905
X117.359Y129.988
X117.264Y130.072
X117.172Y130.158
X117.08Y130.246
X116.99Y130.335
X116.902Y130.426
X116.815Y130.518
X116.73Y130.612
X116.647Y130.707
X116.565Y130.804
X116.465Y130.926
X116.367Y131.05
X116.272Y131.175
X116.178Y131.302
X116.086Y131.431
X115.997Y131.562
X115.91Y131.694
X115.826Y131.827
X115.743Y131.962
X115.663Y132.098
X115.585Y132.235
X115.51Y132.374
X115.437Y132.514
X115.367Y132.656
X115.299Y132.798
X115.233Y132.942
X115.17Y133.086
X115.109Y133.232
X115.051Y133.379
X114.995Y133.527
X114.942Y133.676
X114.892Y133.825
X114.844Y133.976
X114.798Y134.127
X114.755Y134.279
X114.715Y134.432
X114.678Y134.585
X114.643Y134.739
X114.61Y134.894
X114.581Y135.049
X114.554Y135.205
X114.529Y135.361
X114.508Y135.517
X114.489Y135.674
X114.473Y135.831
X114.459Y135.989
X114.448Y136.146
X114.44Y136.304
X114.435Y136.462
X114.432Y136.62
Y136.778
X114.435Y136.936
X114.44Y137.093
X114.448Y137.251
X114.459Y137.409
X114.472Y137.566
X114.488Y137.723
X114.507Y137.88
X114.527Y138.023
X114.946Y140.914
X114.96Y140.989
X114.977Y141.066
X114.996Y141.141
X115.017Y141.215
X115.041Y141.288
X115.068Y141.361
X115.098Y141.433
X115.129Y141.504
X115.163Y141.573
X115.2Y141.642
X115.239Y141.708
X115.28Y141.774
X115.324Y141.838
X115.369Y141.901
X115.418Y141.962
X115.467Y142.021
X115.519Y142.078
X115.574Y142.135
X115.628Y142.187
X115.687Y142.239
X115.746Y142.289
X115.807Y142.336
X115.87Y142.382
X115.934Y142.425
X116.001Y142.466
X116.067Y142.504
X116.135Y142.54
X116.206Y142.575
X116.276Y142.606
X116.348Y142.635
X116.42Y142.661
X116.495Y142.685
X116.57Y142.707
X116.644Y142.725
X116.72Y142.741
X116.797Y142.755
X116.873Y142.765
X116.95Y142.773
X117.028Y142.779
X117.104Y142.782
X117.143
X122.194
X122.311Y142.781
X122.428Y142.778
X122.545Y142.773
X122.661Y142.766
X123.917Y142.676
X125.069Y142.611
X126.223Y142.565
X127.377Y142.537
X128.538Y142.528
X132.091
X132.129Y142.531
X132.167Y142.534
X132.205Y142.535
X132.244
X160.244
X160.283
X160.323Y142.533
X160.363Y142.531
X160.402Y142.527
X160.442Y142.523
X160.481Y142.518
X160.521Y142.511
X160.56Y142.504
X160.599Y142.495
X160.637Y142.486
X160.676Y142.476
X160.714Y142.464
X160.751Y142.452
X160.789Y142.439
X160.826Y142.425
X160.863Y142.41
X160.899Y142.394
X160.935Y142.377
X160.971Y142.359
X161.006Y142.341
X161.041Y142.321
X161.076Y142.3
X161.11Y142.279
X161.144Y142.256
X161.177Y142.233
X161.209Y142.209
X161.241Y142.184
X161.272Y142.158
X161.287Y142.145
X161.317Y142.119
X161.339Y142.098
X161.361Y142.077
X161.389Y142.049
X161.416Y142.02
X161.448Y141.984
X161.479Y141.947
X161.501Y141.919
X161.522Y141.891
X161.543Y141.862
X161.563Y141.833
X161.583Y141.804
X161.601Y141.773
X161.618Y141.745
X161.635Y141.717
X161.65Y141.688
X161.669Y141.65
X161.687Y141.613
X161.701Y141.583
X161.713Y141.554
X161.729Y141.513
X161.738Y141.491
X161.752Y141.451
X161.765Y141.41
X161.777Y141.368
X161.788Y141.326
X161.798Y141.283
X161.806Y141.243
X161.813Y141.202
X161.821Y141.151
X161.827Y141.095
X161.83Y141.061
X161.832Y141.028
X161.834Y140.994
X161.835Y140.944
Y140.712
X161.845Y140.65
X161.856Y140.573
X161.864Y140.496
X161.87Y140.419
X161.872Y140.34
X161.873Y140.302
Y129.468
X161.872Y129.429
X161.871Y129.389
X161.868Y129.35
X161.865Y129.311
X161.86Y129.272
X161.855Y129.232
X161.849Y129.194
X161.841Y129.155
X161.834Y129.121
X161.833Y129.079
X161.831Y129.036
X161.827Y128.993
X161.823Y128.95
X161.817Y128.908
X161.81Y128.865
X161.802Y128.823
X161.792Y128.781
X161.782Y128.739
X161.772Y128.704
X161.762Y128.67
X161.751Y128.636
X161.739Y128.602
X161.727Y128.568
X161.71Y128.527
X161.692Y128.486
X161.673Y128.446
X161.651Y128.402
X161.635Y128.373
X161.618Y128.343
X161.596Y128.307
X161.574Y128.271
X161.552Y128.239
X161.53Y128.208
X161.507Y128.177
X161.483Y128.147
X161.458Y128.117
X161.433Y128.088
X161.407Y128.059
X161.38Y128.031
X161.353Y128.004
X161.325Y127.978
X161.297Y127.952
X161.267Y127.927
X161.238Y127.902
X161.207Y127.878
X161.176Y127.855
X161.145Y127.833
X161.113Y127.812
X161.08Y127.791
X161.047Y127.771
X161.013Y127.752
X160.979Y127.733
X160.944Y127.716
X160.91Y127.7
X160.875Y127.684
X160.84Y127.669
X160.804Y127.656
X160.768Y127.642
X160.732Y127.63
X160.696Y127.619
X160.659Y127.609
X160.622Y127.599
X160.585Y127.59
X160.547Y127.583
X160.51Y127.576
X160.472Y127.57
X160.434Y127.565
X160.396Y127.561
X160.358Y127.557
X160.32Y127.555
X160.282Y127.554
X160.244Y127.553
X156.307
X155.717Y127.54
X154.973Y127.535
G0Z1
X121.106Y134.296
G1Z-0.35F50
X121.136Y134.269F100
X121.155Y134.253
X121.177Y134.235
X121.199Y134.218
X121.221Y134.201
X121.243Y134.184
X121.266Y134.168
X121.292Y134.15
X121.312Y134.137
X121.335Y134.122
X121.359Y134.107
X121.383Y134.093
X121.408Y134.079
X121.432Y134.066
X121.457Y134.053
X121.482Y134.041
X121.507Y134.029
X121.532Y134.017
X121.558Y134.006
X121.583Y133.996
X121.609Y133.985
X121.662Y133.966
X121.688Y133.957
X121.742Y133.941
X121.797Y133.926
X121.852Y133.914
X121.877Y133.909
X121.904Y133.904
X121.932Y133.899
X121.96Y133.895
X121.987Y133.891
X122.015Y133.888
X122.042Y133.885
X122.07Y133.883
X122.098Y133.881
X122.126Y133.88
X122.154
X122.182Y133.879
X122.21Y133.88
X122.237
X122.265Y133.881
X122.293Y133.883
X122.321Y133.885
X122.349Y133.888
X122.376Y133.891
X122.404Y133.895
X122.431Y133.899
X122.459Y133.904
X122.486Y133.909
X122.514Y133.914
X122.541Y133.92
X122.568Y133.927
X122.595Y133.934
X122.622Y133.941
X122.649Y133.949
X122.675Y133.957
X122.701Y133.966
X122.728Y133.976
X122.754Y133.985
X122.78Y133.996
X122.805Y134.006
X122.831Y134.017
X122.856Y134.029
X122.882Y134.041
X122.907Y134.053
X122.931Y134.066
X122.956Y134.079
X122.98Y134.093
X123.004Y134.107
X123.028Y134.122
X123.051Y134.137
X123.074Y134.152
X123.097Y134.168
X123.12Y134.184
X123.143Y134.201
X123.165Y134.218
X123.186Y134.235
X123.208Y134.253
X123.25Y134.289
X123.27Y134.308
X123.291Y134.327
X123.311Y134.347
X123.33Y134.367
X123.349Y134.387
X123.387Y134.428
X123.405Y134.45
X123.422Y134.471
X123.44Y134.493
X123.457Y134.515
X123.473Y134.537
X123.49Y134.56
X123.505Y134.583
X123.536Y134.63
X123.55Y134.654
X123.564Y134.678
X123.578Y134.702
X123.591Y134.726
X123.604Y134.751
X123.617Y134.776
X123.629Y134.801
X123.64Y134.827
X123.651Y134.852
X123.662Y134.878
X123.672Y134.904
X123.682Y134.93
X123.691Y134.956
X123.7Y134.983
X123.709Y135.009
X123.716Y135.036
X123.731Y135.092
X123.737Y135.117
X123.743Y135.144
X123.754Y135.199
X123.759Y135.226
X123.763Y135.254
X123.766Y135.281
X123.77Y135.309
X123.772Y135.337
X123.774Y135.365
X123.776Y135.392
X123.777Y135.42
X123.778Y135.448
Y135.476
Y135.504
X123.777Y135.532
X123.776Y135.559
X123.774Y135.587
X123.772Y135.615
X123.77Y135.643
X123.766Y135.671
X123.763Y135.698
X123.759Y135.726
X123.754Y135.753
X123.749Y135.781
X123.743Y135.808
X123.737Y135.835
X123.731Y135.862
X123.724Y135.889
X123.716Y135.916
X123.709Y135.943
X123.7Y135.969
X123.691Y135.996
X123.682Y136.022
X123.672Y136.048
X123.662Y136.074
X123.651Y136.1
X123.64Y136.125
X123.629Y136.151
X123.617Y136.176
X123.604Y136.201
X123.591Y136.225
X123.578Y136.25
X123.564Y136.274
X123.55Y136.298
X123.536Y136.322
X123.521Y136.345
X123.505Y136.369
X123.49Y136.392
X123.473Y136.414
X123.457Y136.437
X123.44Y136.459
X123.423Y136.481
X123.405Y136.502
X123.387Y136.524
X123.368Y136.544
X123.349Y136.565
X123.33Y136.585
X123.311Y136.605
X123.291Y136.625
X123.27Y136.644
X123.25Y136.662
X123.229Y136.681
X123.208Y136.699
X123.186Y136.717
X123.165Y136.734
X123.143Y136.751
X123.12Y136.768
X123.097Y136.784
X123.075Y136.8
X123.051Y136.815
X123.028Y136.83
X123.004Y136.844
X122.98Y136.859
X122.956Y136.872
X122.931Y136.886
X122.907Y136.899
X122.882Y136.911
X122.857Y136.923
X122.831Y136.935
X122.805Y136.946
X122.78Y136.956
X122.754Y136.967
X122.727Y136.976
X122.701Y136.986
X122.675Y136.994
X122.649Y137.003
X122.622Y137.011
X122.595Y137.018
X122.568Y137.025
X122.541Y137.032
X122.514Y137.038
X122.486Y137.043
X122.459Y137.048
X122.431Y137.053
X122.404Y137.057
X122.376Y137.061
X122.349Y137.064
X122.321Y137.066
X122.293Y137.069
X122.265Y137.07
X122.237Y137.072
X122.21
X122.163
X122.123Y137.071
X122.098Y137.07
X122.07Y137.069
X122.015Y137.064
X121.987Y137.061
X121.96Y137.057
X121.932Y137.053
X121.904Y137.048
X121.877Y137.043
X121.85Y137.038
X121.823Y137.032
X121.795Y137.025
X121.768Y137.018
X121.742Y137.011
X121.715Y137.003
X121.688Y136.994
X121.662Y136.986
X121.636Y136.976
X121.609Y136.967
X121.583Y136.956
X121.558Y136.946
X121.532Y136.935
X121.507Y136.923
X121.482Y136.911
X121.457Y136.899
X121.432Y136.886
X121.408Y136.872
X121.383Y136.859
X121.359Y136.844
X121.336Y136.83
X121.312Y136.815
X121.289Y136.8
X121.27Y136.787
X121.242Y136.767
X121.221Y136.751
X121.199Y136.734
X121.177Y136.717
X121.155Y136.699
X121.134Y136.681
X121.113Y136.662
X121.093Y136.644
X121.073Y136.625
X121.053Y136.605
X121.033Y136.585
X121.014Y136.565
X120.995Y136.544
X120.966Y136.51
X120.939Y136.478
X120.923Y136.459
X120.907Y136.437
X120.89Y136.414
X120.874Y136.392
X120.858Y136.369
X120.842Y136.345
X120.828Y136.322
X120.811Y136.294
X120.799Y136.274
X120.785Y136.25
X120.772Y136.225
X120.747Y136.176
X120.735Y136.151
X120.723Y136.125
X120.712Y136.1
X120.701Y136.074
X120.691Y136.048
X120.672Y135.996
X120.663Y135.969
X120.656Y135.946
X120.647Y135.915
X120.639Y135.889
X120.632Y135.862
X120.626Y135.835
X120.62Y135.808
X120.614Y135.781
X120.609Y135.753
X120.605Y135.726
X120.601Y135.698
X120.597Y135.671
X120.594Y135.643
X120.591Y135.615
X120.589Y135.587
X120.587Y135.559
X120.586Y135.532
X120.585Y135.504
Y135.459
X120.586Y135.418
X120.587Y135.392
X120.589Y135.365
X120.591Y135.337
X120.593Y135.316
X120.597Y135.28
X120.601Y135.254
X120.605Y135.226
X120.609Y135.199
X120.614Y135.171
X120.62Y135.144
X120.626Y135.117
X120.632Y135.09
X120.639Y135.063
X120.647Y135.036
X120.655Y135.009
X120.663Y134.983
X120.672Y134.956
X120.681Y134.93
X120.691Y134.904
X120.703Y134.874
X120.712Y134.852
X120.723Y134.827
X120.735Y134.801
X120.747Y134.776
X120.759Y134.751
X120.772Y134.726
X120.786Y134.7
X120.799Y134.678
X120.813Y134.654
X120.828Y134.63
X120.842Y134.606
X120.858Y134.583
X120.874Y134.56
X120.908Y134.513
X120.935Y134.479
X120.96Y134.448
X120.977Y134.428
X120.995Y134.408
X121.033Y134.367
X121.053Y134.347
X121.072Y134.327
X121.106Y134.296
G0Z1
X135.566Y135.461
G1Z-0.35F50
X135.583Y135.285F100
X135.635Y135.116
X135.718Y134.96
X135.83Y134.823
X135.967Y134.711
X136.122Y134.628
X136.292Y134.577
X136.467Y134.559
X136.643Y134.577
X136.812Y134.628
X136.968Y134.711
X137.105Y134.823
X137.217Y134.96
X137.3Y135.116
X137.351Y135.285
X137.369Y135.461
X137.351Y135.636
X137.3Y135.805
X137.217Y135.961
X137.105Y136.098
X136.968Y136.21
X136.812Y136.293
X136.643Y136.344
X136.467Y136.362
X136.292Y136.344
X136.122Y136.293
X135.967Y136.21
X135.83Y136.098
X135.718Y135.961
X135.635Y135.805
X135.583Y135.636
X135.566Y135.461
G0Z1
X151.47
G1Z-0.35F50
X151.487Y135.285F100
X151.539Y135.116
X151.622Y134.96
X151.734Y134.823
X151.871Y134.711
X152.026Y134.628
X152.195Y134.577
X152.371Y134.559
X152.547Y134.577
X152.716Y134.628
X152.872Y134.711
X153.009Y134.823
X153.121Y134.96
X153.204Y135.116
X153.255Y135.285
X153.273Y135.461
X153.255Y135.636
X153.204Y135.805
X153.121Y135.961
X153.009Y136.098
X152.872Y136.21
X152.716Y136.293
X152.547Y136.344
X152.371Y136.362
X152.195Y136.344
X152.026Y136.293
X151.871Y136.21
X151.734Y136.098
X151.622Y135.961
X151.539Y135.805
X151.487Y135.636
X151.47Y135.461
G0Z1
X154.973Y127.535
G1Z-0.35F50
X128.518F100
X127.864Y127.541
X127.211Y127.557
X126.557Y127.585
X125.904Y127.623
X125.252Y127.672
X124.601Y127.732
X123.95Y127.802
X123.302Y127.884
X122.654Y127.976
X122.008Y128.079
X121.364Y128.193
X120.721Y128.317
X120.598Y128.344
X120.474Y128.372
X120.351Y128.403
X120.229Y128.436
X120.108Y128.471
X119.986Y128.508
X119.866Y128.547
X119.746Y128.588
X119.627Y128.631
X119.509Y128.676
X119.392Y128.724
X119.275Y128.773
X119.16Y128.824
X119.045Y128.878
X118.931Y128.933
X118.818Y128.99
X118.706Y129.05
X118.596Y129.111
X118.486Y129.174
X118.377Y129.239
X118.27Y129.306
X118.163Y129.374
X118.058Y129.445
X117.954Y129.517
X117.852Y129.591
X117.75Y129.667
X117.65Y129.745
X117.552Y129.824
X117.455Y129.905
X117.359Y129.988
X117.264Y130.072
X117.172Y130.158
X117.08Y130.246
X116.99Y130.335
X116.902Y130.426
X116.815Y130.518
X116.73Y130.612
X116.647Y130.707
X116.565Y130.804
X116.465Y130.926
X116.367Y131.05
X116.272Y131.175
X116.178Y131.302
X116.086Y131.431
X115.997Y131.562
X115.91Y131.694
X115.826Y131.827
X115.743Y131.962
X115.663Y132.098
X115.585Y132.235
X115.51Y132.374
X115.437Y132.514
X115.367Y132.656
X115.299Y132.798
X115.233Y132.942
X115.17Y133.086
X115.109Y133.232
X115.051Y133.379
X114.995Y133.527
X114.942Y133.676
X114.892Y133.825
X114.844Y133.976
X114.798Y134.127
X114.755Y134.279
X114.715Y134.432
X114.678Y134.585
X114.643Y134.739
X114.61Y134.894
X114.581Y135.049
X114.554Y135.205
X114.529Y135.361
X114.508Y135.517
X114.489Y135.674
X114.473Y135.831
X114.459Y135.989
X114.448Y136.146
X114.44Y136.304
X114.435Y136.462
X114.432Y136.62
Y136.778
X114.435Y136.936
X114.44Y137.093
X114.448Y137.251
X114.459Y137.409
X114.472Y137.566
X114.488Y137.723
X114.507Y137.88
X114.527Y138.023
X114.946Y140.914
X114.96Y140.989
X114.977Y141.066
X114.996Y141.141
X115.017Y141.215
X115.041Y141.288
X115.068Y141.361
X115.098Y141.433
X115.129Y141.504
X115.163Y141.573
X115.2Y141.642
X115.239Y141.708
X115.28Y141.774
X115.324Y141.838
X115.369Y141.901
X115.418Y141.962
X115.467Y142.021
X115.519Y142.078
X115.574Y142.135
X115.628Y142.187
X115.687Y142.239
X115.746Y142.289
X115.807Y142.336
X115.87Y142.382
X115.934Y142.425
X116.001Y142.466
X116.067Y142.504
X116.135Y142.54
X116.206Y142.575
X116.276Y142.606
X116.348Y142.635
X116.42Y142.661
X116.495Y142.685
X116.57Y142.707
X116.644Y142.725
X116.72Y142.741
X116.797Y142.755
X116.873Y142.765
X116.95Y142.773
X117.028Y142.779
X117.104Y142.782
X117.143
X122.194
X122.311Y142.781
X122.428Y142.778
X122.545Y142.773
X122.661Y142.766
X123.917Y142.676
X125.069Y142.611
X126.223Y142.565
X127.377Y142.537
X128.538Y142.528
X132.091
X132.129Y142.531
X132.167Y142.534
X132.205Y142.535
X132.244
X160.244
X160.283
X160.323Y142.533
X160.363Y142.531
X160.402Y142.527
X160.442Y142.523
X160.481Y142.518
X160.521Y142.511
X160.56Y142.504
X160.599Y142.495
X160.637Y142.486
X160.676Y142.476
X160.714Y142.464
X160.751Y142.452
X160.789Y142.439
X160.826Y142.425
X160.863Y142.41
X160.899Y142.394
X160.935Y142.377
X160.971Y142.359
X161.006Y142.341
X161.041Y142.321
X161.076Y142.3
X161.11Y142.279
X161.144Y142.256
X161.177Y142.233
X161.209Y142.209
X161.241Y142.184
X161.272Y142.158
X161.287Y142.145
X161.317Y142.119
X161.339Y142.098
X161.361Y142.077
X161.389Y142.049
X161.416Y142.02
X161.448Y141.984
X161.479Y141.947
X161.501Y141.919
X161.522Y141.891
X161.543Y141.862
X161.563Y141.833
X161.583Y141.804
X161.601Y141.773
X161.618Y141.745
X161.635Y141.717
X161.65Y141.688
X161.669Y141.65
X161.687Y141.613
X161.701Y141.583
X161.713Y141.554
X161.729Y141.513
X161.738Y141.491
X161.752Y141.451
X161.765Y141.41
X161.777Y141.368
X161.788Y141.326
X161.798Y141.283
X161.806Y141.243
X161.813Y141.202
X161.821Y141.151
X161.827Y141.095
X161.83Y141.061
X161.832Y141.028
X161.834Y140.994
X161.835Y140.944
Y140.712
X161.845Y140.65
X161.856Y140.573
X161.864Y140.496
X161.87Y140.419
X161.872Y140.34
X161.873Y140.302
Y129.468
X161.872Y129.429
X161.871Y129.389
X161.868Y129.35
X161.865Y129.311
X161.86Y129.272
X161.855Y129.232
X161.849Y129.194
X161.841Y129.155
X161.834Y129.121
X161.833Y129.079
X161.831Y129.036
X161.827Y128.993
X161.823Y128.95
X161.817Y128.908
X161.81Y128.865
X161.802Y128.823
X161.792Y128.781
X161.782Y128.739
X161.772Y128.704
X161.762Y128.67
X161.751Y128.636
X161.739Y128.602
X161.727Y128.568
X161.71Y128.527
X161.692Y128.486
X161.673Y128.446
X161.651Y128.402
X161.635Y128.373
X161.618Y128.343
X161.596Y128.307
X161.574Y128.271
X161.552Y128.239
X161.53Y128.208
X161.507Y128.177
X161.483Y128.147
X161.458Y128.117
X161.433Y128.088
X161.407Y128.059
X161.38Y128.031
X161.353Y128.004
X161.325Y127.978
X161.297Y127.952
X161.267Y127.927
X161.238Y127.902
X161.207Y127.878
X161.176Y127.855
X161.145Y127.833
X161.113Y127.812
X161.08Y127.791
X161.047Y127.771
X161.013Y127.752
X160.979Y127.733
X160.944Y127.716
X160.91Y127.7
X160.875Y127.684
X160.84Y127.669
X160.804Y127.656
X160.768Y127.642
X160.732Y127.63
X160.696Y127.619
X160.659Y127.609
X160.622Y127.599
X160.585Y127.59
X160.547Y127.583
X160.51Y127.576
X160.472Y127.57
X160.434Y127.565
X160.396Y127.561
X160.358Y127.557
X160.32Y127.555
X160.282Y127.554
X160.244Y127.553
X156.307
X155.717Y127.54
X154.973Y127.535
G0Z1
X121.106Y134.296
G1Z-0.4F50
X121.136Y134.269F100
X121.155Y134.253
X121.177Y134.235
X121.199Y134.218
X121.221Y134.201
X121.243Y134.184
X121.266Y134.168
X121.292Y134.15
X121.312Y134.137
X121.335Y134.122
X121.359Y134.107
X121.383Y134.093
X121.408Y134.079
X121.432Y134.066
X121.457Y134.053
X121.482Y134.041
X121.507Y134.029
X121.532Y134.017
X121.558Y134.006
X121.583Y133.996
X121.609Y133.985
X121.662Y133.966
X121.688Y133.957
X121.742Y133.941
X121.797Y133.926
X121.852Y133.914
X121.877Y133.909
X121.904Y133.904
X121.932Y133.899
X121.96Y133.895
X121.987Y133.891
X122.015Y133.888
X122.042Y133.885
X122.07Y133.883
X122.098Y133.881
X122.126Y133.88
X122.154
X122.182Y133.879
X122.21Y133.88
X122.237
X122.265Y133.881
X122.293Y133.883
X122.321Y133.885
X122.349Y133.888
X122.376Y133.891
X122.404Y133.895
X122.431Y133.899
X122.459Y133.904
X122.486Y133.909
X122.514Y133.914
X122.541Y133.92
X122.568Y133.927
X122.595Y133.934
X122.622Y133.941
X122.649Y133.949
X122.675Y133.957
X122.701Y133.966
X122.728Y133.976
X122.754Y133.985
X122.78Y133.996
X122.805Y134.006
X122.831Y134.017
X122.856Y134.029
X122.882Y134.041
X122.907Y134.053
X122.931Y134.066
X122.956Y134.079
X122.98Y134.093
X123.004Y134.107
X123.028Y134.122
X123.051Y134.137
X123.074Y134.152
X123.097Y134.168
X123.12Y134.184
X123.143Y134.201
X123.165Y134.218
X123.186Y134.235
X123.208Y134.253
X123.25Y134.289
X123.27Y134.308
X123.291Y134.327
X123.311Y134.347
X123.33Y134.367
X123.349Y134.387
X123.387Y134.428
X123.405Y134.45
X123.422Y134.471
X123.44Y134.493
X123.457Y134.515
X123.473Y134.537
X123.49Y134.56
X123.505Y134.583
X123.536Y134.63
X123.55Y134.654
X123.564Y134.678
X123.578Y134.702
X123.591Y134.726
X123.604Y134.751
X123.617Y134.776
X123.629Y134.801
X123.64Y134.827
X123.651Y134.852
X123.662Y134.878
X123.672Y134.904
X123.682Y134.93
X123.691Y134.956
X123.7Y134.983
X123.709Y135.009
X123.716Y135.036
X123.731Y135.092
X123.737Y135.117
X123.743Y135.144
X123.754Y135.199
X123.759Y135.226
X123.763Y135.254
X123.766Y135.281
X123.77Y135.309
X123.772Y135.337
X123.774Y135.365
X123.776Y135.392
X123.777Y135.42
X123.778Y135.448
Y135.476
Y135.504
X123.777Y135.532
X123.776Y135.559
X123.774Y135.587
X123.772Y135.615
X123.77Y135.643
X123.766Y135.671
X123.763Y135.698
X123.759Y135.726
X123.754Y135.753
X123.749Y135.781
X123.743Y135.808
X123.737Y135.835
X123.731Y135.862
X123.724Y135.889
X123.716Y135.916
X123.709Y135.943
X123.7Y135.969
X123.691Y135.996
X123.682Y136.022
X123.672Y136.048
X123.662Y136.074
X123.651Y136.1
X123.64Y136.125
X123.629Y136.151
X123.617Y136.176
X123.604Y136.201
X123.591Y136.225
X123.578Y136.25
X123.564Y136.274
X123.55Y136.298
X123.536Y136.322
X123.521Y136.345
X123.505Y136.369
X123.49Y136.392
X123.473Y136.414
X123.457Y136.437
X123.44Y136.459
X123.423Y136.481
X123.405Y136.502
X123.387Y136.524
X123.368Y136.544
X123.349Y136.565
X123.33Y136.585
X123.311Y136.605
X123.291Y136.625
X123.27Y136.644
X123.25Y136.662
X123.229Y136.681
X123.208Y136.699
X123.186Y136.717
X123.165Y136.734
X123.143Y136.751
X123.12Y136.768
X123.097Y136.784
X123.075Y136.8
X123.051Y136.815
X123.028Y136.83
X123.004Y136.844
X122.98Y136.859
X122.956Y136.872
X122.931Y136.886
X122.907Y136.899
X122.882Y136.911
X122.857Y136.923
X122.831Y136.935
X122.805Y136.946
X122.78Y136.956
X122.754Y136.967
X122.727Y136.976
X122.701Y136.986
X122.675Y136.994
X122.649Y137.003
X122.622Y137.011
X122.595Y137.018
X122.568Y137.025
X122.541Y137.032
X122.514Y137.038
X122.486Y137.043
X122.459Y137.048
X122.431Y137.053
X122.404Y137.057
X122.376Y137.061
X122.349Y137.064
X122.321Y137.066
X122.293Y137.069
X122.265Y137.07
X122.237Y137.072
X122.21
X122.163
X122.123Y137.071
X122.098Y137.07
X122.07Y137.069
X122.015Y137.064
X121.987Y137.061
X121.96Y137.057
X121.932Y137.053
X121.904Y137.048
X121.877Y137.043
X121.85Y137.038
X121.823Y137.032
X121.795Y137.025
X121.768Y137.018
X121.742Y137.011
X121.715Y137.003
X121.688Y136.994
X121.662Y136.986
X121.636Y136.976
X121.609Y136.967
X121.583Y136.956
X121.558Y136.946
X121.532Y136.935
X121.507Y136.923
X121.482Y136.911
X121.457Y136.899
X121.432Y136.886
X121.408Y136.872
X121.383Y136.859
X121.359Y136.844
X121.336Y136.83
X121.312Y136.815
X121.289Y136.8
X121.27Y136.787
X121.242Y136.767
X121.221Y136.751
X121.199Y136.734
X121.177Y136.717
X121.155Y136.699
X121.134Y136.681
X121.113Y136.662
X121.093Y136.644
X121.073Y136.625
X121.053Y136.605
X121.033Y136.585
X121.014Y136.565
X120.995Y136.544
X120.966Y136.51
X120.939Y136.478
X120.923Y136.459
X120.907Y136.437
X120.89Y136.414
X120.874Y136.392
X120.858Y136.369
X120.842Y136.345
X120.828Y136.322
X120.811Y136.294
X120.799Y136.274
X120.785Y136.25
X120.772Y136.225
X120.747Y136.176
X120.735Y136.151
X120.723Y136.125
X120.712Y136.1
X120.701Y136.074
X120.691Y136.048
X120.672Y135.996
X120.663Y135.969
X120.656Y135.946
X120.647Y135.915
X120.639Y135.889
X120.632Y135.862
X120.626Y135.835
X120.62Y135.808
X120.614Y135.781
X120.609Y135.753
X120.605Y135.726
X120.601Y135.698
X120.597Y135.671
X120.594Y135.643
X120.591Y135.615
X120.589Y135.587
X120.587Y135.559
X120.586Y135.532
X120.585Y135.504
Y135.459
X120.586Y135.418
X120.587Y135.392
X120.589Y135.365
X120.591Y135.337
X120.593Y135.316
X120.597Y135.28
X120.601Y135.254
X120.605Y135.226
X120.609Y135.199
X120.614Y135.171
X120.62Y135.144
X120.626Y135.117
X120.632Y135.09
X120.639Y135.063
X120.647Y135.036
X120.655Y135.009
X120.663Y134.983
X120.672Y134.956
X120.681Y134.93
X120.691Y134.904
X120.703Y134.874
X120.712Y134.852
X120.723Y134.827
X120.735Y134.801
X120.747Y134.776
X120.759Y134.751
X120.772Y134.726
X120.786Y134.7
X120.799Y134.678
X120.813Y134.654
X120.828Y134.63
X120.842Y134.606
X120.858Y134.583
X120.874Y134.56
X120.908Y134.513
X120.935Y134.479
X120.96Y134.448
X120.977Y134.428
X120.995Y134.408
X121.033Y134.367
X121.053Y134.347
X121.072Y134.327
X121.106Y134.296
G0Z1
X135.566Y135.461
G1Z-0.4F50
X135.583Y135.285F100
X135.635Y135.116
X135.718Y134.96
X135.83Y134.823
X135.967Y134.711
X136.122Y134.628
X136.292Y134.577
X136.467Y134.559
X136.643Y134.577
X136.812Y134.628
X136.968Y134.711
X137.105Y134.823
X137.217Y134.96
X137.3Y135.116
X137.351Y135.285
X137.369Y135.461
X137.351Y135.636
X137.3Y135.805
X137.217Y135.961
X137.105Y136.098
X136.968Y136.21
X136.812Y136.293
X136.643Y136.344
X136.467Y136.362
X136.292Y136.344
X136.122Y136.293
X135.967Y136.21
X135.83Y136.098
X135.718Y135.961
X135.635Y135.805
X135.583Y135.636
X135.566Y135.461
G0Z1
X151.47
G1Z-0.4F50
X151.487Y135.285F100
X151.539Y135.116
X151.622Y134.96
X151.734Y134.823
X151.871Y134.711
X152.026Y134.628
X152.195Y134.577
X152.371Y134.559
X152.547Y134.577
X152.716Y134.628
X152.872Y134.711
X153.009Y134.823
X153.121Y134.96
X153.204Y135.116
X153.255Y135.285
X153.273Y135.461
X153.255Y135.636
X153.204Y135.805
X153.121Y135.961
X153.009Y136.098
X152.872Y136.21
X152.716Y136.293
X152.547Y136.344
X152.371Y136.362
X152.195Y136.344
X152.026Y136.293
X151.871Y136.21
X151.734Y136.098
X151.622Y135.961
X151.539Y135.805
X151.487Y135.636
X151.47Y135.461
G0Z1
X154.973Y127.535
G1Z-0.4F50
X128.518F100
X127.864Y127.541
X127.211Y127.557
X126.557Y127.585
X125.904Y127.623
X125.252Y127.672
X124.601Y127.732
X123.95Y127.802
X123.302Y127.884
X122.654Y127.976
X122.008Y128.079
X121.364Y128.193
X120.721Y128.317
X120.598Y128.344
X120.474Y128.372
X120.351Y128.403
X120.229Y128.436
X120.108Y128.471
X119.986Y128.508
X119.866Y128.547
X119.746Y128.588
X119.627Y128.631
X119.509Y128.676
X119.392Y128.724
X119.275Y128.773
X119.16Y128.824
X119.045Y128.878
X118.931Y128.933
X118.818Y128.99
X118.706Y129.05
X118.596Y129.111
X118.486Y129.174
X118.377Y129.239
X118.27Y129.306
X118.163Y129.374
X118.058Y129.445
X117.954Y129.517
X117.852Y129.591
X117.75Y129.667
X117.65Y129.745
X117.552Y129.824
X117.455Y129.905
X117.359Y129.988
X117.264Y130.072
X117.172Y130.158
X117.08Y130.246
X116.99Y130.335
X116.902Y130.426
X116.815Y130.518
X116.73Y130.612
X116.647Y130.707
X116.565Y130.804
X116.465Y130.926
X116.367Y131.05
X116.272Y131.175
X116.178Y131.302
X116.086Y131.431
X115.997Y131.562
X115.91Y131.694
X115.826Y131.827
X115.743Y131.962
X115.663Y132.098
X115.585Y132.235
X115.51Y132.374
X115.437Y132.514
X115.367Y132.656
X115.299Y132.798
X115.233Y132.942
X115.17Y133.086
X115.109Y133.232
X115.051Y133.379
X114.995Y133.527
X114.942Y133.676
X114.892Y133.825
X114.844Y133.976
X114.798Y134.127
X114.755Y134.279
X114.715Y134.432
X114.678Y134.585
X114.643Y134.739
X114.61Y134.894
X114.581Y135.049
X114.554Y135.205
X114.529Y135.361
X114.508Y135.517
X114.489Y135.674
X114.473Y135.831
X114.459Y135.989
X114.448Y136.146
X114.44Y136.304
X114.435Y136.462
X114.432Y136.62
Y136.778
X114.435Y136.936
X114.44Y137.093
X114.448Y137.251
X114.459Y137.409
X114.472Y137.566
X114.488Y137.723
X114.507Y137.88
X114.527Y138.023
X114.946Y140.914
X114.96Y140.989
X114.977Y141.066
X114.996Y141.141
X115.017Y141.215
X115.041Y141.288
X115.068Y141.361
X115.098Y141.433
X115.129Y141.504
X115.163Y141.573
X115.2Y141.642
X115.239Y141.708
X115.28Y141.774
X115.324Y141.838
X115.369Y141.901
X115.418Y141.962
X115.467Y142.021
X115.519Y142.078
X115.574Y142.135
X115.628Y142.187
X115.687Y142.239
X115.746Y142.289
X115.807Y142.336
X115.87Y142.382
X115.934Y142.425
X116.001Y142.466
X116.067Y142.504
X116.135Y142.54
X116.206Y142.575
X116.276Y142.606
X116.348Y142.635
X116.42Y142.661
X116.495Y142.685
X116.57Y142.707
X116.644Y142.725
X116.72Y142.741
X116.797Y142.755
X116.873Y142.765
X116.95Y142.773
X117.028Y142.779
X117.104Y142.782
X117.143
X122.194
X122.311Y142.781
X122.428Y142.778
X122.545Y142.773
X122.661Y142.766
X123.917Y142.676
X125.069Y142.611
X126.223Y142.565
X127.377Y142.537
X128.538Y142.528
X132.091
X132.129Y142.531
X132.167Y142.534
X132.205Y142.535
X132.244
X160.244
X160.283
X160.323Y142.533
X160.363Y142.531
X160.402Y142.527
X160.442Y142.523
X160.481Y142.518
X160.521Y142.511
X160.56Y142.504
X160.599Y142.495
X160.637Y142.486
X160.676Y142.476
X160.714Y142.464
X160.751Y142.452
X160.789Y142.439
X160.826Y142.425
X160.863Y142.41
X160.899Y142.394
X160.935Y142.377
X160.971Y142.359
X161.006Y142.341
X161.041Y142.321
X161.076Y142.3
X161.11Y142.279
X161.144Y142.256
X161.177Y142.233
X161.209Y142.209
X161.241Y142.184
X161.272Y142.158
X161.287Y142.145
X161.317Y142.119
X161.339Y142.098
X161.361Y142.077
X161.389Y142.049
X161.416Y142.02
X161.448Y141.984
X161.479Y141.947
X161.501Y141.919
X161.522Y141.891
X161.543Y141.862
X161.563Y141.833
X161.583Y141.804
X161.601Y141.773
X161.618Y141.745
X161.635Y141.717
X161.65Y141.688
X161.669Y141.65
X161.687Y141.613
X161.701Y141.583
X161.713Y141.554
X161.729Y141.513
X161.738Y141.491
X161.752Y141.451
X161.765Y141.41
X161.777Y141.368
X161.788Y141.326
X161.798Y141.283
X161.806Y141.243
X161.813Y141.202
X161.821Y141.151
X161.827Y141.095
X161.83Y141.061
X161.832Y141.028
X161.834Y140.994
X161.835Y140.944
Y140.712
X161.845Y140.65
X161.856Y140.573
X161.864Y140.496
X161.87Y140.419
X161.872Y140.34
X161.873Y140.302
Y129.468
X161.872Y129.429
X161.871Y129.389
X161.868Y129.35
X161.865Y129.311
X161.86Y129.272
X161.855Y129.232
X161.849Y129.194
X161.841Y129.155
X161.834Y129.121
X161.833Y129.079
X161.831Y129.036
X161.827Y128.993
X161.823Y128.95
X161.817Y128.908
X161.81Y128.865
X161.802Y128.823
X161.792Y128.781
X161.782Y128.739
X161.772Y128.704
X161.762Y128.67
X161.751Y128.636
X161.739Y128.602
X161.727Y128.568
X161.71Y128.527
X161.692Y128.486
X161.673Y128.446
X161.651Y128.402
X161.635Y128.373
X161.618Y128.343
X161.596Y128.307
X161.574Y128.271
X161.552Y128.239
X161.53Y128.208
X161.507Y128.177
X161.483Y128.147
X161.458Y128.117
X161.433Y128.088
X161.407Y128.059
X161.38Y128.031
X161.353Y128.004
X161.325Y127.978
X161.297Y127.952
X161.267Y127.927
X161.238Y127.902
X161.207Y127.878
X161.176Y127.855
X161.145Y127.833
X161.113Y127.812
X161.08Y127.791
X161.047Y127.771
X161.013Y127.752
X160.979Y127.733
X160.944Y127.716
X160.91Y127.7
X160.875Y127.684
X160.84Y127.669
X160.804Y127.656
X160.768Y127.642
X160.732Y127.63
X160.696Y127.619
X160.659Y127.609
X160.622Y127.599
X160.585Y127.59
X160.547Y127.583
X160.51Y127.576
X160.472Y127.57
X160.434Y127.565
X160.396Y127.561
X160.358Y127.557
X160.32Y127.555
X160.282Y127.554
X160.244Y127.553
X156.307
X155.717Y127.54
X154.973Y127.535
G0Z1
X121.106Y134.296
G1Z-0.45F50
X121.136Y134.269F100
X121.155Y134.253
X121.177Y134.235
X121.199Y134.218
X121.221Y134.201
X121.243Y134.184
X121.266Y134.168
X121.292Y134.15
X121.312Y134.137
X121.335Y134.122
X121.359Y134.107
X121.383Y134.093
X121.408Y134.079
X121.432Y134.066
X121.457Y134.053
X121.482Y134.041
X121.507Y134.029
X121.532Y134.017
X121.558Y134.006
X121.583Y133.996
X121.609Y133.985
X121.662Y133.966
X121.688Y133.957
X121.742Y133.941
X121.797Y133.926
X121.852Y133.914
X121.877Y133.909
X121.904Y133.904
X121.932Y133.899
X121.96Y133.895
X121.987Y133.891
X122.015Y133.888
X122.042Y133.885
X122.07Y133.883
X122.098Y133.881
X122.126Y133.88
X122.154
X122.182Y133.879
X122.21Y133.88
X122.237
X122.265Y133.881
X122.293Y133.883
X122.321Y133.885
X122.349Y133.888
X122.376Y133.891
X122.404Y133.895
X122.431Y133.899
X122.459Y133.904
X122.486Y133.909
X122.514Y133.914
X122.541Y133.92
X122.568Y133.927
X122.595Y133.934
X122.622Y133.941
X122.649Y133.949
X122.675Y133.957
X122.701Y133.966
X122.728Y133.976
X122.754Y133.985
X122.78Y133.996
X122.805Y134.006
X122.831Y134.017
X122.856Y134.029
X122.882Y134.041
X122.907Y134.053
X122.931Y134.066
X122.956Y134.079
X122.98Y134.093
X123.004Y134.107
X123.028Y134.122
X123.051Y134.137
X123.074Y134.152
X123.097Y134.168
X123.12Y134.184
X123.143Y134.201
X123.165Y134.218
X123.186Y134.235
X123.208Y134.253
X123.25Y134.289
X123.27Y134.308
X123.291Y134.327
X123.311Y134.347
X123.33Y134.367
X123.349Y134.387
X123.387Y134.428
X123.405Y134.45
X123.422Y134.471
X123.44Y134.493
X123.457Y134.515
X123.473Y134.537
X123.49Y134.56
X123.505Y134.583
X123.536Y134.63
X123.55Y134.654
X123.564Y134.678
X123.578Y134.702
X123.591Y134.726
X123.604Y134.751
X123.617Y134.776
X123.629Y134.801
X123.64Y134.827
X123.651Y134.852
X123.662Y134.878
X123.672Y134.904
X123.682Y134.93
X123.691Y134.956
X123.7Y134.983
X123.709Y135.009
X123.716Y135.036
X123.731Y135.092
X123.737Y135.117
X123.743Y135.144
X123.754Y135.199
X123.759Y135.226
X123.763Y135.254
X123.766Y135.281
X123.77Y135.309
X123.772Y135.337
X123.774Y135.365
X123.776Y135.392
X123.777Y135.42
X123.778Y135.448
Y135.476
Y135.504
X123.777Y135.532
X123.776Y135.559
X123.774Y135.587
X123.772Y135.615
X123.77Y135.643
X123.766Y135.671
X123.763Y135.698
X123.759Y135.726
X123.754Y135.753
X123.749Y135.781
X123.743Y135.808
X123.737Y135.835
X123.731Y135.862
X123.724Y135.889
X123.716Y135.916
X123.709Y135.943
X123.7Y135.969
X123.691Y135.996
X123.682Y136.022
X123.672Y136.048
X123.662Y136.074
X123.651Y136.1
X123.64Y136.125
X123.629Y136.151
X123.617Y136.176
X123.604Y136.201
X123.591Y136.225
X123.578Y136.25
X123.564Y136.274
X123.55Y136.298
X123.536Y136.322
X123.521Y136.345
X123.505Y136.369
X123.49Y136.392
X123.473Y136.414
X123.457Y136.437
X123.44Y136.459
X123.423Y136.481
X123.405Y136.502
X123.387Y136.524
X123.368Y136.544
X123.349Y136.565
X123.33Y136.585
X123.311Y136.605
X123.291Y136.625
X123.27Y136.644
X123.25Y136.662
X123.229Y136.681
X123.208Y136.699
X123.186Y136.717
X123.165Y136.734
X123.143Y136.751
X123.12Y136.768
X123.097Y136.784
X123.075Y136.8
X123.051Y136.815
X123.028Y136.83
X123.004Y136.844
X122.98Y136.859
X122.956Y136.872
X122.931Y136.886
X122.907Y136.899
X122.882Y136.911
X122.857Y136.923
X122.831Y136.935
X122.805Y136.946
X122.78Y136.956
X122.754Y136.967
X122.727Y136.976
X122.701Y136.986
X122.675Y136.994
X122.649Y137.003
X122.622Y137.011
X122.595Y137.018
X122.568Y137.025
X122.541Y137.032
X122.514Y137.038
X122.486Y137.043
X122.459Y137.048
X122.431Y137.053
X122.404Y137.057
X122.376Y137.061
X122.349Y137.064
X122.321Y137.066
X122.293Y137.069
X122.265Y137.07
X122.237Y137.072
X122.21
X122.163
X122.123Y137.071
X122.098Y137.07
X122.07Y137.069
X122.015Y137.064
X121.987Y137.061
X121.96Y137.057
X121.932Y137.053
X121.904Y137.048
X121.877Y137.043
X121.85Y137.038
X121.823Y137.032
X121.795Y137.025
X121.768Y137.018
X121.742Y137.011
X121.715Y137.003
X121.688Y136.994
X121.662Y136.986
X121.636Y136.976
X121.609Y136.967
X121.583Y136.956
X121.558Y136.946
X121.532Y136.935
X121.507Y136.923
X121.482Y136.911
X121.457Y136.899
X121.432Y136.886
X121.408Y136.872
X121.383Y136.859
X121.359Y136.844
X121.336Y136.83
X121.312Y136.815
X121.289Y136.8
X121.27Y136.787
X121.242Y136.767
X121.221Y136.751
X121.199Y136.734
X121.177Y136.717
X121.155Y136.699
X121.134Y136.681
X121.113Y136.662
X121.093Y136.644
X121.073Y136.625
X121.053Y136.605
X121.033Y136.585
