(Created with grbl post processor 2025/02/04 15:31)
G21
(G-code generated with BlenderCAM and NC library)
G17G90
(Tool: D = 3.18 mm  type END flutes 2)
S1000M03
G00 Z1.0

G0X0Y0Z1
X71.406Y134.066
G1Z-0.05F50
X71.431Y134.053F100
X71.456Y134.041
X71.481Y134.029
X71.506Y134.017
X71.532Y134.006
X71.557Y133.996
X71.583Y133.985
X71.636Y133.966
X71.662Y133.957
X71.716Y133.941
X71.771Y133.926
X71.826Y133.914
X71.851Y133.909
X71.878Y133.904
X71.906Y133.899
X71.934Y133.895
X71.961Y133.891
X71.989Y133.888
X72.016Y133.885
X72.044Y133.883
X72.072Y133.881
X72.1Y133.88
X72.128
X72.156Y133.879
X72.184Y133.88
X72.211
X72.239Y133.881
X72.267Y133.883
X72.295Y133.885
X72.323Y133.888
X72.35Y133.891
X72.378Y133.895
X72.405Y133.899
X72.433Y133.904
X72.46Y133.909
X72.488Y133.914
X72.515Y133.92
X72.542Y133.927
X72.569Y133.934
X72.596Y133.941
X72.623Y133.949
X72.649Y133.957
X72.675Y133.966
X72.702Y133.976
X72.728Y133.985
X72.754Y133.996
X72.779Y134.006
X72.805Y134.017
X72.83Y134.029
X72.856Y134.041
X72.881Y134.053
X72.905Y134.066
X72.93Y134.079
X72.954Y134.093
X72.978Y134.107
X73.002Y134.122
X73.025Y134.137
X73.048Y134.152
X73.071Y134.168
X73.094Y134.184
X73.117Y134.201
X73.139Y134.218
X73.16Y134.235
X73.182Y134.253
X73.224Y134.289
X73.244Y134.308
X73.265Y134.327
X73.285Y134.347
X73.304Y134.367
X73.323Y134.387
X73.361Y134.428
X73.379Y134.45
X73.397Y134.471
X73.414Y134.493
X73.431Y134.515
X73.447Y134.537
X73.464Y134.56
X73.479Y134.583
X73.51Y134.63
X73.524Y134.654
X73.538Y134.678
X73.552Y134.702
X73.565Y134.726
X73.578Y134.751
X73.591Y134.776
X73.603Y134.801
X73.614Y134.827
X73.625Y134.852
X73.636Y134.878
X73.656Y134.93
X73.665Y134.956
X73.674Y134.982
X73.683Y135.009
X73.698Y135.063
X73.705Y135.09
X73.711Y135.117
X73.717Y135.144
X73.723Y135.171
X73.728Y135.199
X73.733Y135.226
X73.737Y135.254
X73.74Y135.281
X73.744Y135.309
X73.746Y135.337
X73.748Y135.365
X73.75Y135.392
X73.751Y135.42
X73.752Y135.448
Y135.476
Y135.504
X73.751Y135.532
X73.75Y135.559
X73.748Y135.587
X73.746Y135.615
X73.744Y135.643
X73.74Y135.671
X73.737Y135.698
X73.733Y135.726
X73.728Y135.753
X73.723Y135.78
X73.717Y135.808
X73.711Y135.835
X73.705Y135.862
X73.698Y135.889
X73.69Y135.916
X73.683Y135.943
X73.674Y135.969
X73.665Y135.996
X73.656Y136.022
X73.646Y136.048
X73.636Y136.074
X73.625Y136.1
X73.614Y136.125
X73.603Y136.151
X73.591Y136.176
X73.578Y136.201
X73.565Y136.225
X73.552Y136.25
X73.538Y136.274
X73.524Y136.298
X73.51Y136.322
X73.495Y136.345
X73.479Y136.369
X73.464Y136.392
X73.447Y136.414
X73.431Y136.437
X73.414Y136.459
X73.397Y136.481
X73.379Y136.502
X73.361Y136.524
X73.342Y136.544
X73.323Y136.565
X73.304Y136.585
X73.285Y136.605
X73.265Y136.625
X73.244Y136.644
X73.224Y136.662
X73.203Y136.681
X73.182Y136.699
X73.16Y136.717
X73.139Y136.734
X73.117Y136.751
X73.094Y136.768
X73.071Y136.784
X73.049Y136.8
X73.025Y136.815
X73.002Y136.83
X72.978Y136.844
X72.954Y136.859
X72.93Y136.872
X72.905Y136.886
X72.881Y136.899
X72.856Y136.911
X72.831Y136.923
X72.805Y136.935
X72.779Y136.946
X72.754Y136.956
X72.728Y136.967
X72.701Y136.976
X72.675Y136.986
X72.649Y136.994
X72.623Y137.003
X72.596Y137.011
X72.569Y137.018
X72.542Y137.025
X72.515Y137.032
X72.488Y137.038
X72.46Y137.043
X72.433Y137.048
X72.405Y137.053
X72.378Y137.057
X72.35Y137.061
X72.323Y137.064
X72.295Y137.066
X72.267Y137.069
X72.239Y137.07
X72.211Y137.072
X72.184
X72.137
X72.097Y137.071
X72.072Y137.07
X72.044Y137.069
X71.989Y137.064
X71.961Y137.061
X71.934Y137.057
X71.906Y137.053
X71.878Y137.048
X71.851Y137.043
X71.824Y137.038
X71.797Y137.032
X71.769Y137.025
X71.742Y137.018
X71.716Y137.011
X71.689Y137.003
X71.662Y136.994
X71.636Y136.986
X71.61Y136.976
X71.583Y136.967
X71.557Y136.956
X71.532Y136.946
X71.506Y136.935
X71.481Y136.923
X71.456Y136.911
X71.431Y136.899
X71.406Y136.886
X71.382Y136.872
X71.357Y136.859
X71.333Y136.844
X71.31Y136.83
X71.286Y136.815
X71.263Y136.8
X71.244Y136.787
X71.216Y136.767
X71.195Y136.751
X71.173Y136.734
X71.151Y136.717
X71.129Y136.699
X71.108Y136.681
X71.087Y136.662
X71.067Y136.644
X71.047Y136.625
X71.027Y136.605
X71.007Y136.585
X70.988Y136.565
X70.969Y136.544
X70.94Y136.51
X70.913Y136.478
X70.897Y136.459
X70.881Y136.437
X70.864Y136.414
X70.848Y136.392
X70.832Y136.369
X70.816Y136.345
X70.802Y136.322
X70.785Y136.294
X70.773Y136.274
X70.759Y136.25
X70.746Y136.225
X70.721Y136.176
X70.709Y136.151
X70.697Y136.125
X70.686Y136.1
X70.675Y136.074
X70.665Y136.048
X70.646Y135.996
X70.637Y135.969
X70.63Y135.946
X70.621Y135.915
X70.613Y135.889
X70.606Y135.862
X70.6Y135.835
X70.594Y135.808
X70.588Y135.781
X70.583Y135.753
X70.579Y135.726
X70.575Y135.698
X70.571Y135.671
X70.568Y135.643
X70.565Y135.615
X70.563Y135.587
X70.561Y135.559
X70.56Y135.532
X70.559Y135.504
Y135.459
X70.56Y135.418
X70.561Y135.392
X70.563Y135.365
X70.565Y135.337
X70.567Y135.316
X70.571Y135.28
X70.575Y135.254
X70.579Y135.226
X70.583Y135.199
X70.588Y135.171
X70.594Y135.144
X70.6Y135.117
X70.606Y135.09
X70.613Y135.063
X70.621Y135.036
X70.629Y135.009
X70.637Y134.983
X70.646Y134.956
X70.655Y134.93
X70.665Y134.904
X70.677Y134.874
X70.686Y134.852
X70.697Y134.827
X70.709Y134.801
X70.721Y134.776
X70.733Y134.751
X70.746Y134.726
X70.76Y134.7
X70.773Y134.678
X70.787Y134.654
X70.802Y134.63
X70.816Y134.606
X70.832Y134.583
X70.848Y134.56
X70.882Y134.513
X70.909Y134.479
X70.934Y134.448
X70.951Y134.428
X70.969Y134.408
X71.007Y134.367
X71.027Y134.347
X71.046Y134.327
X71.08Y134.296
X71.11Y134.269
X71.129Y134.253
X71.151Y134.235
X71.173Y134.218
X71.195Y134.201
X71.217Y134.184
X71.24Y134.168
X71.266Y134.15
X71.286Y134.137
X71.309Y134.122
X71.333Y134.107
X71.357Y134.093
X71.382Y134.079
X71.406Y134.066
G0Z1
X85.54Y135.461
G1Z-0.05F50
X85.557Y135.285F100
X85.609Y135.116
X85.692Y134.96
X85.804Y134.823
X85.941Y134.711
X86.096Y134.628
X86.266Y134.577
X86.441Y134.559
X86.617Y134.577
X86.786Y134.628
X86.942Y134.711
X87.079Y134.823
X87.191Y134.96
X87.274Y135.116
X87.325Y135.285
X87.343Y135.461
X87.325Y135.636
X87.274Y135.805
X87.191Y135.961
X87.079Y136.098
X86.942Y136.21
X86.786Y136.293
X86.617Y136.344
X86.441Y136.362
X86.266Y136.344
X86.096Y136.293
X85.941Y136.21
X85.804Y136.098
X85.692Y135.961
X85.609Y135.805
X85.557Y135.636
X85.54Y135.461
G0Z1
X101.444
G1Z-0.05F50
X101.461Y135.285F100
X101.513Y135.116
X101.596Y134.96
X101.708Y134.823
X101.845Y134.711
X102Y134.628
X102.169Y134.577
X102.345Y134.559
X102.521Y134.577
X102.69Y134.628
X102.846Y134.711
X102.983Y134.823
X103.095Y134.96
X103.178Y135.116
X103.229Y135.285
X103.247Y135.461
X103.229Y135.636
X103.178Y135.805
X103.095Y135.961
X102.983Y136.098
X102.846Y136.21
X102.69Y136.293
X102.521Y136.344
X102.345Y136.362
X102.169Y136.344
X102Y136.293
X101.845Y136.21
X101.708Y136.098
X101.596Y135.961
X101.513Y135.805
X101.461Y135.636
X101.444Y135.461
G0Z1
X104.947Y127.535
G1Z-0.05F50
X78.492F100
X77.838Y127.541
X77.185Y127.557
X76.531Y127.585
X75.878Y127.623
X75.226Y127.672
X74.575Y127.732
X73.925Y127.802
X73.276Y127.884
X72.628Y127.976
X71.982Y128.079
X71.338Y128.193
X70.695Y128.317
X70.572Y128.344
X70.448Y128.372
X70.325Y128.403
X70.203Y128.436
X70.082Y128.471
X69.96Y128.508
X69.84Y128.547
X69.72Y128.588
X69.601Y128.631
X69.483Y128.676
X69.366Y128.724
X69.249Y128.773
X69.134Y128.824
X69.019Y128.878
X68.905Y128.933
X68.792Y128.99
X68.68Y129.05
X68.57Y129.111
X68.46Y129.174
X68.351Y129.239
X68.244Y129.306
X68.137Y129.374
X68.032Y129.445
X67.928Y129.517
X67.826Y129.591
X67.724Y129.667
X67.624Y129.745
X67.526Y129.824
X67.429Y129.905
X67.333Y129.988
X67.238Y130.072
X67.146Y130.158
X67.054Y130.246
X66.964Y130.335
X66.876Y130.426
X66.789Y130.518
X66.704Y130.612
X66.621Y130.707
X66.539Y130.804
X66.439Y130.926
X66.341Y131.05
X66.246Y131.175
X66.152Y131.302
X66.06Y131.431
X65.971Y131.562
X65.884Y131.694
X65.8Y131.827
X65.717Y131.962
X65.637Y132.098
X65.559Y132.235
X65.484Y132.374
X65.411Y132.514
X65.341Y132.656
X65.273Y132.798
X65.207Y132.942
X65.144Y133.086
X65.083Y133.232
X65.025Y133.379
X64.969Y133.527
X64.916Y133.676
X64.866Y133.825
X64.818Y133.976
X64.772Y134.127
X64.729Y134.279
X64.689Y134.432
X64.652Y134.585
X64.617Y134.739
X64.584Y134.894
X64.555Y135.049
X64.528Y135.205
X64.503Y135.361
X64.482Y135.517
X64.463Y135.674
X64.447Y135.831
X64.433Y135.989
X64.422Y136.146
X64.414Y136.304
X64.409Y136.462
X64.406Y136.62
Y136.778
X64.409Y136.936
X64.414Y137.093
X64.422Y137.251
X64.433Y137.409
X64.446Y137.566
X64.463Y137.723
X64.481Y137.88
X64.501Y138.023
X64.92Y140.914
X64.934Y140.989
X64.951Y141.066
X64.97Y141.141
X64.991Y141.215
X65.015Y141.288
X65.042Y141.361
X65.072Y141.433
X65.103Y141.504
X65.137Y141.573
X65.174Y141.642
X65.213Y141.708
X65.254Y141.774
X65.298Y141.838
X65.343Y141.901
X65.392Y141.962
X65.441Y142.021
X65.493Y142.078
X65.548Y142.135
X65.602Y142.187
X65.661Y142.239
X65.72Y142.289
X65.781Y142.336
X65.844Y142.382
X65.908Y142.425
X65.975Y142.466
X66.041Y142.504
X66.109Y142.54
X66.18Y142.575
X66.25Y142.606
X66.322Y142.635
X66.394Y142.661
X66.469Y142.685
X66.544Y142.707
X66.618Y142.725
X66.694Y142.741
X66.771Y142.755
X66.847Y142.765
X66.924Y142.773
X67.002Y142.779
X67.078Y142.782
X67.117
X72.168
X72.285Y142.781
X72.402Y142.778
X72.519Y142.773
X72.635Y142.766
X73.891Y142.676
X75.043Y142.611
X76.197Y142.565
X77.351Y142.537
X78.512Y142.528
X82.065
X82.103Y142.531
X82.141Y142.534
X82.179Y142.535
X82.218
X110.218
X110.257
X110.297Y142.533
X110.337Y142.531
X110.376Y142.527
X110.416Y142.523
X110.455Y142.518
X110.495Y142.511
X110.534Y142.504
X110.573Y142.495
X110.611Y142.486
X110.65Y142.476
X110.688Y142.464
X110.725Y142.452
X110.763Y142.439
X110.8Y142.425
X110.837Y142.41
X110.873Y142.394
X110.909Y142.377
X110.945Y142.359
X110.98Y142.341
X111.015Y142.321
X111.05Y142.3
X111.084Y142.279
X111.118Y142.256
X111.151Y142.233
X111.183Y142.209
X111.215Y142.184
X111.246Y142.158
X111.261Y142.145
X111.291Y142.119
X111.313Y142.098
X111.335Y142.077
X111.363Y142.049
X111.39Y142.02
X111.422Y141.984
X111.453Y141.947
X111.475Y141.919
X111.496Y141.891
X111.517Y141.862
X111.537Y141.833
X111.557Y141.804
X111.575Y141.773
X111.592Y141.745
X111.609Y141.717
X111.624Y141.688
X111.643Y141.65
X111.661Y141.613
X111.675Y141.583
X111.687Y141.554
X111.703Y141.513
X111.712Y141.491
X111.726Y141.451
X111.739Y141.41
X111.751Y141.368
X111.762Y141.326
X111.772Y141.283
X111.78Y141.243
X111.787Y141.202
X111.795Y141.151
X111.801Y141.095
X111.804Y141.061
X111.806Y141.028
X111.808Y140.994
X111.809Y140.944
Y140.712
X111.819Y140.65
X111.83Y140.574
X111.838Y140.495
X111.844Y140.419
X111.846Y140.341
X111.847Y140.302
Y129.468
X111.846Y129.429
X111.845Y129.389
X111.842Y129.35
X111.839Y129.311
X111.834Y129.272
X111.829Y129.232
X111.823Y129.194
X111.815Y129.155
X111.808Y129.121
X111.807Y129.079
X111.805Y129.036
X111.801Y128.993
X111.797Y128.95
X111.791Y128.908
X111.784Y128.865
X111.776Y128.823
X111.766Y128.781
X111.756Y128.739
X111.746Y128.704
X111.736Y128.67
X111.725Y128.636
X111.713Y128.602
X111.701Y128.568
X111.684Y128.527
X111.666Y128.486
X111.647Y128.446
X111.625Y128.402
X111.609Y128.373
X111.592Y128.343
X111.57Y128.307
X111.548Y128.271
X111.526Y128.239
X111.504Y128.208
X111.481Y128.177
X111.457Y128.147
X111.432Y128.117
X111.407Y128.088
X111.381Y128.059
X111.354Y128.031
X111.327Y128.004
X111.299Y127.978
X111.271Y127.952
X111.241Y127.927
X111.211Y127.902
X111.181Y127.878
X111.15Y127.855
X111.119Y127.833
X111.087Y127.812
X111.054Y127.791
X111.021Y127.771
X110.987Y127.752
X110.953Y127.733
X110.918Y127.716
X110.884Y127.7
X110.849Y127.684
X110.814Y127.669
X110.778Y127.656
X110.742Y127.642
X110.706Y127.63
X110.67Y127.619
X110.633Y127.609
X110.596Y127.599
X110.559Y127.59
X110.521Y127.583
X110.484Y127.576
X110.446Y127.57
X110.408Y127.565
X110.37Y127.561
X110.332Y127.557
X110.294Y127.555
X110.256Y127.554
X110.218Y127.553
X106.281
X105.691Y127.54
X104.947Y127.535
G0Z1
X71.406Y134.066
G1Z-0.1F50
X71.431Y134.053F100
X71.456Y134.041
X71.481Y134.029
X71.506Y134.017
X71.532Y134.006
X71.557Y133.996
X71.583Y133.985
X71.636Y133.966
X71.662Y133.957
X71.716Y133.941
X71.771Y133.926
X71.826Y133.914
X71.851Y133.909
X71.878Y133.904
X71.906Y133.899
X71.934Y133.895
X71.961Y133.891
X71.989Y133.888
X72.016Y133.885
X72.044Y133.883
X72.072Y133.881
X72.1Y133.88
X72.128
X72.156Y133.879
X72.184Y133.88
X72.211
X72.239Y133.881
X72.267Y133.883
X72.295Y133.885
X72.323Y133.888
X72.35Y133.891
X72.378Y133.895
X72.405Y133.899
X72.433Y133.904
X72.46Y133.909
X72.488Y133.914
X72.515Y133.92
X72.542Y133.927
X72.569Y133.934
X72.596Y133.941
X72.623Y133.949
X72.649Y133.957
X72.675Y133.966
X72.702Y133.976
X72.728Y133.985
X72.754Y133.996
X72.779Y134.006
X72.805Y134.017
X72.83Y134.029
X72.856Y134.041
X72.881Y134.053
X72.905Y134.066
X72.93Y134.079
X72.954Y134.093
X72.978Y134.107
X73.002Y134.122
X73.025Y134.137
X73.048Y134.152
X73.071Y134.168
X73.094Y134.184
X73.117Y134.201
X73.139Y134.218
X73.16Y134.235
X73.182Y134.253
X73.224Y134.289
X73.244Y134.308
X73.265Y134.327
X73.285Y134.347
X73.304Y134.367
X73.323Y134.387
X73.361Y134.428
X73.379Y134.45
X73.397Y134.471
X73.414Y134.493
X73.431Y134.515
X73.447Y134.537
X73.464Y134.56
X73.479Y134.583
X73.51Y134.63
X73.524Y134.654
X73.538Y134.678
X73.552Y134.702
X73.565Y134.726
X73.578Y134.751
X73.591Y134.776
X73.603Y134.801
X73.614Y134.827
X73.625Y134.852
X73.636Y134.878
X73.656Y134.93
X73.665Y134.956
X73.674Y134.982
X73.683Y135.009
X73.698Y135.063
X73.705Y135.09
X73.711Y135.117
X73.717Y135.144
X73.723Y135.171
X73.728Y135.199
X73.733Y135.226
X73.737Y135.254
X73.74Y135.281
X73.744Y135.309
X73.746Y135.337
X73.748Y135.365
X73.75Y135.392
X73.751Y135.42
X73.752Y135.448
Y135.476
Y135.504
X73.751Y135.532
X73.75Y135.559
X73.748Y135.587
X73.746Y135.615
X73.744Y135.643
X73.74Y135.671
X73.737Y135.698
X73.733Y135.726
X73.728Y135.753
X73.723Y135.78
X73.717Y135.808
X73.711Y135.835
X73.705Y135.862
X73.698Y135.889
X73.69Y135.916
X73.683Y135.943
X73.674Y135.969
X73.665Y135.996
X73.656Y136.022
X73.646Y136.048
X73.636Y136.074
X73.625Y136.1
X73.614Y136.125
X73.603Y136.151
X73.591Y136.176
X73.578Y136.201
X73.565Y136.225
X73.552Y136.25
X73.538Y136.274
X73.524Y136.298
X73.51Y136.322
X73.495Y136.345
X73.479Y136.369
X73.464Y136.392
X73.447Y136.414
X73.431Y136.437
X73.414Y136.459
X73.397Y136.481
X73.379Y136.502
X73.361Y136.524
X73.342Y136.544
X73.323Y136.565
X73.304Y136.585
X73.285Y136.605
X73.265Y136.625
X73.244Y136.644
X73.224Y136.662
X73.203Y136.681
X73.182Y136.699
X73.16Y136.717
X73.139Y136.734
X73.117Y136.751
X73.094Y136.768
X73.071Y136.784
X73.049Y136.8
X73.025Y136.815
X73.002Y136.83
X72.978Y136.844
X72.954Y136.859
X72.93Y136.872
X72.905Y136.886
X72.881Y136.899
X72.856Y136.911
X72.831Y136.923
X72.805Y136.935
X72.779Y136.946
X72.754Y136.956
X72.728Y136.967
X72.701Y136.976
X72.675Y136.986
X72.649Y136.994
X72.623Y137.003
X72.596Y137.011
X72.569Y137.018
X72.542Y137.025
X72.515Y137.032
X72.488Y137.038
X72.46Y137.043
X72.433Y137.048
X72.405Y137.053
X72.378Y137.057
X72.35Y137.061
X72.323Y137.064
X72.295Y137.066
X72.267Y137.069
X72.239Y137.07
X72.211Y137.072
X72.184
X72.137
X72.097Y137.071
X72.072Y137.07
X72.044Y137.069
X71.989Y137.064
X71.961Y137.061
X71.934Y137.057
X71.906Y137.053
X71.878Y137.048
X71.851Y137.043
X71.824Y137.038
X71.797Y137.032
X71.769Y137.025
X71.742Y137.018
X71.716Y137.011
X71.689Y137.003
X71.662Y136.994
X71.636Y136.986
X71.61Y136.976
X71.583Y136.967
X71.557Y136.956
X71.532Y136.946
X71.506Y136.935
X71.481Y136.923
X71.456Y136.911
X71.431Y136.899
X71.406Y136.886
X71.382Y136.872
X71.357Y136.859
X71.333Y136.844
X71.31Y136.83
X71.286Y136.815
X71.263Y136.8
X71.244Y136.787
X71.216Y136.767
X71.195Y136.751
X71.173Y136.734
X71.151Y136.717
X71.129Y136.699
X71.108Y136.681
X71.087Y136.662
X71.067Y136.644
X71.047Y136.625
X71.027Y136.605
X71.007Y136.585
X70.988Y136.565
X70.969Y136.544
X70.94Y136.51
X70.913Y136.478
X70.897Y136.459
X70.881Y136.437
X70.864Y136.414
X70.848Y136.392
X70.832Y136.369
X70.816Y136.345
X70.802Y136.322
X70.785Y136.294
X70.773Y136.274
X70.759Y136.25
X70.746Y136.225
X70.721Y136.176
X70.709Y136.151
X70.697Y136.125
X70.686Y136.1
X70.675Y136.074
X70.665Y136.048
X70.646Y135.996
X70.637Y135.969
X70.63Y135.946
X70.621Y135.915
X70.613Y135.889
X70.606Y135.862
X70.6Y135.835
X70.594Y135.808
X70.588Y135.781
X70.583Y135.753
X70.579Y135.726
X70.575Y135.698
X70.571Y135.671
X70.568Y135.643
X70.565Y135.615
X70.563Y135.587
X70.561Y135.559
X70.56Y135.532
X70.559Y135.504
Y135.459
X70.56Y135.418
X70.561Y135.392
X70.563Y135.365
X70.565Y135.337
X70.567Y135.316
X70.571Y135.28
X70.575Y135.254
X70.579Y135.226
X70.583Y135.199
X70.588Y135.171
X70.594Y135.144
X70.6Y135.117
X70.606Y135.09
X70.613Y135.063
X70.621Y135.036
X70.629Y135.009
X70.637Y134.983
X70.646Y134.956
X70.655Y134.93
X70.665Y134.904
X70.677Y134.874
X70.686Y134.852
X70.697Y134.827
X70.709Y134.801
X70.721Y134.776
X70.733Y134.751
X70.746Y134.726
X70.76Y134.7
X70.773Y134.678
X70.787Y134.654
X70.802Y134.63
X70.816Y134.606
X70.832Y134.583
X70.848Y134.56
X70.882Y134.513
X70.909Y134.479
X70.934Y134.448
X70.951Y134.428
X70.969Y134.408
X71.007Y134.367
X71.027Y134.347
X71.046Y134.327
X71.08Y134.296
X71.11Y134.269
X71.129Y134.253
X71.151Y134.235
X71.173Y134.218
X71.195Y134.201
X71.217Y134.184
X71.24Y134.168
X71.266Y134.15
X71.286Y134.137
X71.309Y134.122
X71.333Y134.107
X71.357Y134.093
X71.382Y134.079
X71.406Y134.066
G0Z1
X85.54Y135.461
G1Z-0.1F50
X85.557Y135.285F100
X85.609Y135.116
X85.692Y134.96
X85.804Y134.823
X85.941Y134.711
X86.096Y134.628
X86.266Y134.577
X86.441Y134.559
X86.617Y134.577
X86.786Y134.628
X86.942Y134.711
X87.079Y134.823
X87.191Y134.96
X87.274Y135.116
X87.325Y135.285
X87.343Y135.461
X87.325Y135.636
X87.274Y135.805
X87.191Y135.961
X87.079Y136.098
X86.942Y136.21
X86.786Y136.293
X86.617Y136.344
X86.441Y136.362
X86.266Y136.344
X86.096Y136.293
X85.941Y136.21
X85.804Y136.098
X85.692Y135.961
X85.609Y135.805
X85.557Y135.636
X85.54Y135.461
G0Z1
X101.444
G1Z-0.1F50
X101.461Y135.285F100
X101.513Y135.116
X101.596Y134.96
X101.708Y134.823
X101.845Y134.711
X102Y134.628
X102.169Y134.577
X102.345Y134.559
X102.521Y134.577
X102.69Y134.628
X102.846Y134.711
X102.983Y134.823
X103.095Y134.96
X103.178Y135.116
X103.229Y135.285
X103.247Y135.461
X103.229Y135.636
X103.178Y135.805
X103.095Y135.961
X102.983Y136.098
X102.846Y136.21
X102.69Y136.293
X102.521Y136.344
X102.345Y136.362
X102.169Y136.344
X102Y136.293
X101.845Y136.21
X101.708Y136.098
X101.596Y135.961
X101.513Y135.805
X101.461Y135.636
X101.444Y135.461
G0Z1
X104.947Y127.535
G1Z-0.1F50
X78.492F100
X77.838Y127.541
X77.185Y127.557
X76.531Y127.585
X75.878Y127.623
X75.226Y127.672
X74.575Y127.732
X73.925Y127.802
X73.276Y127.884
X72.628Y127.976
X71.982Y128.079
X71.338Y128.193
X70.695Y128.317
X70.572Y128.344
X70.448Y128.372
X70.325Y128.403
X70.203Y128.436
X70.082Y128.471
X69.96Y128.508
X69.84Y128.547
X69.72Y128.588
X69.601Y128.631
X69.483Y128.676
X69.366Y128.724
X69.249Y128.773
X69.134Y128.824
X69.019Y128.878
X68.905Y128.933
X68.792Y128.99
X68.68Y129.05
X68.57Y129.111
X68.46Y129.174
X68.351Y129.239
X68.244Y129.306
X68.137Y129.374
X68.032Y129.445
X67.928Y129.517
X67.826Y129.591
X67.724Y129.667
X67.624Y129.745
X67.526Y129.824
X67.429Y129.905
X67.333Y129.988
X67.238Y130.072
X67.146Y130.158
X67.054Y130.246
X66.964Y130.335
X66.876Y130.426
X66.789Y130.518
X66.704Y130.612
X66.621Y130.707
X66.539Y130.804
X66.439Y130.926
X66.341Y131.05
X66.246Y131.175
X66.152Y131.302
X66.06Y131.431
X65.971Y131.562
X65.884Y131.694
X65.8Y131.827
X65.717Y131.962
X65.637Y132.098
X65.559Y132.235
X65.484Y132.374
X65.411Y132.514
X65.341Y132.656
X65.273Y132.798
X65.207Y132.942
X65.144Y133.086
X65.083Y133.232
X65.025Y133.379
X64.969Y133.527
X64.916Y133.676
X64.866Y133.825
X64.818Y133.976
X64.772Y134.127
X64.729Y134.279
X64.689Y134.432
X64.652Y134.585
X64.617Y134.739
X64.584Y134.894
X64.555Y135.049
X64.528Y135.205
X64.503Y135.361
X64.482Y135.517
X64.463Y135.674
X64.447Y135.831
X64.433Y135.989
X64.422Y136.146
X64.414Y136.304
X64.409Y136.462
X64.406Y136.62
Y136.778
X64.409Y136.936
X64.414Y137.093
X64.422Y137.251
X64.433Y137.409
X64.446Y137.566
X64.463Y137.723
X64.481Y137.88
X64.501Y138.023
X64.92Y140.914
X64.934Y140.989
X64.951Y141.066
X64.97Y141.141
X64.991Y141.215
X65.015Y141.288
X65.042Y141.361
X65.072Y141.433
X65.103Y141.504
X65.137Y141.573
X65.174Y141.642
X65.213Y141.708
X65.254Y141.774
X65.298Y141.838
X65.343Y141.901
X65.392Y141.962
X65.441Y142.021
X65.493Y142.078
X65.548Y142.135
X65.602Y142.187
X65.661Y142.239
X65.72Y142.289
X65.781Y142.336
X65.844Y142.382
X65.908Y142.425
X65.975Y142.466
X66.041Y142.504
X66.109Y142.54
X66.18Y142.575
X66.25Y142.606
X66.322Y142.635
X66.394Y142.661
X66.469Y142.685
X66.544Y142.707
X66.618Y142.725
X66.694Y142.741
X66.771Y142.755
X66.847Y142.765
X66.924Y142.773
X67.002Y142.779
X67.078Y142.782
X67.117
X72.168
X72.285Y142.781
X72.402Y142.778
X72.519Y142.773
X72.635Y142.766
X73.891Y142.676
X75.043Y142.611
X76.197Y142.565
X77.351Y142.537
X78.512Y142.528
X82.065
X82.103Y142.531
X82.141Y142.534
X82.179Y142.535
X82.218
X110.218
X110.257
X110.297Y142.533
X110.337Y142.531
X110.376Y142.527
X110.416Y142.523
X110.455Y142.518
X110.495Y142.511
X110.534Y142.504
X110.573Y142.495
X110.611Y142.486
X110.65Y142.476
X110.688Y142.464
X110.725Y142.452
X110.763Y142.439
X110.8Y142.425
X110.837Y142.41
X110.873Y142.394
X110.909Y142.377
X110.945Y142.359
X110.98Y142.341
X111.015Y142.321
X111.05Y142.3
X111.084Y142.279
X111.118Y142.256
X111.151Y142.233
X111.183Y142.209
X111.215Y142.184
X111.246Y142.158
X111.261Y142.145
X111.291Y142.119
X111.313Y142.098
X111.335Y142.077
X111.363Y142.049
X111.39Y142.02
X111.422Y141.984
X111.453Y141.947
X111.475Y141.919
X111.496Y141.891
X111.517Y141.862
X111.537Y141.833
X111.557Y141.804
X111.575Y141.773
X111.592Y141.745
X111.609Y141.717
X111.624Y141.688
X111.643Y141.65
X111.661Y141.613
X111.675Y141.583
X111.687Y141.554
X111.703Y141.513
X111.712Y141.491
X111.726Y141.451
X111.739Y141.41
X111.751Y141.368
X111.762Y141.326
X111.772Y141.283
X111.78Y141.243
X111.787Y141.202
X111.795Y141.151
X111.801Y141.095
X111.804Y141.061
X111.806Y141.028
X111.808Y140.994
X111.809Y140.944
Y140.712
X111.819Y140.65
X111.83Y140.574
X111.838Y140.495
X111.844Y140.419
X111.846Y140.341
X111.847Y140.302
Y129.468
X111.846Y129.429
X111.845Y129.389
X111.842Y129.35
X111.839Y129.311
X111.834Y129.272
X111.829Y129.232
X111.823Y129.194
X111.815Y129.155
X111.808Y129.121
X111.807Y129.079
X111.805Y129.036
X111.801Y128.993
X111.797Y128.95
X111.791Y128.908
X111.784Y128.865
X111.776Y128.823
X111.766Y128.781
X111.756Y128.739
X111.746Y128.704
X111.736Y128.67
X111.725Y128.636
X111.713Y128.602
X111.701Y128.568
X111.684Y128.527
X111.666Y128.486
X111.647Y128.446
X111.625Y128.402
X111.609Y128.373
X111.592Y128.343
X111.57Y128.307
X111.548Y128.271
X111.526Y128.239
X111.504Y128.208
X111.481Y128.177
X111.457Y128.147
X111.432Y128.117
X111.407Y128.088
X111.381Y128.059
X111.354Y128.031
X111.327Y128.004
X111.299Y127.978
X111.271Y127.952
X111.241Y127.927
X111.211Y127.902
X111.181Y127.878
X111.15Y127.855
X111.119Y127.833
X111.087Y127.812
X111.054Y127.791
X111.021Y127.771
X110.987Y127.752
X110.953Y127.733
X110.918Y127.716
X110.884Y127.7
X110.849Y127.684
X110.814Y127.669
X110.778Y127.656
X110.742Y127.642
X110.706Y127.63
X110.67Y127.619
X110.633Y127.609
X110.596Y127.599
X110.559Y127.59
X110.521Y127.583
X110.484Y127.576
X110.446Y127.57
X110.408Y127.565
X110.37Y127.561
X110.332Y127.557
X110.294Y127.555
X110.256Y127.554
X110.218Y127.553
X106.281
X105.691Y127.54
X104.947Y127.535
G0Z1
X71.406Y134.066
G1Z-0.15F50
X71.431Y134.053F100
X71.456Y134.041
X71.481Y134.029
X71.506Y134.017
X71.532Y134.006
X71.557Y133.996
X71.583Y133.985
X71.636Y133.966
X71.662Y133.957
X71.716Y133.941
X71.771Y133.926
X71.826Y133.914
X71.851Y133.909
X71.878Y133.904
X71.906Y133.899
X71.934Y133.895
X71.961Y133.891
X71.989Y133.888
X72.016Y133.885
X72.044Y133.883
X72.072Y133.881
X72.1Y133.88
X72.128
X72.156Y133.879
X72.184Y133.88
X72.211
X72.239Y133.881
X72.267Y133.883
X72.295Y133.885
X72.323Y133.888
X72.35Y133.891
X72.378Y133.895
X72.405Y133.899
X72.433Y133.904
X72.46Y133.909
X72.488Y133.914
X72.515Y133.92
X72.542Y133.927
X72.569Y133.934
X72.596Y133.941
X72.623Y133.949
X72.649Y133.957
X72.675Y133.966
X72.702Y133.976
X72.728Y133.985
X72.754Y133.996
X72.779Y134.006
X72.805Y134.017
X72.83Y134.029
X72.856Y134.041
X72.881Y134.053
X72.905Y134.066
X72.93Y134.079
X72.954Y134.093
X72.978Y134.107
X73.002Y134.122
X73.025Y134.137
X73.048Y134.152
X73.071Y134.168
X73.094Y134.184
X73.117Y134.201
X73.139Y134.218
X73.16Y134.235
X73.182Y134.253
X73.224Y134.289
X73.244Y134.308
X73.265Y134.327
X73.285Y134.347
X73.304Y134.367
X73.323Y134.387
X73.361Y134.428
X73.379Y134.45
X73.397Y134.471
X73.414Y134.493
X73.431Y134.515
X73.447Y134.537
X73.464Y134.56
X73.479Y134.583
X73.51Y134.63
X73.524Y134.654
X73.538Y134.678
X73.552Y134.702
X73.565Y134.726
X73.578Y134.751
X73.591Y134.776
X73.603Y134.801
X73.614Y134.827
X73.625Y134.852
X73.636Y134.878
X73.656Y134.93
X73.665Y134.956
X73.674Y134.982
X73.683Y135.009
X73.698Y135.063
X73.705Y135.09
X73.711Y135.117
X73.717Y135.144
X73.723Y135.171
X73.728Y135.199
X73.733Y135.226
X73.737Y135.254
X73.74Y135.281
X73.744Y135.309
X73.746Y135.337
X73.748Y135.365
X73.75Y135.392
X73.751Y135.42
X73.752Y135.448
Y135.476
Y135.504
X73.751Y135.532
X73.75Y135.559
X73.748Y135.587
X73.746Y135.615
X73.744Y135.643
X73.74Y135.671
X73.737Y135.698
X73.733Y135.726
X73.728Y135.753
X73.723Y135.78
X73.717Y135.808
X73.711Y135.835
X73.705Y135.862
X73.698Y135.889
X73.69Y135.916
X73.683Y135.943
X73.674Y135.969
X73.665Y135.996
X73.656Y136.022
X73.646Y136.048
X73.636Y136.074
X73.625Y136.1
X73.614Y136.125
X73.603Y136.151
X73.591Y136.176
X73.578Y136.201
X73.565Y136.225
X73.552Y136.25
X73.538Y136.274
X73.524Y136.298
X73.51Y136.322
X73.495Y136.345
X73.479Y136.369
X73.464Y136.392
X73.447Y136.414
X73.431Y136.437
X73.414Y136.459
X73.397Y136.481
X73.379Y136.502
X73.361Y136.524
X73.342Y136.544
X73.323Y136.565
X73.304Y136.585
X73.285Y136.605
X73.265Y136.625
X73.244Y136.644
X73.224Y136.662
X73.203Y136.681
X73.182Y136.699
X73.16Y136.717
X73.139Y136.734
X73.117Y136.751
X73.094Y136.768
X73.071Y136.784
X73.049Y136.8
X73.025Y136.815
X73.002Y136.83
X72.978Y136.844
X72.954Y136.859
X72.93Y136.872
X72.905Y136.886
X72.881Y136.899
X72.856Y136.911
X72.831Y136.923
X72.805Y136.935
X72.779Y136.946
X72.754Y136.956
X72.728Y136.967
X72.701Y136.976
X72.675Y136.986
X72.649Y136.994
X72.623Y137.003
X72.596Y137.011
X72.569Y137.018
X72.542Y137.025
X72.515Y137.032
X72.488Y137.038
X72.46Y137.043
X72.433Y137.048
X72.405Y137.053
X72.378Y137.057
X72.35Y137.061
X72.323Y137.064
X72.295Y137.066
X72.267Y137.069
X72.239Y137.07
X72.211Y137.072
X72.184
X72.137
X72.097Y137.071
X72.072Y137.07
X72.044Y137.069
X71.989Y137.064
X71.961Y137.061
X71.934Y137.057
X71.906Y137.053
X71.878Y137.048
X71.851Y137.043
X71.824Y137.038
X71.797Y137.032
X71.769Y137.025
X71.742Y137.018
X71.716Y137.011
X71.689Y137.003
X71.662Y136.994
X71.636Y136.986
X71.61Y136.976
X71.583Y136.967
X71.557Y136.956
X71.532Y136.946
X71.506Y136.935
X71.481Y136.923
X71.456Y136.911
X71.431Y136.899
X71.406Y136.886
X71.382Y136.872
X71.357Y136.859
X71.333Y136.844
X71.31Y136.83
X71.286Y136.815
X71.263Y136.8
X71.244Y136.787
X71.216Y136.767
X71.195Y136.751
X71.173Y136.734
X71.151Y136.717
X71.129Y136.699
X71.108Y136.681
X71.087Y136.662
X71.067Y136.644
X71.047Y136.625
X71.027Y136.605
X71.007Y136.585
X70.988Y136.565
X70.969Y136.544
X70.94Y136.51
X70.913Y136.478
X70.897Y136.459
X70.881Y136.437
X70.864Y136.414
X70.848Y136.392
X70.832Y136.369
X70.816Y136.345
X70.802Y136.322
X70.785Y136.294
X70.773Y136.274
X70.759Y136.25
X70.746Y136.225
X70.721Y136.176
X70.709Y136.151
X70.697Y136.125
X70.686Y136.1
X70.675Y136.074
X70.665Y136.048
X70.646Y135.996
X70.637Y135.969
X70.63Y135.946
X70.621Y135.915
X70.613Y135.889
X70.606Y135.862
X70.6Y135.835
X70.594Y135.808
X70.588Y135.781
X70.583Y135.753
X70.579Y135.726
X70.575Y135.698
X70.571Y135.671
X70.568Y135.643
X70.565Y135.615
X70.563Y135.587
X70.561Y135.559
X70.56Y135.532
X70.559Y135.504
Y135.459
X70.56Y135.418
X70.561Y135.392
X70.563Y135.365
X70.565Y135.337
X70.567Y135.316
X70.571Y135.28
X70.575Y135.254
X70.579Y135.226
X70.583Y135.199
X70.588Y135.171
X70.594Y135.144
X70.6Y135.117
X70.606Y135.09
X70.613Y135.063
X70.621Y135.036
X70.629Y135.009
X70.637Y134.983
X70.646Y134.956
X70.655Y134.93
X70.665Y134.904
X70.677Y134.874
X70.686Y134.852
X70.697Y134.827
X70.709Y134.801
X70.721Y134.776
X70.733Y134.751
X70.746Y134.726
X70.76Y134.7
X70.773Y134.678
X70.787Y134.654
X70.802Y134.63
X70.816Y134.606
X70.832Y134.583
X70.848Y134.56
X70.882Y134.513
X70.909Y134.479
X70.934Y134.448
X70.951Y134.428
X70.969Y134.408
X71.007Y134.367
X71.027Y134.347
X71.046Y134.327
X71.08Y134.296
X71.11Y134.269
X71.129Y134.253
X71.151Y134.235
X71.173Y134.218
X71.195Y134.201
X71.217Y134.184
X71.24Y134.168
X71.266Y134.15
X71.286Y134.137
X71.309Y134.122
X71.333Y134.107
X71.357Y134.093
X71.382Y134.079
X71.406Y134.066
G0Z1
X85.54Y135.461
G1Z-0.15F50
X85.557Y135.285F100
X85.609Y135.116
X85.692Y134.96
X85.804Y134.823
X85.941Y134.711
X86.096Y134.628
X86.266Y134.577
X86.441Y134.559
X86.617Y134.577
X86.786Y134.628
X86.942Y134.711
X87.079Y134.823
X87.191Y134.96
X87.274Y135.116
X87.325Y135.285
X87.343Y135.461
X87.325Y135.636
X87.274Y135.805
X87.191Y135.961
X87.079Y136.098
X86.942Y136.21
X86.786Y136.293
X86.617Y136.344
X86.441Y136.362
X86.266Y136.344
X86.096Y136.293
X85.941Y136.21
X85.804Y136.098
X85.692Y135.961
X85.609Y135.805
X85.557Y135.636
X85.54Y135.461
G0Z1
X101.444
G1Z-0.15F50
X101.461Y135.285F100
X101.513Y135.116
X101.596Y134.96
X101.708Y134.823
X101.845Y134.711
X102Y134.628
X102.169Y134.577
X102.345Y134.559
X102.521Y134.577
X102.69Y134.628
X102.846Y134.711
X102.983Y134.823
X103.095Y134.96
X103.178Y135.116
X103.229Y135.285
X103.247Y135.461
X103.229Y135.636
X103.178Y135.805
X103.095Y135.961
X102.983Y136.098
X102.846Y136.21
X102.69Y136.293
X102.521Y136.344
X102.345Y136.362
X102.169Y136.344
X102Y136.293
X101.845Y136.21
X101.708Y136.098
X101.596Y135.961
X101.513Y135.805
X101.461Y135.636
X101.444Y135.461
G0Z1
X104.947Y127.535
G1Z-0.15F50
X78.492F100
X77.838Y127.541
X77.185Y127.557
X76.531Y127.585
X75.878Y127.623
X75.226Y127.672
X74.575Y127.732
X73.925Y127.802
X73.276Y127.884
X72.628Y127.976
X71.982Y128.079
X71.338Y128.193
X70.695Y128.317
X70.572Y128.344
X70.448Y128.372
X70.325Y128.403
X70.203Y128.436
X70.082Y128.471
X69.96Y128.508
X69.84Y128.547
X69.72Y128.588
X69.601Y128.631
X69.483Y128.676
X69.366Y128.724
X69.249Y128.773
X69.134Y128.824
X69.019Y128.878
X68.905Y128.933
X68.792Y128.99
X68.68Y129.05
X68.57Y129.111
X68.46Y129.174
X68.351Y129.239
X68.244Y129.306
X68.137Y129.374
X68.032Y129.445
X67.928Y129.517
X67.826Y129.591
X67.724Y129.667
X67.624Y129.745
X67.526Y129.824
X67.429Y129.905
X67.333Y129.988
X67.238Y130.072
X67.146Y130.158
X67.054Y130.246
X66.964Y130.335
X66.876Y130.426
X66.789Y130.518
X66.704Y130.612
X66.621Y130.707
X66.539Y130.804
X66.439Y130.926
X66.341Y131.05
X66.246Y131.175
X66.152Y131.302
X66.06Y131.431
X65.971Y131.562
X65.884Y131.694
X65.8Y131.827
X65.717Y131.962
X65.637Y132.098
X65.559Y132.235
X65.484Y132.374
X65.411Y132.514
X65.341Y132.656
X65.273Y132.798
X65.207Y132.942
X65.144Y133.086
X65.083Y133.232
X65.025Y133.379
X64.969Y133.527
X64.916Y133.676
X64.866Y133.825
X64.818Y133.976
X64.772Y134.127
X64.729Y134.279
X64.689Y134.432
X64.652Y134.585
X64.617Y134.739
X64.584Y134.894
X64.555Y135.049
X64.528Y135.205
X64.503Y135.361
X64.482Y135.517
X64.463Y135.674
X64.447Y135.831
X64.433Y135.989
X64.422Y136.146
X64.414Y136.304
X64.409Y136.462
X64.406Y136.62
Y136.778
X64.409Y136.936
X64.414Y137.093
X64.422Y137.251
X64.433Y137.409
X64.446Y137.566
X64.463Y137.723
X64.481Y137.88
X64.501Y138.023
X64.92Y140.914
X64.934Y140.989
X64.951Y141.066
X64.97Y141.141
X64.991Y141.215
X65.015Y141.288
X65.042Y141.361
X65.072Y141.433
X65.103Y141.504
X65.137Y141.573
X65.174Y141.642
X65.213Y141.708
X65.254Y141.774
X65.298Y141.838
X65.343Y141.901
X65.392Y141.962
X65.441Y142.021
X65.493Y142.078
X65.548Y142.135
X65.602Y142.187
X65.661Y142.239
X65.72Y142.289
X65.781Y142.336
X65.844Y142.382
X65.908Y142.425
X65.975Y142.466
X66.041Y142.504
X66.109Y142.54
X66.18Y142.575
X66.25Y142.606
X66.322Y142.635
X66.394Y142.661
X66.469Y142.685
X66.544Y142.707
X66.618Y142.725
X66.694Y142.741
X66.771Y142.755
X66.847Y142.765
X66.924Y142.773
X67.002Y142.779
X67.078Y142.782
X67.117
X72.168
X72.285Y142.781
X72.402Y142.778
X72.519Y142.773
X72.635Y142.766
X73.891Y142.676
X75.043Y142.611
X76.197Y142.565
X77.351Y142.537
X78.512Y142.528
X82.065
X82.103Y142.531
X82.141Y142.534
X82.179Y142.535
X82.218
X110.218
X110.257
X110.297Y142.533
X110.337Y142.531
X110.376Y142.527
X110.416Y142.523
X110.455Y142.518
X110.495Y142.511
X110.534Y142.504
X110.573Y142.495
X110.611Y142.486
X110.65Y142.476
X110.688Y142.464
X110.725Y142.452
X110.763Y142.439
X110.8Y142.425
X110.837Y142.41
X110.873Y142.394
X110.909Y142.377
X110.945Y142.359
X110.98Y142.341
X111.015Y142.321
X111.05Y142.3
X111.084Y142.279
X111.118Y142.256
X111.151Y142.233
X111.183Y142.209
X111.215Y142.184
X111.246Y142.158
X111.261Y142.145
X111.291Y142.119
X111.313Y142.098
X111.335Y142.077
X111.363Y142.049
X111.39Y142.02
X111.422Y141.984
X111.453Y141.947
X111.475Y141.919
X111.496Y141.891
X111.517Y141.862
X111.537Y141.833
X111.557Y141.804
X111.575Y141.773
X111.592Y141.745
X111.609Y141.717
X111.624Y141.688
X111.643Y141.65
X111.661Y141.613
X111.675Y141.583
X111.687Y141.554
X111.703Y141.513
X111.712Y141.491
X111.726Y141.451
X111.739Y141.41
X111.751Y141.368
X111.762Y141.326
X111.772Y141.283
X111.78Y141.243
X111.787Y141.202
X111.795Y141.151
X111.801Y141.095
X111.804Y141.061
X111.806Y141.028
X111.808Y140.994
X111.809Y140.944
Y140.712
X111.819Y140.65
X111.83Y140.574
X111.838Y140.495
X111.844Y140.419
X111.846Y140.341
X111.847Y140.302
Y129.468
X111.846Y129.429
X111.845Y129.389
X111.842Y129.35
X111.839Y129.311
X111.834Y129.272
X111.829Y129.232
X111.823Y129.194
X111.815Y129.155
X111.808Y129.121
X111.807Y129.079
X111.805Y129.036
X111.801Y128.993
X111.797Y128.95
X111.791Y128.908
X111.784Y128.865
X111.776Y128.823
X111.766Y128.781
X111.756Y128.739
X111.746Y128.704
X111.736Y128.67
X111.725Y128.636
X111.713Y128.602
X111.701Y128.568
X111.684Y128.527
X111.666Y128.486
X111.647Y128.446
X111.625Y128.402
X111.609Y128.373
X111.592Y128.343
X111.57Y128.307
X111.548Y128.271
X111.526Y128.239
X111.504Y128.208
X111.481Y128.177
X111.457Y128.147
X111.432Y128.117
X111.407Y128.088
X111.381Y128.059
X111.354Y128.031
X111.327Y128.004
X111.299Y127.978
X111.271Y127.952
X111.241Y127.927
X111.211Y127.902
X111.181Y127.878
X111.15Y127.855
X111.119Y127.833
X111.087Y127.812
X111.054Y127.791
X111.021Y127.771
X110.987Y127.752
X110.953Y127.733
X110.918Y127.716
X110.884Y127.7
X110.849Y127.684
X110.814Y127.669
X110.778Y127.656
X110.742Y127.642
X110.706Y127.63
X110.67Y127.619
X110.633Y127.609
X110.596Y127.599
X110.559Y127.59
X110.521Y127.583
X110.484Y127.576
X110.446Y127.57
X110.408Y127.565
X110.37Y127.561
X110.332Y127.557
X110.294Y127.555
X110.256Y127.554
X110.218Y127.553
X106.281
X105.691Y127.54
X104.947Y127.535
G0Z1
X71.406Y134.066
G1Z-0.2F50
X71.431Y134.053F100
X71.456Y134.041
X71.481Y134.029
X71.506Y134.017
X71.532Y134.006
X71.557Y133.996
X71.583Y133.985
X71.636Y133.966
X71.662Y133.957
X71.716Y133.941
X71.771Y133.926
X71.826Y133.914
X71.851Y133.909
X71.878Y133.904
X71.906Y133.899
X71.934Y133.895
X71.961Y133.891
X71.989Y133.888
X72.016Y133.885
X72.044Y133.883
X72.072Y133.881
X72.1Y133.88
X72.128
X72.156Y133.879
X72.184Y133.88
X72.211
X72.239Y133.881
X72.267Y133.883
X72.295Y133.885
X72.323Y133.888
X72.35Y133.891
X72.378Y133.895
X72.405Y133.899
X72.433Y133.904
X72.46Y133.909
X72.488Y133.914
X72.515Y133.92
X72.542Y133.927
X72.569Y133.934
X72.596Y133.941
X72.623Y133.949
X72.649Y133.957
X72.675Y133.966
X72.702Y133.976
X72.728Y133.985
X72.754Y133.996
X72.779Y134.006
X72.805Y134.017
X72.83Y134.029
X72.856Y134.041
X72.881Y134.053
X72.905Y134.066
X72.93Y134.079
X72.954Y134.093
X72.978Y134.107
X73.002Y134.122
X73.025Y134.137
X73.048Y134.152
X73.071Y134.168
X73.094Y134.184
X73.117Y134.201
X73.139Y134.218
X73.16Y134.235
X73.182Y134.253
X73.224Y134.289
X73.244Y134.308
X73.265Y134.327
X73.285Y134.347
X73.304Y134.367
X73.323Y134.387
X73.361Y134.428
X73.379Y134.45
X73.397Y134.471
X73.414Y134.493
X73.431Y134.515
X73.447Y134.537
X73.464Y134.56
X73.479Y134.583
X73.51Y134.63
X73.524Y134.654
X73.538Y134.678
X73.552Y134.702
X73.565Y134.726
X73.578Y134.751
X73.591Y134.776
X73.603Y134.801
X73.614Y134.827
X73.625Y134.852
X73.636Y134.878
X73.656Y134.93
X73.665Y134.956
X73.674Y134.982
X73.683Y135.009
X73.698Y135.063
X73.705Y135.09
X73.711Y135.117
X73.717Y135.144
X73.723Y135.171
X73.728Y135.199
X73.733Y135.226
X73.737Y135.254
X73.74Y135.281
X73.744Y135.309
X73.746Y135.337
X73.748Y135.365
X73.75Y135.392
X73.751Y135.42
X73.752Y135.448
Y135.476
Y135.504
X73.751Y135.532
X73.75Y135.559
X73.748Y135.587
X73.746Y135.615
X73.744Y135.643
X73.74Y135.671
X73.737Y135.698
X73.733Y135.726
X73.728Y135.753
X73.723Y135.78
X73.717Y135.808
X73.711Y135.835
X73.705Y135.862
X73.698Y135.889
X73.69Y135.916
X73.683Y135.943
X73.674Y135.969
X73.665Y135.996
X73.656Y136.022
X73.646Y136.048
X73.636Y136.074
X73.625Y136.1
X73.614Y136.125
X73.603Y136.151
X73.591Y136.176
X73.578Y136.201
X73.565Y136.225
X73.552Y136.25
X73.538Y136.274
X73.524Y136.298
X73.51Y136.322
X73.495Y136.345
X73.479Y136.369
X73.464Y136.392
X73.447Y136.414
X73.431Y136.437
X73.414Y136.459
X73.397Y136.481
X73.379Y136.502
X73.361Y136.524
X73.342Y136.544
X73.323Y136.565
X73.304Y136.585
X73.285Y136.605
X73.265Y136.625
X73.244Y136.644
X73.224Y136.662
X73.203Y136.681
X73.182Y136.699
X73.16Y136.717
X73.139Y136.734
X73.117Y136.751
X73.094Y136.768
X73.071Y136.784
X73.049Y136.8
X73.025Y136.815
X73.002Y136.83
X72.978Y136.844
X72.954Y136.859
X72.93Y136.872
X72.905Y136.886
X72.881Y136.899
X72.856Y136.911
X72.831Y136.923
X72.805Y136.935
X72.779Y136.946
X72.754Y136.956
X72.728Y136.967
X72.701Y136.976
X72.675Y136.986
X72.649Y136.994
X72.623Y137.003
X72.596Y137.011
X72.569Y137.018
X72.542Y137.025
X72.515Y137.032
X72.488Y137.038
X72.46Y137.043
X72.433Y137.048
X72.405Y137.053
X72.378Y137.057
X72.35Y137.061
X72.323Y137.064
X72.295Y137.066
X72.267Y137.069
X72.239Y137.07
X72.211Y137.072
X72.184
X72.137
X72.097Y137.071
X72.072Y137.07
X72.044Y137.069
X71.989Y137.064
X71.961Y137.061
X71.934Y137.057
X71.906Y137.053
X71.878Y137.048
X71.851Y137.043
X71.824Y137.038
X71.797Y137.032
X71.769Y137.025
X71.742Y137.018
X71.716Y137.011
X71.689Y137.003
X71.662Y136.994
X71.636Y136.986
X71.61Y136.976
X71.583Y136.967
X71.557Y136.956
X71.532Y136.946
X71.506Y136.935
X71.481Y136.923
X71.456Y136.911
X71.431Y136.899
X71.406Y136.886
X71.382Y136.872
X71.357Y136.859
X71.333Y136.844
X71.31Y136.83
X71.286Y136.815
X71.263Y136.8
X71.244Y136.787
X71.216Y136.767
X71.195Y136.751
X71.173Y136.734
X71.151Y136.717
X71.129Y136.699
X71.108Y136.681
X71.087Y136.662
X71.067Y136.644
X71.047Y136.625
X71.027Y136.605
X71.007Y136.585
X70.988Y136.565
X70.969Y136.544
X70.94Y136.51
X70.913Y136.478
X70.897Y136.459
X70.881Y136.437
X70.864Y136.414
X70.848Y136.392
X70.832Y136.369
X70.816Y136.345
X70.802Y136.322
X70.785Y136.294
X70.773Y136.274
X70.759Y136.25
X70.746Y136.225
X70.721Y136.176
X70.709Y136.151
X70.697Y136.125
X70.686Y136.1
X70.675Y136.074
X70.665Y136.048
X70.646Y135.996
X70.637Y135.969
X70.63Y135.946
X70.621Y135.915
X70.613Y135.889
X70.606Y135.862
X70.6Y135.835
X70.594Y135.808
X70.588Y135.781
X70.583Y135.753
X70.579Y135.726
X70.575Y135.698
X70.571Y135.671
X70.568Y135.643
X70.565Y135.615
X70.563Y135.587
X70.561Y135.559
X70.56Y135.532
X70.559Y135.504
Y135.459
X70.56Y135.418
X70.561Y135.392
X70.563Y135.365
X70.565Y135.337
X70.567Y135.316
X70.571Y135.28
X70.575Y135.254
X70.579Y135.226
X70.583Y135.199
X70.588Y135.171
X70.594Y135.144
X70.6Y135.117
X70.606Y135.09
X70.613Y135.063
X70.621Y135.036
X70.629Y135.009
X70.637Y134.983
X70.646Y134.956
X70.655Y134.93
X70.665Y134.904
X70.677Y134.874
X70.686Y134.852
X70.697Y134.827
X70.709Y134.801
X70.721Y134.776
X70.733Y134.751
X70.746Y134.726
X70.76Y134.7
X70.773Y134.678
X70.787Y134.654
X70.802Y134.63
X70.816Y134.606
X70.832Y134.583
X70.848Y134.56
X70.882Y134.513
X70.909Y134.479
X70.934Y134.448
X70.951Y134.428
X70.969Y134.408
X71.007Y134.367
X71.027Y134.347
X71.046Y134.327
X71.08Y134.296
X71.11Y134.269
X71.129Y134.253
X71.151Y134.235
X71.173Y134.218
X71.195Y134.201
X71.217Y134.184
X71.24Y134.168
X71.266Y134.15
X71.286Y134.137
X71.309Y134.122
X71.333Y134.107
X71.357Y134.093
X71.382Y134.079
X71.406Y134.066
G0Z1
X85.54Y135.461
G1Z-0.2F50
X85.557Y135.285F100
X85.609Y135.116
X85.692Y134.96
X85.804Y134.823
X85.941Y134.711
X86.096Y134.628
X86.266Y134.577
X86.441Y134.559
X86.617Y134.577
X86.786Y134.628
X86.942Y134.711
X87.079Y134.823
X87.191Y134.96
X87.274Y135.116
X87.325Y135.285
X87.343Y135.461
X87.325Y135.636
X87.274Y135.805
X87.191Y135.961
X87.079Y136.098
X86.942Y136.21
X86.786Y136.293
X86.617Y136.344
X86.441Y136.362
X86.266Y136.344
X86.096Y136.293
X85.941Y136.21
X85.804Y136.098
X85.692Y135.961
X85.609Y135.805
X85.557Y135.636
X85.54Y135.461
G0Z1
X101.444
G1Z-0.2F50
X101.461Y135.285F100
X101.513Y135.116
X101.596Y134.96
X101.708Y134.823
X101.845Y134.711
X102Y134.628
X102.169Y134.577
X102.345Y134.559
X102.521Y134.577
X102.69Y134.628
X102.846Y134.711
X102.983Y134.823
X103.095Y134.96
X103.178Y135.116
X103.229Y135.285
X103.247Y135.461
X103.229Y135.636
X103.178Y135.805
X103.095Y135.961
X102.983Y136.098
X102.846Y136.21
X102.69Y136.293
X102.521Y136.344
X102.345Y136.362
X102.169Y136.344
X102Y136.293
X101.845Y136.21
X101.708Y136.098
X101.596Y135.961
X101.513Y135.805
X101.461Y135.636
X101.444Y135.461
G0Z1
X104.947Y127.535
G1Z-0.2F50
X78.492F100
X77.838Y127.541
X77.185Y127.557
X76.531Y127.585
X75.878Y127.623
X75.226Y127.672
X74.575Y127.732
X73.925Y127.802
X73.276Y127.884
X72.628Y127.976
X71.982Y128.079
X71.338Y128.193
X70.695Y128.317
X70.572Y128.344
X70.448Y128.372
X70.325Y128.403
X70.203Y128.436
X70.082Y128.471
X69.96Y128.508
X69.84Y128.547
X69.72Y128.588
X69.601Y128.631
X69.483Y128.676
X69.366Y128.724
X69.249Y128.773
X69.134Y128.824
X69.019Y128.878
X68.905Y128.933
X68.792Y128.99
X68.68Y129.05
X68.57Y129.111
X68.46Y129.174
X68.351Y129.239
X68.244Y129.306
X68.137Y129.374
X68.032Y129.445
X67.928Y129.517
X67.826Y129.591
X67.724Y129.667
X67.624Y129.745
X67.526Y129.824
X67.429Y129.905
X67.333Y129.988
X67.238Y130.072
X67.146Y130.158
X67.054Y130.246
X66.964Y130.335
X66.876Y130.426
X66.789Y130.518
X66.704Y130.612
X66.621Y130.707
X66.539Y130.804
X66.439Y130.926
X66.341Y131.05
X66.246Y131.175
X66.152Y131.302
X66.06Y131.431
X65.971Y131.562
X65.884Y131.694
X65.8Y131.827
X65.717Y131.962
X65.637Y132.098
X65.559Y132.235
X65.484Y132.374
X65.411Y132.514
X65.341Y132.656
X65.273Y132.798
X65.207Y132.942
X65.144Y133.086
X65.083Y133.232
X65.025Y133.379
X64.969Y133.527
X64.916Y133.676
X64.866Y133.825
X64.818Y133.976
X64.772Y134.127
X64.729Y134.279
X64.689Y134.432
X64.652Y134.585
X64.617Y134.739
X64.584Y134.894
X64.555Y135.049
X64.528Y135.205
X64.503Y135.361
X64.482Y135.517
X64.463Y135.674
X64.447Y135.831
X64.433Y135.989
X64.422Y136.146
X64.414Y136.304
X64.409Y136.462
X64.406Y136.62
Y136.778
X64.409Y136.936
X64.414Y137.093
X64.422Y137.251
X64.433Y137.409
X64.446Y137.566
X64.463Y137.723
X64.481Y137.88
X64.501Y138.023
X64.92Y140.914
X64.934Y140.989
X64.951Y141.066
X64.97Y141.141
X64.991Y141.215
X65.015Y141.288
X65.042Y141.361
X65.072Y141.433
X65.103Y141.504
X65.137Y141.573
X65.174Y141.642
X65.213Y141.708
X65.254Y141.774
X65.298Y141.838
X65.343Y141.901
X65.392Y141.962
X65.441Y142.021
X65.493Y142.078
X65.548Y142.135
X65.602Y142.187
X65.661Y142.239
X65.72Y142.289
X65.781Y142.336
X65.844Y142.382
X65.908Y142.425
X65.975Y142.466
X66.041Y142.504
X66.109Y142.54
X66.18Y142.575
X66.25Y142.606
X66.322Y142.635
X66.394Y142.661
X66.469Y142.685
X66.544Y142.707
X66.618Y142.725
X66.694Y142.741
X66.771Y142.755
X66.847Y142.765
X66.924Y142.773
X67.002Y142.779
X67.078Y142.782
X67.117
X72.168
X72.285Y142.781
X72.402Y142.778
X72.519Y142.773
X72.635Y142.766
X73.891Y142.676
X75.043Y142.611
X76.197Y142.565
X77.351Y142.537
X78.512Y142.528
X82.065
X82.103Y142.531
X82.141Y142.534
X82.179Y142.535
X82.218
X110.218
X110.257
X110.297Y142.533
X110.337Y142.531
X110.376Y142.527
X110.416Y142.523
X110.455Y142.518
X110.495Y142.511
X110.534Y142.504
X110.573Y142.495
X110.611Y142.486
X110.65Y142.476
X110.688Y142.464
X110.725Y142.452
X110.763Y142.439
X110.8Y142.425
X110.837Y142.41
X110.873Y142.394
X110.909Y142.377
X110.945Y142.359
X110.98Y142.341
X111.015Y142.321
X111.05Y142.3
X111.084Y142.279
X111.118Y142.256
X111.151Y142.233
X111.183Y142.209
X111.215Y142.184
X111.246Y142.158
X111.261Y142.145
X111.291Y142.119
X111.313Y142.098
X111.335Y142.077
X111.363Y142.049
X111.39Y142.02
X111.422Y141.984
X111.453Y141.947
X111.475Y141.919
X111.496Y141.891
X111.517Y141.862
X111.537Y141.833
X111.557Y141.804
X111.575Y141.773
X111.592Y141.745
X111.609Y141.717
X111.624Y141.688
X111.643Y141.65
X111.661Y141.613
X111.675Y141.583
X111.687Y141.554
X111.703Y141.513
X111.712Y141.491
X111.726Y141.451
X111.739Y141.41
X111.751Y141.368
X111.762Y141.326
X111.772Y141.283
X111.78Y141.243
X111.787Y141.202
X111.795Y141.151
X111.801Y141.095
X111.804Y141.061
X111.806Y141.028
X111.808Y140.994
X111.809Y140.944
Y140.712
X111.819Y140.65
X111.83Y140.574
X111.838Y140.495
X111.844Y140.419
X111.846Y140.341
X111.847Y140.302
Y129.468
X111.846Y129.429
X111.845Y129.389
X111.842Y129.35
X111.839Y129.311
X111.834Y129.272
X111.829Y129.232
X111.823Y129.194
X111.815Y129.155
X111.808Y129.121
X111.807Y129.079
X111.805Y129.036
X111.801Y128.993
X111.797Y128.95
X111.791Y128.908
X111.784Y128.865
X111.776Y128.823
X111.766Y128.781
X111.756Y128.739
X111.746Y128.704
X111.736Y128.67
X111.725Y128.636
X111.713Y128.602
X111.701Y128.568
X111.684Y128.527
X111.666Y128.486
X111.647Y128.446
X111.625Y128.402
X111.609Y128.373
X111.592Y128.343
X111.57Y128.307
X111.548Y128.271
X111.526Y128.239
X111.504Y128.208
X111.481Y128.177
X111.457Y128.147
X111.432Y128.117
X111.407Y128.088
X111.381Y128.059
X111.354Y128.031
X111.327Y128.004
X111.299Y127.978
X111.271Y127.952
X111.241Y127.927
X111.211Y127.902
X111.181Y127.878
X111.15Y127.855
X111.119Y127.833
X111.087Y127.812
X111.054Y127.791
X111.021Y127.771
X110.987Y127.752
X110.953Y127.733
X110.918Y127.716
X110.884Y127.7
X110.849Y127.684
X110.814Y127.669
X110.778Y127.656
X110.742Y127.642
X110.706Y127.63
X110.67Y127.619
X110.633Y127.609
X110.596Y127.599
X110.559Y127.59
X110.521Y127.583
X110.484Y127.576
X110.446Y127.57
X110.408Y127.565
X110.37Y127.561
X110.332Y127.557
X110.294Y127.555
X110.256Y127.554
X110.218Y127.553
X106.281
X105.691Y127.54
X104.947Y127.535
G0Z1
X71.406Y134.066
G1Z-0.25F50
X71.431Y134.053F100
X71.456Y134.041
X71.481Y134.029
X71.506Y134.017
X71.532Y134.006
X71.557Y133.996
X71.583Y133.985
X71.636Y133.966
X71.662Y133.957
X71.716Y133.941
X71.771Y133.926
X71.826Y133.914
X71.851Y133.909
X71.878Y133.904
X71.906Y133.899
X71.934Y133.895
X71.961Y133.891
X71.989Y133.888
X72.016Y133.885
X72.044Y133.883
X72.072Y133.881
X72.1Y133.88
X72.128
X72.156Y133.879
X72.184Y133.88
X72.211
X72.239Y133.881
X72.267Y133.883
X72.295Y133.885
X72.323Y133.888
X72.35Y133.891
X72.378Y133.895
X72.405Y133.899
X72.433Y133.904
X72.46Y133.909
X72.488Y133.914
X72.515Y133.92
X72.542Y133.927
X72.569Y133.934
X72.596Y133.941
X72.623Y133.949
X72.649Y133.957
X72.675Y133.966
X72.702Y133.976
X72.728Y133.985
X72.754Y133.996
X72.779Y134.006
X72.805Y134.017
X72.83Y134.029
X72.856Y134.041
X72.881Y134.053
X72.905Y134.066
X72.93Y134.079
X72.954Y134.093
X72.978Y134.107
X73.002Y134.122
X73.025Y134.137
X73.048Y134.152
X73.071Y134.168
X73.094Y134.184
X73.117Y134.201
X73.139Y134.218
X73.16Y134.235
X73.182Y134.253
X73.224Y134.289
X73.244Y134.308
X73.265Y134.327
X73.285Y134.347
X73.304Y134.367
X73.323Y134.387
X73.361Y134.428
X73.379Y134.45
X73.397Y134.471
X73.414Y134.493
X73.431Y134.515
X73.447Y134.537
X73.464Y134.56
X73.479Y134.583
X73.51Y134.63
X73.524Y134.654
X73.538Y134.678
X73.552Y134.702
X73.565Y134.726
X73.578Y134.751
X73.591Y134.776
X73.603Y134.801
X73.614Y134.827
X73.625Y134.852
X73.636Y134.878
X73.656Y134.93
X73.665Y134.956
X73.674Y134.982
X73.683Y135.009
X73.698Y135.063
X73.705Y135.09
X73.711Y135.117
X73.717Y135.144
X73.723Y135.171
X73.728Y135.199
X73.733Y135.226
X73.737Y135.254
X73.74Y135.281
X73.744Y135.309
X73.746Y135.337
X73.748Y135.365
X73.75Y135.392
X73.751Y135.42
X73.752Y135.448
Y135.476
Y135.504
X73.751Y135.532
X73.75Y135.559
X73.748Y135.587
X73.746Y135.615
X73.744Y135.643
X73.74Y135.671
X73.737Y135.698
X73.733Y135.726
X73.728Y135.753
X73.723Y135.78
X73.717Y135.808
X73.711Y135.835
X73.705Y135.862
X73.698Y135.889
X73.69Y135.916
X73.683Y135.943
X73.674Y135.969
X73.665Y135.996
X73.656Y136.022
X73.646Y136.048
X73.636Y136.074
X73.625Y136.1
X73.614Y136.125
X73.603Y136.151
X73.591Y136.176
X73.578Y136.201
X73.565Y136.225
X73.552Y136.25
X73.538Y136.274
X73.524Y136.298
X73.51Y136.322
X73.495Y136.345
X73.479Y136.369
X73.464Y136.392
X73.447Y136.414
X73.431Y136.437
X73.414Y136.459
X73.397Y136.481
X73.379Y136.502
X73.361Y136.524
X73.342Y136.544
X73.323Y136.565
X73.304Y136.585
X73.285Y136.605
X73.265Y136.625
X73.244Y136.644
X73.224Y136.662
X73.203Y136.681
X73.182Y136.699
X73.16Y136.717
X73.139Y136.734
X73.117Y136.751
X73.094Y136.768
X73.071Y136.784
X73.049Y136.8
X73.025Y136.815
X73.002Y136.83
X72.978Y136.844
X72.954Y136.859
X72.93Y136.872
X72.905Y136.886
X72.881Y136.899
X72.856Y136.911
X72.831Y136.923
X72.805Y136.935
X72.779Y136.946
X72.754Y136.956
X72.728Y136.967
X72.701Y136.976
X72.675Y136.986
X72.649Y136.994
X72.623Y137.003
X72.596Y137.011
X72.569Y137.018
X72.542Y137.025
X72.515Y137.032
X72.488Y137.038
X72.46Y137.043
X72.433Y137.048
X72.405Y137.053
X72.378Y137.057
X72.35Y137.061
X72.323Y137.064
X72.295Y137.066
X72.267Y137.069
X72.239Y137.07
X72.211Y137.072
X72.184
X72.137
X72.097Y137.071
X72.072Y137.07
X72.044Y137.069
X71.989Y137.064
X71.961Y137.061
X71.934Y137.057
X71.906Y137.053
X71.878Y137.048
X71.851Y137.043
X71.824Y137.038
X71.797Y137.032
X71.769Y137.025
X71.742Y137.018
X71.716Y137.011
X71.689Y137.003
X71.662Y136.994
X71.636Y136.986
X71.61Y136.976
X71.583Y136.967
X71.557Y136.956
X71.532Y136.946
X71.506Y136.935
X71.481Y136.923
X71.456Y136.911
X71.431Y136.899
X71.406Y136.886
X71.382Y136.872
X71.357Y136.859
X71.333Y136.844
X71.31Y136.83
X71.286Y136.815
X71.263Y136.8
X71.244Y136.787
X71.216Y136.767
X71.195Y136.751
X71.173Y136.734
X71.151Y136.717
X71.129Y136.699
X71.108Y136.681
X71.087Y136.662
X71.067Y136.644
X71.047Y136.625
X71.027Y136.605
X71.007Y136.585
X70.988Y136.565
X70.969Y136.544
X70.94Y136.51
X70.913Y136.478
X70.897Y136.459
X70.881Y136.437
X70.864Y136.414
X70.848Y136.392
X70.832Y136.369
X70.816Y136.345
X70.802Y136.322
X70.785Y136.294
X70.773Y136.274
X70.759Y136.25
X70.746Y136.225
X70.721Y136.176
X70.709Y136.151
X70.697Y136.125
X70.686Y136.1
X70.675Y136.074
X70.665Y136.048
X70.646Y135.996
X70.637Y135.969
X70.63Y135.946
X70.621Y135.915
X70.613Y135.889
X70.606Y135.862
X70.6Y135.835
X70.594Y135.808
X70.588Y135.781
X70.583Y135.753
X70.579Y135.726
X70.575Y135.698
X70.571Y135.671
X70.568Y135.643
X70.565Y135.615
X70.563Y135.587
X70.561Y135.559
X70.56Y135.532
X70.559Y135.504
Y135.459
X70.56Y135.418
X70.561Y135.392
X70.563Y135.365
X70.565Y135.337
X70.567Y135.316
X70.571Y135.28
X70.575Y135.254
X70.579Y135.226
X70.583Y135.199
X70.588Y135.171
X70.594Y135.144
X70.6Y135.117
X70.606Y135.09
X70.613Y135.063
X70.621Y135.036
X70.629Y135.009
X70.637Y134.983
X70.646Y134.956
X70.655Y134.93
X70.665Y134.904
X70.677Y134.874
X70.686Y134.852
X70.697Y134.827
X70.709Y134.801
X70.721Y134.776
X70.733Y134.751
X70.746Y134.726
X70.76Y134.7
X70.773Y134.678
X70.787Y134.654
X70.802Y134.63
X70.816Y134.606
X70.832Y134.583
X70.848Y134.56
X70.882Y134.513
X70.909Y134.479
X70.934Y134.448
X70.951Y134.428
X70.969Y134.408
X71.007Y134.367
X71.027Y134.347
X71.046Y134.327
X71.08Y134.296
X71.11Y134.269
X71.129Y134.253
X71.151Y134.235
X71.173Y134.218
X71.195Y134.201
X71.217Y134.184
X71.24Y134.168
X71.266Y134.15
X71.286Y134.137
X71.309Y134.122
X71.333Y134.107
X71.357Y134.093
X71.382Y134.079
X71.406Y134.066
G0Z1
X85.54Y135.461
G1Z-0.25F50
X85.557Y135.285F100
X85.609Y135.116
X85.692Y134.96
X85.804Y134.823
X85.941Y134.711
X86.096Y134.628
X86.266Y134.577
X86.441Y134.559
X86.617Y134.577
X86.786Y134.628
X86.942Y134.711
X87.079Y134.823
X87.191Y134.96
X87.274Y135.116
X87.325Y135.285
X87.343Y135.461
X87.325Y135.636
X87.274Y135.805
X87.191Y135.961
X87.079Y136.098
X86.942Y136.21
X86.786Y136.293
X86.617Y136.344
X86.441Y136.362
X86.266Y136.344
X86.096Y136.293
X85.941Y136.21
X85.804Y136.098
X85.692Y135.961
X85.609Y135.805
X85.557Y135.636
X85.54Y135.461
G0Z1
X101.444
G1Z-0.25F50
X101.461Y135.285F100
X101.513Y135.116
X101.596Y134.96
X101.708Y134.823
X101.845Y134.711
X102Y134.628
X102.169Y134.577
X102.345Y134.559
X102.521Y134.577
X102.69Y134.628
X102.846Y134.711
X102.983Y134.823
X103.095Y134.96
X103.178Y135.116
X103.229Y135.285
X103.247Y135.461
X103.229Y135.636
X103.178Y135.805
X103.095Y135.961
X102.983Y136.098
X102.846Y136.21
X102.69Y136.293
X102.521Y136.344
X102.345Y136.362
X102.169Y136.344
X102Y136.293
X101.845Y136.21
X101.708Y136.098
X101.596Y135.961
X101.513Y135.805
X101.461Y135.636
X101.444Y135.461
G0Z1
X104.947Y127.535
G1Z-0.25F50
X78.492F100
X77.838Y127.541
X77.185Y127.557
X76.531Y127.585
X75.878Y127.623
X75.226Y127.672
X74.575Y127.732
X73.925Y127.802
X73.276Y127.884
X72.628Y127.976
X71.982Y128.079
X71.338Y128.193
X70.695Y128.317
X70.572Y128.344
X70.448Y128.372
X70.325Y128.403
X70.203Y128.436
X70.082Y128.471
X69.96Y128.508
X69.84Y128.547
X69.72Y128.588
X69.601Y128.631
X69.483Y128.676
X69.366Y128.724
X69.249Y128.773
X69.134Y128.824
X69.019Y128.878
X68.905Y128.933
X68.792Y128.99
X68.68Y129.05
X68.57Y129.111
X68.46Y129.174
X68.351Y129.239
X68.244Y129.306
X68.137Y129.374
X68.032Y129.445
X67.928Y129.517
X67.826Y129.591
X67.724Y129.667
X67.624Y129.745
X67.526Y129.824
X67.429Y129.905
X67.333Y129.988
X67.238Y130.072
X67.146Y130.158
X67.054Y130.246
X66.964Y130.335
X66.876Y130.426
X66.789Y130.518
X66.704Y130.612
X66.621Y130.707
X66.539Y130.804
X66.439Y130.926
X66.341Y131.05
X66.246Y131.175
X66.152Y131.302
X66.06Y131.431
X65.971Y131.562
X65.884Y131.694
X65.8Y131.827
X65.717Y131.962
X65.637Y132.098
X65.559Y132.235
X65.484Y132.374
X65.411Y132.514
X65.341Y132.656
X65.273Y132.798
X65.207Y132.942
X65.144Y133.086
X65.083Y133.232
X65.025Y133.379
X64.969Y133.527
X64.916Y133.676
X64.866Y133.825
X64.818Y133.976
X64.772Y134.127
X64.729Y134.279
X64.689Y134.432
X64.652Y134.585
X64.617Y134.739
X64.584Y134.894
X64.555Y135.049
X64.528Y135.205
X64.503Y135.361
X64.482Y135.517
X64.463Y135.674
X64.447Y135.831
X64.433Y135.989
X64.422Y136.146
X64.414Y136.304
X64.409Y136.462
X64.406Y136.62
Y136.778
X64.409Y136.936
X64.414Y137.093
X64.422Y137.251
X64.433Y137.409
X64.446Y137.566
X64.463Y137.723
X64.481Y137.88
X64.501Y138.023
X64.92Y140.914
X64.934Y140.989
X64.951Y141.066
X64.97Y141.141
X64.991Y141.215
X65.015Y141.288
X65.042Y141.361
X65.072Y141.433
X65.103Y141.504
X65.137Y141.573
X65.174Y141.642
X65.213Y141.708
X65.254Y141.774
X65.298Y141.838
X65.343Y141.901
X65.392Y141.962
X65.441Y142.021
X65.493Y142.078
X65.548Y142.135
X65.602Y142.187
X65.661Y142.239
X65.72Y142.289
X65.781Y142.336
X65.844Y142.382
X65.908Y142.425
X65.975Y142.466
X66.041Y142.504
X66.109Y142.54
X66.18Y142.575
X66.25Y142.606
X66.322Y142.635
X66.394Y142.661
X66.469Y142.685
X66.544Y142.707
X66.618Y142.725
X66.694Y142.741
X66.771Y142.755
X66.847Y142.765
X66.924Y142.773
X67.002Y142.779
X67.078Y142.782
X67.117
X72.168
X72.285Y142.781
X72.402Y142.778
X72.519Y142.773
X72.635Y142.766
X73.891Y142.676
X75.043Y142.611
X76.197Y142.565
X77.351Y142.537
X78.512Y142.528
X82.065
X82.103Y142.531
X82.141Y142.534
X82.179Y142.535
X82.218
X110.218
X110.257
X110.297Y142.533
X110.337Y142.531
X110.376Y142.527
X110.416Y142.523
X110.455Y142.518
X110.495Y142.511
X110.534Y142.504
X110.573Y142.495
X110.611Y142.486
X110.65Y142.476
X110.688Y142.464
X110.725Y142.452
X110.763Y142.439
X110.8Y142.425
X110.837Y142.41
X110.873Y142.394
X110.909Y142.377
X110.945Y142.359
X110.98Y142.341
X111.015Y142.321
X111.05Y142.3
X111.084Y142.279
X111.118Y142.256
X111.151Y142.233
X111.183Y142.209
X111.215Y142.184
X111.246Y142.158
X111.261Y142.145
X111.291Y142.119
X111.313Y142.098
X111.335Y142.077
X111.363Y142.049
X111.39Y142.02
X111.422Y141.984
X111.453Y141.947
X111.475Y141.919
X111.496Y141.891
X111.517Y141.862
X111.537Y141.833
X111.557Y141.804
X111.575Y141.773
X111.592Y141.745
X111.609Y141.717
X111.624Y141.688
X111.643Y141.65
X111.661Y141.613
X111.675Y141.583
X111.687Y141.554
X111.703Y141.513
X111.712Y141.491
X111.726Y141.451
X111.739Y141.41
X111.751Y141.368
X111.762Y141.326
X111.772Y141.283
X111.78Y141.243
X111.787Y141.202
X111.795Y141.151
X111.801Y141.095
X111.804Y141.061
X111.806Y141.028
X111.808Y140.994
X111.809Y140.944
Y140.712
X111.819Y140.65
X111.83Y140.574
X111.838Y140.495
X111.844Y140.419
X111.846Y140.341
X111.847Y140.302
Y129.468
X111.846Y129.429
X111.845Y129.389
X111.842Y129.35
X111.839Y129.311
X111.834Y129.272
X111.829Y129.232
X111.823Y129.194
X111.815Y129.155
X111.808Y129.121
X111.807Y129.079
X111.805Y129.036
X111.801Y128.993
X111.797Y128.95
X111.791Y128.908
X111.784Y128.865
X111.776Y128.823
X111.766Y128.781
X111.756Y128.739
X111.746Y128.704
X111.736Y128.67
X111.725Y128.636
X111.713Y128.602
X111.701Y128.568
X111.684Y128.527
X111.666Y128.486
X111.647Y128.446
X111.625Y128.402
X111.609Y128.373
X111.592Y128.343
X111.57Y128.307
X111.548Y128.271
X111.526Y128.239
X111.504Y128.208
X111.481Y128.177
X111.457Y128.147
X111.432Y128.117
X111.407Y128.088
X111.381Y128.059
X111.354Y128.031
X111.327Y128.004
X111.299Y127.978
X111.271Y127.952
X111.241Y127.927
X111.211Y127.902
X111.181Y127.878
X111.15Y127.855
X111.119Y127.833
X111.087Y127.812
X111.054Y127.791
X111.021Y127.771
X110.987Y127.752
X110.953Y127.733
X110.918Y127.716
X110.884Y127.7
X110.849Y127.684
X110.814Y127.669
X110.778Y127.656
X110.742Y127.642
X110.706Y127.63
X110.67Y127.619
X110.633Y127.609
X110.596Y127.599
X110.559Y127.59
X110.521Y127.583
X110.484Y127.576
X110.446Y127.57
X110.408Y127.565
X110.37Y127.561
X110.332Y127.557
X110.294Y127.555
X110.256Y127.554
X110.218Y127.553
X106.281
X105.691Y127.54
X104.947Y127.535
G0Z1
X71.406Y134.066
G1Z-0.3F50
X71.431Y134.053F100
X71.456Y134.041
X71.481Y134.029
X71.506Y134.017
X71.532Y134.006
X71.557Y133.996
X71.583Y133.985
X71.636Y133.966
X71.662Y133.957
X71.716Y133.941
X71.771Y133.926
X71.826Y133.914
X71.851Y133.909
X71.878Y133.904
X71.906Y133.899
X71.934Y133.895
X71.961Y133.891
X71.989Y133.888
X72.016Y133.885
X72.044Y133.883
X72.072Y133.881
X72.1Y133.88
X72.128
X72.156Y133.879
X72.184Y133.88
X72.211
X72.239Y133.881
X72.267Y133.883
X72.295Y133.885
X72.323Y133.888
X72.35Y133.891
X72.378Y133.895
X72.405Y133.899
X72.433Y133.904
X72.46Y133.909
X72.488Y133.914
X72.515Y133.92
X72.542Y133.927
X72.569Y133.934
X72.596Y133.941
X72.623Y133.949
X72.649Y133.957
X72.675Y133.966
X72.702Y133.976
X72.728Y133.985
X72.754Y133.996
X72.779Y134.006
X72.805Y134.017
X72.83Y134.029
X72.856Y134.041
X72.881Y134.053
X72.905Y134.066
X72.93Y134.079
X72.954Y134.093
X72.978Y134.107
X73.002Y134.122
X73.025Y134.137
X73.048Y134.152
X73.071Y134.168
X73.094Y134.184
X73.117Y134.201
X73.139Y134.218
X73.16Y134.235
X73.182Y134.253
X73.224Y134.289
X73.244Y134.308
X73.265Y134.327
X73.285Y134.347
X73.304Y134.367
X73.323Y134.387
X73.361Y134.428
X73.379Y134.45
X73.397Y134.471
X73.414Y134.493
X73.431Y134.515
X73.447Y134.537
X73.464Y134.56
X73.479Y134.583
X73.51Y134.63
X73.524Y134.654
X73.538Y134.678
X73.552Y134.702
X73.565Y134.726
X73.578Y134.751
X73.591Y134.776
X73.603Y134.801
X73.614Y134.827
X73.625Y134.852
X73.636Y134.878
X73.656Y134.93
X73.665Y134.956
X73.674Y134.982
X73.683Y135.009
X73.698Y135.063
X73.705Y135.09
X73.711Y135.117
X73.717Y135.144
X73.723Y135.171
X73.728Y135.199
X73.733Y135.226
X73.737Y135.254
X73.74Y135.281
X73.744Y135.309
X73.746Y135.337
X73.748Y135.365
X73.75Y135.392
X73.751Y135.42
X73.752Y135.448
Y135.476
Y135.504
X73.751Y135.532
X73.75Y135.559
X73.748Y135.587
X73.746Y135.615
X73.744Y135.643
X73.74Y135.671
X73.737Y135.698
X73.733Y135.726
X73.728Y135.753
X73.723Y135.78
X73.717Y135.808
X73.711Y135.835
X73.705Y135.862
X73.698Y135.889
X73.69Y135.916
X73.683Y135.943
X73.674Y135.969
X73.665Y135.996
X73.656Y136.022
X73.646Y136.048
X73.636Y136.074
X73.625Y136.1
X73.614Y136.125
X73.603Y136.151
X73.591Y136.176
X73.578Y136.201
X73.565Y136.225
X73.552Y136.25
X73.538Y136.274
X73.524Y136.298
X73.51Y136.322
X73.495Y136.345
X73.479Y136.369
X73.464Y136.392
X73.447Y136.414
X73.431Y136.437
X73.414Y136.459
X73.397Y136.481
X73.379Y136.502
X73.361Y136.524
X73.342Y136.544
X73.323Y136.565
X73.304Y136.585
X73.285Y136.605
X73.265Y136.625
X73.244Y136.644
X73.224Y136.662
X73.203Y136.681
X73.182Y136.699
X73.16Y136.717
X73.139Y136.734
X73.117Y136.751
X73.094Y136.768
X73.071Y136.784
X73.049Y136.8
X73.025Y136.815
X73.002Y136.83
X72.978Y136.844
X72.954Y136.859
X72.93Y136.872
X72.905Y136.886
X72.881Y136.899
X72.856Y136.911
X72.831Y136.923
X72.805Y136.935
X72.779Y136.946
X72.754Y136.956
X72.728Y136.967
X72.701Y136.976
X72.675Y136.986
X72.649Y136.994
X72.623Y137.003
X72.596Y137.011
X72.569Y137.018
X72.542Y137.025
X72.515Y137.032
X72.488Y137.038
X72.46Y137.043
X72.433Y137.048
X72.405Y137.053
X72.378Y137.057
X72.35Y137.061
X72.323Y137.064
X72.295Y137.066
X72.267Y137.069
X72.239Y137.07
X72.211Y137.072
X72.184
X72.137
X72.097Y137.071
X72.072Y137.07
X72.044Y137.069
X71.989Y137.064
X71.961Y137.061
X71.934Y137.057
X71.906Y137.053
X71.878Y137.048
X71.851Y137.043
X71.824Y137.038
X71.797Y137.032
X71.769Y137.025
X71.742Y137.018
X71.716Y137.011
X71.689Y137.003
X71.662Y136.994
X71.636Y136.986
X71.61Y136.976
X71.583Y136.967
X71.557Y136.956
X71.532Y136.946
X71.506Y136.935
X71.481Y136.923
X71.456Y136.911
X71.431Y136.899
X71.406Y136.886
X71.382Y136.872
X71.357Y136.859
X71.333Y136.844
X71.31Y136.83
X71.286Y136.815
X71.263Y136.8
X71.244Y136.787
X71.216Y136.767
X71.195Y136.751
X71.173Y136.734
X71.151Y136.717
X71.129Y136.699
X71.108Y136.681
X71.087Y136.662
X71.067Y136.644
X71.047Y136.625
X71.027Y136.605
X71.007Y136.585
X70.988Y136.565
X70.969Y136.544
X70.94Y136.51
X70.913Y136.478
X70.897Y136.459
X70.881Y136.437
X70.864Y136.414
X70.848Y136.392
X70.832Y136.369
X70.816Y136.345
X70.802Y136.322
X70.785Y136.294
X70.773Y136.274
X70.759Y136.25
X70.746Y136.225
X70.721Y136.176
X70.709Y136.151
X70.697Y136.125
X70.686Y136.1
X70.675Y136.074
X70.665Y136.048
X70.646Y135.996
X70.637Y135.969
X70.63Y135.946
X70.621Y135.915
X70.613Y135.889
X70.606Y135.862
X70.6Y135.835
X70.594Y135.808
X70.588Y135.781
X70.583Y135.753
X70.579Y135.726
X70.575Y135.698
X70.571Y135.671
X70.568Y135.643
X70.565Y135.615
X70.563Y135.587
X70.561Y135.559
X70.56Y135.532
X70.559Y135.504
Y135.459
X70.56Y135.418
X70.561Y135.392
X70.563Y135.365
X70.565Y135.337
X70.567Y135.316
X70.571Y135.28
X70.575Y135.254
X70.579Y135.226
X70.583Y135.199
X70.588Y135.171
X70.594Y135.144
X70.6Y135.117
X70.606Y135.09
X70.613Y135.063
X70.621Y135.036
X70.629Y135.009
X70.637Y134.983
X70.646Y134.956
X70.655Y134.93
X70.665Y134.904
X70.677Y134.874
X70.686Y134.852
X70.697Y134.827
X70.709Y134.801
X70.721Y134.776
X70.733Y134.751
X70.746Y134.726
X70.76Y134.7
X70.773Y134.678
X70.787Y134.654
X70.802Y134.63
X70.816Y134.606
X70.832Y134.583
X70.848Y134.56
X70.882Y134.513
X70.909Y134.479
X70.934Y134.448
X70.951Y134.428
X70.969Y134.408
X71.007Y134.367
X71.027Y134.347
X71.046Y134.327
X71.08Y134.296
X71.11Y134.269
X71.129Y134.253
X71.151Y134.235
X71.173Y134.218
X71.195Y134.201
X71.217Y134.184
X71.24Y134.168
X71.266Y134.15
X71.286Y134.137
X71.309Y134.122
X71.333Y134.107
X71.357Y134.093
X71.382Y134.079
X71.406Y134.066
G0Z1
X85.54Y135.461
G1Z-0.3F50
X85.557Y135.285F100
X85.609Y135.116
X85.692Y134.96
X85.804Y134.823
X85.941Y134.711
X86.096Y134.628
X86.266Y134.577
X86.441Y134.559
X86.617Y134.577
X86.786Y134.628
X86.942Y134.711
X87.079Y134.823
X87.191Y134.96
X87.274Y135.116
X87.325Y135.285
X87.343Y135.461
X87.325Y135.636
X87.274Y135.805
X87.191Y135.961
X87.079Y136.098
X86.942Y136.21
X86.786Y136.293
X86.617Y136.344
X86.441Y136.362
X86.266Y136.344
X86.096Y136.293
X85.941Y136.21
X85.804Y136.098
X85.692Y135.961
X85.609Y135.805
X85.557Y135.636
X85.54Y135.461
G0Z1
X101.444
G1Z-0.3F50
X101.461Y135.285F100
X101.513Y135.116
X101.596Y134.96
X101.708Y134.823
X101.845Y134.711
X102Y134.628
X102.169Y134.577
X102.345Y134.559
X102.521Y134.577
X102.69Y134.628
X102.846Y134.711
X102.983Y134.823
X103.095Y134.96
X103.178Y135.116
X103.229Y135.285
X103.247Y135.461
X103.229Y135.636
X103.178Y135.805
X103.095Y135.961
X102.983Y136.098
X102.846Y136.21
X102.69Y136.293
X102.521Y136.344
X102.345Y136.362
X102.169Y136.344
X102Y136.293
X101.845Y136.21
X101.708Y136.098
X101.596Y135.961
X101.513Y135.805
X101.461Y135.636
X101.444Y135.461
G0Z1
X104.947Y127.535
G1Z-0.3F50
X78.492F100
X77.838Y127.541
X77.185Y127.557
X76.531Y127.585
X75.878Y127.623
X75.226Y127.672
X74.575Y127.732
X73.925Y127.802
X73.276Y127.884
X72.628Y127.976
X71.982Y128.079
X71.338Y128.193
X70.695Y128.317
X70.572Y128.344
X70.448Y128.372
X70.325Y128.403
X70.203Y128.436
X70.082Y128.471
X69.96Y128.508
X69.84Y128.547
X69.72Y128.588
X69.601Y128.631
X69.483Y128.676
X69.366Y128.724
X69.249Y128.773
X69.134Y128.824
X69.019Y128.878
X68.905Y128.933
X68.792Y128.99
X68.68Y129.05
X68.57Y129.111
X68.46Y129.174
X68.351Y129.239
X68.244Y129.306
X68.137Y129.374
X68.032Y129.445
X67.928Y129.517
X67.826Y129.591
X67.724Y129.667
X67.624Y129.745
X67.526Y129.824
X67.429Y129.905
X67.333Y129.988
X67.238Y130.072
X67.146Y130.158
X67.054Y130.246
X66.964Y130.335
X66.876Y130.426
X66.789Y130.518
X66.704Y130.612
X66.621Y130.707
X66.539Y130.804
X66.439Y130.926
X66.341Y131.05
X66.246Y131.175
X66.152Y131.302
X66.06Y131.431
X65.971Y131.562
X65.884Y131.694
X65.8Y131.827
X65.717Y131.962
X65.637Y132.098
X65.559Y132.235
X65.484Y132.374
X65.411Y132.514
X65.341Y132.656
X65.273Y132.798
X65.207Y132.942
X65.144Y133.086
X65.083Y133.232
X65.025Y133.379
X64.969Y133.527
X64.916Y133.676
X64.866Y133.825
X64.818Y133.976
X64.772Y134.127
X64.729Y134.279
X64.689Y134.432
X64.652Y134.585
X64.617Y134.739
X64.584Y134.894
X64.555Y135.049
X64.528Y135.205
X64.503Y135.361
X64.482Y135.517
X64.463Y135.674
X64.447Y135.831
X64.433Y135.989
X64.422Y136.146
X64.414Y136.304
X64.409Y136.462
X64.406Y136.62
Y136.778
X64.409Y136.936
X64.414Y137.093
X64.422Y137.251
X64.433Y137.409
X64.446Y137.566
X64.463Y137.723
X64.481Y137.88
X64.501Y138.023
X64.92Y140.914
X64.934Y140.989
X64.951Y141.066
X64.97Y141.141
X64.991Y141.215
X65.015Y141.288
X65.042Y141.361
X65.072Y141.433
X65.103Y141.504
X65.137Y141.573
X65.174Y141.642
X65.213Y141.708
X65.254Y141.774
X65.298Y141.838
X65.343Y141.901
X65.392Y141.962
X65.441Y142.021
X65.493Y142.078
X65.548Y142.135
X65.602Y142.187
X65.661Y142.239
X65.72Y142.289
X65.781Y142.336
X65.844Y142.382
X65.908Y142.425
X65.975Y142.466
X66.041Y142.504
X66.109Y142.54
X66.18Y142.575
X66.25Y142.606
X66.322Y142.635
X66.394Y142.661
X66.469Y142.685
X66.544Y142.707
X66.618Y142.725
X66.694Y142.741
X66.771Y142.755
X66.847Y142.765
X66.924Y142.773
X67.002Y142.779
X67.078Y142.782
X67.117
X72.168
X72.285Y142.781
X72.402Y142.778
X72.519Y142.773
X72.635Y142.766
X73.891Y142.676
X75.043Y142.611
X76.197Y142.565
X77.351Y142.537
X78.512Y142.528
X82.065
X82.103Y142.531
X82.141Y142.534
X82.179Y142.535
X82.218
X110.218
X110.257
X110.297Y142.533
X110.337Y142.531
X110.376Y142.527
X110.416Y142.523
X110.455Y142.518
X110.495Y142.511
X110.534Y142.504
X110.573Y142.495
X110.611Y142.486
X110.65Y142.476
X110.688Y142.464
X110.725Y142.452
X110.763Y142.439
X110.8Y142.425
X110.837Y142.41
X110.873Y142.394
X110.909Y142.377
X110.945Y142.359
X110.98Y142.341
X111.015Y142.321
X111.05Y142.3
X111.084Y142.279
X111.118Y142.256
X111.151Y142.233
X111.183Y142.209
X111.215Y142.184
X111.246Y142.158
X111.261Y142.145
X111.291Y142.119
X111.313Y142.098
X111.335Y142.077
X111.363Y142.049
X111.39Y142.02
X111.422Y141.984
X111.453Y141.947
X111.475Y141.919
X111.496Y141.891
X111.517Y141.862
X111.537Y141.833
X111.557Y141.804
X111.575Y141.773
X111.592Y141.745
X111.609Y141.717
X111.624Y141.688
X111.643Y141.65
X111.661Y141.613
X111.675Y141.583
X111.687Y141.554
X111.703Y141.513
X111.712Y141.491
X111.726Y141.451
X111.739Y141.41
X111.751Y141.368
X111.762Y141.326
X111.772Y141.283
X111.78Y141.243
X111.787Y141.202
X111.795Y141.151
X111.801Y141.095
X111.804Y141.061
X111.806Y141.028
X111.808Y140.994
X111.809Y140.944
Y140.712
X111.819Y140.65
X111.83Y140.574
X111.838Y140.495
X111.844Y140.419
X111.846Y140.341
X111.847Y140.302
Y129.468
X111.846Y129.429
X111.845Y129.389
X111.842Y129.35
X111.839Y129.311
X111.834Y129.272
X111.829Y129.232
X111.823Y129.194
X111.815Y129.155
X111.808Y129.121
X111.807Y129.079
X111.805Y129.036
X111.801Y128.993
X111.797Y128.95
X111.791Y128.908
X111.784Y128.865
X111.776Y128.823
X111.766Y128.781
X111.756Y128.739
X111.746Y128.704
X111.736Y128.67
X111.725Y128.636
X111.713Y128.602
X111.701Y128.568
X111.684Y128.527
X111.666Y128.486
X111.647Y128.446
X111.625Y128.402
X111.609Y128.373
X111.592Y128.343
X111.57Y128.307
X111.548Y128.271
X111.526Y128.239
X111.504Y128.208
X111.481Y128.177
X111.457Y128.147
X111.432Y128.117
X111.407Y128.088
X111.381Y128.059
X111.354Y128.031
X111.327Y128.004
X111.299Y127.978
X111.271Y127.952
X111.241Y127.927
X111.211Y127.902
X111.181Y127.878
X111.15Y127.855
X111.119Y127.833
X111.087Y127.812
X111.054Y127.791
X111.021Y127.771
X110.987Y127.752
X110.953Y127.733
X110.918Y127.716
X110.884Y127.7
X110.849Y127.684
X110.814Y127.669
X110.778Y127.656
X110.742Y127.642
X110.706Y127.63
X110.67Y127.619
X110.633Y127.609
X110.596Y127.599
X110.559Y127.59
X110.521Y127.583
X110.484Y127.576
X110.446Y127.57
X110.408Y127.565
X110.37Y127.561
X110.332Y127.557
X110.294Y127.555
X110.256Y127.554
X110.218Y127.553
X106.281
X105.691Y127.54
X104.947Y127.535
G0Z1
X71.406Y134.066
G1Z-0.35F50
X71.431Y134.053F100
X71.456Y134.041
X71.481Y134.029
X71.506Y134.017
X71.532Y134.006
X71.557Y133.996
X71.583Y133.985
X71.636Y133.966
X71.662Y133.957
X71.716Y133.941
X71.771Y133.926
X71.826Y133.914
X71.851Y133.909
X71.878Y133.904
X71.906Y133.899
X71.934Y133.895
X71.961Y133.891
X71.989Y133.888
X72.016Y133.885
X72.044Y133.883
X72.072Y133.881
X72.1Y133.88
X72.128
X72.156Y133.879
X72.184Y133.88
X72.211
X72.239Y133.881
X72.267Y133.883
X72.295Y133.885
X72.323Y133.888
X72.35Y133.891
X72.378Y133.895
X72.405Y133.899
X72.433Y133.904
X72.46Y133.909
X72.488Y133.914
X72.515Y133.92
X72.542Y133.927
X72.569Y133.934
X72.596Y133.941
X72.623Y133.949
X72.649Y133.957
X72.675Y133.966
X72.702Y133.976
X72.728Y133.985
X72.754Y133.996
X72.779Y134.006
X72.805Y134.017
X72.83Y134.029
X72.856Y134.041
X72.881Y134.053
X72.905Y134.066
X72.93Y134.079
X72.954Y134.093
X72.978Y134.107
X73.002Y134.122
X73.025Y134.137
X73.048Y134.152
X73.071Y134.168
X73.094Y134.184
X73.117Y134.201
X73.139Y134.218
X73.16Y134.235
X73.182Y134.253
X73.224Y134.289
X73.244Y134.308
X73.265Y134.327
X73.285Y134.347
X73.304Y134.367
X73.323Y134.387
X73.361Y134.428
X73.379Y134.45
X73.397Y134.471
X73.414Y134.493
X73.431Y134.515
X73.447Y134.537
X73.464Y134.56
X73.479Y134.583
X73.51Y134.63
X73.524Y134.654
X73.538Y134.678
X73.552Y134.702
X73.565Y134.726
X73.578Y134.751
X73.591Y134.776
X73.603Y134.801
X73.614Y134.827
X73.625Y134.852
X73.636Y134.878
X73.656Y134.93
X73.665Y134.956
X73.674Y134.982
X73.683Y135.009
X73.698Y135.063
X73.705Y135.09
X73.711Y135.117
X73.717Y135.144
X73.723Y135.171
X73.728Y135.199
X73.733Y135.226
X73.737Y135.254
X73.74Y135.281
X73.744Y135.309
X73.746Y135.337
X73.748Y135.365
X73.75Y135.392
X73.751Y135.42
X73.752Y135.448
Y135.476
Y135.504
X73.751Y135.532
X73.75Y135.559
X73.748Y135.587
X73.746Y135.615
X73.744Y135.643
X73.74Y135.671
X73.737Y135.698
X73.733Y135.726
X73.728Y135.753
X73.723Y135.78
X73.717Y135.808
X73.711Y135.835
X73.705Y135.862
X73.698Y135.889
X73.69Y135.916
X73.683Y135.943
X73.674Y135.969
X73.665Y135.996
X73.656Y136.022
X73.646Y136.048
X73.636Y136.074
X73.625Y136.1
X73.614Y136.125
X73.603Y136.151
X73.591Y136.176
X73.578Y136.201
X73.565Y136.225
X73.552Y136.25
X73.538Y136.274
X73.524Y136.298
X73.51Y136.322
X73.495Y136.345
X73.479Y136.369
X73.464Y136.392
X73.447Y136.414
X73.431Y136.437
X73.414Y136.459
X73.397Y136.481
X73.379Y136.502
X73.361Y136.524
X73.342Y136.544
X73.323Y136.565
X73.304Y136.585
X73.285Y136.605
X73.265Y136.625
X73.244Y136.644
X73.224Y136.662
X73.203Y136.681
X73.182Y136.699
X73.16Y136.717
X73.139Y136.734
X73.117Y136.751
X73.094Y136.768
X73.071Y136.784
X73.049Y136.8
X73.025Y136.815
X73.002Y136.83
X72.978Y136.844
X72.954Y136.859
X72.93Y136.872
X72.905Y136.886
X72.881Y136.899
X72.856Y136.911
X72.831Y136.923
X72.805Y136.935
X72.779Y136.946
X72.754Y136.956
X72.728Y136.967
X72.701Y136.976
X72.675Y136.986
X72.649Y136.994
X72.623Y137.003
X72.596Y137.011
X72.569Y137.018
X72.542Y137.025
X72.515Y137.032
X72.488Y137.038
X72.46Y137.043
X72.433Y137.048
X72.405Y137.053
X72.378Y137.057
X72.35Y137.061
X72.323Y137.064
X72.295Y137.066
X72.267Y137.069
X72.239Y137.07
X72.211Y137.072
X72.184
X72.137
X72.097Y137.071
X72.072Y137.07
X72.044Y137.069
X71.989Y137.064
X71.961Y137.061
X71.934Y137.057
X71.906Y137.053
X71.878Y137.048
X71.851Y137.043
X71.824Y137.038
X71.797Y137.032
X71.769Y137.025
X71.742Y137.018
X71.716Y137.011
X71.689Y137.003
X71.662Y136.994
X71.636Y136.986
X71.61Y136.976
X71.583Y136.967
X71.557Y136.956
X71.532Y136.946
X71.506Y136.935
X71.481Y136.923
X71.456Y136.911
X71.431Y136.899
X71.406Y136.886
X71.382Y136.872
X71.357Y136.859
X71.333Y136.844
X71.31Y136.83
X71.286Y136.815
X71.263Y136.8
X71.244Y136.787
X71.216Y136.767
X71.195Y136.751
X71.173Y136.734
X71.151Y136.717
X71.129Y136.699
X71.108Y136.681
X71.087Y136.662
X71.067Y136.644
X71.047Y136.625
X71.027Y136.605
X71.007Y136.585
X70.988Y136.565
X70.969Y136.544
X70.94Y136.51
X70.913Y136.478
X70.897Y136.459
X70.881Y136.437
X70.864Y136.414
X70.848Y136.392
X70.832Y136.369
X70.816Y136.345
X70.802Y136.322
X70.785Y136.294
X70.773Y136.274
X70.759Y136.25
X70.746Y136.225
X70.721Y136.176
X70.709Y136.151
X70.697Y136.125
X70.686Y136.1
X70.675Y136.074
X70.665Y136.048
X70.646Y135.996
X70.637Y135.969
X70.63Y135.946
X70.621Y135.915
X70.613Y135.889
X70.606Y135.862
X70.6Y135.835
X70.594Y135.808
X70.588Y135.781
X70.583Y135.753
X70.579Y135.726
X70.575Y135.698
X70.571Y135.671
X70.568Y135.643
X70.565Y135.615
X70.563Y135.587
X70.561Y135.559
X70.56Y135.532
X70.559Y135.504
Y135.459
X70.56Y135.418
X70.561Y135.392
X70.563Y135.365
X70.565Y135.337
X70.567Y135.316
X70.571Y135.28
X70.575Y135.254
X70.579Y135.226
X70.583Y135.199
X70.588Y135.171
X70.594Y135.144
X70.6Y135.117
X70.606Y135.09
X70.613Y135.063
X70.621Y135.036
X70.629Y135.009
X70.637Y134.983
X70.646Y134.956
X70.655Y134.93
X70.665Y134.904
X70.677Y134.874
X70.686Y134.852
X70.697Y134.827
X70.709Y134.801
X70.721Y134.776
X70.733Y134.751
X70.746Y134.726
X70.76Y134.7
X70.773Y134.678
X70.787Y134.654
X70.802Y134.63
X70.816Y134.606
X70.832Y134.583
X70.848Y134.56
X70.882Y134.513
X70.909Y134.479
X70.934Y134.448
X70.951Y134.428
X70.969Y134.408
X71.007Y134.367
X71.027Y134.347
X71.046Y134.327
X71.08Y134.296
X71.11Y134.269
X71.129Y134.253
X71.151Y134.235
X71.173Y134.218
X71.195Y134.201
X71.217Y134.184
X71.24Y134.168
X71.266Y134.15
X71.286Y134.137
X71.309Y134.122
X71.333Y134.107
X71.357Y134.093
X71.382Y134.079
X71.406Y134.066
G0Z1
X85.54Y135.461
G1Z-0.35F50
X85.557Y135.285F100
X85.609Y135.116
X85.692Y134.96
X85.804Y134.823
X85.941Y134.711
X86.096Y134.628
X86.266Y134.577
X86.441Y134.559
X86.617Y134.577
X86.786Y134.628
X86.942Y134.711
X87.079Y134.823
X87.191Y134.96
X87.274Y135.116
X87.325Y135.285
X87.343Y135.461
X87.325Y135.636
X87.274Y135.805
X87.191Y135.961
X87.079Y136.098
X86.942Y136.21
X86.786Y136.293
X86.617Y136.344
X86.441Y136.362
X86.266Y136.344
X86.096Y136.293
X85.941Y136.21
X85.804Y136.098
X85.692Y135.961
X85.609Y135.805
X85.557Y135.636
X85.54Y135.461
G0Z1
X101.444
G1Z-0.35F50
X101.461Y135.285F100
X101.513Y135.116
X101.596Y134.96
X101.708Y134.823
X101.845Y134.711
X102Y134.628
X102.169Y134.577
X102.345Y134.559
X102.521Y134.577
X102.69Y134.628
X102.846Y134.711
X102.983Y134.823
X103.095Y134.96
X103.178Y135.116
X103.229Y135.285
X103.247Y135.461
X103.229Y135.636
X103.178Y135.805
X103.095Y135.961
X102.983Y136.098
X102.846Y136.21
X102.69Y136.293
X102.521Y136.344
X102.345Y136.362
X102.169Y136.344
X102Y136.293
X101.845Y136.21
X101.708Y136.098
X101.596Y135.961
X101.513Y135.805
X101.461Y135.636
X101.444Y135.461
G0Z1
X104.947Y127.535
G1Z-0.35F50
X78.492F100
X77.838Y127.541
X77.185Y127.557
X76.531Y127.585
X75.878Y127.623
X75.226Y127.672
X74.575Y127.732
X73.925Y127.802
X73.276Y127.884
X72.628Y127.976
X71.982Y128.079
X71.338Y128.193
X70.695Y128.317
X70.572Y128.344
X70.448Y128.372
X70.325Y128.403
X70.203Y128.436
X70.082Y128.471
X69.96Y128.508
X69.84Y128.547
X69.72Y128.588
X69.601Y128.631
X69.483Y128.676
X69.366Y128.724
X69.249Y128.773
X69.134Y128.824
X69.019Y128.878
X68.905Y128.933
X68.792Y128.99
X68.68Y129.05
X68.57Y129.111
X68.46Y129.174
X68.351Y129.239
X68.244Y129.306
X68.137Y129.374
X68.032Y129.445
X67.928Y129.517
X67.826Y129.591
X67.724Y129.667
X67.624Y129.745
X67.526Y129.824
X67.429Y129.905
X67.333Y129.988
X67.238Y130.072
X67.146Y130.158
X67.054Y130.246
X66.964Y130.335
X66.876Y130.426
X66.789Y130.518
X66.704Y130.612
X66.621Y130.707
X66.539Y130.804
X66.439Y130.926
X66.341Y131.05
X66.246Y131.175
X66.152Y131.302
X66.06Y131.431
X65.971Y131.562
X65.884Y131.694
X65.8Y131.827
X65.717Y131.962
X65.637Y132.098
X65.559Y132.235
X65.484Y132.374
X65.411Y132.514
X65.341Y132.656
X65.273Y132.798
X65.207Y132.942
X65.144Y133.086
X65.083Y133.232
X65.025Y133.379
X64.969Y133.527
X64.916Y133.676
X64.866Y133.825
X64.818Y133.976
X64.772Y134.127
X64.729Y134.279
X64.689Y134.432
X64.652Y134.585
X64.617Y134.739
X64.584Y134.894
X64.555Y135.049
X64.528Y135.205
X64.503Y135.361
X64.482Y135.517
X64.463Y135.674
X64.447Y135.831
X64.433Y135.989
X64.422Y136.146
X64.414Y136.304
X64.409Y136.462
X64.406Y136.62
Y136.778
X64.409Y136.936
X64.414Y137.093
X64.422Y137.251
X64.433Y137.409
X64.446Y137.566
X64.463Y137.723
X64.481Y137.88
X64.501Y138.023
X64.92Y140.914
X64.934Y140.989
X64.951Y141.066
X64.97Y141.141
X64.991Y141.215
X65.015Y141.288
X65.042Y141.361
X65.072Y141.433
X65.103Y141.504
X65.137Y141.573
X65.174Y141.642
X65.213Y141.708
X65.254Y141.774
X65.298Y141.838
X65.343Y141.901
X65.392Y141.962
X65.441Y142.021
X65.493Y142.078
X65.548Y142.135
X65.602Y142.187
X65.661Y142.239
X65.72Y142.289
X65.781Y142.336
X65.844Y142.382
X65.908Y142.425
X65.975Y142.466
X66.041Y142.504
X66.109Y142.54
X66.18Y142.575
X66.25Y142.606
X66.322Y142.635
X66.394Y142.661
X66.469Y142.685
X66.544Y142.707
X66.618Y142.725
X66.694Y142.741
X66.771Y142.755
X66.847Y142.765
X66.924Y142.773
X67.002Y142.779
X67.078Y142.782
X67.117
X72.168
X72.285Y142.781
X72.402Y142.778
X72.519Y142.773
X72.635Y142.766
X73.891Y142.676
X75.043Y142.611
X76.197Y142.565
X77.351Y142.537
X78.512Y142.528
X82.065
X82.103Y142.531
X82.141Y142.534
X82.179Y142.535
X82.218
X110.218
X110.257
X110.297Y142.533
X110.337Y142.531
X110.376Y142.527
X110.416Y142.523
X110.455Y142.518
X110.495Y142.511
X110.534Y142.504
X110.573Y142.495
X110.611Y142.486
X110.65Y142.476
X110.688Y142.464
X110.725Y142.452
X110.763Y142.439
X110.8Y142.425
X110.837Y142.41
X110.873Y142.394
X110.909Y142.377
X110.945Y142.359
X110.98Y142.341
X111.015Y142.321
X111.05Y142.3
X111.084Y142.279
X111.118Y142.256
X111.151Y142.233
X111.183Y142.209
X111.215Y142.184
X111.246Y142.158
X111.261Y142.145
X111.291Y142.119
X111.313Y142.098
X111.335Y142.077
X111.363Y142.049
X111.39Y142.02
X111.422Y141.984
X111.453Y141.947
X111.475Y141.919
X111.496Y141.891
X111.517Y141.862
X111.537Y141.833
X111.557Y141.804
X111.575Y141.773
X111.592Y141.745
X111.609Y141.717
X111.624Y141.688
X111.643Y141.65
X111.661Y141.613
X111.675Y141.583
X111.687Y141.554
X111.703Y141.513
X111.712Y141.491
X111.726Y141.451
X111.739Y141.41
X111.751Y141.368
X111.762Y141.326
X111.772Y141.283
X111.78Y141.243
X111.787Y141.202
X111.795Y141.151
X111.801Y141.095
X111.804Y141.061
X111.806Y141.028
X111.808Y140.994
X111.809Y140.944
Y140.712
X111.819Y140.65
X111.83Y140.574
X111.838Y140.495
X111.844Y140.419
X111.846Y140.341
X111.847Y140.302
Y129.468
X111.846Y129.429
X111.845Y129.389
X111.842Y129.35
X111.839Y129.311
X111.834Y129.272
X111.829Y129.232
X111.823Y129.194
X111.815Y129.155
X111.808Y129.121
X111.807Y129.079
X111.805Y129.036
X111.801Y128.993
X111.797Y128.95
X111.791Y128.908
X111.784Y128.865
X111.776Y128.823
X111.766Y128.781
X111.756Y128.739
X111.746Y128.704
X111.736Y128.67
X111.725Y128.636
X111.713Y128.602
X111.701Y128.568
X111.684Y128.527
X111.666Y128.486
X111.647Y128.446
X111.625Y128.402
X111.609Y128.373
X111.592Y128.343
X111.57Y128.307
X111.548Y128.271
X111.526Y128.239
X111.504Y128.208
X111.481Y128.177
X111.457Y128.147
X111.432Y128.117
X111.407Y128.088
X111.381Y128.059
X111.354Y128.031
X111.327Y128.004
X111.299Y127.978
X111.271Y127.952
X111.241Y127.927
X111.211Y127.902
X111.181Y127.878
X111.15Y127.855
X111.119Y127.833
X111.087Y127.812
X111.054Y127.791
X111.021Y127.771
X110.987Y127.752
X110.953Y127.733
X110.918Y127.716
X110.884Y127.7
X110.849Y127.684
X110.814Y127.669
X110.778Y127.656
X110.742Y127.642
X110.706Y127.63
X110.67Y127.619
X110.633Y127.609
X110.596Y127.599
X110.559Y127.59
X110.521Y127.583
X110.484Y127.576
X110.446Y127.57
X110.408Y127.565
X110.37Y127.561
X110.332Y127.557
X110.294Y127.555
X110.256Y127.554
X110.218Y127.553
X106.281
X105.691Y127.54
X104.947Y127.535
G0Z1
X71.406Y134.066
G1Z-0.4F50
X71.431Y134.053F100
X71.456Y134.041
X71.481Y134.029
X71.506Y134.017
X71.532Y134.006
X71.557Y133.996
X71.583Y133.985
X71.636Y133.966
X71.662Y133.957
X71.716Y133.941
X71.771Y133.926
X71.826Y133.914
X71.851Y133.909
X71.878Y133.904
X71.906Y133.899
X71.934Y133.895
X71.961Y133.891
X71.989Y133.888
X72.016Y133.885
X72.044Y133.883
X72.072Y133.881
X72.1Y133.88
X72.128
X72.156Y133.879
X72.184Y133.88
X72.211
X72.239Y133.881
X72.267Y133.883
X72.295Y133.885
X72.323Y133.888
X72.35Y133.891
X72.378Y133.895
X72.405Y133.899
X72.433Y133.904
X72.46Y133.909
X72.488Y133.914
X72.515Y133.92
X72.542Y133.927
X72.569Y133.934
X72.596Y133.941
X72.623Y133.949
X72.649Y133.957
X72.675Y133.966
X72.702Y133.976
X72.728Y133.985
X72.754Y133.996
X72.779Y134.006
X72.805Y134.017
X72.83Y134.029
X72.856Y134.041
X72.881Y134.053
X72.905Y134.066
X72.93Y134.079
X72.954Y134.093
X72.978Y134.107
X73.002Y134.122
X73.025Y134.137
X73.048Y134.152
X73.071Y134.168
X73.094Y134.184
X73.117Y134.201
X73.139Y134.218
X73.16Y134.235
X73.182Y134.253
X73.224Y134.289
X73.244Y134.308
X73.265Y134.327
X73.285Y134.347
X73.304Y134.367
X73.323Y134.387
X73.361Y134.428
X73.379Y134.45
X73.397Y134.471
X73.414Y134.493
X73.431Y134.515
X73.447Y134.537
X73.464Y134.56
X73.479Y134.583
X73.51Y134.63
X73.524Y134.654
X73.538Y134.678
X73.552Y134.702
X73.565Y134.726
X73.578Y134.751
X73.591Y134.776
X73.603Y134.801
X73.614Y134.827
X73.625Y134.852
X73.636Y134.878
X73.656Y134.93
X73.665Y134.956
X73.674Y134.982
X73.683Y135.009
X73.698Y135.063
X73.705Y135.09
X73.711Y135.117
X73.717Y135.144
X73.723Y135.171
X73.728Y135.199
X73.733Y135.226
X73.737Y135.254
X73.74Y135.281
X73.744Y135.309
X73.746Y135.337
X73.748Y135.365
X73.75Y135.392
X73.751Y135.42
X73.752Y135.448
Y135.476
Y135.504
X73.751Y135.532
X73.75Y135.559
X73.748Y135.587
X73.746Y135.615
X73.744Y135.643
X73.74Y135.671
X73.737Y135.698
X73.733Y135.726
X73.728Y135.753
X73.723Y135.78
X73.717Y135.808
X73.711Y135.835
X73.705Y135.862
X73.698Y135.889
X73.69Y135.916
X73.683Y135.943
X73.674Y135.969
X73.665Y135.996
X73.656Y136.022
X73.646Y136.048
X73.636Y136.074
X73.625Y136.1
X73.614Y136.125
X73.603Y136.151
X73.591Y136.176
X73.578Y136.201
X73.565Y136.225
X73.552Y136.25
X73.538Y136.274
X73.524Y136.298
X73.51Y136.322
X73.495Y136.345
X73.479Y136.369
X73.464Y136.392
X73.447Y136.414
X73.431Y136.437
X73.414Y136.459
X73.397Y136.481
X73.379Y136.502
X73.361Y136.524
X73.342Y136.544
X73.323Y136.565
X73.304Y136.585
X73.285Y136.605
X73.265Y136.625
X73.244Y136.644
X73.224Y136.662
X73.203Y136.681
X73.182Y136.699
X73.16Y136.717
X73.139Y136.734
X73.117Y136.751
X73.094Y136.768
X73.071Y136.784
X73.049Y136.8
X73.025Y136.815
X73.002Y136.83
X72.978Y136.844
X72.954Y136.859
X72.93Y136.872
X72.905Y136.886
X72.881Y136.899
X72.856Y136.911
X72.831Y136.923
X72.805Y136.935
X72.779Y136.946
X72.754Y136.956
X72.728Y136.967
X72.701Y136.976
X72.675Y136.986
X72.649Y136.994
X72.623Y137.003
X72.596Y137.011
X72.569Y137.018
X72.542Y137.025
X72.515Y137.032
X72.488Y137.038
X72.46Y137.043
X72.433Y137.048
X72.405Y137.053
X72.378Y137.057
X72.35Y137.061
X72.323Y137.064
X72.295Y137.066
X72.267Y137.069
X72.239Y137.07
X72.211Y137.072
X72.184
X72.137
X72.097Y137.071
X72.072Y137.07
X72.044Y137.069
X71.989Y137.064
X71.961Y137.061
X71.934Y137.057
X71.906Y137.053
X71.878Y137.048
X71.851Y137.043
X71.824Y137.038
X71.797Y137.032
X71.769Y137.025
X71.742Y137.018
X71.716Y137.011
X71.689Y137.003
X71.662Y136.994
X71.636Y136.986
X71.61Y136.976
X71.583Y136.967
X71.557Y136.956
X71.532Y136.946
X71.506Y136.935
X71.481Y136.923
X71.456Y136.911
X71.431Y136.899
X71.406Y136.886
X71.382Y136.872
X71.357Y136.859
X71.333Y136.844
X71.31Y136.83
X71.286Y136.815
X71.263Y136.8
X71.244Y136.787
X71.216Y136.767
X71.195Y136.751
X71.173Y136.734
X71.151Y136.717
X71.129Y136.699
X71.108Y136.681
X71.087Y136.662
X71.067Y136.644
X71.047Y136.625
X71.027Y136.605
X71.007Y136.585
X70.988Y136.565
X70.969Y136.544
X70.94Y136.51
X70.913Y136.478
X70.897Y136.459
X70.881Y136.437
X70.864Y136.414
X70.848Y136.392
X70.832Y136.369
X70.816Y136.345
X70.802Y136.322
X70.785Y136.294
X70.773Y136.274
X70.759Y136.25
X70.746Y136.225
X70.721Y136.176
X70.709Y136.151
X70.697Y136.125
X70.686Y136.1
X70.675Y136.074
X70.665Y136.048
X70.646Y135.996
X70.637Y135.969
X70.63Y135.946
X70.621Y135.915
X70.613Y135.889
X70.606Y135.862
X70.6Y135.835
X70.594Y135.808
X70.588Y135.781
X70.583Y135.753
X70.579Y135.726
X70.575Y135.698
X70.571Y135.671
X70.568Y135.643
X70.565Y135.615
X70.563Y135.587
X70.561Y135.559
X70.56Y135.532
X70.559Y135.504
Y135.459
X70.56Y135.418
X70.561Y135.392
X70.563Y135.365
X70.565Y135.337
X70.567Y135.316
X70.571Y135.28
X70.575Y135.254
X70.579Y135.226
X70.583Y135.199
X70.588Y135.171
X70.594Y135.144
X70.6Y135.117
X70.606Y135.09
X70.613Y135.063
X70.621Y135.036
X70.629Y135.009
X70.637Y134.983
X70.646Y134.956
X70.655Y134.93
X70.665Y134.904
X70.677Y134.874
X70.686Y134.852
X70.697Y134.827
X70.709Y134.801
X70.721Y134.776
X70.733Y134.751
X70.746Y134.726
X70.76Y134.7
X70.773Y134.678
X70.787Y134.654
X70.802Y134.63
X70.816Y134.606
X70.832Y134.583
X70.848Y134.56
X70.882Y134.513
X70.909Y134.479
X70.934Y134.448
X70.951Y134.428
X70.969Y134.408
X71.007Y134.367
X71.027Y134.347
X71.046Y134.327
X71.08Y134.296
X71.11Y134.269
X71.129Y134.253
X71.151Y134.235
X71.173Y134.218
X71.195Y134.201
X71.217Y134.184
X71.24Y134.168
X71.266Y134.15
X71.286Y134.137
X71.309Y134.122
X71.333Y134.107
X71.357Y134.093
X71.382Y134.079
X71.406Y134.066
G0Z1
X85.54Y135.461
G1Z-0.4F50
X85.557Y135.285F100
X85.609Y135.116
X85.692Y134.96
X85.804Y134.823
X85.941Y134.711
X86.096Y134.628
X86.266Y134.577
X86.441Y134.559
X86.617Y134.577
X86.786Y134.628
X86.942Y134.711
X87.079Y134.823
X87.191Y134.96
X87.274Y135.116
X87.325Y135.285
X87.343Y135.461
X87.325Y135.636
X87.274Y135.805
X87.191Y135.961
X87.079Y136.098
X86.942Y136.21
X86.786Y136.293
X86.617Y136.344
X86.441Y136.362
X86.266Y136.344
X86.096Y136.293
X85.941Y136.21
X85.804Y136.098
X85.692Y135.961
X85.609Y135.805
X85.557Y135.636
X85.54Y135.461
G0Z1
X101.444
G1Z-0.4F50
X101.461Y135.285F100
X101.513Y135.116
X101.596Y134.96
X101.708Y134.823
X101.845Y134.711
X102Y134.628
X102.169Y134.577
X102.345Y134.559
X102.521Y134.577
X102.69Y134.628
X102.846Y134.711
X102.983Y134.823
X103.095Y134.96
X103.178Y135.116
X103.229Y135.285
X103.247Y135.461
X103.229Y135.636
X103.178Y135.805
X103.095Y135.961
X102.983Y136.098
X102.846Y136.21
X102.69Y136.293
X102.521Y136.344
X102.345Y136.362
X102.169Y136.344
X102Y136.293
X101.845Y136.21
X101.708Y136.098
X101.596Y135.961
X101.513Y135.805
X101.461Y135.636
X101.444Y135.461
G0Z1
X104.947Y127.535
G1Z-0.4F50
X78.492F100
X77.838Y127.541
X77.185Y127.557
X76.531Y127.585
X75.878Y127.623
X75.226Y127.672
X74.575Y127.732
X73.925Y127.802
X73.276Y127.884
X72.628Y127.976
X71.982Y128.079
X71.338Y128.193
X70.695Y128.317
X70.572Y128.344
X70.448Y128.372
X70.325Y128.403
X70.203Y128.436
X70.082Y128.471
X69.96Y128.508
X69.84Y128.547
X69.72Y128.588
X69.601Y128.631
X69.483Y128.676
X69.366Y128.724
X69.249Y128.773
X69.134Y128.824
X69.019Y128.878
X68.905Y128.933
X68.792Y128.99
X68.68Y129.05
X68.57Y129.111
X68.46Y129.174
X68.351Y129.239
X68.244Y129.306
X68.137Y129.374
X68.032Y129.445
X67.928Y129.517
X67.826Y129.591
X67.724Y129.667
X67.624Y129.745
X67.526Y129.824
X67.429Y129.905
X67.333Y129.988
X67.238Y130.072
X67.146Y130.158
X67.054Y130.246
X66.964Y130.335
X66.876Y130.426
X66.789Y130.518
X66.704Y130.612
X66.621Y130.707
X66.539Y130.804
X66.439Y130.926
X66.341Y131.05
X66.246Y131.175
X66.152Y131.302
X66.06Y131.431
X65.971Y131.562
X65.884Y131.694
X65.8Y131.827
X65.717Y131.962
X65.637Y132.098
X65.559Y132.235
X65.484Y132.374
X65.411Y132.514
X65.341Y132.656
X65.273Y132.798
X65.207Y132.942
X65.144Y133.086
X65.083Y133.232
X65.025Y133.379
X64.969Y133.527
X64.916Y133.676
X64.866Y133.825
X64.818Y133.976
X64.772Y134.127
X64.729Y134.279
X64.689Y134.432
X64.652Y134.585
X64.617Y134.739
X64.584Y134.894
X64.555Y135.049
X64.528Y135.205
X64.503Y135.361
X64.482Y135.517
X64.463Y135.674
X64.447Y135.831
X64.433Y135.989
X64.422Y136.146
X64.414Y136.304
X64.409Y136.462
X64.406Y136.62
Y136.778
X64.409Y136.936
X64.414Y137.093
X64.422Y137.251
X64.433Y137.409
X64.446Y137.566
X64.463Y137.723
X64.481Y137.88
X64.501Y138.023
X64.92Y140.914
X64.934Y140.989
X64.951Y141.066
X64.97Y141.141
X64.991Y141.215
X65.015Y141.288
X65.042Y141.361
X65.072Y141.433
X65.103Y141.504
X65.137Y141.573
X65.174Y141.642
X65.213Y141.708
X65.254Y141.774
X65.298Y141.838
X65.343Y141.901
X65.392Y141.962
X65.441Y142.021
X65.493Y142.078
X65.548Y142.135
X65.602Y142.187
X65.661Y142.239
X65.72Y142.289
X65.781Y142.336
X65.844Y142.382
X65.908Y142.425
X65.975Y142.466
X66.041Y142.504
X66.109Y142.54
X66.18Y142.575
X66.25Y142.606
X66.322Y142.635
X66.394Y142.661
X66.469Y142.685
X66.544Y142.707
X66.618Y142.725
X66.694Y142.741
X66.771Y142.755
X66.847Y142.765
X66.924Y142.773
X67.002Y142.779
X67.078Y142.782
X67.117
X72.168
X72.285Y142.781
X72.402Y142.778
X72.519Y142.773
X72.635Y142.766
X73.891Y142.676
X75.043Y142.611
X76.197Y142.565
X77.351Y142.537
X78.512Y142.528
X82.065
X82.103Y142.531
X82.141Y142.534
X82.179Y142.535
X82.218
X110.218
X110.257
X110.297Y142.533
X110.337Y142.531
X110.376Y142.527
X110.416Y142.523
X110.455Y142.518
X110.495Y142.511
X110.534Y142.504
X110.573Y142.495
X110.611Y142.486
X110.65Y142.476
X110.688Y142.464
X110.725Y142.452
X110.763Y142.439
X110.8Y142.425
X110.837Y142.41
X110.873Y142.394
X110.909Y142.377
X110.945Y142.359
X110.98Y142.341
X111.015Y142.321
X111.05Y142.3
X111.084Y142.279
X111.118Y142.256
X111.151Y142.233
X111.183Y142.209
X111.215Y142.184
X111.246Y142.158
X111.261Y142.145
X111.291Y142.119
X111.313Y142.098
X111.335Y142.077
X111.363Y142.049
X111.39Y142.02
X111.422Y141.984
X111.453Y141.947
X111.475Y141.919
X111.496Y141.891
X111.517Y141.862
X111.537Y141.833
X111.557Y141.804
X111.575Y141.773
X111.592Y141.745
X111.609Y141.717
X111.624Y141.688
X111.643Y141.65
X111.661Y141.613
X111.675Y141.583
X111.687Y141.554
X111.703Y141.513
X111.712Y141.491
X111.726Y141.451
X111.739Y141.41
X111.751Y141.368
X111.762Y141.326
X111.772Y141.283
X111.78Y141.243
X111.787Y141.202
X111.795Y141.151
X111.801Y141.095
X111.804Y141.061
X111.806Y141.028
X111.808Y140.994
X111.809Y140.944
Y140.712
X111.819Y140.65
X111.83Y140.574
X111.838Y140.495
X111.844Y140.419
X111.846Y140.341
X111.847Y140.302
Y129.468
X111.846Y129.429
X111.845Y129.389
X111.842Y129.35
X111.839Y129.311
X111.834Y129.272
X111.829Y129.232
X111.823Y129.194
X111.815Y129.155
X111.808Y129.121
X111.807Y129.079
X111.805Y129.036
X111.801Y128.993
X111.797Y128.95
X111.791Y128.908
X111.784Y128.865
X111.776Y128.823
X111.766Y128.781
X111.756Y128.739
X111.746Y128.704
X111.736Y128.67
X111.725Y128.636
X111.713Y128.602
X111.701Y128.568
X111.684Y128.527
X111.666Y128.486
X111.647Y128.446
X111.625Y128.402
X111.609Y128.373
X111.592Y128.343
X111.57Y128.307
X111.548Y128.271
X111.526Y128.239
X111.504Y128.208
X111.481Y128.177
X111.457Y128.147
X111.432Y128.117
X111.407Y128.088
X111.381Y128.059
X111.354Y128.031
X111.327Y128.004
X111.299Y127.978
X111.271Y127.952
X111.241Y127.927
X111.211Y127.902
X111.181Y127.878
X111.15Y127.855
X111.119Y127.833
X111.087Y127.812
X111.054Y127.791
X111.021Y127.771
X110.987Y127.752
X110.953Y127.733
X110.918Y127.716
X110.884Y127.7
X110.849Y127.684
X110.814Y127.669
X110.778Y127.656
X110.742Y127.642
X110.706Y127.63
X110.67Y127.619
X110.633Y127.609
X110.596Y127.599
X110.559Y127.59
X110.521Y127.583
X110.484Y127.576
X110.446Y127.57
X110.408Y127.565
X110.37Y127.561
X110.332Y127.557
X110.294Y127.555
X110.256Y127.554
X110.218Y127.553
X106.281
X105.691Y127.54
X104.947Y127.535
G0Z1
X71.406Y134.066
G1Z-0.45F50
X71.431Y134.053F100
X71.456Y134.041
X71.481Y134.029
X71.506Y134.017
X71.532Y134.006
X71.557Y133.996
X71.583Y133.985
X71.636Y133.966
X71.662Y133.957
X71.716Y133.941
X71.771Y133.926
X71.826Y133.914
X71.851Y133.909
X71.878Y133.904
X71.906Y133.899
X71.934Y133.895
X71.961Y133.891
X71.989Y133.888
X72.016Y133.885
X72.044Y133.883
X72.072Y133.881
X72.1Y133.88
X72.128
X72.156Y133.879
X72.184Y133.88
X72.211
X72.239Y133.881
X72.267Y133.883
X72.295Y133.885
X72.323Y133.888
X72.35Y133.891
X72.378Y133.895
X72.405Y133.899
X72.433Y133.904
X72.46Y133.909
X72.488Y133.914
X72.515Y133.92
X72.542Y133.927
X72.569Y133.934
X72.596Y133.941
X72.623Y133.949
X72.649Y133.957
X72.675Y133.966
X72.702Y133.976
X72.728Y133.985
X72.754Y133.996
X72.779Y134.006
X72.805Y134.017
X72.83Y134.029
X72.856Y134.041
X72.881Y134.053
X72.905Y134.066
X72.93Y134.079
X72.954Y134.093
X72.978Y134.107
X73.002Y134.122
X73.025Y134.137
X73.048Y134.152
X73.071Y134.168
X73.094Y134.184
X73.117Y134.201
X73.139Y134.218
X73.16Y134.235
X73.182Y134.253
X73.224Y134.289
X73.244Y134.308
X73.265Y134.327
X73.285Y134.347
X73.304Y134.367
X73.323Y134.387
X73.361Y134.428
X73.379Y134.45
X73.397Y134.471
X73.414Y134.493
X73.431Y134.515
X73.447Y134.537
X73.464Y134.56
X73.479Y134.583
X73.51Y134.63
X73.524Y134.654
X73.538Y134.678
X73.552Y134.702
X73.565Y134.726
X73.578Y134.751
X73.591Y134.776
X73.603Y134.801
X73.614Y134.827
X73.625Y134.852
X73.636Y134.878
X73.656Y134.93
X73.665Y134.956
X73.674Y134.982
X73.683Y135.009
X73.698Y135.063
X73.705Y135.09
X73.711Y135.117
X73.717Y135.144
X73.723Y135.171
X73.728Y135.199
X73.733Y135.226
X73.737Y135.254
X73.74Y135.281
X73.744Y135.309
X73.746Y135.337
X73.748Y135.365
X73.75Y135.392
X73.751Y135.42
X73.752Y135.448
Y135.476
Y135.504
X73.751Y135.532
X73.75Y135.559
X73.748Y135.587
X73.746Y135.615
X73.744Y135.643
X73.74Y135.671
X73.737Y135.698
X73.733Y135.726
X73.728Y135.753
X73.723Y135.78
X73.717Y135.808
X73.711Y135.835
X73.705Y135.862
X73.698Y135.889
X73.69Y135.916
X73.683Y135.943
X73.674Y135.969
X73.665Y135.996
X73.656Y136.022
X73.646Y136.048
X73.636Y136.074
X73.625Y136.1
X73.614Y136.125
X73.603Y136.151
X73.591Y136.176
X73.578Y136.201
X73.565Y136.225
X73.552Y136.25
X73.538Y136.274
X73.524Y136.298
X73.51Y136.322
X73.495Y136.345
X73.479Y136.369
X73.464Y136.392
X73.447Y136.414
X73.431Y136.437
X73.414Y136.459
X73.397Y136.481
X73.379Y136.502
X73.361Y136.524
X73.342Y136.544
X73.323Y136.565
X73.304Y136.585
X73.285Y136.605
X73.265Y136.625
X73.244Y136.644
X73.224Y136.662
X73.203Y136.681
X73.182Y136.699
X73.16Y136.717
X73.139Y136.734
X73.117Y136.751
X73.094Y136.768
X73.071Y136.784
X73.049Y136.8
X73.025Y136.815
X73.002Y136.83
X72.978Y136.844
X72.954Y136.859
X72.93Y136.872
X72.905Y136.886
X72.881Y136.899
X72.856Y136.911
X72.831Y136.923
X72.805Y136.935
X72.779Y136.946
X72.754Y136.956
X72.728Y136.967
X72.701Y136.976
X72.675Y136.986
X72.649Y136.994
X72.623Y137.003
X72.596Y137.011
X72.569Y137.018
X72.542Y137.025
X72.515Y137.032
X72.488Y137.038
X72.46Y137.043
X72.433Y137.048
X72.405Y137.053
X72.378Y137.057
X72.35Y137.061
X72.323Y137.064
X72.295Y137.066
X72.267Y137.069
X72.239Y137.07
X72.211Y137.072
X72.184
X72.137
X72.097Y137.071
X72.072Y137.07
X72.044Y137.069
X71.989Y137.064
X71.961Y137.061
X71.934Y137.057
X71.906Y137.053
X71.878Y137.048
X71.851Y137.043
X71.824Y137.038
X71.797Y137.032
X71.769Y137.025
X71.742Y137.018
X71.716Y137.011
X71.689Y137.003
X71.662Y136.994
X71.636Y136.986
X71.61Y136.976
X71.583Y136.967
X71.557Y136.956
X71.532Y136.946
X71.506Y136.935
X71.481Y136.923
X71.456Y136.911
X71.431Y136.899
X71.406Y136.886
X71.382Y136.872
X71.357Y136.859
X71.333Y136.844
X71.31Y136.83
X71.286Y136.815
X71.263Y136.8
X71.244Y136.787
X71.216Y136.767
X71.195Y136.751
X71.173Y136.734
X71.151Y136.717
X71.129Y136.699
X71.108Y136.681
X71.087Y136.662
X71.067Y136.644
X71.047Y136.625
X71.027Y136.605
X71.007Y136.585
X70.988Y136.565
X70.969Y136.544
X70.94Y136.51
X70.913Y136.478
X70.897Y136.459
X70.881Y136.437
X70.864Y136.414
X70.848Y136.392
X70.832Y136.369
X70.816Y136.345
X70.802Y136.322
X70.785Y136.294
X70.773Y136.274
X70.759Y136.25
X70.746Y136.225
X70.721Y136.176
X70.709Y136.151
X70.697Y136.125
X70.686Y136.1
X70.675Y136.074
X70.665Y136.048
X70.646Y135.996
X70.637Y135.969
X70.63Y135.946
X70.621Y135.915
X70.613Y135.889
X70.606Y135.862
X70.6Y135.835
X70.594Y135.808
X70.588Y135.781
X70.583Y135.753
X70.579Y135.726
X70.575Y135.698
X70.571Y135.671
X70.568Y135.643
X70.565Y135.615
X70.563Y135.587
X70.561Y135.559
X70.56Y135.532
X70.559Y135.504
Y135.459
X70.56Y135.418
X70.561Y135.392
X70.563Y135.365
X70.565Y135.337
X70.567Y135.316
X70.571Y135.28
X70.575Y135.254
X70.579Y135.226
X70.583Y135.199
X70.588Y135.171
X70.594Y135.144
X70.6Y135.117
X70.606Y135.09
X70.613Y135.063
X70.621Y135.036
X70.629Y135.009
X70.637Y134.983
X70.646Y134.956
X70.655Y134.93
X70.665Y134.904
X70.677Y134.874
X70.686Y134.852
X70.697Y134.827
X70.709Y134.801
X70.721Y134.776
X70.733Y134.751
X70.746Y134.726
X70.76Y134.7
X70.773Y134.678
X70.787Y134.654
X70.802Y134.63
X70.816Y134.606
X70.832Y134.583
X70.848Y134.56
X70.882Y134.513
X70.909Y134.479
X70.934Y134.448
X70.951Y134.428
X70.969Y134.408
X71.007Y134.367
X71.027Y134.347
X71.046Y134.327
X71.08Y134.296
X71.11Y134.269
X71.129Y134.253
X71.151Y134.235
X71.173Y134.218
X71.195Y134.201
X71.217Y134.184
X71.24Y134.168
X71.266Y134.15
X71.286Y134.137
X71.309Y134.122
X71.333Y134.107
X71.357Y134.093
X71.382Y134.079
X71.406Y134.066
G0Z1
X85.54Y135.461
G1Z-0.45F50
X85.557Y135.285F100
X85.609Y135.116
X85.692Y134.96
X85.804Y134.823
X85.941Y134.711
X86.096Y134.628
X86.266Y134.577
X86.441Y134.559
X86.617Y134.577
X86.786Y134.628
X86.942Y134.711
X87.079Y134.823
X87.191Y134.96
X87.274Y135.116
X87.325Y135.285
X87.343Y135.461
X87.325Y135.636
X87.274Y135.805
X87.191Y135.961
X87.079Y136.098
X86.942Y136.21
X86.786Y136.293
X86.617Y136.344
X86.441Y136.362
X86.266Y136.344
X86.096Y136.293
X85.941Y136.21
X85.804Y136.098
X85.692Y135.961
X85.609Y135.805
X85.557Y135.636
X85.54Y135.461
G0Z1
X101.444
G1Z-0.45F50
X101.461Y135.285F100
X101.513Y135.116
X101.596Y134.96
X101.708Y134.823
X101.845Y134.711
X102Y134.628
X102.169Y134.577
X102.345Y134.559
X102.521Y134.577
X102.69Y134.628
X102.846Y134.711
X102.983Y134.823
X103.095Y134.96
X103.178Y135.116
X103.229Y135.285
X103.247Y135.461
X103.229Y135.636
X103.178Y135.805
X103.095Y135.961
X102.983Y136.098
X102.846Y136.21
X102.69Y136.293
X102.521Y136.344
X102.345Y136.362
X102.169Y136.344
X102Y136.293
X101.845Y136.21
X101.708Y136.098
X101.596Y135.961
X101.513Y135.805
X101.461Y135.636
X101.444Y135.461
G0Z1
X104.947Y127.535
G1Z-0.45F50
X78.492F100
X77.838Y127.541
X77.185Y127.557
X76.531Y127.585
X75.878Y127.623
X75.226Y127.672
X74.575Y127.732
X73.925Y127.802
X73.276Y127.884
X72.628Y127.976
X71.982Y128.079
X71.338Y128.193
X70.695Y128.317
X70.572Y128.344
X70.448Y128.372
X70.325Y128.403
X70.203Y128.436
X70.082Y128.471
X69.96Y128.508
X69.84Y128.547
X69.72Y128.588
X69.601Y128.631
X69.483Y128.676
X69.366Y128.724
X69.249Y128.773
X69.134Y128.824
X69.019Y128.878
X68.905Y128.933
X68.792Y128.99
X68.68Y129.05
X68.57Y129.111
X68.46Y129.174
X68.351Y129.239
X68.244Y129.306
X68.137Y129.374
X68.032Y129.445
X67.928Y129.517
X67.826Y129.591
X67.724Y129.667
X67.624Y129.745
X67.526Y129.824
X67.429Y129.905
X67.333Y129.988
X67.238Y130.072
X67.146Y130.158
X67.054Y130.246
X66.964Y130.335
X66.876Y130.426
X66.789Y130.518
X66.704Y130.612
X66.621Y130.707
X66.539Y130.804
X66.439Y130.926
X66.341Y131.05
X66.246Y131.175
X66.152Y131.302
X66.06Y131.431
X65.971Y131.562
X65.884Y131.694
X65.8Y131.827
X65.717Y131.962
X65.637Y132.098
X65.559Y132.235
X65.484Y132.374
X65.411Y132.514
X65.341Y132.656
X65.273Y132.798
X65.207Y132.942
X65.144Y133.086
X65.083Y133.232
X65.025Y133.379
X64.969Y133.527
X64.916Y133.676
X64.866Y133.825
X64.818Y133.976
X64.772Y134.127
X64.729Y134.279
X64.689Y134.432
X64.652Y134.585
X64.617Y134.739
X64.584Y134.894
X64.555Y135.049
X64.528Y135.205
X64.503Y135.361
X64.482Y135.517
X64.463Y135.674
X64.447Y135.831
X64.433Y135.989
X64.422Y136.146
X64.414Y136.304
X64.409Y136.462
X64.406Y136.62
Y136.778
X64.409Y136.936
X64.414Y137.093
X64.422Y137.251
X64.433Y137.409
X64.446Y137.566
X64.463Y137.723
X64.481Y137.88
X64.501Y138.023
X64.92Y140.914
X64.934Y140.989
X64.951Y141.066
X64.97Y141.141
X64.991Y141.215
X65.015Y141.288
X65.042Y141.361
X65.072Y141.433
X65.103Y141.504
X65.137Y141.573
X65.174Y141.642
X65.213Y141.708
X65.254Y141.774
X65.298Y141.838
X65.343Y141.901
X65.392Y141.962
X65.441Y142.021
X65.493Y142.078
X65.548Y142.135
X65.602Y142.187
X65.661Y142.239
