(Created with grbl post processor 2025/01/12 12:43)
G21
(G-code generated with BlenderCAM and NC library)
G17G90
(Tool: D = 3.18 mm  type END flutes 2)
S1000M03
G00 Z1.0

G0X0Y0Z1
X1.985Y166.589
G1Z-0.1F50
X268.806F100
Y166.911
X1.985Y166.91
Y166.589
Z-0.2F50
X268.806F100
Y166.911
X1.985Y166.91
Y166.589
Z-0.3F50
X268.806F100
Y166.911
X1.985Y166.91
Y166.589
Z-0.4F50
X268.806F100
Y166.911
X1.985Y166.91
Y166.589
Z-0.5F50
X268.806F100
Y166.911
X1.985Y166.91
Y166.589
Z-0.6F50
X268.806F100
Y166.911
X1.985Y166.91
Y166.589
Z-0.7F50
X268.806F100
Y166.911
X1.985Y166.91
Y166.589
Z-0.8F50
X268.806F100
Y166.911
X1.985Y166.91
Y166.589
Z-0.9F50
X268.806F100
Y166.911
X1.985Y166.91
Y166.589
Z-1F50
X268.806F100
Y166.911
X1.985Y166.91
Y166.589
Z-1.1F50
X268.806F100
Y166.911
X1.985Y166.91
Y166.589
Z-1.2F50
X268.806F100
Y166.911
X1.985Y166.91
Y166.589
Z-1.3F50
X268.806F100
Y166.911
X1.985Y166.91
Y166.589
G0Z1
 
