(Created with grbl post processor 2025/01/01 12:05)
G21
(G-code generated with BlenderCAM and NC library)
G17G90
(Tool: D = 3.18 mm  type END flutes 2)
S1000M03
G00 Z1.0

G0X0Y0Z1
X176.118Y73.007
G1Z-0.1F50
X176.135Y72.969F100
X176.145Y72.946
X176.157Y72.921
X176.169Y72.896
X176.182Y72.871
X176.196Y72.847
X176.208Y72.824
X176.224Y72.798
X176.254Y72.749
X176.268Y72.728
X176.284Y72.705
X176.3Y72.682
X176.317Y72.66
X176.333Y72.638
X176.369Y72.594
X176.387Y72.573
X176.406Y72.552
X176.435Y72.52
X176.465Y72.49
X176.483Y72.472
X176.503Y72.453
X176.524Y72.434
X176.545Y72.416
X176.566Y72.397
X176.587Y72.38
X176.609Y72.362
X176.631Y72.345
X176.654Y72.329
X176.676Y72.313
X176.714Y72.287
X176.748Y72.265
X176.794Y72.238
X176.818Y72.224
X176.843Y72.211
X176.867Y72.198
X176.892Y72.186
X176.92Y72.172
X176.943Y72.162
X176.968Y72.151
X176.994Y72.14
X177.02Y72.13
X177.046Y72.12
X177.072Y72.111
X177.125Y72.094
X177.152Y72.086
X177.179Y72.078
X177.206Y72.071
X177.26Y72.059
X177.287Y72.053
X177.315Y72.048
X177.342Y72.044
X177.37Y72.039
X177.397Y72.036
X177.425Y72.033
X177.457Y72.03
X177.481Y72.028
X177.536Y72.025
X177.564Y72.024
X177.592
X177.62
X177.648Y72.025
X177.704Y72.028
X177.731Y72.03
X177.759Y72.033
X177.787Y72.036
X177.814Y72.039
X177.842Y72.044
X177.869Y72.048
X177.897Y72.053
X177.951Y72.065
X177.978Y72.071
X178.005Y72.078
X178.032Y72.086
X178.059Y72.094
X178.085Y72.102
X178.112Y72.111
X178.138Y72.12
X178.164Y72.13
X178.19Y72.14
X178.216Y72.151
X178.241Y72.162
X178.267Y72.174
X178.292Y72.186
X178.317Y72.198
X178.342Y72.211
X178.366Y72.224
X178.386Y72.235
X178.416Y72.253
X178.438Y72.267
X178.462Y72.282
X178.485Y72.297
X178.508Y72.313
X178.531Y72.329
X178.553Y72.345
X178.575Y72.362
X178.597Y72.38
X178.618Y72.397
X178.64Y72.416
X178.661Y72.434
X178.701Y72.472
X178.721Y72.492
X178.741Y72.511
X178.76Y72.532
X178.779Y72.552
X178.797Y72.573
X178.815Y72.594
X178.833Y72.616
X178.85Y72.637
X178.867Y72.66
X178.884Y72.682
X178.9Y72.705
X178.916Y72.728
X178.931Y72.751
X178.946Y72.775
X178.961Y72.798
X178.975Y72.822
X178.989Y72.847
X179.002Y72.871
X179.015Y72.896
X179.027Y72.921
X179.039Y72.946
X179.051Y72.971
X179.062Y72.997
X179.072Y73.022
X179.083Y73.049
X179.092Y73.075
X179.102Y73.101
X179.111Y73.127
X179.119Y73.154
X179.127Y73.18
X179.134Y73.206
X179.141Y73.235
X179.148Y73.261
X179.154Y73.289
X179.159Y73.316
X179.164Y73.343
X179.169Y73.371
X179.173Y73.398
X179.177Y73.426
X179.18Y73.454
X179.183Y73.481
X179.185Y73.509
X179.187Y73.537
X179.188Y73.565
Y73.593
X179.189Y73.621
X179.188Y73.649
Y73.676
X179.187Y73.704
X179.185Y73.732
X179.183Y73.76
X179.18Y73.788
X179.177Y73.815
X179.173Y73.843
X179.169Y73.871
X179.164Y73.898
X179.159Y73.925
X179.154Y73.953
X179.148Y73.98
X179.141Y74.007
X179.134Y74.034
X179.127Y74.061
X179.119Y74.087
X179.111Y74.114
X179.102Y74.141
X179.092Y74.167
X179.083Y74.193
X179.072Y74.219
X179.062Y74.245
X179.051Y74.27
X179.039Y74.295
X179.027Y74.321
X179.015Y74.345
X179.002Y74.37
X178.989Y74.395
X178.975Y74.419
X178.961Y74.443
X178.946Y74.467
X178.931Y74.49
X178.916Y74.513
X178.9Y74.537
X178.884Y74.559
X178.867Y74.581
X178.85Y74.604
X178.833Y74.625
X178.815Y74.647
X178.797Y74.668
X178.779Y74.689
X178.76Y74.709
X178.741Y74.73
X178.721Y74.75
X178.701Y74.769
X178.681Y74.788
X178.661Y74.807
X178.64Y74.825
X178.618Y74.844
X178.597Y74.862
X178.575Y74.879
X178.553Y74.896
X178.531Y74.912
X178.508Y74.928
X178.485Y74.944
X178.462Y74.96
X178.438Y74.975
X178.415Y74.989
X178.391Y75.003
X178.366Y75.017
X178.342Y75.03
X178.317Y75.043
X178.292Y75.056
X178.267Y75.068
X178.241Y75.079
X178.216Y75.09
X178.19Y75.101
X178.164Y75.111
X178.138Y75.121
X178.112Y75.13
X178.085Y75.139
X178.059Y75.147
X178.032Y75.155
X178.005Y75.163
X177.978Y75.17
X177.951Y75.176
X177.924Y75.182
X177.897Y75.188
X177.869Y75.193
X177.842Y75.198
X177.814Y75.202
X177.787Y75.205
X177.759Y75.208
X177.731Y75.211
X177.703Y75.213
X177.676Y75.215
X177.648Y75.216
X177.62Y75.217
X177.573
X177.534Y75.216
X177.509Y75.215
X177.481Y75.213
X177.453Y75.211
X177.396Y75.205
X177.37Y75.202
X177.342Y75.198
X177.315Y75.193
X177.287Y75.188
X177.26Y75.182
X177.233Y75.176
X177.206Y75.17
X177.179Y75.163
X177.152Y75.155
X177.125Y75.147
X177.099Y75.139
X177.072Y75.13
X177.046Y75.121
X177.02Y75.111
X176.994Y75.101
X176.968Y75.09
X176.943Y75.079
X176.892Y75.056
X176.867Y75.043
X176.818Y75.017
X176.794Y75.003
X176.77Y74.989
X176.746Y74.975
X176.723Y74.96
X176.676Y74.928
X176.654Y74.912
X176.631Y74.896
X176.609Y74.879
X176.587Y74.861
X176.566Y74.844
X176.545Y74.826
X176.524Y74.807
X176.503Y74.788
X176.483Y74.769
X176.463Y74.75
X176.444Y74.73
X176.424Y74.709
X176.406Y74.689
X176.387Y74.668
X176.369Y74.647
X176.351Y74.625
X176.334Y74.604
X176.317Y74.581
X176.3Y74.559
X176.284Y74.536
X176.268Y74.513
X176.253Y74.49
X176.229Y74.452
X176.207Y74.414
X176.196Y74.394
X176.182Y74.37
X176.169Y74.345
X176.157Y74.321
X176.145Y74.296
X176.133Y74.27
X176.122Y74.244
X176.112Y74.219
X176.102Y74.193
X176.092Y74.167
X176.082Y74.14
X176.074Y74.114
X176.065Y74.087
X176.057Y74.061
X176.05Y74.034
X176.043Y74.007
X176.036Y73.98
X176.025Y73.925
X176.02Y73.898
X176.015Y73.87
X176.011Y73.843
X176.007Y73.815
X176.004Y73.788
X176.002Y73.76
X175.999Y73.732
X175.998Y73.704
X175.996Y73.676
X175.995Y73.621
X175.996Y73.599
Y73.563
X175.998Y73.537
X175.999Y73.509
X176.002Y73.481
X176.004Y73.454
X176.007Y73.426
X176.011Y73.398
X176.015Y73.371
X176.02Y73.343
X176.025Y73.316
X176.03Y73.289
X176.036Y73.261
X176.043Y73.234
X176.05Y73.207
X176.057Y73.18
X176.065Y73.154
X176.074Y73.127
X176.082Y73.101
X176.092Y73.075
X176.102Y73.048
X176.118Y73.007
G0Z1
X190.977Y73.605
G1Z-0.1F50
X190.994Y73.429F100
X191.045Y73.26
X191.128Y73.104
X191.24Y72.968
X191.377Y72.856
X191.533Y72.772
X191.702Y72.721
X191.878Y72.704
X192.054Y72.721
X192.223Y72.772
X192.379Y72.856
X192.515Y72.968
X192.627Y73.104
X192.711Y73.26
X192.762Y73.429
X192.779Y73.605
X192.762Y73.781
X192.711Y73.95
X192.627Y74.106
X192.515Y74.243
X192.379Y74.355
X192.223Y74.438
X192.054Y74.489
X191.878Y74.506
X191.702Y74.489
X191.533Y74.438
X191.377Y74.355
X191.24Y74.242
X191.128Y74.106
X191.045Y73.95
X190.994Y73.781
X190.977Y73.605
G0Z1
X206.88
G1Z-0.1F50
X206.898Y73.429F100
X206.949Y73.26
X207.032Y73.104
X207.144Y72.968
X207.281Y72.856
X207.437Y72.772
X207.606Y72.721
X207.782Y72.704
X207.958Y72.721
X208.127Y72.772
X208.282Y72.856
X208.419Y72.968
X208.531Y73.104
X208.614Y73.26
X208.666Y73.429
X208.683Y73.605
X208.666Y73.781
X208.614Y73.95
X208.531Y74.106
X208.419Y74.242
X208.282Y74.355
X208.127Y74.438
X207.958Y74.489
X207.782Y74.506
X207.606Y74.489
X207.437Y74.438
X207.281Y74.355
X207.144Y74.242
X207.032Y74.106
X206.949Y73.95
X206.898Y73.781
X206.88Y73.605
G0Z1
X210.383Y65.68
G1Z-0.1F50
X183.929F100
X183.275Y65.685
X182.621Y65.702
X181.968Y65.729
X181.315Y65.767
X180.662Y65.816
X180.011Y65.876
X179.361Y65.947
X178.712Y66.029
X178.064Y66.121
X177.419Y66.224
X176.774Y66.338
X176.132Y66.462
X176.008Y66.488
X175.884Y66.517
X175.762Y66.548
X175.64Y66.58
X175.518Y66.615
X175.397Y66.652
X175.277Y66.691
X175.157Y66.732
X175.038Y66.776
X174.92Y66.821
X174.802Y66.868
X174.686Y66.918
X174.57Y66.969
X174.455Y67.022
X174.341Y67.078
X174.228Y67.135
X174.117Y67.194
X174.006Y67.255
X173.896Y67.318
X173.787Y67.383
X173.68Y67.45
X173.574Y67.519
X173.469Y67.589
X173.365Y67.662
X173.262Y67.736
X173.161Y67.812
X173.061Y67.89
X172.962Y67.969
X172.865Y68.05
X172.769Y68.133
X172.675Y68.217
X172.582Y68.303
X172.491Y68.391
X172.401Y68.48
X172.313Y68.57
X172.226Y68.663
X172.141Y68.756
X172.057Y68.852
X171.976Y68.948
X171.876Y69.07
X171.778Y69.194
X171.682Y69.319
X171.588Y69.447
X171.497Y69.576
X171.408Y69.706
X171.321Y69.838
X171.236Y69.971
X171.154Y70.106
X171.074Y70.242
X170.996Y70.38
X170.921Y70.519
X170.848Y70.659
X170.777Y70.8
X170.709Y70.943
X170.643Y71.086
X170.58Y71.231
X170.52Y71.377
X170.461Y71.524
X170.406Y71.672
X170.352Y71.82
X170.302Y71.97
X170.254Y72.121
X170.209Y72.272
X170.166Y72.424
X170.126Y72.577
X170.088Y72.73
X170.053Y72.884
X170.021Y73.039
X169.991Y73.194
X169.964Y73.349
X169.94Y73.506
X169.918Y73.662
X169.899Y73.819
X169.883Y73.976
X169.87Y74.133
X169.859Y74.291
X169.851Y74.448
X169.845Y74.606
X169.842Y74.764
Y74.922
X169.845Y75.08
X169.85Y75.238
X169.858Y75.396
X169.869Y75.553
X169.883Y75.711
X169.899Y75.868
X169.918Y76.025
X169.937Y76.168
X170.357Y79.059
X170.37Y79.134
X170.387Y79.211
X170.406Y79.286
X170.428Y79.359
X170.452Y79.433
X170.479Y79.506
X170.508Y79.578
X170.54Y79.648
X170.574Y79.718
X170.611Y79.786
X170.649Y79.852
X170.691Y79.919
X170.734Y79.983
X170.78Y80.045
X170.828Y80.107
X170.877Y80.165
X170.93Y80.223
X170.984Y80.278
X171.039Y80.332
X171.097Y80.384
X171.157Y80.433
X171.218Y80.481
X171.281Y80.527
X171.344Y80.569
X171.411Y80.611
X171.477Y80.649
X171.546Y80.685
X171.616Y80.72
X171.686Y80.75
X171.759Y80.78
X171.831Y80.806
X171.905Y80.83
X171.979Y80.851
X172.055Y80.87
X172.13Y80.886
X172.207Y80.899
X172.284Y80.91
X172.36Y80.918
X172.438Y80.924
X172.515Y80.926
X172.554Y80.927
X177.605
X177.721Y80.925
X177.838Y80.922
X177.955Y80.918
X178.072Y80.911
X179.327Y80.82
X180.48Y80.756
X181.633Y80.71
X182.788Y80.682
X183.948Y80.673
X187.501
X187.539Y80.676
X187.578Y80.678
X187.616Y80.68
X187.654
X215.654
X215.694
X215.733Y80.678
X215.773Y80.676
X215.813Y80.672
X215.852Y80.668
X215.891Y80.662
X215.931Y80.656
X215.97Y80.648
X216.009Y80.64
X216.048Y80.631
X216.086Y80.62
X216.124Y80.609
X216.162Y80.597
X216.199Y80.584
X216.237Y80.569
X216.273Y80.554
X216.31Y80.539
X216.346Y80.522
X216.381Y80.504
X216.417Y80.485
X216.451Y80.466
X216.486Y80.445
X216.52Y80.423
X216.554Y80.401
X216.587Y80.378
X216.62Y80.353
X216.652Y80.328
X216.683Y80.303
X216.698Y80.29
X216.727Y80.263
X216.749Y80.243
X216.771Y80.222
X216.799Y80.193
X216.827Y80.164
X216.859Y80.128
X216.89Y80.091
X216.911Y80.064
X216.933Y80.036
X216.953Y80.007
X216.974Y79.978
X216.993Y79.948
X217.012Y79.918
X217.029Y79.89
X217.045Y79.861
X217.061Y79.832
X217.08Y79.795
X217.098Y79.757
X217.111Y79.728
X217.124Y79.698
X217.14Y79.658
X217.148Y79.636
X217.162Y79.596
X217.175Y79.555
X217.187Y79.513
X217.199Y79.471
X217.208Y79.428
X217.217Y79.388
X217.224Y79.347
X217.231Y79.296
X217.238Y79.24
X217.241Y79.206
X217.243Y79.172
X217.244Y79.139
X217.245Y79.089
Y78.857
X217.256Y78.795
X217.266Y78.719
X217.275Y78.64
X217.28Y78.563
X217.283Y78.485
Y78.447
Y67.613
Y67.574
X217.281Y67.534
X217.279Y67.495
X217.275Y67.455
X217.271Y67.416
X217.266Y67.377
X217.259Y67.338
X217.252Y67.299
X217.245Y67.266
X217.244Y67.224
X217.241Y67.181
X217.238Y67.138
X217.233Y67.095
X217.227Y67.052
X217.22Y67.01
X217.212Y66.968
X217.203Y66.925
X217.192Y66.884
X217.183Y66.849
X217.173Y66.815
X217.162Y66.781
X217.15Y66.747
X217.137Y66.713
X217.12Y66.672
X217.102Y66.631
X217.083Y66.591
X217.061Y66.547
X217.045Y66.517
X217.028Y66.488
X217.007Y66.452
X216.984Y66.416
X216.962Y66.384
X216.94Y66.353
X216.917Y66.322
X216.893Y66.291
X216.869Y66.262
X216.843Y66.232
X216.818Y66.204
X216.791Y66.176
X216.764Y66.149
X216.736Y66.122
X216.707Y66.096
X216.678Y66.071
X216.648Y66.047
X216.618Y66.023
X216.587Y66
X216.555Y65.978
X216.523Y65.956
X216.49Y65.936
X216.457Y65.916
X216.424Y65.897
X216.389Y65.878
X216.355Y65.861
X216.32Y65.844
X216.286Y65.829
X216.25Y65.814
X216.215Y65.8
X216.179Y65.787
X216.143Y65.775
X216.106Y65.764
X216.069Y65.753
X216.032Y65.744
X215.995Y65.735
X215.958Y65.727
X215.92Y65.72
X215.882Y65.715
X215.845Y65.709
X215.807Y65.705
X215.768Y65.702
X215.73Y65.7
X215.692Y65.698
X215.654
X211.718
X211.128Y65.685
X210.383Y65.68
G0Z1
X176.118Y73.007
G1Z-0.2F50
X176.135Y72.969F100
X176.145Y72.946
X176.157Y72.921
X176.169Y72.896
X176.182Y72.871
X176.196Y72.847
X176.208Y72.824
X176.224Y72.798
X176.254Y72.749
X176.268Y72.728
X176.284Y72.705
X176.3Y72.682
X176.317Y72.66
X176.333Y72.638
X176.369Y72.594
X176.387Y72.573
X176.406Y72.552
X176.435Y72.52
X176.465Y72.49
X176.483Y72.472
X176.503Y72.453
X176.524Y72.434
X176.545Y72.416
X176.566Y72.397
X176.587Y72.38
X176.609Y72.362
X176.631Y72.345
X176.654Y72.329
X176.676Y72.313
X176.714Y72.287
X176.748Y72.265
X176.794Y72.238
X176.818Y72.224
X176.843Y72.211
X176.867Y72.198
X176.892Y72.186
X176.92Y72.172
X176.943Y72.162
X176.968Y72.151
X176.994Y72.14
X177.02Y72.13
X177.046Y72.12
X177.072Y72.111
X177.125Y72.094
X177.152Y72.086
X177.179Y72.078
X177.206Y72.071
X177.26Y72.059
X177.287Y72.053
X177.315Y72.048
X177.342Y72.044
X177.37Y72.039
X177.397Y72.036
X177.425Y72.033
X177.457Y72.03
X177.481Y72.028
X177.536Y72.025
X177.564Y72.024
X177.592
X177.62
X177.648Y72.025
X177.704Y72.028
X177.731Y72.03
X177.759Y72.033
X177.787Y72.036
X177.814Y72.039
X177.842Y72.044
X177.869Y72.048
X177.897Y72.053
X177.951Y72.065
X177.978Y72.071
X178.005Y72.078
X178.032Y72.086
X178.059Y72.094
X178.085Y72.102
X178.112Y72.111
X178.138Y72.12
X178.164Y72.13
X178.19Y72.14
X178.216Y72.151
X178.241Y72.162
X178.267Y72.174
X178.292Y72.186
X178.317Y72.198
X178.342Y72.211
X178.366Y72.224
X178.386Y72.235
X178.416Y72.253
X178.438Y72.267
X178.462Y72.282
X178.485Y72.297
X178.508Y72.313
X178.531Y72.329
X178.553Y72.345
X178.575Y72.362
X178.597Y72.38
X178.618Y72.397
X178.64Y72.416
X178.661Y72.434
X178.701Y72.472
X178.721Y72.492
X178.741Y72.511
X178.76Y72.532
X178.779Y72.552
X178.797Y72.573
X178.815Y72.594
X178.833Y72.616
X178.85Y72.637
X178.867Y72.66
X178.884Y72.682
X178.9Y72.705
X178.916Y72.728
X178.931Y72.751
X178.946Y72.775
X178.961Y72.798
X178.975Y72.822
X178.989Y72.847
X179.002Y72.871
X179.015Y72.896
X179.027Y72.921
X179.039Y72.946
X179.051Y72.971
X179.062Y72.997
X179.072Y73.022
X179.083Y73.049
X179.092Y73.075
X179.102Y73.101
X179.111Y73.127
X179.119Y73.154
X179.127Y73.18
X179.134Y73.206
X179.141Y73.235
X179.148Y73.261
X179.154Y73.289
X179.159Y73.316
X179.164Y73.343
X179.169Y73.371
X179.173Y73.398
X179.177Y73.426
X179.18Y73.454
X179.183Y73.481
X179.185Y73.509
X179.187Y73.537
X179.188Y73.565
Y73.593
X179.189Y73.621
X179.188Y73.649
Y73.676
X179.187Y73.704
X179.185Y73.732
X179.183Y73.76
X179.18Y73.788
X179.177Y73.815
X179.173Y73.843
X179.169Y73.871
X179.164Y73.898
X179.159Y73.925
X179.154Y73.953
X179.148Y73.98
X179.141Y74.007
X179.134Y74.034
X179.127Y74.061
X179.119Y74.087
X179.111Y74.114
X179.102Y74.141
X179.092Y74.167
X179.083Y74.193
X179.072Y74.219
X179.062Y74.245
X179.051Y74.27
X179.039Y74.295
X179.027Y74.321
X179.015Y74.345
X179.002Y74.37
X178.989Y74.395
X178.975Y74.419
X178.961Y74.443
X178.946Y74.467
X178.931Y74.49
X178.916Y74.513
X178.9Y74.537
X178.884Y74.559
X178.867Y74.581
X178.85Y74.604
X178.833Y74.625
X178.815Y74.647
X178.797Y74.668
X178.779Y74.689
X178.76Y74.709
X178.741Y74.73
X178.721Y74.75
X178.701Y74.769
X178.681Y74.788
X178.661Y74.807
X178.64Y74.825
X178.618Y74.844
X178.597Y74.862
X178.575Y74.879
X178.553Y74.896
X178.531Y74.912
X178.508Y74.928
X178.485Y74.944
X178.462Y74.96
X178.438Y74.975
X178.415Y74.989
X178.391Y75.003
X178.366Y75.017
X178.342Y75.03
X178.317Y75.043
X178.292Y75.056
X178.267Y75.068
X178.241Y75.079
X178.216Y75.09
X178.19Y75.101
X178.164Y75.111
X178.138Y75.121
X178.112Y75.13
X178.085Y75.139
X178.059Y75.147
X178.032Y75.155
X178.005Y75.163
X177.978Y75.17
X177.951Y75.176
X177.924Y75.182
X177.897Y75.188
X177.869Y75.193
X177.842Y75.198
X177.814Y75.202
X177.787Y75.205
X177.759Y75.208
X177.731Y75.211
X177.703Y75.213
X177.676Y75.215
X177.648Y75.216
X177.62Y75.217
X177.573
X177.534Y75.216
X177.509Y75.215
X177.481Y75.213
X177.453Y75.211
X177.396Y75.205
X177.37Y75.202
X177.342Y75.198
X177.315Y75.193
X177.287Y75.188
X177.26Y75.182
X177.233Y75.176
X177.206Y75.17
X177.179Y75.163
X177.152Y75.155
X177.125Y75.147
X177.099Y75.139
X177.072Y75.13
X177.046Y75.121
X177.02Y75.111
X176.994Y75.101
X176.968Y75.09
X176.943Y75.079
X176.892Y75.056
X176.867Y75.043
X176.818Y75.017
X176.794Y75.003
X176.77Y74.989
X176.746Y74.975
X176.723Y74.96
X176.676Y74.928
X176.654Y74.912
X176.631Y74.896
X176.609Y74.879
X176.587Y74.861
X176.566Y74.844
X176.545Y74.826
X176.524Y74.807
X176.503Y74.788
X176.483Y74.769
X176.463Y74.75
X176.444Y74.73
X176.424Y74.709
X176.406Y74.689
X176.387Y74.668
X176.369Y74.647
X176.351Y74.625
X176.334Y74.604
X176.317Y74.581
X176.3Y74.559
X176.284Y74.536
X176.268Y74.513
X176.253Y74.49
X176.229Y74.452
X176.207Y74.414
X176.196Y74.394
X176.182Y74.37
X176.169Y74.345
X176.157Y74.321
X176.145Y74.296
X176.133Y74.27
X176.122Y74.244
X176.112Y74.219
X176.102Y74.193
X176.092Y74.167
X176.082Y74.14
X176.074Y74.114
X176.065Y74.087
X176.057Y74.061
X176.05Y74.034
X176.043Y74.007
X176.036Y73.98
X176.025Y73.925
X176.02Y73.898
X176.015Y73.87
X176.011Y73.843
X176.007Y73.815
X176.004Y73.788
X176.002Y73.76
X175.999Y73.732
X175.998Y73.704
X175.996Y73.676
X175.995Y73.621
X175.996Y73.599
Y73.563
X175.998Y73.537
X175.999Y73.509
X176.002Y73.481
X176.004Y73.454
X176.007Y73.426
X176.011Y73.398
X176.015Y73.371
X176.02Y73.343
X176.025Y73.316
X176.03Y73.289
X176.036Y73.261
X176.043Y73.234
X176.05Y73.207
X176.057Y73.18
X176.065Y73.154
X176.074Y73.127
X176.082Y73.101
X176.092Y73.075
X176.102Y73.048
X176.118Y73.007
G0Z1
X190.977Y73.605
G1Z-0.2F50
X190.994Y73.429F100
X191.045Y73.26
X191.128Y73.104
X191.24Y72.968
X191.377Y72.856
X191.533Y72.772
X191.702Y72.721
X191.878Y72.704
X192.054Y72.721
X192.223Y72.772
X192.379Y72.856
X192.515Y72.968
X192.627Y73.104
X192.711Y73.26
X192.762Y73.429
X192.779Y73.605
X192.762Y73.781
X192.711Y73.95
X192.627Y74.106
X192.515Y74.243
X192.379Y74.355
X192.223Y74.438
X192.054Y74.489
X191.878Y74.506
X191.702Y74.489
X191.533Y74.438
X191.377Y74.355
X191.24Y74.242
X191.128Y74.106
X191.045Y73.95
X190.994Y73.781
X190.977Y73.605
G0Z1
X206.88
G1Z-0.2F50
X206.898Y73.429F100
X206.949Y73.26
X207.032Y73.104
X207.144Y72.968
X207.281Y72.856
X207.437Y72.772
X207.606Y72.721
X207.782Y72.704
X207.958Y72.721
X208.127Y72.772
X208.282Y72.856
X208.419Y72.968
X208.531Y73.104
X208.614Y73.26
X208.666Y73.429
X208.683Y73.605
X208.666Y73.781
X208.614Y73.95
X208.531Y74.106
X208.419Y74.242
X208.282Y74.355
X208.127Y74.438
X207.958Y74.489
X207.782Y74.506
X207.606Y74.489
X207.437Y74.438
X207.281Y74.355
X207.144Y74.242
X207.032Y74.106
X206.949Y73.95
X206.898Y73.781
X206.88Y73.605
G0Z1
X210.383Y65.68
G1Z-0.2F50
X183.929F100
X183.275Y65.685
X182.621Y65.702
X181.968Y65.729
X181.315Y65.767
X180.662Y65.816
X180.011Y65.876
X179.361Y65.947
X178.712Y66.029
X178.064Y66.121
X177.419Y66.224
X176.774Y66.338
X176.132Y66.462
X176.008Y66.488
X175.884Y66.517
X175.762Y66.548
X175.64Y66.58
X175.518Y66.615
X175.397Y66.652
X175.277Y66.691
X175.157Y66.732
X175.038Y66.776
X174.92Y66.821
X174.802Y66.868
X174.686Y66.918
X174.57Y66.969
X174.455Y67.022
X174.341Y67.078
X174.228Y67.135
X174.117Y67.194
X174.006Y67.255
X173.896Y67.318
X173.787Y67.383
X173.68Y67.45
X173.574Y67.519
X173.469Y67.589
X173.365Y67.662
X173.262Y67.736
X173.161Y67.812
X173.061Y67.89
X172.962Y67.969
X172.865Y68.05
X172.769Y68.133
X172.675Y68.217
X172.582Y68.303
X172.491Y68.391
X172.401Y68.48
X172.313Y68.57
X172.226Y68.663
X172.141Y68.756
X172.057Y68.852
X171.976Y68.948
X171.876Y69.07
X171.778Y69.194
X171.682Y69.319
X171.588Y69.447
X171.497Y69.576
X171.408Y69.706
X171.321Y69.838
X171.236Y69.971
X171.154Y70.106
X171.074Y70.242
X170.996Y70.38
X170.921Y70.519
X170.848Y70.659
X170.777Y70.8
X170.709Y70.943
X170.643Y71.086
X170.58Y71.231
X170.52Y71.377
X170.461Y71.524
X170.406Y71.672
X170.352Y71.82
X170.302Y71.97
X170.254Y72.121
X170.209Y72.272
X170.166Y72.424
X170.126Y72.577
X170.088Y72.73
X170.053Y72.884
X170.021Y73.039
X169.991Y73.194
X169.964Y73.349
X169.94Y73.506
X169.918Y73.662
X169.899Y73.819
X169.883Y73.976
X169.87Y74.133
X169.859Y74.291
X169.851Y74.448
X169.845Y74.606
X169.842Y74.764
Y74.922
X169.845Y75.08
X169.85Y75.238
X169.858Y75.396
X169.869Y75.553
X169.883Y75.711
X169.899Y75.868
X169.918Y76.025
X169.937Y76.168
X170.357Y79.059
X170.37Y79.134
X170.387Y79.211
X170.406Y79.286
X170.428Y79.359
X170.452Y79.433
X170.479Y79.506
X170.508Y79.578
X170.54Y79.648
X170.574Y79.718
X170.611Y79.786
X170.649Y79.852
X170.691Y79.919
X170.734Y79.983
X170.78Y80.045
X170.828Y80.107
X170.877Y80.165
X170.93Y80.223
X170.984Y80.278
X171.039Y80.332
X171.097Y80.384
X171.157Y80.433
X171.218Y80.481
X171.281Y80.527
X171.344Y80.569
X171.411Y80.611
X171.477Y80.649
X171.546Y80.685
X171.616Y80.72
X171.686Y80.75
X171.759Y80.78
X171.831Y80.806
X171.905Y80.83
X171.979Y80.851
X172.055Y80.87
X172.13Y80.886
X172.207Y80.899
X172.284Y80.91
X172.36Y80.918
X172.438Y80.924
X172.515Y80.926
X172.554Y80.927
X177.605
X177.721Y80.925
X177.838Y80.922
X177.955Y80.918
X178.072Y80.911
X179.327Y80.82
X180.48Y80.756
X181.633Y80.71
X182.788Y80.682
X183.948Y80.673
X187.501
X187.539Y80.676
X187.578Y80.678
X187.616Y80.68
X187.654
X215.654
X215.694
X215.733Y80.678
X215.773Y80.676
X215.813Y80.672
X215.852Y80.668
X215.891Y80.662
X215.931Y80.656
X215.97Y80.648
X216.009Y80.64
X216.048Y80.631
X216.086Y80.62
X216.124Y80.609
X216.162Y80.597
X216.199Y80.584
X216.237Y80.569
X216.273Y80.554
X216.31Y80.539
X216.346Y80.522
X216.381Y80.504
X216.417Y80.485
X216.451Y80.466
X216.486Y80.445
X216.52Y80.423
X216.554Y80.401
X216.587Y80.378
X216.62Y80.353
X216.652Y80.328
X216.683Y80.303
X216.698Y80.29
X216.727Y80.263
X216.749Y80.243
X216.771Y80.222
X216.799Y80.193
X216.827Y80.164
X216.859Y80.128
X216.89Y80.091
X216.911Y80.064
X216.933Y80.036
X216.953Y80.007
X216.974Y79.978
X216.993Y79.948
X217.012Y79.918
X217.029Y79.89
X217.045Y79.861
X217.061Y79.832
X217.08Y79.795
X217.098Y79.757
X217.111Y79.728
X217.124Y79.698
X217.14Y79.658
X217.148Y79.636
X217.162Y79.596
X217.175Y79.555
X217.187Y79.513
X217.199Y79.471
X217.208Y79.428
X217.217Y79.388
X217.224Y79.347
X217.231Y79.296
X217.238Y79.24
X217.241Y79.206
X217.243Y79.172
X217.244Y79.139
X217.245Y79.089
Y78.857
X217.256Y78.795
X217.266Y78.719
X217.275Y78.64
X217.28Y78.563
X217.283Y78.485
Y78.447
Y67.613
Y67.574
X217.281Y67.534
X217.279Y67.495
X217.275Y67.455
X217.271Y67.416
X217.266Y67.377
X217.259Y67.338
X217.252Y67.299
X217.245Y67.266
X217.244Y67.224
X217.241Y67.181
X217.238Y67.138
X217.233Y67.095
X217.227Y67.052
X217.22Y67.01
X217.212Y66.968
X217.203Y66.925
X217.192Y66.884
X217.183Y66.849
X217.173Y66.815
X217.162Y66.781
X217.15Y66.747
X217.137Y66.713
X217.12Y66.672
X217.102Y66.631
X217.083Y66.591
X217.061Y66.547
X217.045Y66.517
X217.028Y66.488
X217.007Y66.452
X216.984Y66.416
X216.962Y66.384
X216.94Y66.353
X216.917Y66.322
X216.893Y66.291
X216.869Y66.262
X216.843Y66.232
X216.818Y66.204
X216.791Y66.176
X216.764Y66.149
X216.736Y66.122
X216.707Y66.096
X216.678Y66.071
X216.648Y66.047
X216.618Y66.023
X216.587Y66
X216.555Y65.978
X216.523Y65.956
X216.49Y65.936
X216.457Y65.916
X216.424Y65.897
X216.389Y65.878
X216.355Y65.861
X216.32Y65.844
X216.286Y65.829
X216.25Y65.814
X216.215Y65.8
X216.179Y65.787
X216.143Y65.775
X216.106Y65.764
X216.069Y65.753
X216.032Y65.744
X215.995Y65.735
X215.958Y65.727
X215.92Y65.72
X215.882Y65.715
X215.845Y65.709
X215.807Y65.705
X215.768Y65.702
X215.73Y65.7
X215.692Y65.698
X215.654
X211.718
X211.128Y65.685
X210.383Y65.68
G0Z1
X176.118Y73.007
G1Z-0.3F50
X176.135Y72.969F100
X176.145Y72.946
X176.157Y72.921
X176.169Y72.896
X176.182Y72.871
X176.196Y72.847
X176.208Y72.824
X176.224Y72.798
X176.254Y72.749
X176.268Y72.728
X176.284Y72.705
X176.3Y72.682
X176.317Y72.66
X176.333Y72.638
X176.369Y72.594
X176.387Y72.573
X176.406Y72.552
X176.435Y72.52
X176.465Y72.49
X176.483Y72.472
X176.503Y72.453
X176.524Y72.434
X176.545Y72.416
X176.566Y72.397
X176.587Y72.38
X176.609Y72.362
X176.631Y72.345
X176.654Y72.329
X176.676Y72.313
X176.714Y72.287
X176.748Y72.265
X176.794Y72.238
X176.818Y72.224
X176.843Y72.211
X176.867Y72.198
X176.892Y72.186
X176.92Y72.172
X176.943Y72.162
X176.968Y72.151
X176.994Y72.14
X177.02Y72.13
X177.046Y72.12
X177.072Y72.111
X177.125Y72.094
X177.152Y72.086
X177.179Y72.078
X177.206Y72.071
X177.26Y72.059
X177.287Y72.053
X177.315Y72.048
X177.342Y72.044
X177.37Y72.039
X177.397Y72.036
X177.425Y72.033
X177.457Y72.03
X177.481Y72.028
X177.536Y72.025
X177.564Y72.024
X177.592
X177.62
X177.648Y72.025
X177.704Y72.028
X177.731Y72.03
X177.759Y72.033
X177.787Y72.036
X177.814Y72.039
X177.842Y72.044
X177.869Y72.048
X177.897Y72.053
X177.951Y72.065
X177.978Y72.071
X178.005Y72.078
X178.032Y72.086
X178.059Y72.094
X178.085Y72.102
X178.112Y72.111
X178.138Y72.12
X178.164Y72.13
X178.19Y72.14
X178.216Y72.151
X178.241Y72.162
X178.267Y72.174
X178.292Y72.186
X178.317Y72.198
X178.342Y72.211
X178.366Y72.224
X178.386Y72.235
X178.416Y72.253
X178.438Y72.267
X178.462Y72.282
X178.485Y72.297
X178.508Y72.313
X178.531Y72.329
X178.553Y72.345
X178.575Y72.362
X178.597Y72.38
X178.618Y72.397
X178.64Y72.416
X178.661Y72.434
X178.701Y72.472
X178.721Y72.492
X178.741Y72.511
X178.76Y72.532
X178.779Y72.552
X178.797Y72.573
X178.815Y72.594
X178.833Y72.616
X178.85Y72.637
X178.867Y72.66
X178.884Y72.682
X178.9Y72.705
X178.916Y72.728
X178.931Y72.751
X178.946Y72.775
X178.961Y72.798
X178.975Y72.822
X178.989Y72.847
X179.002Y72.871
X179.015Y72.896
X179.027Y72.921
X179.039Y72.946
X179.051Y72.971
X179.062Y72.997
X179.072Y73.022
X179.083Y73.049
X179.092Y73.075
X179.102Y73.101
X179.111Y73.127
X179.119Y73.154
X179.127Y73.18
X179.134Y73.206
X179.141Y73.235
X179.148Y73.261
X179.154Y73.289
X179.159Y73.316
X179.164Y73.343
X179.169Y73.371
X179.173Y73.398
X179.177Y73.426
X179.18Y73.454
X179.183Y73.481
X179.185Y73.509
X179.187Y73.537
X179.188Y73.565
Y73.593
X179.189Y73.621
X179.188Y73.649
Y73.676
X179.187Y73.704
X179.185Y73.732
X179.183Y73.76
X179.18Y73.788
X179.177Y73.815
X179.173Y73.843
X179.169Y73.871
X179.164Y73.898
X179.159Y73.925
X179.154Y73.953
X179.148Y73.98
X179.141Y74.007
X179.134Y74.034
X179.127Y74.061
X179.119Y74.087
X179.111Y74.114
X179.102Y74.141
X179.092Y74.167
X179.083Y74.193
X179.072Y74.219
X179.062Y74.245
X179.051Y74.27
X179.039Y74.295
X179.027Y74.321
X179.015Y74.345
X179.002Y74.37
X178.989Y74.395
X178.975Y74.419
X178.961Y74.443
X178.946Y74.467
X178.931Y74.49
X178.916Y74.513
X178.9Y74.537
X178.884Y74.559
X178.867Y74.581
X178.85Y74.604
X178.833Y74.625
X178.815Y74.647
X178.797Y74.668
X178.779Y74.689
X178.76Y74.709
X178.741Y74.73
X178.721Y74.75
X178.701Y74.769
X178.681Y74.788
X178.661Y74.807
X178.64Y74.825
X178.618Y74.844
X178.597Y74.862
X178.575Y74.879
X178.553Y74.896
X178.531Y74.912
X178.508Y74.928
X178.485Y74.944
X178.462Y74.96
X178.438Y74.975
X178.415Y74.989
X178.391Y75.003
X178.366Y75.017
X178.342Y75.03
X178.317Y75.043
X178.292Y75.056
X178.267Y75.068
X178.241Y75.079
X178.216Y75.09
X178.19Y75.101
X178.164Y75.111
X178.138Y75.121
X178.112Y75.13
X178.085Y75.139
X178.059Y75.147
X178.032Y75.155
X178.005Y75.163
X177.978Y75.17
X177.951Y75.176
X177.924Y75.182
X177.897Y75.188
X177.869Y75.193
X177.842Y75.198
X177.814Y75.202
X177.787Y75.205
X177.759Y75.208
X177.731Y75.211
X177.703Y75.213
X177.676Y75.215
X177.648Y75.216
X177.62Y75.217
X177.573
X177.534Y75.216
X177.509Y75.215
X177.481Y75.213
X177.453Y75.211
X177.396Y75.205
X177.37Y75.202
X177.342Y75.198
X177.315Y75.193
X177.287Y75.188
X177.26Y75.182
X177.233Y75.176
X177.206Y75.17
X177.179Y75.163
X177.152Y75.155
X177.125Y75.147
X177.099Y75.139
X177.072Y75.13
X177.046Y75.121
X177.02Y75.111
X176.994Y75.101
X176.968Y75.09
X176.943Y75.079
X176.892Y75.056
X176.867Y75.043
X176.818Y75.017
X176.794Y75.003
X176.77Y74.989
X176.746Y74.975
X176.723Y74.96
X176.676Y74.928
X176.654Y74.912
X176.631Y74.896
X176.609Y74.879
X176.587Y74.861
X176.566Y74.844
X176.545Y74.826
X176.524Y74.807
X176.503Y74.788
X176.483Y74.769
X176.463Y74.75
X176.444Y74.73
X176.424Y74.709
X176.406Y74.689
X176.387Y74.668
X176.369Y74.647
X176.351Y74.625
X176.334Y74.604
X176.317Y74.581
X176.3Y74.559
X176.284Y74.536
X176.268Y74.513
X176.253Y74.49
X176.229Y74.452
X176.207Y74.414
X176.196Y74.394
X176.182Y74.37
X176.169Y74.345
X176.157Y74.321
X176.145Y74.296
X176.133Y74.27
X176.122Y74.244
X176.112Y74.219
X176.102Y74.193
X176.092Y74.167
X176.082Y74.14
X176.074Y74.114
X176.065Y74.087
X176.057Y74.061
X176.05Y74.034
X176.043Y74.007
X176.036Y73.98
X176.025Y73.925
X176.02Y73.898
X176.015Y73.87
X176.011Y73.843
X176.007Y73.815
X176.004Y73.788
X176.002Y73.76
X175.999Y73.732
X175.998Y73.704
X175.996Y73.676
X175.995Y73.621
X175.996Y73.599
Y73.563
X175.998Y73.537
X175.999Y73.509
X176.002Y73.481
X176.004Y73.454
X176.007Y73.426
X176.011Y73.398
X176.015Y73.371
X176.02Y73.343
X176.025Y73.316
X176.03Y73.289
X176.036Y73.261
X176.043Y73.234
X176.05Y73.207
X176.057Y73.18
X176.065Y73.154
X176.074Y73.127
X176.082Y73.101
X176.092Y73.075
X176.102Y73.048
X176.118Y73.007
G0Z1
X190.977Y73.605
G1Z-0.3F50
X190.994Y73.429F100
X191.045Y73.26
X191.128Y73.104
X191.24Y72.968
X191.377Y72.856
X191.533Y72.772
X191.702Y72.721
X191.878Y72.704
X192.054Y72.721
X192.223Y72.772
X192.379Y72.856
X192.515Y72.968
X192.627Y73.104
X192.711Y73.26
X192.762Y73.429
X192.779Y73.605
X192.762Y73.781
X192.711Y73.95
X192.627Y74.106
X192.515Y74.243
X192.379Y74.355
X192.223Y74.438
X192.054Y74.489
X191.878Y74.506
X191.702Y74.489
X191.533Y74.438
X191.377Y74.355
X191.24Y74.242
X191.128Y74.106
X191.045Y73.95
X190.994Y73.781
X190.977Y73.605
G0Z1
X206.88
G1Z-0.3F50
X206.898Y73.429F100
X206.949Y73.26
X207.032Y73.104
X207.144Y72.968
X207.281Y72.856
X207.437Y72.772
X207.606Y72.721
X207.782Y72.704
X207.958Y72.721
X208.127Y72.772
X208.282Y72.856
X208.419Y72.968
X208.531Y73.104
X208.614Y73.26
X208.666Y73.429
X208.683Y73.605
X208.666Y73.781
X208.614Y73.95
X208.531Y74.106
X208.419Y74.242
X208.282Y74.355
X208.127Y74.438
X207.958Y74.489
X207.782Y74.506
X207.606Y74.489
X207.437Y74.438
X207.281Y74.355
X207.144Y74.242
X207.032Y74.106
X206.949Y73.95
X206.898Y73.781
X206.88Y73.605
G0Z1
X210.383Y65.68
G1Z-0.3F50
X183.929F100
X183.275Y65.685
X182.621Y65.702
X181.968Y65.729
X181.315Y65.767
X180.662Y65.816
X180.011Y65.876
X179.361Y65.947
X178.712Y66.029
X178.064Y66.121
X177.419Y66.224
X176.774Y66.338
X176.132Y66.462
X176.008Y66.488
X175.884Y66.517
X175.762Y66.548
X175.64Y66.58
X175.518Y66.615
X175.397Y66.652
X175.277Y66.691
X175.157Y66.732
X175.038Y66.776
X174.92Y66.821
X174.802Y66.868
X174.686Y66.918
X174.57Y66.969
X174.455Y67.022
X174.341Y67.078
X174.228Y67.135
X174.117Y67.194
X174.006Y67.255
X173.896Y67.318
X173.787Y67.383
X173.68Y67.45
X173.574Y67.519
X173.469Y67.589
X173.365Y67.662
X173.262Y67.736
X173.161Y67.812
X173.061Y67.89
X172.962Y67.969
X172.865Y68.05
X172.769Y68.133
X172.675Y68.217
X172.582Y68.303
X172.491Y68.391
X172.401Y68.48
X172.313Y68.57
X172.226Y68.663
X172.141Y68.756
X172.057Y68.852
X171.976Y68.948
X171.876Y69.07
X171.778Y69.194
X171.682Y69.319
X171.588Y69.447
X171.497Y69.576
X171.408Y69.706
X171.321Y69.838
X171.236Y69.971
X171.154Y70.106
X171.074Y70.242
X170.996Y70.38
X170.921Y70.519
X170.848Y70.659
X170.777Y70.8
X170.709Y70.943
X170.643Y71.086
X170.58Y71.231
X170.52Y71.377
X170.461Y71.524
X170.406Y71.672
X170.352Y71.82
X170.302Y71.97
X170.254Y72.121
X170.209Y72.272
X170.166Y72.424
X170.126Y72.577
X170.088Y72.73
X170.053Y72.884
X170.021Y73.039
X169.991Y73.194
X169.964Y73.349
X169.94Y73.506
X169.918Y73.662
X169.899Y73.819
X169.883Y73.976
X169.87Y74.133
X169.859Y74.291
X169.851Y74.448
X169.845Y74.606
X169.842Y74.764
Y74.922
X169.845Y75.08
X169.85Y75.238
X169.858Y75.396
X169.869Y75.553
X169.883Y75.711
X169.899Y75.868
X169.918Y76.025
X169.937Y76.168
X170.357Y79.059
X170.37Y79.134
X170.387Y79.211
X170.406Y79.286
X170.428Y79.359
X170.452Y79.433
X170.479Y79.506
X170.508Y79.578
X170.54Y79.648
X170.574Y79.718
X170.611Y79.786
X170.649Y79.852
X170.691Y79.919
X170.734Y79.983
X170.78Y80.045
X170.828Y80.107
X170.877Y80.165
X170.93Y80.223
X170.984Y80.278
X171.039Y80.332
X171.097Y80.384
X171.157Y80.433
X171.218Y80.481
X171.281Y80.527
X171.344Y80.569
X171.411Y80.611
X171.477Y80.649
X171.546Y80.685
X171.616Y80.72
X171.686Y80.75
X171.759Y80.78
X171.831Y80.806
X171.905Y80.83
X171.979Y80.851
X172.055Y80.87
X172.13Y80.886
X172.207Y80.899
X172.284Y80.91
X172.36Y80.918
X172.438Y80.924
X172.515Y80.926
X172.554Y80.927
X177.605
X177.721Y80.925
X177.838Y80.922
X177.955Y80.918
X178.072Y80.911
X179.327Y80.82
X180.48Y80.756
X181.633Y80.71
X182.788Y80.682
X183.948Y80.673
X187.501
X187.539Y80.676
X187.578Y80.678
X187.616Y80.68
X187.654
X215.654
X215.694
X215.733Y80.678
X215.773Y80.676
X215.813Y80.672
X215.852Y80.668
X215.891Y80.662
X215.931Y80.656
X215.97Y80.648
X216.009Y80.64
X216.048Y80.631
X216.086Y80.62
X216.124Y80.609
X216.162Y80.597
X216.199Y80.584
X216.237Y80.569
X216.273Y80.554
X216.31Y80.539
X216.346Y80.522
X216.381Y80.504
X216.417Y80.485
X216.451Y80.466
X216.486Y80.445
X216.52Y80.423
X216.554Y80.401
X216.587Y80.378
X216.62Y80.353
X216.652Y80.328
X216.683Y80.303
X216.698Y80.29
X216.727Y80.263
X216.749Y80.243
X216.771Y80.222
X216.799Y80.193
X216.827Y80.164
X216.859Y80.128
X216.89Y80.091
X216.911Y80.064
X216.933Y80.036
X216.953Y80.007
X216.974Y79.978
X216.993Y79.948
X217.012Y79.918
X217.029Y79.89
X217.045Y79.861
X217.061Y79.832
X217.08Y79.795
X217.098Y79.757
X217.111Y79.728
X217.124Y79.698
X217.14Y79.658
X217.148Y79.636
X217.162Y79.596
X217.175Y79.555
X217.187Y79.513
X217.199Y79.471
X217.208Y79.428
X217.217Y79.388
X217.224Y79.347
X217.231Y79.296
X217.238Y79.24
X217.241Y79.206
X217.243Y79.172
X217.244Y79.139
X217.245Y79.089
Y78.857
X217.256Y78.795
X217.266Y78.719
X217.275Y78.64
X217.28Y78.563
X217.283Y78.485
Y78.447
Y67.613
Y67.574
X217.281Y67.534
X217.279Y67.495
X217.275Y67.455
X217.271Y67.416
X217.266Y67.377
X217.259Y67.338
X217.252Y67.299
X217.245Y67.266
X217.244Y67.224
X217.241Y67.181
X217.238Y67.138
X217.233Y67.095
X217.227Y67.052
X217.22Y67.01
X217.212Y66.968
X217.203Y66.925
X217.192Y66.884
X217.183Y66.849
X217.173Y66.815
X217.162Y66.781
X217.15Y66.747
X217.137Y66.713
X217.12Y66.672
X217.102Y66.631
X217.083Y66.591
X217.061Y66.547
X217.045Y66.517
X217.028Y66.488
X217.007Y66.452
X216.984Y66.416
X216.962Y66.384
X216.94Y66.353
X216.917Y66.322
X216.893Y66.291
X216.869Y66.262
X216.843Y66.232
X216.818Y66.204
X216.791Y66.176
X216.764Y66.149
X216.736Y66.122
X216.707Y66.096
X216.678Y66.071
X216.648Y66.047
X216.618Y66.023
X216.587Y66
X216.555Y65.978
X216.523Y65.956
X216.49Y65.936
X216.457Y65.916
X216.424Y65.897
X216.389Y65.878
X216.355Y65.861
X216.32Y65.844
X216.286Y65.829
X216.25Y65.814
X216.215Y65.8
X216.179Y65.787
X216.143Y65.775
X216.106Y65.764
X216.069Y65.753
X216.032Y65.744
X215.995Y65.735
X215.958Y65.727
X215.92Y65.72
X215.882Y65.715
X215.845Y65.709
X215.807Y65.705
X215.768Y65.702
X215.73Y65.7
X215.692Y65.698
X215.654
X211.718
X211.128Y65.685
X210.383Y65.68
G0Z1
X176.118Y73.007
G1Z-0.4F50
X176.135Y72.969F100
X176.145Y72.946
X176.157Y72.921
X176.169Y72.896
X176.182Y72.871
X176.196Y72.847
X176.208Y72.824
X176.224Y72.798
X176.254Y72.749
X176.268Y72.728
X176.284Y72.705
X176.3Y72.682
X176.317Y72.66
X176.333Y72.638
X176.369Y72.594
X176.387Y72.573
X176.406Y72.552
X176.435Y72.52
X176.465Y72.49
X176.483Y72.472
X176.503Y72.453
X176.524Y72.434
X176.545Y72.416
X176.566Y72.397
X176.587Y72.38
X176.609Y72.362
X176.631Y72.345
X176.654Y72.329
X176.676Y72.313
X176.714Y72.287
X176.748Y72.265
X176.794Y72.238
X176.818Y72.224
X176.843Y72.211
X176.867Y72.198
X176.892Y72.186
X176.92Y72.172
X176.943Y72.162
X176.968Y72.151
X176.994Y72.14
X177.02Y72.13
X177.046Y72.12
X177.072Y72.111
X177.125Y72.094
X177.152Y72.086
X177.179Y72.078
X177.206Y72.071
X177.26Y72.059
X177.287Y72.053
X177.315Y72.048
X177.342Y72.044
X177.37Y72.039
X177.397Y72.036
X177.425Y72.033
X177.457Y72.03
X177.481Y72.028
X177.536Y72.025
X177.564Y72.024
X177.592
X177.62
X177.648Y72.025
X177.704Y72.028
X177.731Y72.03
X177.759Y72.033
X177.787Y72.036
X177.814Y72.039
X177.842Y72.044
X177.869Y72.048
X177.897Y72.053
X177.951Y72.065
X177.978Y72.071
X178.005Y72.078
X178.032Y72.086
X178.059Y72.094
X178.085Y72.102
X178.112Y72.111
X178.138Y72.12
X178.164Y72.13
X178.19Y72.14
X178.216Y72.151
X178.241Y72.162
X178.267Y72.174
X178.292Y72.186
X178.317Y72.198
X178.342Y72.211
X178.366Y72.224
X178.386Y72.235
X178.416Y72.253
X178.438Y72.267
X178.462Y72.282
X178.485Y72.297
X178.508Y72.313
X178.531Y72.329
X178.553Y72.345
X178.575Y72.362
X178.597Y72.38
X178.618Y72.397
X178.64Y72.416
X178.661Y72.434
X178.701Y72.472
X178.721Y72.492
X178.741Y72.511
X178.76Y72.532
X178.779Y72.552
X178.797Y72.573
X178.815Y72.594
X178.833Y72.616
X178.85Y72.637
X178.867Y72.66
X178.884Y72.682
X178.9Y72.705
X178.916Y72.728
X178.931Y72.751
X178.946Y72.775
X178.961Y72.798
X178.975Y72.822
X178.989Y72.847
X179.002Y72.871
X179.015Y72.896
X179.027Y72.921
X179.039Y72.946
X179.051Y72.971
X179.062Y72.997
X179.072Y73.022
X179.083Y73.049
X179.092Y73.075
X179.102Y73.101
X179.111Y73.127
X179.119Y73.154
X179.127Y73.18
X179.134Y73.206
X179.141Y73.235
X179.148Y73.261
X179.154Y73.289
X179.159Y73.316
X179.164Y73.343
X179.169Y73.371
X179.173Y73.398
X179.177Y73.426
X179.18Y73.454
X179.183Y73.481
X179.185Y73.509
X179.187Y73.537
X179.188Y73.565
Y73.593
X179.189Y73.621
X179.188Y73.649
Y73.676
X179.187Y73.704
X179.185Y73.732
X179.183Y73.76
X179.18Y73.788
X179.177Y73.815
X179.173Y73.843
X179.169Y73.871
X179.164Y73.898
X179.159Y73.925
X179.154Y73.953
X179.148Y73.98
X179.141Y74.007
X179.134Y74.034
X179.127Y74.061
X179.119Y74.087
X179.111Y74.114
X179.102Y74.141
X179.092Y74.167
X179.083Y74.193
X179.072Y74.219
X179.062Y74.245
X179.051Y74.27
X179.039Y74.295
X179.027Y74.321
X179.015Y74.345
X179.002Y74.37
X178.989Y74.395
X178.975Y74.419
X178.961Y74.443
X178.946Y74.467
X178.931Y74.49
X178.916Y74.513
X178.9Y74.537
X178.884Y74.559
X178.867Y74.581
X178.85Y74.604
X178.833Y74.625
X178.815Y74.647
X178.797Y74.668
X178.779Y74.689
X178.76Y74.709
X178.741Y74.73
X178.721Y74.75
X178.701Y74.769
X178.681Y74.788
X178.661Y74.807
X178.64Y74.825
X178.618Y74.844
X178.597Y74.862
X178.575Y74.879
X178.553Y74.896
X178.531Y74.912
X178.508Y74.928
X178.485Y74.944
X178.462Y74.96
X178.438Y74.975
X178.415Y74.989
X178.391Y75.003
X178.366Y75.017
X178.342Y75.03
X178.317Y75.043
X178.292Y75.056
X178.267Y75.068
X178.241Y75.079
X178.216Y75.09
X178.19Y75.101
X178.164Y75.111
X178.138Y75.121
X178.112Y75.13
X178.085Y75.139
X178.059Y75.147
X178.032Y75.155
X178.005Y75.163
X177.978Y75.17
X177.951Y75.176
X177.924Y75.182
X177.897Y75.188
X177.869Y75.193
X177.842Y75.198
X177.814Y75.202
X177.787Y75.205
X177.759Y75.208
X177.731Y75.211
X177.703Y75.213
X177.676Y75.215
X177.648Y75.216
X177.62Y75.217
X177.573
X177.534Y75.216
X177.509Y75.215
X177.481Y75.213
X177.453Y75.211
X177.396Y75.205
X177.37Y75.202
X177.342Y75.198
X177.315Y75.193
X177.287Y75.188
X177.26Y75.182
X177.233Y75.176
X177.206Y75.17
X177.179Y75.163
X177.152Y75.155
X177.125Y75.147
X177.099Y75.139
X177.072Y75.13
X177.046Y75.121
X177.02Y75.111
X176.994Y75.101
X176.968Y75.09
X176.943Y75.079
X176.892Y75.056
X176.867Y75.043
X176.818Y75.017
X176.794Y75.003
X176.77Y74.989
X176.746Y74.975
X176.723Y74.96
X176.676Y74.928
X176.654Y74.912
X176.631Y74.896
X176.609Y74.879
X176.587Y74.861
X176.566Y74.844
X176.545Y74.826
X176.524Y74.807
X176.503Y74.788
X176.483Y74.769
X176.463Y74.75
X176.444Y74.73
X176.424Y74.709
X176.406Y74.689
X176.387Y74.668
X176.369Y74.647
X176.351Y74.625
X176.334Y74.604
X176.317Y74.581
X176.3Y74.559
X176.284Y74.536
X176.268Y74.513
X176.253Y74.49
X176.229Y74.452
X176.207Y74.414
X176.196Y74.394
X176.182Y74.37
X176.169Y74.345
X176.157Y74.321
X176.145Y74.296
X176.133Y74.27
X176.122Y74.244
X176.112Y74.219
X176.102Y74.193
X176.092Y74.167
X176.082Y74.14
X176.074Y74.114
X176.065Y74.087
X176.057Y74.061
X176.05Y74.034
X176.043Y74.007
X176.036Y73.98
X176.025Y73.925
X176.02Y73.898
X176.015Y73.87
X176.011Y73.843
X176.007Y73.815
X176.004Y73.788
X176.002Y73.76
X175.999Y73.732
X175.998Y73.704
X175.996Y73.676
X175.995Y73.621
X175.996Y73.599
Y73.563
X175.998Y73.537
X175.999Y73.509
X176.002Y73.481
X176.004Y73.454
X176.007Y73.426
X176.011Y73.398
X176.015Y73.371
X176.02Y73.343
X176.025Y73.316
X176.03Y73.289
X176.036Y73.261
X176.043Y73.234
X176.05Y73.207
X176.057Y73.18
X176.065Y73.154
X176.074Y73.127
X176.082Y73.101
X176.092Y73.075
X176.102Y73.048
X176.118Y73.007
G0Z1
X190.977Y73.605
G1Z-0.4F50
X190.994Y73.429F100
X191.045Y73.26
X191.128Y73.104
X191.24Y72.968
X191.377Y72.856
X191.533Y72.772
X191.702Y72.721
X191.878Y72.704
X192.054Y72.721
X192.223Y72.772
X192.379Y72.856
X192.515Y72.968
X192.627Y73.104
X192.711Y73.26
X192.762Y73.429
X192.779Y73.605
X192.762Y73.781
X192.711Y73.95
X192.627Y74.106
X192.515Y74.243
X192.379Y74.355
X192.223Y74.438
X192.054Y74.489
X191.878Y74.506
X191.702Y74.489
X191.533Y74.438
X191.377Y74.355
X191.24Y74.242
X191.128Y74.106
X191.045Y73.95
X190.994Y73.781
X190.977Y73.605
G0Z1
X206.88
G1Z-0.4F50
X206.898Y73.429F100
X206.949Y73.26
X207.032Y73.104
X207.144Y72.968
X207.281Y72.856
X207.437Y72.772
X207.606Y72.721
X207.782Y72.704
X207.958Y72.721
X208.127Y72.772
X208.282Y72.856
X208.419Y72.968
X208.531Y73.104
X208.614Y73.26
X208.666Y73.429
X208.683Y73.605
X208.666Y73.781
X208.614Y73.95
X208.531Y74.106
X208.419Y74.242
X208.282Y74.355
X208.127Y74.438
X207.958Y74.489
X207.782Y74.506
X207.606Y74.489
X207.437Y74.438
X207.281Y74.355
X207.144Y74.242
X207.032Y74.106
X206.949Y73.95
X206.898Y73.781
X206.88Y73.605
G0Z1
X210.383Y65.68
G1Z-0.4F50
X183.929F100
X183.275Y65.685
X182.621Y65.702
X181.968Y65.729
X181.315Y65.767
X180.662Y65.816
X180.011Y65.876
X179.361Y65.947
X178.712Y66.029
X178.064Y66.121
X177.419Y66.224
X176.774Y66.338
X176.132Y66.462
X176.008Y66.488
X175.884Y66.517
X175.762Y66.548
X175.64Y66.58
X175.518Y66.615
X175.397Y66.652
X175.277Y66.691
X175.157Y66.732
X175.038Y66.776
X174.92Y66.821
X174.802Y66.868
X174.686Y66.918
X174.57Y66.969
X174.455Y67.022
X174.341Y67.078
X174.228Y67.135
X174.117Y67.194
X174.006Y67.255
X173.896Y67.318
X173.787Y67.383
X173.68Y67.45
X173.574Y67.519
X173.469Y67.589
X173.365Y67.662
X173.262Y67.736
X173.161Y67.812
X173.061Y67.89
X172.962Y67.969
X172.865Y68.05
X172.769Y68.133
X172.675Y68.217
X172.582Y68.303
X172.491Y68.391
X172.401Y68.48
X172.313Y68.57
X172.226Y68.663
X172.141Y68.756
X172.057Y68.852
X171.976Y68.948
X171.876Y69.07
X171.778Y69.194
X171.682Y69.319
X171.588Y69.447
X171.497Y69.576
X171.408Y69.706
X171.321Y69.838
X171.236Y69.971
X171.154Y70.106
X171.074Y70.242
X170.996Y70.38
X170.921Y70.519
X170.848Y70.659
X170.777Y70.8
X170.709Y70.943
X170.643Y71.086
X170.58Y71.231
X170.52Y71.377
X170.461Y71.524
X170.406Y71.672
X170.352Y71.82
X170.302Y71.97
X170.254Y72.121
X170.209Y72.272
X170.166Y72.424
X170.126Y72.577
X170.088Y72.73
X170.053Y72.884
X170.021Y73.039
X169.991Y73.194
X169.964Y73.349
X169.94Y73.506
X169.918Y73.662
X169.899Y73.819
X169.883Y73.976
X169.87Y74.133
X169.859Y74.291
X169.851Y74.448
X169.845Y74.606
X169.842Y74.764
Y74.922
X169.845Y75.08
X169.85Y75.238
X169.858Y75.396
X169.869Y75.553
X169.883Y75.711
X169.899Y75.868
X169.918Y76.025
X169.937Y76.168
X170.357Y79.059
X170.37Y79.134
X170.387Y79.211
X170.406Y79.286
X170.428Y79.359
X170.452Y79.433
X170.479Y79.506
X170.508Y79.578
X170.54Y79.648
X170.574Y79.718
X170.611Y79.786
X170.649Y79.852
X170.691Y79.919
X170.734Y79.983
X170.78Y80.045
X170.828Y80.107
X170.877Y80.165
X170.93Y80.223
X170.984Y80.278
X171.039Y80.332
X171.097Y80.384
X171.157Y80.433
X171.218Y80.481
X171.281Y80.527
X171.344Y80.569
X171.411Y80.611
X171.477Y80.649
X171.546Y80.685
X171.616Y80.72
X171.686Y80.75
X171.759Y80.78
X171.831Y80.806
X171.905Y80.83
X171.979Y80.851
X172.055Y80.87
X172.13Y80.886
X172.207Y80.899
X172.284Y80.91
X172.36Y80.918
X172.438Y80.924
X172.515Y80.926
X172.554Y80.927
X177.605
X177.721Y80.925
X177.838Y80.922
X177.955Y80.918
X178.072Y80.911
X179.327Y80.82
X180.48Y80.756
X181.633Y80.71
X182.788Y80.682
X183.948Y80.673
X187.501
X187.539Y80.676
X187.578Y80.678
X187.616Y80.68
X187.654
X215.654
X215.694
X215.733Y80.678
X215.773Y80.676
X215.813Y80.672
X215.852Y80.668
X215.891Y80.662
X215.931Y80.656
X215.97Y80.648
X216.009Y80.64
X216.048Y80.631
X216.086Y80.62
X216.124Y80.609
X216.162Y80.597
X216.199Y80.584
X216.237Y80.569
X216.273Y80.554
X216.31Y80.539
X216.346Y80.522
X216.381Y80.504
X216.417Y80.485
X216.451Y80.466
X216.486Y80.445
X216.52Y80.423
X216.554Y80.401
X216.587Y80.378
X216.62Y80.353
X216.652Y80.328
X216.683Y80.303
X216.698Y80.29
X216.727Y80.263
X216.749Y80.243
X216.771Y80.222
X216.799Y80.193
X216.827Y80.164
X216.859Y80.128
X216.89Y80.091
X216.911Y80.064
X216.933Y80.036
X216.953Y80.007
X216.974Y79.978
X216.993Y79.948
X217.012Y79.918
X217.029Y79.89
X217.045Y79.861
X217.061Y79.832
X217.08Y79.795
X217.098Y79.757
X217.111Y79.728
X217.124Y79.698
X217.14Y79.658
X217.148Y79.636
X217.162Y79.596
X217.175Y79.555
X217.187Y79.513
X217.199Y79.471
X217.208Y79.428
X217.217Y79.388
X217.224Y79.347
X217.231Y79.296
X217.238Y79.24
X217.241Y79.206
X217.243Y79.172
X217.244Y79.139
X217.245Y79.089
Y78.857
X217.256Y78.795
X217.266Y78.719
X217.275Y78.64
X217.28Y78.563
X217.283Y78.485
Y78.447
Y67.613
Y67.574
X217.281Y67.534
X217.279Y67.495
X217.275Y67.455
X217.271Y67.416
X217.266Y67.377
X217.259Y67.338
X217.252Y67.299
X217.245Y67.266
X217.244Y67.224
X217.241Y67.181
X217.238Y67.138
X217.233Y67.095
X217.227Y67.052
X217.22Y67.01
X217.212Y66.968
X217.203Y66.925
X217.192Y66.884
X217.183Y66.849
X217.173Y66.815
X217.162Y66.781
X217.15Y66.747
X217.137Y66.713
X217.12Y66.672
X217.102Y66.631
X217.083Y66.591
X217.061Y66.547
X217.045Y66.517
X217.028Y66.488
X217.007Y66.452
X216.984Y66.416
X216.962Y66.384
X216.94Y66.353
X216.917Y66.322
X216.893Y66.291
X216.869Y66.262
X216.843Y66.232
X216.818Y66.204
X216.791Y66.176
X216.764Y66.149
X216.736Y66.122
X216.707Y66.096
X216.678Y66.071
X216.648Y66.047
X216.618Y66.023
X216.587Y66
X216.555Y65.978
X216.523Y65.956
X216.49Y65.936
X216.457Y65.916
X216.424Y65.897
X216.389Y65.878
X216.355Y65.861
X216.32Y65.844
X216.286Y65.829
X216.25Y65.814
X216.215Y65.8
X216.179Y65.787
X216.143Y65.775
X216.106Y65.764
X216.069Y65.753
X216.032Y65.744
X215.995Y65.735
X215.958Y65.727
X215.92Y65.72
X215.882Y65.715
X215.845Y65.709
X215.807Y65.705
X215.768Y65.702
X215.73Y65.7
X215.692Y65.698
X215.654
X211.718
X211.128Y65.685
X210.383Y65.68
G0Z1
X176.118Y73.007
G1Z-0.5F50
X176.135Y72.969F100
X176.145Y72.946
X176.157Y72.921
X176.169Y72.896
X176.182Y72.871
X176.196Y72.847
X176.208Y72.824
X176.224Y72.798
X176.254Y72.749
X176.268Y72.728
X176.284Y72.705
X176.3Y72.682
X176.317Y72.66
X176.333Y72.638
X176.369Y72.594
X176.387Y72.573
X176.406Y72.552
X176.435Y72.52
X176.465Y72.49
X176.483Y72.472
X176.503Y72.453
X176.524Y72.434
X176.545Y72.416
X176.566Y72.397
X176.587Y72.38
X176.609Y72.362
X176.631Y72.345
X176.654Y72.329
X176.676Y72.313
X176.714Y72.287
X176.748Y72.265
X176.794Y72.238
X176.818Y72.224
X176.843Y72.211
X176.867Y72.198
X176.892Y72.186
X176.92Y72.172
X176.943Y72.162
X176.968Y72.151
X176.994Y72.14
X177.02Y72.13
X177.046Y72.12
X177.072Y72.111
X177.125Y72.094
X177.152Y72.086
X177.179Y72.078
X177.206Y72.071
X177.26Y72.059
X177.287Y72.053
X177.315Y72.048
X177.342Y72.044
X177.37Y72.039
X177.397Y72.036
X177.425Y72.033
X177.457Y72.03
X177.481Y72.028
X177.536Y72.025
X177.564Y72.024
X177.592
X177.62
X177.648Y72.025
X177.704Y72.028
X177.731Y72.03
X177.759Y72.033
X177.787Y72.036
X177.814Y72.039
X177.842Y72.044
X177.869Y72.048
X177.897Y72.053
X177.951Y72.065
X177.978Y72.071
X178.005Y72.078
X178.032Y72.086
X178.059Y72.094
X178.085Y72.102
X178.112Y72.111
X178.138Y72.12
X178.164Y72.13
X178.19Y72.14
X178.216Y72.151
X178.241Y72.162
X178.267Y72.174
X178.292Y72.186
X178.317Y72.198
X178.342Y72.211
X178.366Y72.224
X178.386Y72.235
X178.416Y72.253
X178.438Y72.267
X178.462Y72.282
X178.485Y72.297
X178.508Y72.313
X178.531Y72.329
X178.553Y72.345
X178.575Y72.362
X178.597Y72.38
X178.618Y72.397
X178.64Y72.416
X178.661Y72.434
X178.701Y72.472
X178.721Y72.492
X178.741Y72.511
X178.76Y72.532
X178.779Y72.552
X178.797Y72.573
X178.815Y72.594
X178.833Y72.616
X178.85Y72.637
X178.867Y72.66
X178.884Y72.682
X178.9Y72.705
X178.916Y72.728
X178.931Y72.751
X178.946Y72.775
X178.961Y72.798
X178.975Y72.822
X178.989Y72.847
X179.002Y72.871
X179.015Y72.896
X179.027Y72.921
X179.039Y72.946
X179.051Y72.971
X179.062Y72.997
X179.072Y73.022
X179.083Y73.049
X179.092Y73.075
X179.102Y73.101
X179.111Y73.127
X179.119Y73.154
X179.127Y73.18
X179.134Y73.206
X179.141Y73.235
X179.148Y73.261
X179.154Y73.289
X179.159Y73.316
X179.164Y73.343
X179.169Y73.371
X179.173Y73.398
X179.177Y73.426
X179.18Y73.454
X179.183Y73.481
X179.185Y73.509
X179.187Y73.537
X179.188Y73.565
Y73.593
X179.189Y73.621
X179.188Y73.649
Y73.676
X179.187Y73.704
X179.185Y73.732
X179.183Y73.76
X179.18Y73.788
X179.177Y73.815
X179.173Y73.843
X179.169Y73.871
X179.164Y73.898
X179.159Y73.925
X179.154Y73.953
X179.148Y73.98
X179.141Y74.007
X179.134Y74.034
X179.127Y74.061
X179.119Y74.087
X179.111Y74.114
X179.102Y74.141
X179.092Y74.167
X179.083Y74.193
X179.072Y74.219
X179.062Y74.245
X179.051Y74.27
X179.039Y74.295
X179.027Y74.321
X179.015Y74.345
X179.002Y74.37
X178.989Y74.395
X178.975Y74.419
X178.961Y74.443
X178.946Y74.467
X178.931Y74.49
X178.916Y74.513
X178.9Y74.537
X178.884Y74.559
X178.867Y74.581
X178.85Y74.604
X178.833Y74.625
X178.815Y74.647
X178.797Y74.668
X178.779Y74.689
X178.76Y74.709
X178.741Y74.73
X178.721Y74.75
X178.701Y74.769
X178.681Y74.788
X178.661Y74.807
X178.64Y74.825
X178.618Y74.844
X178.597Y74.862
X178.575Y74.879
X178.553Y74.896
X178.531Y74.912
X178.508Y74.928
X178.485Y74.944
X178.462Y74.96
X178.438Y74.975
X178.415Y74.989
X178.391Y75.003
X178.366Y75.017
X178.342Y75.03
X178.317Y75.043
X178.292Y75.056
X178.267Y75.068
X178.241Y75.079
X178.216Y75.09
X178.19Y75.101
X178.164Y75.111
X178.138Y75.121
X178.112Y75.13
X178.085Y75.139
X178.059Y75.147
X178.032Y75.155
X178.005Y75.163
X177.978Y75.17
X177.951Y75.176
X177.924Y75.182
X177.897Y75.188
X177.869Y75.193
X177.842Y75.198
X177.814Y75.202
X177.787Y75.205
X177.759Y75.208
X177.731Y75.211
X177.703Y75.213
X177.676Y75.215
X177.648Y75.216
X177.62Y75.217
X177.573
X177.534Y75.216
X177.509Y75.215
X177.481Y75.213
X177.453Y75.211
X177.396Y75.205
X177.37Y75.202
X177.342Y75.198
X177.315Y75.193
X177.287Y75.188
X177.26Y75.182
X177.233Y75.176
X177.206Y75.17
X177.179Y75.163
X177.152Y75.155
X177.125Y75.147
X177.099Y75.139
X177.072Y75.13
X177.046Y75.121
X177.02Y75.111
X176.994Y75.101
X176.968Y75.09
X176.943Y75.079
X176.892Y75.056
X176.867Y75.043
X176.818Y75.017
X176.794Y75.003
X176.77Y74.989
X176.746Y74.975
X176.723Y74.96
X176.676Y74.928
X176.654Y74.912
X176.631Y74.896
X176.609Y74.879
X176.587Y74.861
X176.566Y74.844
X176.545Y74.826
X176.524Y74.807
X176.503Y74.788
X176.483Y74.769
X176.463Y74.75
X176.444Y74.73
X176.424Y74.709
X176.406Y74.689
X176.387Y74.668
X176.369Y74.647
X176.351Y74.625
X176.334Y74.604
X176.317Y74.581
X176.3Y74.559
X176.284Y74.536
X176.268Y74.513
X176.253Y74.49
X176.229Y74.452
X176.207Y74.414
X176.196Y74.394
X176.182Y74.37
X176.169Y74.345
X176.157Y74.321
X176.145Y74.296
X176.133Y74.27
X176.122Y74.244
X176.112Y74.219
X176.102Y74.193
X176.092Y74.167
X176.082Y74.14
X176.074Y74.114
X176.065Y74.087
X176.057Y74.061
X176.05Y74.034
X176.043Y74.007
X176.036Y73.98
X176.025Y73.925
X176.02Y73.898
X176.015Y73.87
X176.011Y73.843
X176.007Y73.815
X176.004Y73.788
X176.002Y73.76
X175.999Y73.732
X175.998Y73.704
X175.996Y73.676
X175.995Y73.621
X175.996Y73.599
Y73.563
X175.998Y73.537
X175.999Y73.509
X176.002Y73.481
X176.004Y73.454
X176.007Y73.426
X176.011Y73.398
X176.015Y73.371
X176.02Y73.343
X176.025Y73.316
X176.03Y73.289
X176.036Y73.261
X176.043Y73.234
X176.05Y73.207
X176.057Y73.18
X176.065Y73.154
X176.074Y73.127
X176.082Y73.101
X176.092Y73.075
X176.102Y73.048
X176.118Y73.007
G0Z1
X190.977Y73.605
G1Z-0.5F50
X190.994Y73.429F100
X191.045Y73.26
X191.128Y73.104
X191.24Y72.968
X191.377Y72.856
X191.533Y72.772
X191.702Y72.721
X191.878Y72.704
X192.054Y72.721
X192.223Y72.772
X192.379Y72.856
X192.515Y72.968
X192.627Y73.104
X192.711Y73.26
X192.762Y73.429
X192.779Y73.605
X192.762Y73.781
X192.711Y73.95
X192.627Y74.106
X192.515Y74.243
X192.379Y74.355
X192.223Y74.438
X192.054Y74.489
X191.878Y74.506
X191.702Y74.489
X191.533Y74.438
X191.377Y74.355
X191.24Y74.242
X191.128Y74.106
X191.045Y73.95
X190.994Y73.781
X190.977Y73.605
G0Z1
X206.88
G1Z-0.5F50
X206.898Y73.429F100
X206.949Y73.26
X207.032Y73.104
X207.144Y72.968
X207.281Y72.856
X207.437Y72.772
X207.606Y72.721
X207.782Y72.704
X207.958Y72.721
X208.127Y72.772
X208.282Y72.856
X208.419Y72.968
X208.531Y73.104
X208.614Y73.26
X208.666Y73.429
X208.683Y73.605
X208.666Y73.781
X208.614Y73.95
X208.531Y74.106
X208.419Y74.242
X208.282Y74.355
X208.127Y74.438
X207.958Y74.489
X207.782Y74.506
X207.606Y74.489
X207.437Y74.438
X207.281Y74.355
X207.144Y74.242
X207.032Y74.106
X206.949Y73.95
X206.898Y73.781
X206.88Y73.605
G0Z1
X210.383Y65.68
G1Z-0.5F50
X183.929F100
X183.275Y65.685
X182.621Y65.702
X181.968Y65.729
X181.315Y65.767
X180.662Y65.816
X180.011Y65.876
X179.361Y65.947
X178.712Y66.029
X178.064Y66.121
X177.419Y66.224
X176.774Y66.338
X176.132Y66.462
X176.008Y66.488
X175.884Y66.517
X175.762Y66.548
X175.64Y66.58
X175.518Y66.615
X175.397Y66.652
X175.277Y66.691
X175.157Y66.732
X175.038Y66.776
X174.92Y66.821
X174.802Y66.868
X174.686Y66.918
X174.57Y66.969
X174.455Y67.022
X174.341Y67.078
X174.228Y67.135
X174.117Y67.194
X174.006Y67.255
X173.896Y67.318
X173.787Y67.383
X173.68Y67.45
X173.574Y67.519
X173.469Y67.589
X173.365Y67.662
X173.262Y67.736
X173.161Y67.812
X173.061Y67.89
X172.962Y67.969
X172.865Y68.05
X172.769Y68.133
X172.675Y68.217
X172.582Y68.303
X172.491Y68.391
X172.401Y68.48
X172.313Y68.57
X172.226Y68.663
X172.141Y68.756
X172.057Y68.852
X171.976Y68.948
X171.876Y69.07
X171.778Y69.194
X171.682Y69.319
X171.588Y69.447
X171.497Y69.576
X171.408Y69.706
X171.321Y69.838
X171.236Y69.971
X171.154Y70.106
X171.074Y70.242
X170.996Y70.38
X170.921Y70.519
X170.848Y70.659
X170.777Y70.8
X170.709Y70.943
X170.643Y71.086
X170.58Y71.231
X170.52Y71.377
X170.461Y71.524
X170.406Y71.672
X170.352Y71.82
X170.302Y71.97
X170.254Y72.121
X170.209Y72.272
X170.166Y72.424
X170.126Y72.577
X170.088Y72.73
X170.053Y72.884
X170.021Y73.039
X169.991Y73.194
X169.964Y73.349
X169.94Y73.506
X169.918Y73.662
X169.899Y73.819
X169.883Y73.976
X169.87Y74.133
X169.859Y74.291
X169.851Y74.448
X169.845Y74.606
X169.842Y74.764
Y74.922
X169.845Y75.08
X169.85Y75.238
X169.858Y75.396
X169.869Y75.553
X169.883Y75.711
X169.899Y75.868
X169.918Y76.025
X169.937Y76.168
X170.357Y79.059
X170.37Y79.134
X170.387Y79.211
X170.406Y79.286
X170.428Y79.359
X170.452Y79.433
X170.479Y79.506
X170.508Y79.578
X170.54Y79.648
X170.574Y79.718
X170.611Y79.786
X170.649Y79.852
X170.691Y79.919
X170.734Y79.983
X170.78Y80.045
X170.828Y80.107
X170.877Y80.165
X170.93Y80.223
X170.984Y80.278
X171.039Y80.332
X171.097Y80.384
X171.157Y80.433
X171.218Y80.481
X171.281Y80.527
X171.344Y80.569
X171.411Y80.611
X171.477Y80.649
X171.546Y80.685
X171.616Y80.72
X171.686Y80.75
X171.759Y80.78
X171.831Y80.806
X171.905Y80.83
X171.979Y80.851
X172.055Y80.87
X172.13Y80.886
X172.207Y80.899
X172.284Y80.91
X172.36Y80.918
X172.438Y80.924
X172.515Y80.926
X172.554Y80.927
X177.605
X177.721Y80.925
X177.838Y80.922
X177.955Y80.918
X178.072Y80.911
X179.327Y80.82
X180.48Y80.756
X181.633Y80.71
X182.788Y80.682
X183.948Y80.673
X187.501
X187.539Y80.676
X187.578Y80.678
X187.616Y80.68
X187.654
X215.654
X215.694
X215.733Y80.678
X215.773Y80.676
X215.813Y80.672
X215.852Y80.668
X215.891Y80.662
X215.931Y80.656
X215.97Y80.648
X216.009Y80.64
X216.048Y80.631
X216.086Y80.62
X216.124Y80.609
X216.162Y80.597
X216.199Y80.584
X216.237Y80.569
X216.273Y80.554
X216.31Y80.539
X216.346Y80.522
X216.381Y80.504
X216.417Y80.485
X216.451Y80.466
X216.486Y80.445
X216.52Y80.423
X216.554Y80.401
X216.587Y80.378
X216.62Y80.353
X216.652Y80.328
X216.683Y80.303
X216.698Y80.29
X216.727Y80.263
X216.749Y80.243
X216.771Y80.222
X216.799Y80.193
X216.827Y80.164
X216.859Y80.128
X216.89Y80.091
X216.911Y80.064
X216.933Y80.036
X216.953Y80.007
X216.974Y79.978
X216.993Y79.948
X217.012Y79.918
X217.029Y79.89
X217.045Y79.861
X217.061Y79.832
X217.08Y79.795
X217.098Y79.757
X217.111Y79.728
X217.124Y79.698
X217.14Y79.658
X217.148Y79.636
X217.162Y79.596
X217.175Y79.555
X217.187Y79.513
X217.199Y79.471
X217.208Y79.428
X217.217Y79.388
X217.224Y79.347
X217.231Y79.296
X217.238Y79.24
X217.241Y79.206
X217.243Y79.172
X217.244Y79.139
X217.245Y79.089
Y78.857
X217.256Y78.795
X217.266Y78.719
X217.275Y78.64
X217.28Y78.563
X217.283Y78.485
Y78.447
Y67.613
Y67.574
X217.281Y67.534
X217.279Y67.495
X217.275Y67.455
X217.271Y67.416
X217.266Y67.377
X217.259Y67.338
X217.252Y67.299
X217.245Y67.266
X217.244Y67.224
X217.241Y67.181
X217.238Y67.138
X217.233Y67.095
X217.227Y67.052
X217.22Y67.01
X217.212Y66.968
X217.203Y66.925
X217.192Y66.884
X217.183Y66.849
X217.173Y66.815
X217.162Y66.781
X217.15Y66.747
X217.137Y66.713
X217.12Y66.672
X217.102Y66.631
X217.083Y66.591
X217.061Y66.547
X217.045Y66.517
X217.028Y66.488
X217.007Y66.452
X216.984Y66.416
X216.962Y66.384
X216.94Y66.353
X216.917Y66.322
X216.893Y66.291
X216.869Y66.262
X216.843Y66.232
X216.818Y66.204
X216.791Y66.176
X216.764Y66.149
X216.736Y66.122
X216.707Y66.096
X216.678Y66.071
X216.648Y66.047
X216.618Y66.023
X216.587Y66
X216.555Y65.978
X216.523Y65.956
X216.49Y65.936
X216.457Y65.916
X216.424Y65.897
X216.389Y65.878
X216.355Y65.861
X216.32Y65.844
X216.286Y65.829
X216.25Y65.814
X216.215Y65.8
X216.179Y65.787
X216.143Y65.775
X216.106Y65.764
X216.069Y65.753
X216.032Y65.744
X215.995Y65.735
X215.958Y65.727
X215.92Y65.72
X215.882Y65.715
X215.845Y65.709
X215.807Y65.705
X215.768Y65.702
X215.73Y65.7
X215.692Y65.698
X215.654
X211.718
X211.128Y65.685
X210.383Y65.68
G0Z1
X176.118Y73.007
G1Z-0.6F50
X176.135Y72.969F100
X176.145Y72.946
X176.157Y72.921
X176.169Y72.896
X176.182Y72.871
X176.196Y72.847
X176.208Y72.824
X176.224Y72.798
X176.254Y72.749
X176.268Y72.728
X176.284Y72.705
X176.3Y72.682
X176.317Y72.66
X176.333Y72.638
X176.369Y72.594
X176.387Y72.573
X176.406Y72.552
X176.435Y72.52
X176.465Y72.49
X176.483Y72.472
X176.503Y72.453
X176.524Y72.434
X176.545Y72.416
X176.566Y72.397
X176.587Y72.38
X176.609Y72.362
X176.631Y72.345
X176.654Y72.329
X176.676Y72.313
X176.714Y72.287
X176.748Y72.265
X176.794Y72.238
X176.818Y72.224
X176.843Y72.211
X176.867Y72.198
X176.892Y72.186
X176.92Y72.172
X176.943Y72.162
X176.968Y72.151
X176.994Y72.14
X177.02Y72.13
X177.046Y72.12
X177.072Y72.111
X177.125Y72.094
X177.152Y72.086
X177.179Y72.078
X177.206Y72.071
X177.26Y72.059
X177.287Y72.053
X177.315Y72.048
X177.342Y72.044
X177.37Y72.039
X177.397Y72.036
X177.425Y72.033
X177.457Y72.03
X177.481Y72.028
X177.536Y72.025
X177.564Y72.024
X177.592
X177.62
X177.648Y72.025
X177.704Y72.028
X177.731Y72.03
X177.759Y72.033
X177.787Y72.036
X177.814Y72.039
X177.842Y72.044
X177.869Y72.048
X177.897Y72.053
X177.951Y72.065
X177.978Y72.071
X178.005Y72.078
X178.032Y72.086
X178.059Y72.094
X178.085Y72.102
X178.112Y72.111
X178.138Y72.12
X178.164Y72.13
X178.19Y72.14
X178.216Y72.151
X178.241Y72.162
X178.267Y72.174
X178.292Y72.186
X178.317Y72.198
X178.342Y72.211
X178.366Y72.224
X178.386Y72.235
X178.416Y72.253
X178.438Y72.267
X178.462Y72.282
X178.485Y72.297
X178.508Y72.313
X178.531Y72.329
X178.553Y72.345
X178.575Y72.362
X178.597Y72.38
X178.618Y72.397
X178.64Y72.416
X178.661Y72.434
X178.701Y72.472
X178.721Y72.492
X178.741Y72.511
X178.76Y72.532
X178.779Y72.552
X178.797Y72.573
X178.815Y72.594
X178.833Y72.616
X178.85Y72.637
X178.867Y72.66
X178.884Y72.682
X178.9Y72.705
X178.916Y72.728
X178.931Y72.751
X178.946Y72.775
X178.961Y72.798
X178.975Y72.822
X178.989Y72.847
X179.002Y72.871
X179.015Y72.896
X179.027Y72.921
X179.039Y72.946
X179.051Y72.971
X179.062Y72.997
X179.072Y73.022
X179.083Y73.049
X179.092Y73.075
X179.102Y73.101
X179.111Y73.127
X179.119Y73.154
X179.127Y73.18
X179.134Y73.206
X179.141Y73.235
X179.148Y73.261
X179.154Y73.289
X179.159Y73.316
X179.164Y73.343
X179.169Y73.371
X179.173Y73.398
X179.177Y73.426
X179.18Y73.454
X179.183Y73.481
X179.185Y73.509
X179.187Y73.537
X179.188Y73.565
Y73.593
X179.189Y73.621
X179.188Y73.649
Y73.676
X179.187Y73.704
X179.185Y73.732
X179.183Y73.76
X179.18Y73.788
X179.177Y73.815
X179.173Y73.843
X179.169Y73.871
X179.164Y73.898
X179.159Y73.925
X179.154Y73.953
X179.148Y73.98
X179.141Y74.007
X179.134Y74.034
X179.127Y74.061
X179.119Y74.087
X179.111Y74.114
X179.102Y74.141
X179.092Y74.167
X179.083Y74.193
X179.072Y74.219
X179.062Y74.245
X179.051Y74.27
X179.039Y74.295
X179.027Y74.321
X179.015Y74.345
X179.002Y74.37
X178.989Y74.395
X178.975Y74.419
X178.961Y74.443
X178.946Y74.467
X178.931Y74.49
X178.916Y74.513
X178.9Y74.537
X178.884Y74.559
X178.867Y74.581
X178.85Y74.604
X178.833Y74.625
X178.815Y74.647
X178.797Y74.668
X178.779Y74.689
X178.76Y74.709
X178.741Y74.73
X178.721Y74.75
X178.701Y74.769
X178.681Y74.788
X178.661Y74.807
X178.64Y74.825
X178.618Y74.844
X178.597Y74.862
X178.575Y74.879
X178.553Y74.896
X178.531Y74.912
X178.508Y74.928
X178.485Y74.944
X178.462Y74.96
X178.438Y74.975
X178.415Y74.989
X178.391Y75.003
X178.366Y75.017
X178.342Y75.03
X178.317Y75.043
X178.292Y75.056
X178.267Y75.068
X178.241Y75.079
X178.216Y75.09
X178.19Y75.101
X178.164Y75.111
X178.138Y75.121
X178.112Y75.13
X178.085Y75.139
X178.059Y75.147
X178.032Y75.155
X178.005Y75.163
X177.978Y75.17
X177.951Y75.176
X177.924Y75.182
X177.897Y75.188
X177.869Y75.193
X177.842Y75.198
X177.814Y75.202
X177.787Y75.205
X177.759Y75.208
X177.731Y75.211
X177.703Y75.213
X177.676Y75.215
X177.648Y75.216
X177.62Y75.217
X177.573
X177.534Y75.216
X177.509Y75.215
X177.481Y75.213
X177.453Y75.211
X177.396Y75.205
X177.37Y75.202
X177.342Y75.198
X177.315Y75.193
X177.287Y75.188
X177.26Y75.182
X177.233Y75.176
X177.206Y75.17
X177.179Y75.163
X177.152Y75.155
X177.125Y75.147
X177.099Y75.139
X177.072Y75.13
X177.046Y75.121
X177.02Y75.111
X176.994Y75.101
X176.968Y75.09
X176.943Y75.079
X176.892Y75.056
X176.867Y75.043
X176.818Y75.017
X176.794Y75.003
X176.77Y74.989
X176.746Y74.975
X176.723Y74.96
X176.676Y74.928
X176.654Y74.912
X176.631Y74.896
X176.609Y74.879
X176.587Y74.861
X176.566Y74.844
X176.545Y74.826
X176.524Y74.807
X176.503Y74.788
X176.483Y74.769
X176.463Y74.75
X176.444Y74.73
X176.424Y74.709
X176.406Y74.689
X176.387Y74.668
X176.369Y74.647
X176.351Y74.625
X176.334Y74.604
X176.317Y74.581
X176.3Y74.559
X176.284Y74.536
X176.268Y74.513
X176.253Y74.49
X176.229Y74.452
X176.207Y74.414
X176.196Y74.394
X176.182Y74.37
X176.169Y74.345
X176.157Y74.321
X176.145Y74.296
X176.133Y74.27
X176.122Y74.244
X176.112Y74.219
X176.102Y74.193
X176.092Y74.167
X176.082Y74.14
X176.074Y74.114
X176.065Y74.087
X176.057Y74.061
X176.05Y74.034
X176.043Y74.007
X176.036Y73.98
X176.025Y73.925
X176.02Y73.898
X176.015Y73.87
X176.011Y73.843
X176.007Y73.815
X176.004Y73.788
X176.002Y73.76
X175.999Y73.732
X175.998Y73.704
X175.996Y73.676
X175.995Y73.621
X175.996Y73.599
Y73.563
X175.998Y73.537
X175.999Y73.509
X176.002Y73.481
X176.004Y73.454
X176.007Y73.426
X176.011Y73.398
X176.015Y73.371
X176.02Y73.343
X176.025Y73.316
X176.03Y73.289
X176.036Y73.261
X176.043Y73.234
X176.05Y73.207
X176.057Y73.18
X176.065Y73.154
X176.074Y73.127
X176.082Y73.101
X176.092Y73.075
X176.102Y73.048
X176.118Y73.007
G0Z1
X190.977Y73.605
G1Z-0.6F50
X190.994Y73.429F100
X191.045Y73.26
X191.128Y73.104
X191.24Y72.968
X191.377Y72.856
X191.533Y72.772
X191.702Y72.721
X191.878Y72.704
X192.054Y72.721
X192.223Y72.772
X192.379Y72.856
X192.515Y72.968
X192.627Y73.104
X192.711Y73.26
X192.762Y73.429
X192.779Y73.605
X192.762Y73.781
X192.711Y73.95
X192.627Y74.106
X192.515Y74.243
X192.379Y74.355
X192.223Y74.438
X192.054Y74.489
X191.878Y74.506
X191.702Y74.489
X191.533Y74.438
X191.377Y74.355
X191.24Y74.242
X191.128Y74.106
X191.045Y73.95
X190.994Y73.781
X190.977Y73.605
G0Z1
X206.88
G1Z-0.6F50
X206.898Y73.429F100
X206.949Y73.26
X207.032Y73.104
X207.144Y72.968
X207.281Y72.856
X207.437Y72.772
X207.606Y72.721
X207.782Y72.704
X207.958Y72.721
X208.127Y72.772
X208.282Y72.856
X208.419Y72.968
X208.531Y73.104
X208.614Y73.26
X208.666Y73.429
X208.683Y73.605
X208.666Y73.781
X208.614Y73.95
X208.531Y74.106
X208.419Y74.242
X208.282Y74.355
X208.127Y74.438
X207.958Y74.489
X207.782Y74.506
X207.606Y74.489
X207.437Y74.438
X207.281Y74.355
X207.144Y74.242
X207.032Y74.106
X206.949Y73.95
X206.898Y73.781
X206.88Y73.605
G0Z1
X210.383Y65.68
G1Z-0.6F50
X183.929F100
X183.275Y65.685
X182.621Y65.702
X181.968Y65.729
X181.315Y65.767
X180.662Y65.816
X180.011Y65.876
X179.361Y65.947
X178.712Y66.029
X178.064Y66.121
X177.419Y66.224
X176.774Y66.338
X176.132Y66.462
X176.008Y66.488
X175.884Y66.517
X175.762Y66.548
X175.64Y66.58
X175.518Y66.615
X175.397Y66.652
X175.277Y66.691
X175.157Y66.732
X175.038Y66.776
X174.92Y66.821
X174.802Y66.868
X174.686Y66.918
X174.57Y66.969
X174.455Y67.022
X174.341Y67.078
X174.228Y67.135
X174.117Y67.194
X174.006Y67.255
X173.896Y67.318
X173.787Y67.383
X173.68Y67.45
X173.574Y67.519
X173.469Y67.589
X173.365Y67.662
X173.262Y67.736
X173.161Y67.812
X173.061Y67.89
X172.962Y67.969
X172.865Y68.05
X172.769Y68.133
X172.675Y68.217
X172.582Y68.303
X172.491Y68.391
X172.401Y68.48
X172.313Y68.57
X172.226Y68.663
X172.141Y68.756
X172.057Y68.852
X171.976Y68.948
X171.876Y69.07
X171.778Y69.194
X171.682Y69.319
X171.588Y69.447
X171.497Y69.576
X171.408Y69.706
X171.321Y69.838
X171.236Y69.971
X171.154Y70.106
X171.074Y70.242
X170.996Y70.38
X170.921Y70.519
X170.848Y70.659
X170.777Y70.8
X170.709Y70.943
X170.643Y71.086
X170.58Y71.231
X170.52Y71.377
X170.461Y71.524
X170.406Y71.672
X170.352Y71.82
X170.302Y71.97
X170.254Y72.121
X170.209Y72.272
X170.166Y72.424
X170.126Y72.577
X170.088Y72.73
X170.053Y72.884
X170.021Y73.039
X169.991Y73.194
X169.964Y73.349
X169.94Y73.506
X169.918Y73.662
X169.899Y73.819
X169.883Y73.976
X169.87Y74.133
X169.859Y74.291
X169.851Y74.448
X169.845Y74.606
X169.842Y74.764
Y74.922
X169.845Y75.08
X169.85Y75.238
X169.858Y75.396
X169.869Y75.553
X169.883Y75.711
X169.899Y75.868
X169.918Y76.025
X169.937Y76.168
X170.357Y79.059
X170.37Y79.134
X170.387Y79.211
X170.406Y79.286
X170.428Y79.359
X170.452Y79.433
X170.479Y79.506
X170.508Y79.578
X170.54Y79.648
X170.574Y79.718
X170.611Y79.786
X170.649Y79.852
X170.691Y79.919
X170.734Y79.983
X170.78Y80.045
X170.828Y80.107
X170.877Y80.165
X170.93Y80.223
X170.984Y80.278
X171.039Y80.332
X171.097Y80.384
X171.157Y80.433
X171.218Y80.481
X171.281Y80.527
X171.344Y80.569
X171.411Y80.611
X171.477Y80.649
X171.546Y80.685
X171.616Y80.72
X171.686Y80.75
X171.759Y80.78
X171.831Y80.806
X171.905Y80.83
X171.979Y80.851
X172.055Y80.87
X172.13Y80.886
X172.207Y80.899
X172.284Y80.91
X172.36Y80.918
X172.438Y80.924
X172.515Y80.926
X172.554Y80.927
X177.605
X177.721Y80.925
X177.838Y80.922
X177.955Y80.918
X178.072Y80.911
X179.327Y80.82
X180.48Y80.756
X181.633Y80.71
X182.788Y80.682
X183.948Y80.673
X187.501
X187.539Y80.676
X187.578Y80.678
X187.616Y80.68
X187.654
X215.654
X215.694
X215.733Y80.678
X215.773Y80.676
X215.813Y80.672
X215.852Y80.668
X215.891Y80.662
X215.931Y80.656
X215.97Y80.648
X216.009Y80.64
X216.048Y80.631
X216.086Y80.62
X216.124Y80.609
X216.162Y80.597
X216.199Y80.584
X216.237Y80.569
X216.273Y80.554
X216.31Y80.539
X216.346Y80.522
X216.381Y80.504
X216.417Y80.485
X216.451Y80.466
X216.486Y80.445
X216.52Y80.423
X216.554Y80.401
X216.587Y80.378
X216.62Y80.353
X216.652Y80.328
X216.683Y80.303
X216.698Y80.29
X216.727Y80.263
X216.749Y80.243
X216.771Y80.222
X216.799Y80.193
X216.827Y80.164
X216.859Y80.128
X216.89Y80.091
X216.911Y80.064
X216.933Y80.036
X216.953Y80.007
X216.974Y79.978
X216.993Y79.948
X217.012Y79.918
X217.029Y79.89
X217.045Y79.861
X217.061Y79.832
X217.08Y79.795
X217.098Y79.757
X217.111Y79.728
X217.124Y79.698
X217.14Y79.658
X217.148Y79.636
X217.162Y79.596
X217.175Y79.555
X217.187Y79.513
X217.199Y79.471
X217.208Y79.428
X217.217Y79.388
X217.224Y79.347
X217.231Y79.296
X217.238Y79.24
X217.241Y79.206
X217.243Y79.172
X217.244Y79.139
X217.245Y79.089
Y78.857
X217.256Y78.795
X217.266Y78.719
X217.275Y78.64
X217.28Y78.563
X217.283Y78.485
Y78.447
Y67.613
Y67.574
X217.281Y67.534
X217.279Y67.495
X217.275Y67.455
X217.271Y67.416
X217.266Y67.377
X217.259Y67.338
X217.252Y67.299
X217.245Y67.266
X217.244Y67.224
X217.241Y67.181
X217.238Y67.138
X217.233Y67.095
X217.227Y67.052
X217.22Y67.01
X217.212Y66.968
X217.203Y66.925
X217.192Y66.884
X217.183Y66.849
X217.173Y66.815
X217.162Y66.781
X217.15Y66.747
X217.137Y66.713
X217.12Y66.672
X217.102Y66.631
X217.083Y66.591
X217.061Y66.547
X217.045Y66.517
X217.028Y66.488
X217.007Y66.452
X216.984Y66.416
X216.962Y66.384
X216.94Y66.353
X216.917Y66.322
X216.893Y66.291
X216.869Y66.262
X216.843Y66.232
X216.818Y66.204
X216.791Y66.176
X216.764Y66.149
X216.736Y66.122
X216.707Y66.096
X216.678Y66.071
X216.648Y66.047
X216.618Y66.023
X216.587Y66
X216.555Y65.978
X216.523Y65.956
X216.49Y65.936
X216.457Y65.916
X216.424Y65.897
X216.389Y65.878
X216.355Y65.861
X216.32Y65.844
X216.286Y65.829
X216.25Y65.814
X216.215Y65.8
X216.179Y65.787
X216.143Y65.775
X216.106Y65.764
X216.069Y65.753
X216.032Y65.744
X215.995Y65.735
X215.958Y65.727
X215.92Y65.72
X215.882Y65.715
X215.845Y65.709
X215.807Y65.705
X215.768Y65.702
X215.73Y65.7
X215.692Y65.698
X215.654
X211.718
X211.128Y65.685
X210.383Y65.68
G0Z1
X176.118Y73.007
G1Z-0.7F50
X176.135Y72.969F100
X176.145Y72.946
X176.157Y72.921
X176.169Y72.896
X176.182Y72.871
X176.196Y72.847
X176.208Y72.824
X176.224Y72.798
X176.254Y72.749
X176.268Y72.728
X176.284Y72.705
X176.3Y72.682
X176.317Y72.66
X176.333Y72.638
X176.369Y72.594
X176.387Y72.573
X176.406Y72.552
X176.435Y72.52
X176.465Y72.49
X176.483Y72.472
X176.503Y72.453
X176.524Y72.434
X176.545Y72.416
X176.566Y72.397
X176.587Y72.38
X176.609Y72.362
X176.631Y72.345
X176.654Y72.329
X176.676Y72.313
X176.714Y72.287
X176.748Y72.265
X176.794Y72.238
X176.818Y72.224
X176.843Y72.211
X176.867Y72.198
X176.892Y72.186
X176.92Y72.172
X176.943Y72.162
X176.968Y72.151
X176.994Y72.14
X177.02Y72.13
X177.046Y72.12
X177.072Y72.111
X177.125Y72.094
X177.152Y72.086
X177.179Y72.078
X177.206Y72.071
X177.26Y72.059
X177.287Y72.053
X177.315Y72.048
X177.342Y72.044
X177.37Y72.039
X177.397Y72.036
X177.425Y72.033
X177.457Y72.03
X177.481Y72.028
X177.536Y72.025
X177.564Y72.024
X177.592
X177.62
X177.648Y72.025
X177.704Y72.028
X177.731Y72.03
X177.759Y72.033
X177.787Y72.036
X177.814Y72.039
X177.842Y72.044
X177.869Y72.048
X177.897Y72.053
X177.951Y72.065
X177.978Y72.071
X178.005Y72.078
X178.032Y72.086
X178.059Y72.094
X178.085Y72.102
X178.112Y72.111
X178.138Y72.12
X178.164Y72.13
X178.19Y72.14
X178.216Y72.151
X178.241Y72.162
X178.267Y72.174
X178.292Y72.186
X178.317Y72.198
X178.342Y72.211
X178.366Y72.224
X178.386Y72.235
X178.416Y72.253
X178.438Y72.267
X178.462Y72.282
X178.485Y72.297
X178.508Y72.313
X178.531Y72.329
X178.553Y72.345
X178.575Y72.362
X178.597Y72.38
X178.618Y72.397
X178.64Y72.416
X178.661Y72.434
X178.701Y72.472
X178.721Y72.492
X178.741Y72.511
X178.76Y72.532
X178.779Y72.552
X178.797Y72.573
X178.815Y72.594
X178.833Y72.616
X178.85Y72.637
X178.867Y72.66
X178.884Y72.682
X178.9Y72.705
X178.916Y72.728
X178.931Y72.751
X178.946Y72.775
X178.961Y72.798
X178.975Y72.822
X178.989Y72.847
X179.002Y72.871
X179.015Y72.896
X179.027Y72.921
X179.039Y72.946
X179.051Y72.971
X179.062Y72.997
X179.072Y73.022
X179.083Y73.049
X179.092Y73.075
X179.102Y73.101
X179.111Y73.127
X179.119Y73.154
X179.127Y73.18
X179.134Y73.206
X179.141Y73.235
X179.148Y73.261
X179.154Y73.289
X179.159Y73.316
X179.164Y73.343
X179.169Y73.371
X179.173Y73.398
X179.177Y73.426
X179.18Y73.454
X179.183Y73.481
X179.185Y73.509
X179.187Y73.537
X179.188Y73.565
Y73.593
X179.189Y73.621
X179.188Y73.649
Y73.676
X179.187Y73.704
X179.185Y73.732
X179.183Y73.76
X179.18Y73.788
X179.177Y73.815
X179.173Y73.843
X179.169Y73.871
X179.164Y73.898
X179.159Y73.925
X179.154Y73.953
X179.148Y73.98
X179.141Y74.007
X179.134Y74.034
X179.127Y74.061
X179.119Y74.087
X179.111Y74.114
X179.102Y74.141
X179.092Y74.167
X179.083Y74.193
X179.072Y74.219
X179.062Y74.245
X179.051Y74.27
X179.039Y74.295
X179.027Y74.321
X179.015Y74.345
X179.002Y74.37
X178.989Y74.395
X178.975Y74.419
X178.961Y74.443
X178.946Y74.467
X178.931Y74.49
X178.916Y74.513
X178.9Y74.537
X178.884Y74.559
X178.867Y74.581
X178.85Y74.604
X178.833Y74.625
X178.815Y74.647
X178.797Y74.668
X178.779Y74.689
X178.76Y74.709
X178.741Y74.73
X178.721Y74.75
X178.701Y74.769
X178.681Y74.788
X178.661Y74.807
X178.64Y74.825
X178.618Y74.844
X178.597Y74.862
X178.575Y74.879
X178.553Y74.896
X178.531Y74.912
X178.508Y74.928
X178.485Y74.944
X178.462Y74.96
X178.438Y74.975
X178.415Y74.989
X178.391Y75.003
X178.366Y75.017
X178.342Y75.03
X178.317Y75.043
X178.292Y75.056
X178.267Y75.068
X178.241Y75.079
X178.216Y75.09
X178.19Y75.101
X178.164Y75.111
X178.138Y75.121
X178.112Y75.13
X178.085Y75.139
X178.059Y75.147
X178.032Y75.155
X178.005Y75.163
X177.978Y75.17
X177.951Y75.176
X177.924Y75.182
X177.897Y75.188
X177.869Y75.193
X177.842Y75.198
X177.814Y75.202
X177.787Y75.205
X177.759Y75.208
X177.731Y75.211
X177.703Y75.213
X177.676Y75.215
X177.648Y75.216
X177.62Y75.217
X177.573
X177.534Y75.216
X177.509Y75.215
X177.481Y75.213
X177.453Y75.211
X177.396Y75.205
X177.37Y75.202
X177.342Y75.198
X177.315Y75.193
X177.287Y75.188
X177.26Y75.182
X177.233Y75.176
X177.206Y75.17
X177.179Y75.163
X177.152Y75.155
X177.125Y75.147
X177.099Y75.139
X177.072Y75.13
X177.046Y75.121
X177.02Y75.111
X176.994Y75.101
X176.968Y75.09
X176.943Y75.079
X176.892Y75.056
X176.867Y75.043
X176.818Y75.017
X176.794Y75.003
X176.77Y74.989
X176.746Y74.975
X176.723Y74.96
X176.676Y74.928
X176.654Y74.912
X176.631Y74.896
X176.609Y74.879
X176.587Y74.861
X176.566Y74.844
X176.545Y74.826
X176.524Y74.807
X176.503Y74.788
X176.483Y74.769
X176.463Y74.75
X176.444Y74.73
X176.424Y74.709
X176.406Y74.689
X176.387Y74.668
X176.369Y74.647
X176.351Y74.625
X176.334Y74.604
X176.317Y74.581
X176.3Y74.559
X176.284Y74.536
X176.268Y74.513
X176.253Y74.49
X176.229Y74.452
X176.207Y74.414
X176.196Y74.394
X176.182Y74.37
X176.169Y74.345
X176.157Y74.321
X176.145Y74.296
X176.133Y74.27
X176.122Y74.244
X176.112Y74.219
X176.102Y74.193
X176.092Y74.167
X176.082Y74.14
X176.074Y74.114
X176.065Y74.087
X176.057Y74.061
X176.05Y74.034
X176.043Y74.007
X176.036Y73.98
X176.025Y73.925
X176.02Y73.898
X176.015Y73.87
X176.011Y73.843
X176.007Y73.815
X176.004Y73.788
X176.002Y73.76
X175.999Y73.732
X175.998Y73.704
X175.996Y73.676
X175.995Y73.621
X175.996Y73.599
Y73.563
X175.998Y73.537
X175.999Y73.509
X176.002Y73.481
X176.004Y73.454
X176.007Y73.426
X176.011Y73.398
X176.015Y73.371
X176.02Y73.343
X176.025Y73.316
X176.03Y73.289
X176.036Y73.261
X176.043Y73.234
X176.05Y73.207
X176.057Y73.18
X176.065Y73.154
X176.074Y73.127
X176.082Y73.101
X176.092Y73.075
X176.102Y73.048
X176.118Y73.007
G0Z1
X190.977Y73.605
G1Z-0.7F50
X190.994Y73.429F100
X191.045Y73.26
X191.128Y73.104
X191.24Y72.968
X191.377Y72.856
X191.533Y72.772
X191.702Y72.721
X191.878Y72.704
X192.054Y72.721
X192.223Y72.772
X192.379Y72.856
X192.515Y72.968
X192.627Y73.104
X192.711Y73.26
X192.762Y73.429
X192.779Y73.605
X192.762Y73.781
X192.711Y73.95
X192.627Y74.106
X192.515Y74.243
X192.379Y74.355
X192.223Y74.438
X192.054Y74.489
X191.878Y74.506
X191.702Y74.489
X191.533Y74.438
X191.377Y74.355
X191.24Y74.242
X191.128Y74.106
X191.045Y73.95
X190.994Y73.781
X190.977Y73.605
G0Z1
X206.88
G1Z-0.7F50
X206.898Y73.429F100
X206.949Y73.26
X207.032Y73.104
X207.144Y72.968
X207.281Y72.856
X207.437Y72.772
X207.606Y72.721
X207.782Y72.704
X207.958Y72.721
X208.127Y72.772
X208.282Y72.856
X208.419Y72.968
X208.531Y73.104
X208.614Y73.26
X208.666Y73.429
X208.683Y73.605
X208.666Y73.781
X208.614Y73.95
X208.531Y74.106
X208.419Y74.242
X208.282Y74.355
X208.127Y74.438
X207.958Y74.489
X207.782Y74.506
X207.606Y74.489
X207.437Y74.438
X207.281Y74.355
X207.144Y74.242
X207.032Y74.106
X206.949Y73.95
X206.898Y73.781
X206.88Y73.605
G0Z1
X210.383Y65.68
G1Z-0.7F50
X183.929F100
X183.275Y65.685
X182.621Y65.702
X181.968Y65.729
X181.315Y65.767
X180.662Y65.816
X180.011Y65.876
X179.361Y65.947
X178.712Y66.029
X178.064Y66.121
X177.419Y66.224
X176.774Y66.338
X176.132Y66.462
X176.008Y66.488
X175.884Y66.517
X175.762Y66.548
X175.64Y66.58
X175.518Y66.615
X175.397Y66.652
X175.277Y66.691
X175.157Y66.732
X175.038Y66.776
X174.92Y66.821
X174.802Y66.868
X174.686Y66.918
X174.57Y66.969
X174.455Y67.022
X174.341Y67.078
X174.228Y67.135
X174.117Y67.194
X174.006Y67.255
X173.896Y67.318
X173.787Y67.383
X173.68Y67.45
X173.574Y67.519
X173.469Y67.589
X173.365Y67.662
X173.262Y67.736
X173.161Y67.812
X173.061Y67.89
X172.962Y67.969
X172.865Y68.05
X172.769Y68.133
X172.675Y68.217
X172.582Y68.303
X172.491Y68.391
X172.401Y68.48
X172.313Y68.57
X172.226Y68.663
X172.141Y68.756
X172.057Y68.852
X171.976Y68.948
X171.876Y69.07
X171.778Y69.194
X171.682Y69.319
X171.588Y69.447
X171.497Y69.576
X171.408Y69.706
X171.321Y69.838
X171.236Y69.971
X171.154Y70.106
X171.074Y70.242
X170.996Y70.38
X170.921Y70.519
X170.848Y70.659
X170.777Y70.8
X170.709Y70.943
X170.643Y71.086
X170.58Y71.231
X170.52Y71.377
X170.461Y71.524
X170.406Y71.672
X170.352Y71.82
X170.302Y71.97
X170.254Y72.121
X170.209Y72.272
X170.166Y72.424
X170.126Y72.577
X170.088Y72.73
X170.053Y72.884
X170.021Y73.039
X169.991Y73.194
X169.964Y73.349
X169.94Y73.506
X169.918Y73.662
X169.899Y73.819
X169.883Y73.976
X169.87Y74.133
X169.859Y74.291
X169.851Y74.448
X169.845Y74.606
X169.842Y74.764
Y74.922
X169.845Y75.08
X169.85Y75.238
X169.858Y75.396
X169.869Y75.553
X169.883Y75.711
X169.899Y75.868
X169.918Y76.025
X169.937Y76.168
X170.357Y79.059
X170.37Y79.134
X170.387Y79.211
X170.406Y79.286
X170.428Y79.359
X170.452Y79.433
X170.479Y79.506
X170.508Y79.578
X170.54Y79.648
X170.574Y79.718
X170.611Y79.786
X170.649Y79.852
X170.691Y79.919
X170.734Y79.983
X170.78Y80.045
X170.828Y80.107
X170.877Y80.165
X170.93Y80.223
X170.984Y80.278
X171.039Y80.332
X171.097Y80.384
X171.157Y80.433
X171.218Y80.481
X171.281Y80.527
X171.344Y80.569
X171.411Y80.611
X171.477Y80.649
X171.546Y80.685
X171.616Y80.72
X171.686Y80.75
X171.759Y80.78
X171.831Y80.806
X171.905Y80.83
X171.979Y80.851
X172.055Y80.87
X172.13Y80.886
X172.207Y80.899
X172.284Y80.91
X172.36Y80.918
X172.438Y80.924
X172.515Y80.926
X172.554Y80.927
X177.605
X177.721Y80.925
X177.838Y80.922
X177.955Y80.918
X178.072Y80.911
X179.327Y80.82
X180.48Y80.756
X181.633Y80.71
X182.788Y80.682
X183.948Y80.673
X187.501
X187.539Y80.676
X187.578Y80.678
X187.616Y80.68
X187.654
X215.654
X215.694
X215.733Y80.678
X215.773Y80.676
X215.813Y80.672
X215.852Y80.668
X215.891Y80.662
X215.931Y80.656
X215.97Y80.648
X216.009Y80.64
X216.048Y80.631
X216.086Y80.62
X216.124Y80.609
X216.162Y80.597
X216.199Y80.584
X216.237Y80.569
X216.273Y80.554
X216.31Y80.539
X216.346Y80.522
X216.381Y80.504
X216.417Y80.485
X216.451Y80.466
X216.486Y80.445
X216.52Y80.423
X216.554Y80.401
X216.587Y80.378
X216.62Y80.353
X216.652Y80.328
X216.683Y80.303
X216.698Y80.29
X216.727Y80.263
X216.749Y80.243
X216.771Y80.222
X216.799Y80.193
X216.827Y80.164
X216.859Y80.128
X216.89Y80.091
X216.911Y80.064
X216.933Y80.036
X216.953Y80.007
X216.974Y79.978
X216.993Y79.948
X217.012Y79.918
X217.029Y79.89
X217.045Y79.861
X217.061Y79.832
X217.08Y79.795
X217.098Y79.757
X217.111Y79.728
X217.124Y79.698
X217.14Y79.658
X217.148Y79.636
X217.162Y79.596
X217.175Y79.555
X217.187Y79.513
X217.199Y79.471
X217.208Y79.428
X217.217Y79.388
X217.224Y79.347
X217.231Y79.296
X217.238Y79.24
X217.241Y79.206
X217.243Y79.172
X217.244Y79.139
X217.245Y79.089
Y78.857
X217.256Y78.795
X217.266Y78.719
X217.275Y78.64
X217.28Y78.563
X217.283Y78.485
Y78.447
Y67.613
Y67.574
X217.281Y67.534
X217.279Y67.495
X217.275Y67.455
X217.271Y67.416
X217.266Y67.377
X217.259Y67.338
X217.252Y67.299
X217.245Y67.266
X217.244Y67.224
X217.241Y67.181
X217.238Y67.138
X217.233Y67.095
X217.227Y67.052
X217.22Y67.01
X217.212Y66.968
X217.203Y66.925
X217.192Y66.884
X217.183Y66.849
X217.173Y66.815
X217.162Y66.781
X217.15Y66.747
X217.137Y66.713
X217.12Y66.672
X217.102Y66.631
X217.083Y66.591
X217.061Y66.547
X217.045Y66.517
X217.028Y66.488
X217.007Y66.452
X216.984Y66.416
X216.962Y66.384
X216.94Y66.353
X216.917Y66.322
X216.893Y66.291
X216.869Y66.262
X216.843Y66.232
X216.818Y66.204
X216.791Y66.176
X216.764Y66.149
X216.736Y66.122
X216.707Y66.096
X216.678Y66.071
X216.648Y66.047
X216.618Y66.023
X216.587Y66
X216.555Y65.978
X216.523Y65.956
X216.49Y65.936
X216.457Y65.916
X216.424Y65.897
X216.389Y65.878
X216.355Y65.861
X216.32Y65.844
X216.286Y65.829
X216.25Y65.814
X216.215Y65.8
X216.179Y65.787
X216.143Y65.775
X216.106Y65.764
X216.069Y65.753
X216.032Y65.744
X215.995Y65.735
X215.958Y65.727
X215.92Y65.72
X215.882Y65.715
X215.845Y65.709
X215.807Y65.705
X215.768Y65.702
X215.73Y65.7
X215.692Y65.698
X215.654
X211.718
X211.128Y65.685
X210.383Y65.68
G0Z1
X176.118Y73.007
G1Z-0.8F50
X176.135Y72.969F100
X176.145Y72.946
X176.157Y72.921
X176.169Y72.896
X176.182Y72.871
X176.196Y72.847
X176.208Y72.824
X176.224Y72.798
X176.254Y72.749
X176.268Y72.728
X176.284Y72.705
X176.3Y72.682
X176.317Y72.66
X176.333Y72.638
X176.369Y72.594
X176.387Y72.573
X176.406Y72.552
X176.435Y72.52
X176.465Y72.49
X176.483Y72.472
X176.503Y72.453
X176.524Y72.434
X176.545Y72.416
X176.566Y72.397
X176.587Y72.38
X176.609Y72.362
X176.631Y72.345
X176.654Y72.329
X176.676Y72.313
X176.714Y72.287
X176.748Y72.265
X176.794Y72.238
X176.818Y72.224
X176.843Y72.211
X176.867Y72.198
X176.892Y72.186
X176.92Y72.172
X176.943Y72.162
X176.968Y72.151
X176.994Y72.14
X177.02Y72.13
X177.046Y72.12
X177.072Y72.111
X177.125Y72.094
X177.152Y72.086
X177.179Y72.078
X177.206Y72.071
X177.26Y72.059
X177.287Y72.053
X177.315Y72.048
X177.342Y72.044
X177.37Y72.039
X177.397Y72.036
X177.425Y72.033
X177.457Y72.03
X177.481Y72.028
X177.536Y72.025
X177.564Y72.024
X177.592
X177.62
X177.648Y72.025
X177.704Y72.028
X177.731Y72.03
X177.759Y72.033
X177.787Y72.036
X177.814Y72.039
X177.842Y72.044
X177.869Y72.048
X177.897Y72.053
X177.951Y72.065
X177.978Y72.071
X178.005Y72.078
X178.032Y72.086
X178.059Y72.094
X178.085Y72.102
X178.112Y72.111
X178.138Y72.12
X178.164Y72.13
X178.19Y72.14
X178.216Y72.151
X178.241Y72.162
X178.267Y72.174
X178.292Y72.186
X178.317Y72.198
X178.342Y72.211
X178.366Y72.224
X178.386Y72.235
X178.416Y72.253
X178.438Y72.267
X178.462Y72.282
X178.485Y72.297
X178.508Y72.313
X178.531Y72.329
X178.553Y72.345
X178.575Y72.362
X178.597Y72.38
X178.618Y72.397
X178.64Y72.416
X178.661Y72.434
X178.701Y72.472
X178.721Y72.492
X178.741Y72.511
X178.76Y72.532
X178.779Y72.552
X178.797Y72.573
X178.815Y72.594
X178.833Y72.616
X178.85Y72.637
X178.867Y72.66
X178.884Y72.682
X178.9Y72.705
X178.916Y72.728
X178.931Y72.751
X178.946Y72.775
X178.961Y72.798
X178.975Y72.822
X178.989Y72.847
X179.002Y72.871
X179.015Y72.896
X179.027Y72.921
X179.039Y72.946
X179.051Y72.971
X179.062Y72.997
X179.072Y73.022
X179.083Y73.049
X179.092Y73.075
X179.102Y73.101
X179.111Y73.127
X179.119Y73.154
X179.127Y73.18
X179.134Y73.206
X179.141Y73.235
X179.148Y73.261
X179.154Y73.289
X179.159Y73.316
X179.164Y73.343
X179.169Y73.371
X179.173Y73.398
X179.177Y73.426
X179.18Y73.454
X179.183Y73.481
X179.185Y73.509
X179.187Y73.537
X179.188Y73.565
Y73.593
X179.189Y73.621
X179.188Y73.649
Y73.676
X179.187Y73.704
X179.185Y73.732
X179.183Y73.76
X179.18Y73.788
X179.177Y73.815
X179.173Y73.843
X179.169Y73.871
X179.164Y73.898
X179.159Y73.925
X179.154Y73.953
X179.148Y73.98
X179.141Y74.007
X179.134Y74.034
X179.127Y74.061
X179.119Y74.087
X179.111Y74.114
X179.102Y74.141
X179.092Y74.167
X179.083Y74.193
X179.072Y74.219
X179.062Y74.245
X179.051Y74.27
X179.039Y74.295
X179.027Y74.321
X179.015Y74.345
X179.002Y74.37
X178.989Y74.395
X178.975Y74.419
X178.961Y74.443
X178.946Y74.467
X178.931Y74.49
X178.916Y74.513
X178.9Y74.537
X178.884Y74.559
X178.867Y74.581
X178.85Y74.604
X178.833Y74.625
X178.815Y74.647
X178.797Y74.668
X178.779Y74.689
X178.76Y74.709
X178.741Y74.73
X178.721Y74.75
X178.701Y74.769
X178.681Y74.788
X178.661Y74.807
X178.64Y74.825
X178.618Y74.844
X178.597Y74.862
X178.575Y74.879
X178.553Y74.896
X178.531Y74.912
X178.508Y74.928
X178.485Y74.944
X178.462Y74.96
X178.438Y74.975
X178.415Y74.989
X178.391Y75.003
X178.366Y75.017
X178.342Y75.03
X178.317Y75.043
X178.292Y75.056
X178.267Y75.068
X178.241Y75.079
X178.216Y75.09
X178.19Y75.101
X178.164Y75.111
X178.138Y75.121
X178.112Y75.13
X178.085Y75.139
X178.059Y75.147
X178.032Y75.155
X178.005Y75.163
X177.978Y75.17
X177.951Y75.176
X177.924Y75.182
X177.897Y75.188
X177.869Y75.193
X177.842Y75.198
X177.814Y75.202
X177.787Y75.205
X177.759Y75.208
X177.731Y75.211
X177.703Y75.213
X177.676Y75.215
X177.648Y75.216
X177.62Y75.217
X177.573
X177.534Y75.216
X177.509Y75.215
X177.481Y75.213
X177.453Y75.211
X177.396Y75.205
X177.37Y75.202
X177.342Y75.198
X177.315Y75.193
X177.287Y75.188
X177.26Y75.182
X177.233Y75.176
X177.206Y75.17
X177.179Y75.163
X177.152Y75.155
X177.125Y75.147
X177.099Y75.139
X177.072Y75.13
X177.046Y75.121
X177.02Y75.111
X176.994Y75.101
X176.968Y75.09
X176.943Y75.079
X176.892Y75.056
X176.867Y75.043
X176.818Y75.017
X176.794Y75.003
X176.77Y74.989
X176.746Y74.975
X176.723Y74.96
X176.676Y74.928
X176.654Y74.912
X176.631Y74.896
X176.609Y74.879
X176.587Y74.861
X176.566Y74.844
X176.545Y74.826
X176.524Y74.807
X176.503Y74.788
X176.483Y74.769
X176.463Y74.75
X176.444Y74.73
X176.424Y74.709
X176.406Y74.689
X176.387Y74.668
X176.369Y74.647
X176.351Y74.625
X176.334Y74.604
X176.317Y74.581
X176.3Y74.559
X176.284Y74.536
X176.268Y74.513
X176.253Y74.49
X176.229Y74.452
X176.207Y74.414
X176.196Y74.394
X176.182Y74.37
X176.169Y74.345
X176.157Y74.321
X176.145Y74.296
X176.133Y74.27
X176.122Y74.244
X176.112Y74.219
X176.102Y74.193
X176.092Y74.167
X176.082Y74.14
X176.074Y74.114
X176.065Y74.087
X176.057Y74.061
X176.05Y74.034
X176.043Y74.007
X176.036Y73.98
X176.025Y73.925
X176.02Y73.898
X176.015Y73.87
X176.011Y73.843
X176.007Y73.815
X176.004Y73.788
X176.002Y73.76
X175.999Y73.732
X175.998Y73.704
X175.996Y73.676
X175.995Y73.621
X175.996Y73.599
Y73.563
X175.998Y73.537
X175.999Y73.509
X176.002Y73.481
X176.004Y73.454
X176.007Y73.426
X176.011Y73.398
X176.015Y73.371
X176.02Y73.343
X176.025Y73.316
X176.03Y73.289
X176.036Y73.261
X176.043Y73.234
X176.05Y73.207
X176.057Y73.18
X176.065Y73.154
X176.074Y73.127
X176.082Y73.101
X176.092Y73.075
X176.102Y73.048
X176.118Y73.007
G0Z1
X190.977Y73.605
G1Z-0.8F50
X190.994Y73.429F100
X191.045Y73.26
X191.128Y73.104
X191.24Y72.968
X191.377Y72.856
X191.533Y72.772
X191.702Y72.721
X191.878Y72.704
X192.054Y72.721
X192.223Y72.772
X192.379Y72.856
X192.515Y72.968
X192.627Y73.104
X192.711Y73.26
X192.762Y73.429
X192.779Y73.605
X192.762Y73.781
X192.711Y73.95
X192.627Y74.106
X192.515Y74.243
X192.379Y74.355
X192.223Y74.438
X192.054Y74.489
X191.878Y74.506
X191.702Y74.489
X191.533Y74.438
X191.377Y74.355
X191.24Y74.242
X191.128Y74.106
X191.045Y73.95
X190.994Y73.781
X190.977Y73.605
G0Z1
X206.88
G1Z-0.8F50
X206.898Y73.429F100
X206.949Y73.26
X207.032Y73.104
X207.144Y72.968
X207.281Y72.856
X207.437Y72.772
X207.606Y72.721
X207.782Y72.704
X207.958Y72.721
X208.127Y72.772
X208.282Y72.856
X208.419Y72.968
X208.531Y73.104
X208.614Y73.26
X208.666Y73.429
X208.683Y73.605
X208.666Y73.781
X208.614Y73.95
X208.531Y74.106
X208.419Y74.242
X208.282Y74.355
X208.127Y74.438
X207.958Y74.489
X207.782Y74.506
X207.606Y74.489
X207.437Y74.438
X207.281Y74.355
X207.144Y74.242
X207.032Y74.106
X206.949Y73.95
X206.898Y73.781
X206.88Y73.605
G0Z1
X210.383Y65.68
G1Z-0.8F50
X183.929F100
X183.275Y65.685
X182.621Y65.702
X181.968Y65.729
X181.315Y65.767
X180.662Y65.816
X180.011Y65.876
X179.361Y65.947
X178.712Y66.029
X178.064Y66.121
X177.419Y66.224
X176.774Y66.338
X176.132Y66.462
X176.008Y66.488
X175.884Y66.517
X175.762Y66.548
X175.64Y66.58
X175.518Y66.615
X175.397Y66.652
X175.277Y66.691
X175.157Y66.732
X175.038Y66.776
X174.92Y66.821
X174.802Y66.868
X174.686Y66.918
X174.57Y66.969
X174.455Y67.022
X174.341Y67.078
X174.228Y67.135
X174.117Y67.194
X174.006Y67.255
X173.896Y67.318
X173.787Y67.383
X173.68Y67.45
X173.574Y67.519
X173.469Y67.589
X173.365Y67.662
X173.262Y67.736
X173.161Y67.812
X173.061Y67.89
X172.962Y67.969
X172.865Y68.05
X172.769Y68.133
X172.675Y68.217
X172.582Y68.303
X172.491Y68.391
X172.401Y68.48
X172.313Y68.57
X172.226Y68.663
X172.141Y68.756
X172.057Y68.852
X171.976Y68.948
X171.876Y69.07
X171.778Y69.194
X171.682Y69.319
X171.588Y69.447
X171.497Y69.576
X171.408Y69.706
X171.321Y69.838
X171.236Y69.971
X171.154Y70.106
X171.074Y70.242
X170.996Y70.38
X170.921Y70.519
X170.848Y70.659
X170.777Y70.8
X170.709Y70.943
X170.643Y71.086
X170.58Y71.231
X170.52Y71.377
X170.461Y71.524
X170.406Y71.672
X170.352Y71.82
X170.302Y71.97
X170.254Y72.121
X170.209Y72.272
X170.166Y72.424
X170.126Y72.577
X170.088Y72.73
X170.053Y72.884
X170.021Y73.039
X169.991Y73.194
X169.964Y73.349
X169.94Y73.506
X169.918Y73.662
X169.899Y73.819
X169.883Y73.976
X169.87Y74.133
X169.859Y74.291
X169.851Y74.448
X169.845Y74.606
X169.842Y74.764
Y74.922
X169.845Y75.08
X169.85Y75.238
X169.858Y75.396
X169.869Y75.553
X169.883Y75.711
X169.899Y75.868
X169.918Y76.025
X169.937Y76.168
X170.357Y79.059
X170.37Y79.134
X170.387Y79.211
X170.406Y79.286
X170.428Y79.359
X170.452Y79.433
X170.479Y79.506
X170.508Y79.578
X170.54Y79.648
X170.574Y79.718
X170.611Y79.786
X170.649Y79.852
X170.691Y79.919
X170.734Y79.983
X170.78Y80.045
X170.828Y80.107
X170.877Y80.165
X170.93Y80.223
X170.984Y80.278
X171.039Y80.332
X171.097Y80.384
X171.157Y80.433
X171.218Y80.481
X171.281Y80.527
X171.344Y80.569
X171.411Y80.611
X171.477Y80.649
X171.546Y80.685
X171.616Y80.72
X171.686Y80.75
X171.759Y80.78
X171.831Y80.806
X171.905Y80.83
X171.979Y80.851
X172.055Y80.87
X172.13Y80.886
X172.207Y80.899
X172.284Y80.91
X172.36Y80.918
X172.438Y80.924
X172.515Y80.926
X172.554Y80.927
X177.605
X177.721Y80.925
X177.838Y80.922
X177.955Y80.918
X178.072Y80.911
X179.327Y80.82
X180.48Y80.756
X181.633Y80.71
X182.788Y80.682
X183.948Y80.673
X187.501
X187.539Y80.676
X187.578Y80.678
X187.616Y80.68
X187.654
X215.654
X215.694
X215.733Y80.678
X215.773Y80.676
X215.813Y80.672
X215.852Y80.668
X215.891Y80.662
X215.931Y80.656
X215.97Y80.648
X216.009Y80.64
X216.048Y80.631
X216.086Y80.62
X216.124Y80.609
X216.162Y80.597
X216.199Y80.584
X216.237Y80.569
X216.273Y80.554
X216.31Y80.539
X216.346Y80.522
X216.381Y80.504
X216.417Y80.485
X216.451Y80.466
X216.486Y80.445
X216.52Y80.423
X216.554Y80.401
X216.587Y80.378
X216.62Y80.353
X216.652Y80.328
X216.683Y80.303
X216.698Y80.29
X216.727Y80.263
X216.749Y80.243
X216.771Y80.222
X216.799Y80.193
X216.827Y80.164
X216.859Y80.128
X216.89Y80.091
X216.911Y80.064
X216.933Y80.036
X216.953Y80.007
X216.974Y79.978
X216.993Y79.948
X217.012Y79.918
X217.029Y79.89
X217.045Y79.861
X217.061Y79.832
X217.08Y79.795
X217.098Y79.757
X217.111Y79.728
X217.124Y79.698
X217.14Y79.658
X217.148Y79.636
X217.162Y79.596
X217.175Y79.555
X217.187Y79.513
X217.199Y79.471
X217.208Y79.428
X217.217Y79.388
X217.224Y79.347
X217.231Y79.296
X217.238Y79.24
X217.241Y79.206
X217.243Y79.172
X217.244Y79.139
X217.245Y79.089
Y78.857
X217.256Y78.795
X217.266Y78.719
X217.275Y78.64
X217.28Y78.563
X217.283Y78.485
Y78.447
Y67.613
Y67.574
X217.281Y67.534
X217.279Y67.495
X217.275Y67.455
X217.271Y67.416
X217.266Y67.377
X217.259Y67.338
X217.252Y67.299
X217.245Y67.266
X217.244Y67.224
X217.241Y67.181
X217.238Y67.138
X217.233Y67.095
X217.227Y67.052
X217.22Y67.01
X217.212Y66.968
X217.203Y66.925
X217.192Y66.884
X217.183Y66.849
X217.173Y66.815
X217.162Y66.781
X217.15Y66.747
X217.137Y66.713
X217.12Y66.672
X217.102Y66.631
X217.083Y66.591
X217.061Y66.547
X217.045Y66.517
X217.028Y66.488
X217.007Y66.452
X216.984Y66.416
X216.962Y66.384
X216.94Y66.353
X216.917Y66.322
X216.893Y66.291
X216.869Y66.262
X216.843Y66.232
X216.818Y66.204
X216.791Y66.176
X216.764Y66.149
X216.736Y66.122
X216.707Y66.096
X216.678Y66.071
X216.648Y66.047
X216.618Y66.023
X216.587Y66
X216.555Y65.978
X216.523Y65.956
X216.49Y65.936
X216.457Y65.916
X216.424Y65.897
X216.389Y65.878
X216.355Y65.861
X216.32Y65.844
X216.286Y65.829
X216.25Y65.814
X216.215Y65.8
X216.179Y65.787
X216.143Y65.775
X216.106Y65.764
X216.069Y65.753
X216.032Y65.744
X215.995Y65.735
X215.958Y65.727
X215.92Y65.72
X215.882Y65.715
X215.845Y65.709
X215.807Y65.705
X215.768Y65.702
X215.73Y65.7
X215.692Y65.698
X215.654
X211.718
X211.128Y65.685
X210.383Y65.68
G0Z1
X176.118Y73.007
G1Z-0.9F50
X176.135Y72.969F100
X176.145Y72.946
X176.157Y72.921
X176.169Y72.896
X176.182Y72.871
X176.196Y72.847
X176.208Y72.824
X176.224Y72.798
X176.254Y72.749
X176.268Y72.728
X176.284Y72.705
X176.3Y72.682
X176.317Y72.66
X176.333Y72.638
X176.369Y72.594
X176.387Y72.573
X176.406Y72.552
X176.435Y72.52
X176.465Y72.49
X176.483Y72.472
X176.503Y72.453
X176.524Y72.434
X176.545Y72.416
X176.566Y72.397
X176.587Y72.38
X176.609Y72.362
X176.631Y72.345
X176.654Y72.329
X176.676Y72.313
X176.714Y72.287
X176.748Y72.265
X176.794Y72.238
X176.818Y72.224
X176.843Y72.211
X176.867Y72.198
X176.892Y72.186
X176.92Y72.172
X176.943Y72.162
X176.968Y72.151
X176.994Y72.14
X177.02Y72.13
X177.046Y72.12
X177.072Y72.111
X177.125Y72.094
X177.152Y72.086
X177.179Y72.078
X177.206Y72.071
X177.26Y72.059
X177.287Y72.053
X177.315Y72.048
X177.342Y72.044
X177.37Y72.039
X177.397Y72.036
X177.425Y72.033
X177.457Y72.03
X177.481Y72.028
X177.536Y72.025
X177.564Y72.024
X177.592
X177.62
X177.648Y72.025
X177.704Y72.028
X177.731Y72.03
X177.759Y72.033
X177.787Y72.036
X177.814Y72.039
X177.842Y72.044
X177.869Y72.048
X177.897Y72.053
X177.951Y72.065
X177.978Y72.071
X178.005Y72.078
X178.032Y72.086
X178.059Y72.094
X178.085Y72.102
X178.112Y72.111
X178.138Y72.12
X178.164Y72.13
X178.19Y72.14
X178.216Y72.151
X178.241Y72.162
X178.267Y72.174
X178.292Y72.186
X178.317Y72.198
X178.342Y72.211
X178.366Y72.224
X178.386Y72.235
X178.416Y72.253
X178.438Y72.267
X178.462Y72.282
X178.485Y72.297
X178.508Y72.313
X178.531Y72.329
X178.553Y72.345
X178.575Y72.362
X178.597Y72.38
X178.618Y72.397
X178.64Y72.416
X178.661Y72.434
X178.701Y72.472
X178.721Y72.492
X178.741Y72.511
X178.76Y72.532
X178.779Y72.552
X178.797Y72.573
X178.815Y72.594
X178.833Y72.616
X178.85Y72.637
X178.867Y72.66
X178.884Y72.682
X178.9Y72.705
X178.916Y72.728
X178.931Y72.751
X178.946Y72.775
X178.961Y72.798
X178.975Y72.822
X178.989Y72.847
X179.002Y72.871
X179.015Y72.896
X179.027Y72.921
X179.039Y72.946
X179.051Y72.971
X179.062Y72.997
X179.072Y73.022
X179.083Y73.049
X179.092Y73.075
X179.102Y73.101
X179.111Y73.127
X179.119Y73.154
X179.127Y73.18
X179.134Y73.206
X179.141Y73.235
X179.148Y73.261
X179.154Y73.289
X179.159Y73.316
X179.164Y73.343
X179.169Y73.371
X179.173Y73.398
X179.177Y73.426
X179.18Y73.454
X179.183Y73.481
X179.185Y73.509
X179.187Y73.537
X179.188Y73.565
Y73.593
X179.189Y73.621
X179.188Y73.649
Y73.676
X179.187Y73.704
X179.185Y73.732
X179.183Y73.76
X179.18Y73.788
X179.177Y73.815
X179.173Y73.843
X179.169Y73.871
X179.164Y73.898
X179.159Y73.925
X179.154Y73.953
X179.148Y73.98
X179.141Y74.007
X179.134Y74.034
X179.127Y74.061
X179.119Y74.087
X179.111Y74.114
X179.102Y74.141
X179.092Y74.167
X179.083Y74.193
X179.072Y74.219
X179.062Y74.245
X179.051Y74.27
X179.039Y74.295
X179.027Y74.321
X179.015Y74.345
X179.002Y74.37
X178.989Y74.395
X178.975Y74.419
X178.961Y74.443
X178.946Y74.467
X178.931Y74.49
X178.916Y74.513
X178.9Y74.537
X178.884Y74.559
X178.867Y74.581
X178.85Y74.604
X178.833Y74.625
X178.815Y74.647
X178.797Y74.668
X178.779Y74.689
X178.76Y74.709
X178.741Y74.73
X178.721Y74.75
X178.701Y74.769
X178.681Y74.788
X178.661Y74.807
X178.64Y74.825
X178.618Y74.844
X178.597Y74.862
X178.575Y74.879
X178.553Y74.896
X178.531Y74.912
X178.508Y74.928
X178.485Y74.944
X178.462Y74.96
X178.438Y74.975
X178.415Y74.989
X178.391Y75.003
X178.366Y75.017
X178.342Y75.03
X178.317Y75.043
X178.292Y75.056
X178.267Y75.068
X178.241Y75.079
X178.216Y75.09
X178.19Y75.101
X178.164Y75.111
X178.138Y75.121
X178.112Y75.13
X178.085Y75.139
X178.059Y75.147
X178.032Y75.155
X178.005Y75.163
X177.978Y75.17
X177.951Y75.176
X177.924Y75.182
X177.897Y75.188
X177.869Y75.193
X177.842Y75.198
X177.814Y75.202
X177.787Y75.205
X177.759Y75.208
X177.731Y75.211
X177.703Y75.213
X177.676Y75.215
X177.648Y75.216
X177.62Y75.217
X177.573
X177.534Y75.216
X177.509Y75.215
X177.481Y75.213
X177.453Y75.211
X177.396Y75.205
X177.37Y75.202
X177.342Y75.198
X177.315Y75.193
X177.287Y75.188
X177.26Y75.182
X177.233Y75.176
X177.206Y75.17
X177.179Y75.163
X177.152Y75.155
X177.125Y75.147
X177.099Y75.139
X177.072Y75.13
X177.046Y75.121
X177.02Y75.111
X176.994Y75.101
X176.968Y75.09
X176.943Y75.079
X176.892Y75.056
X176.867Y75.043
X176.818Y75.017
X176.794Y75.003
X176.77Y74.989
X176.746Y74.975
X176.723Y74.96
X176.676Y74.928
X176.654Y74.912
X176.631Y74.896
X176.609Y74.879
X176.587Y74.861
X176.566Y74.844
X176.545Y74.826
X176.524Y74.807
X176.503Y74.788
X176.483Y74.769
X176.463Y74.75
X176.444Y74.73
X176.424Y74.709
X176.406Y74.689
X176.387Y74.668
X176.369Y74.647
X176.351Y74.625
X176.334Y74.604
X176.317Y74.581
X176.3Y74.559
X176.284Y74.536
X176.268Y74.513
X176.253Y74.49
X176.229Y74.452
X176.207Y74.414
X176.196Y74.394
X176.182Y74.37
X176.169Y74.345
X176.157Y74.321
X176.145Y74.296
X176.133Y74.27
X176.122Y74.244
X176.112Y74.219
X176.102Y74.193
X176.092Y74.167
X176.082Y74.14
X176.074Y74.114
X176.065Y74.087
X176.057Y74.061
X176.05Y74.034
X176.043Y74.007
X176.036Y73.98
X176.025Y73.925
X176.02Y73.898
X176.015Y73.87
X176.011Y73.843
X176.007Y73.815
X176.004Y73.788
X176.002Y73.76
X175.999Y73.732
X175.998Y73.704
X175.996Y73.676
X175.995Y73.621
X175.996Y73.599
Y73.563
X175.998Y73.537
X175.999Y73.509
X176.002Y73.481
X176.004Y73.454
X176.007Y73.426
X176.011Y73.398
X176.015Y73.371
X176.02Y73.343
X176.025Y73.316
X176.03Y73.289
X176.036Y73.261
X176.043Y73.234
X176.05Y73.207
X176.057Y73.18
X176.065Y73.154
X176.074Y73.127
X176.082Y73.101
X176.092Y73.075
X176.102Y73.048
X176.118Y73.007
G0Z1
X190.977Y73.605
G1Z-0.9F50
X190.994Y73.429F100
X191.045Y73.26
X191.128Y73.104
X191.24Y72.968
X191.377Y72.856
X191.533Y72.772
X191.702Y72.721
X191.878Y72.704
X192.054Y72.721
X192.223Y72.772
X192.379Y72.856
X192.515Y72.968
X192.627Y73.104
X192.711Y73.26
X192.762Y73.429
X192.779Y73.605
X192.762Y73.781
X192.711Y73.95
X192.627Y74.106
X192.515Y74.243
X192.379Y74.355
X192.223Y74.438
X192.054Y74.489
X191.878Y74.506
X191.702Y74.489
X191.533Y74.438
X191.377Y74.355
X191.24Y74.242
X191.128Y74.106
X191.045Y73.95
X190.994Y73.781
X190.977Y73.605
G0Z1
X206.88
G1Z-0.9F50
X206.898Y73.429F100
X206.949Y73.26
X207.032Y73.104
X207.144Y72.968
X207.281Y72.856
X207.437Y72.772
X207.606Y72.721
X207.782Y72.704
X207.958Y72.721
X208.127Y72.772
X208.282Y72.856
X208.419Y72.968
X208.531Y73.104
X208.614Y73.26
X208.666Y73.429
X208.683Y73.605
X208.666Y73.781
X208.614Y73.95
X208.531Y74.106
X208.419Y74.242
X208.282Y74.355
X208.127Y74.438
X207.958Y74.489
X207.782Y74.506
X207.606Y74.489
X207.437Y74.438
X207.281Y74.355
X207.144Y74.242
X207.032Y74.106
X206.949Y73.95
X206.898Y73.781
X206.88Y73.605
G0Z1
X210.383Y65.68
G1Z-0.9F50
X183.929F100
X183.275Y65.685
X182.621Y65.702
X181.968Y65.729
X181.315Y65.767
X180.662Y65.816
X180.011Y65.876
X179.361Y65.947
X178.712Y66.029
X178.064Y66.121
X177.419Y66.224
X176.774Y66.338
X176.132Y66.462
X176.008Y66.488
X175.884Y66.517
X175.762Y66.548
X175.64Y66.58
X175.518Y66.615
X175.397Y66.652
X175.277Y66.691
X175.157Y66.732
X175.038Y66.776
X174.92Y66.821
X174.802Y66.868
X174.686Y66.918
X174.57Y66.969
X174.455Y67.022
X174.341Y67.078
X174.228Y67.135
X174.117Y67.194
X174.006Y67.255
X173.896Y67.318
X173.787Y67.383
X173.68Y67.45
X173.574Y67.519
X173.469Y67.589
X173.365Y67.662
X173.262Y67.736
X173.161Y67.812
X173.061Y67.89
X172.962Y67.969
X172.865Y68.05
X172.769Y68.133
X172.675Y68.217
X172.582Y68.303
X172.491Y68.391
X172.401Y68.48
X172.313Y68.57
X172.226Y68.663
X172.141Y68.756
X172.057Y68.852
X171.976Y68.948
X171.876Y69.07
X171.778Y69.194
X171.682Y69.319
X171.588Y69.447
X171.497Y69.576
X171.408Y69.706
X171.321Y69.838
X171.236Y69.971
X171.154Y70.106
X171.074Y70.242
X170.996Y70.38
X170.921Y70.519
X170.848Y70.659
X170.777Y70.8
X170.709Y70.943
X170.643Y71.086
X170.58Y71.231
X170.52Y71.377
X170.461Y71.524
X170.406Y71.672
X170.352Y71.82
X170.302Y71.97
X170.254Y72.121
X170.209Y72.272
X170.166Y72.424
X170.126Y72.577
X170.088Y72.73
X170.053Y72.884
X170.021Y73.039
X169.991Y73.194
X169.964Y73.349
X169.94Y73.506
X169.918Y73.662
X169.899Y73.819
X169.883Y73.976
X169.87Y74.133
X169.859Y74.291
X169.851Y74.448
X169.845Y74.606
X169.842Y74.764
Y74.922
X169.845Y75.08
X169.85Y75.238
X169.858Y75.396
X169.869Y75.553
X169.883Y75.711
X169.899Y75.868
X169.918Y76.025
X169.937Y76.168
X170.357Y79.059
X170.37Y79.134
X170.387Y79.211
X170.406Y79.286
X170.428Y79.359
X170.452Y79.433
X170.479Y79.506
X170.508Y79.578
X170.54Y79.648
X170.574Y79.718
X170.611Y79.786
X170.649Y79.852
X170.691Y79.919
X170.734Y79.983
X170.78Y80.045
X170.828Y80.107
X170.877Y80.165
X170.93Y80.223
X170.984Y80.278
X171.039Y80.332
X171.097Y80.384
X171.157Y80.433
X171.218Y80.481
X171.281Y80.527
X171.344Y80.569
X171.411Y80.611
X171.477Y80.649
X171.546Y80.685
X171.616Y80.72
X171.686Y80.75
X171.759Y80.78
X171.831Y80.806
X171.905Y80.83
X171.979Y80.851
X172.055Y80.87
X172.13Y80.886
X172.207Y80.899
X172.284Y80.91
X172.36Y80.918
X172.438Y80.924
X172.515Y80.926
X172.554Y80.927
X177.605
X177.721Y80.925
X177.838Y80.922
X177.955Y80.918
X178.072Y80.911
X179.327Y80.82
X180.48Y80.756
X181.633Y80.71
X182.788Y80.682
X183.948Y80.673
X187.501
X187.539Y80.676
X187.578Y80.678
X187.616Y80.68
X187.654
X215.654
X215.694
X215.733Y80.678
X215.773Y80.676
X215.813Y80.672
X215.852Y80.668
X215.891Y80.662
X215.931Y80.656
X215.97Y80.648
X216.009Y80.64
X216.048Y80.631
X216.086Y80.62
X216.124Y80.609
X216.162Y80.597
X216.199Y80.584
X216.237Y80.569
X216.273Y80.554
X216.31Y80.539
X216.346Y80.522
X216.381Y80.504
X216.417Y80.485
X216.451Y80.466
X216.486Y80.445
X216.52Y80.423
X216.554Y80.401
X216.587Y80.378
X216.62Y80.353
X216.652Y80.328
X216.683Y80.303
X216.698Y80.29
X216.727Y80.263
X216.749Y80.243
X216.771Y80.222
X216.799Y80.193
X216.827Y80.164
X216.859Y80.128
X216.89Y80.091
X216.911Y80.064
X216.933Y80.036
X216.953Y80.007
X216.974Y79.978
X216.993Y79.948
X217.012Y79.918
X217.029Y79.89
X217.045Y79.861
X217.061Y79.832
X217.08Y79.795
X217.098Y79.757
X217.111Y79.728
X217.124Y79.698
X217.14Y79.658
X217.148Y79.636
X217.162Y79.596
X217.175Y79.555
X217.187Y79.513
X217.199Y79.471
X217.208Y79.428
X217.217Y79.388
X217.224Y79.347
X217.231Y79.296
X217.238Y79.24
X217.241Y79.206
X217.243Y79.172
X217.244Y79.139
X217.245Y79.089
Y78.857
X217.256Y78.795
X217.266Y78.719
X217.275Y78.64
X217.28Y78.563
X217.283Y78.485
Y78.447
Y67.613
Y67.574
X217.281Y67.534
X217.279Y67.495
X217.275Y67.455
X217.271Y67.416
X217.266Y67.377
X217.259Y67.338
X217.252Y67.299
X217.245Y67.266
X217.244Y67.224
X217.241Y67.181
X217.238Y67.138
X217.233Y67.095
X217.227Y67.052
