(Created with grbl post processor 2025/02/05 15:51)
G21
(G-code generated with BlenderCAM and NC library)
G17G90
(Tool: D = 3.18 mm  type END flutes 2)
S1000M03
G00 Z1.0

G0X0Y0Z1
X93.494Y154.991
G1Z-0.025F50
X93.518Y154.977F100
X93.542Y154.963
X93.567Y154.95
X93.592Y154.937
X93.617Y154.925
X93.642Y154.913
X93.667Y154.901
X93.693Y154.89
X93.718Y154.88
X93.744Y154.869
X93.797Y154.85
X93.823Y154.841
X93.876Y154.825
X93.932Y154.81
X93.987Y154.798
X94.012Y154.793
X94.039Y154.788
X94.067Y154.783
X94.095Y154.779
X94.122Y154.775
X94.15Y154.772
X94.177Y154.769
X94.205Y154.767
X94.233Y154.765
X94.261Y154.764
X94.289
X94.317Y154.763
X94.344Y154.764
X94.372
X94.4Y154.765
X94.428Y154.767
X94.456Y154.769
X94.484Y154.772
X94.511Y154.775
X94.539Y154.779
X94.566Y154.783
X94.594Y154.788
X94.621Y154.793
X94.648Y154.798
X94.676Y154.804
X94.703Y154.811
X94.73Y154.818
X94.757Y154.825
X94.783Y154.833
X94.81Y154.841
X94.836Y154.85
X94.863Y154.86
X94.889Y154.869
X94.915Y154.88
X94.94Y154.89
X94.966Y154.901
X94.991Y154.913
X95.017Y154.925
X95.041Y154.937
X95.066Y154.95
X95.091Y154.963
X95.115Y154.977
X95.139Y154.991
X95.163Y155.006
X95.186Y155.021
X95.209Y155.036
X95.232Y155.052
X95.255Y155.068
X95.277Y155.085
X95.3Y155.102
X95.321Y155.119
X95.343Y155.137
X95.385Y155.173
X95.405Y155.192
X95.426Y155.211
X95.445Y155.231
X95.465Y155.251
X95.484Y155.271
X95.522Y155.312
X95.54Y155.334
X95.557Y155.355
X95.575Y155.377
X95.592Y155.399
X95.608Y155.421
X95.624Y155.444
X95.64Y155.467
X95.671Y155.514
X95.685Y155.538
X95.699Y155.562
X95.713Y155.586
X95.726Y155.61
X95.739Y155.635
X95.752Y155.66
X95.764Y155.685
X95.775Y155.711
X95.786Y155.736
X95.797Y155.762
X95.817Y155.814
X95.826Y155.84
X95.835Y155.866
X95.843Y155.893
X95.859Y155.947
X95.866Y155.974
X95.872Y156.001
X95.878Y156.028
X95.884Y156.055
X95.889Y156.083
X95.894Y156.11
X95.898Y156.138
X95.901Y156.165
X95.904Y156.193
X95.907Y156.221
X95.909Y156.249
X95.911Y156.276
X95.912Y156.304
X95.913Y156.332
Y156.36
Y156.388
X95.912Y156.416
X95.911Y156.443
X95.909Y156.471
X95.907Y156.499
X95.904Y156.527
X95.901Y156.555
X95.898Y156.582
X95.894Y156.61
X95.889Y156.637
X95.884Y156.664
X95.878Y156.692
X95.872Y156.719
X95.866Y156.746
X95.859Y156.773
X95.851Y156.8
X95.843Y156.827
X95.835Y156.853
X95.826Y156.88
X95.817Y156.906
X95.807Y156.932
X95.797Y156.958
X95.786Y156.984
X95.775Y157.009
X95.764Y157.035
X95.752Y157.06
X95.739Y157.085
X95.726Y157.109
X95.713Y157.134
X95.699Y157.158
X95.685Y157.182
X95.671Y157.206
X95.656Y157.229
X95.64Y157.253
X95.624Y157.276
X95.608Y157.298
X95.592Y157.321
X95.575Y157.343
X95.557Y157.365
X95.54Y157.386
X95.521Y157.408
X95.503Y157.428
X95.484Y157.449
X95.465Y157.469
X95.445Y157.489
X95.426Y157.509
X95.405Y157.528
X95.385Y157.546
X95.364Y157.565
X95.343Y157.583
X95.321Y157.601
X95.299Y157.618
X95.278Y157.635
X95.255Y157.652
X95.232Y157.668
X95.209Y157.684
X95.186Y157.699
X95.163Y157.714
X95.139Y157.728
X95.115Y157.743
X95.09Y157.756
X95.066Y157.77
X95.041Y157.783
X95.017Y157.795
X94.991Y157.807
X94.966Y157.819
X94.94Y157.83
X94.915Y157.84
X94.889Y157.851
X94.862Y157.86
X94.836Y157.87
X94.81Y157.878
X94.783Y157.887
X94.757Y157.895
X94.73Y157.902
X94.703Y157.909
X94.676Y157.916
X94.649Y157.922
X94.621Y157.927
X94.594Y157.932
X94.566Y157.937
X94.539Y157.941
X94.511Y157.945
X94.484Y157.948
X94.456Y157.95
X94.428Y157.953
X94.4Y157.954
X94.372Y157.956
X94.344
X94.298
X94.258
X94.233Y157.954
X94.205Y157.953
X94.15Y157.948
X94.122Y157.945
X94.095Y157.941
X94.067Y157.937
X94.039Y157.932
X94.012Y157.927
X93.984Y157.922
X93.957Y157.916
X93.93Y157.909
X93.903Y157.902
X93.876Y157.895
X93.85Y157.887
X93.823Y157.878
X93.797Y157.87
X93.771Y157.86
X93.744Y157.851
X93.718Y157.84
X93.693Y157.83
X93.667Y157.819
X93.642Y157.807
X93.617Y157.795
X93.592Y157.783
X93.567Y157.77
X93.543Y157.756
X93.518Y157.743
X93.494Y157.728
X93.47Y157.714
X93.447Y157.699
X93.424Y157.684
X93.405Y157.671
X93.377Y157.651
X93.355Y157.635
X93.334Y157.618
X93.312Y157.601
X93.29Y157.583
X93.269Y157.565
X93.248Y157.546
X93.228Y157.528
X93.208Y157.509
X93.188Y157.489
X93.168Y157.469
X93.149Y157.449
X93.13Y157.428
X93.1Y157.394
X93.074Y157.362
X93.058Y157.343
X93.041Y157.321
X93.025Y157.298
X93.009Y157.276
X92.993Y157.253
X92.977Y157.229
X92.963Y157.206
X92.946Y157.178
X92.934Y157.158
X92.92Y157.134
X92.907Y157.109
X92.882Y157.06
X92.87Y157.035
X92.858Y157.009
X92.847Y156.984
X92.836Y156.958
X92.826Y156.932
X92.807Y156.88
X92.798Y156.853
X92.791Y156.83
X92.782Y156.799
X92.774Y156.773
X92.767Y156.746
X92.761Y156.719
X92.755Y156.692
X92.749Y156.665
X92.744Y156.637
X92.74Y156.61
X92.735Y156.582
X92.732Y156.555
X92.729Y156.527
X92.726Y156.499
X92.724Y156.471
X92.722Y156.443
X92.721Y156.416
X92.72Y156.388
Y156.343
X92.721Y156.302
X92.722Y156.276
X92.724Y156.249
X92.726Y156.221
X92.728Y156.2
X92.732Y156.164
X92.735Y156.138
X92.74Y156.11
X92.744Y156.083
X92.749Y156.055
X92.755Y156.028
X92.761Y156.001
X92.767Y155.974
X92.774Y155.947
X92.782Y155.92
X92.79Y155.893
X92.798Y155.867
X92.807Y155.84
X92.816Y155.814
X92.826Y155.788
X92.838Y155.758
X92.847Y155.736
X92.858Y155.711
X92.87Y155.685
X92.882Y155.66
X92.894Y155.635
X92.907Y155.61
X92.921Y155.584
X92.934Y155.562
X92.948Y155.538
X92.962Y155.514
X92.977Y155.49
X92.993Y155.467
X93.009Y155.444
X93.043Y155.397
X93.07Y155.363
X93.095Y155.332
X93.112Y155.312
X93.13Y155.292
X93.168Y155.251
X93.188Y155.231
X93.207Y155.211
X93.241Y155.18
X93.271Y155.153
X93.29Y155.137
X93.312Y155.119
X93.333Y155.102
X93.356Y155.085
X93.378Y155.068
X93.401Y155.052
X93.427Y155.034
X93.447Y155.021
X93.47Y155.006
X93.494Y154.991
G0Z1
X107.701Y156.345
G1Z-0.025F50
X107.718Y156.169F100
X107.77Y156
X107.853Y155.844
X107.965Y155.707
X108.102Y155.595
X108.257Y155.512
X108.426Y155.461
X108.602Y155.443
X108.778Y155.461
X108.947Y155.512
X109.103Y155.595
X109.24Y155.707
X109.352Y155.844
X109.435Y156
X109.486Y156.169
X109.504Y156.345
X109.486Y156.52
X109.435Y156.689
X109.352Y156.845
X109.24Y156.982
X109.103Y157.094
X108.947Y157.177
X108.778Y157.229
X108.602Y157.246
X108.426Y157.229
X108.257Y157.177
X108.102Y157.094
X107.965Y156.982
X107.853Y156.845
X107.77Y156.689
X107.718Y156.52
X107.701Y156.345
G0Z1
X123.605
G1Z-0.025F50
X123.622Y156.169F100
X123.674Y156
X123.757Y155.844
X123.869Y155.707
X124.006Y155.595
X124.161Y155.512
X124.33Y155.461
X124.506Y155.443
X124.682Y155.461
X124.851Y155.512
X125.007Y155.595
X125.144Y155.707
X125.256Y155.844
X125.339Y156
X125.39Y156.169
X125.408Y156.345
X125.39Y156.52
X125.339Y156.689
X125.256Y156.845
X125.144Y156.982
X125.007Y157.094
X124.851Y157.177
X124.682Y157.229
X124.506Y157.246
X124.33Y157.229
X124.161Y157.177
X124.006Y157.094
X123.869Y156.982
X123.757Y156.845
X123.674Y156.689
X123.622Y156.52
X123.605Y156.345
G0Z1
X127.108Y148.419
G1Z-0.025F50
X100.653F100
X99.999Y148.425
X99.345Y148.441
X98.692Y148.469
X98.039Y148.507
X97.387Y148.556
X96.736Y148.616
X96.085Y148.686
X95.436Y148.768
X94.789Y148.86
X94.143Y148.963
X93.499Y149.077
X92.856Y149.201
X92.733Y149.228
X92.609Y149.256
X92.486Y149.287
X92.364Y149.32
X92.243Y149.355
X92.121Y149.392
X92.001Y149.431
X91.881Y149.472
X91.762Y149.515
X91.644Y149.56
X91.527Y149.608
X91.41Y149.657
X91.295Y149.708
X91.18Y149.762
X91.066Y149.817
X90.953Y149.874
X90.841Y149.934
X90.73Y149.995
X90.621Y150.058
X90.512Y150.123
X90.404Y150.19
X90.298Y150.258
X90.193Y150.329
X90.089Y150.401
X89.987Y150.475
X89.885Y150.551
X89.785Y150.629
X89.687Y150.708
X89.589Y150.789
X89.494Y150.872
X89.399Y150.956
X89.306Y151.042
X89.215Y151.13
X89.125Y151.219
X89.037Y151.31
X88.95Y151.402
X88.865Y151.496
X88.782Y151.591
X88.7Y151.688
X88.6Y151.81
X88.502Y151.934
X88.407Y152.059
X88.313Y152.186
X88.221Y152.315
X88.132Y152.446
X88.045Y152.578
X87.961Y152.711
X87.878Y152.846
X87.798Y152.982
X87.72Y153.119
X87.645Y153.258
X87.572Y153.398
X87.502Y153.54
X87.433Y153.682
X87.368Y153.826
X87.305Y153.97
X87.244Y154.116
X87.186Y154.263
X87.13Y154.411
X87.077Y154.56
X87.026Y154.709
X86.978Y154.86
X86.933Y155.011
X86.89Y155.163
X86.85Y155.316
X86.812Y155.469
X86.778Y155.623
X86.745Y155.778
X86.716Y155.933
X86.689Y156.089
X86.664Y156.245
X86.643Y156.401
X86.624Y156.558
X86.608Y156.715
X86.594Y156.873
X86.583Y157.03
X86.575Y157.188
X86.57Y157.346
X86.567Y157.504
Y157.662
X86.569Y157.82
X86.575Y157.977
X86.583Y158.135
X86.594Y158.293
X86.607Y158.45
X86.623Y158.607
X86.642Y158.764
X86.662Y158.907
X87.081Y161.798
X87.095Y161.873
X87.112Y161.95
X87.131Y162.025
X87.152Y162.099
X87.176Y162.172
X87.203Y162.245
X87.233Y162.317
X87.264Y162.388
X87.298Y162.457
X87.335Y162.526
X87.374Y162.592
X87.415Y162.658
X87.458Y162.722
X87.504Y162.785
X87.553Y162.846
X87.602Y162.905
X87.654Y162.962
X87.709Y163.019
X87.763Y163.071
X87.822Y163.123
X87.881Y163.173
X87.942Y163.22
X88.005Y163.266
X88.069Y163.309
X88.136Y163.35
X88.202Y163.388
X88.27Y163.424
X88.341Y163.459
X88.411Y163.49
X88.483Y163.519
X88.555Y163.545
X88.63Y163.569
X88.705Y163.591
X88.779Y163.609
X88.855Y163.625
X88.932Y163.639
X89.008Y163.649
X89.085Y163.657
X89.163Y163.663
X89.239Y163.666
X89.278
X94.329
X94.446Y163.665
X94.563Y163.662
X94.68Y163.657
X94.796Y163.65
X96.052Y163.56
X97.204Y163.495
X98.358Y163.449
X99.512Y163.421
X100.673Y163.412
X104.226
X104.264Y163.415
X104.302Y163.418
X104.34Y163.419
X104.378
X132.378
X132.418
X132.458Y163.417
X132.498Y163.415
X132.537Y163.411
X132.577Y163.407
X132.616Y163.402
X132.656Y163.395
X132.695Y163.388
X132.733Y163.379
X132.772Y163.37
X132.81Y163.36
X132.849Y163.348
X132.886Y163.336
X132.924Y163.323
X132.961Y163.309
X132.998Y163.294
X133.034Y163.278
X133.07Y163.261
X133.106Y163.243
X133.141Y163.225
X133.176Y163.205
X133.211Y163.184
X133.245Y163.163
X133.279Y163.14
X133.312Y163.117
X133.344Y163.093
X133.376Y163.068
X133.407Y163.042
X133.422Y163.029
X133.452Y163.003
X133.474Y162.982
X133.496Y162.961
X133.524Y162.933
X133.551Y162.904
X133.583Y162.868
X133.614Y162.831
X133.636Y162.803
X133.657Y162.775
X133.678Y162.746
X133.698Y162.717
X133.717Y162.688
X133.736Y162.657
X133.753Y162.629
X133.769Y162.601
X133.785Y162.572
X133.804Y162.534
X133.822Y162.497
X133.836Y162.467
X133.848Y162.438
X133.864Y162.397
X133.873Y162.375
X133.887Y162.335
X133.9Y162.294
X133.912Y162.252
X133.923Y162.21
X133.933Y162.167
X133.941Y162.127
X133.948Y162.086
X133.956Y162.035
X133.962Y161.979
X133.965Y161.945
X133.967Y161.912
X133.969Y161.878
Y161.828
Y161.596
X133.98Y161.534
X133.991Y161.457
X133.999Y161.38
X134.005Y161.303
X134.007Y161.224
X134.008Y161.186
Y150.352
X134.007Y150.313
X134.006Y150.273
X134.003Y150.234
X134Y150.195
X133.995Y150.156
X133.99Y150.116
X133.984Y150.078
X133.976Y150.039
X133.969Y150.005
X133.968Y149.963
X133.966Y149.92
X133.962Y149.877
X133.958Y149.834
X133.952Y149.792
X133.945Y149.749
X133.937Y149.707
X133.927Y149.665
X133.917Y149.623
X133.907Y149.588
X133.897Y149.554
X133.886Y149.52
X133.874Y149.486
X133.862Y149.452
X133.845Y149.411
X133.827Y149.37
X133.808Y149.33
X133.786Y149.286
X133.77Y149.257
X133.753Y149.227
X133.731Y149.191
X133.709Y149.155
X133.687Y149.123
X133.665Y149.092
X133.642Y149.061
X133.618Y149.031
X133.593Y149.001
X133.568Y148.972
X133.542Y148.943
X133.515Y148.915
X133.488Y148.888
X133.46Y148.862
X133.431Y148.836
X133.402Y148.811
X133.372Y148.786
X133.342Y148.762
X133.311Y148.739
X133.28Y148.717
X133.247Y148.696
X133.215Y148.675
X133.182Y148.655
X133.148Y148.636
X133.114Y148.617
X133.079Y148.6
X133.045Y148.584
X133.01Y148.568
X132.975Y148.553
X132.939Y148.54
X132.903Y148.526
X132.867Y148.514
X132.831Y148.503
X132.794Y148.493
X132.757Y148.483
X132.72Y148.474
X132.682Y148.467
X132.645Y148.46
X132.607Y148.454
X132.569Y148.449
X132.531Y148.445
X132.493Y148.441
X132.455Y148.439
X132.417Y148.438
X132.378Y148.437
X128.442
X127.852Y148.424
X127.108Y148.419
G0Z1
X93.494Y154.991
G1Z-0.05F50
X93.518Y154.977F100
X93.542Y154.963
X93.567Y154.95
X93.592Y154.937
X93.617Y154.925
X93.642Y154.913
X93.667Y154.901
X93.693Y154.89
X93.718Y154.88
X93.744Y154.869
X93.797Y154.85
X93.823Y154.841
X93.876Y154.825
X93.932Y154.81
X93.987Y154.798
X94.012Y154.793
X94.039Y154.788
X94.067Y154.783
X94.095Y154.779
X94.122Y154.775
X94.15Y154.772
X94.177Y154.769
X94.205Y154.767
X94.233Y154.765
X94.261Y154.764
X94.289
X94.317Y154.763
X94.344Y154.764
X94.372
X94.4Y154.765
X94.428Y154.767
X94.456Y154.769
X94.484Y154.772
X94.511Y154.775
X94.539Y154.779
X94.566Y154.783
X94.594Y154.788
X94.621Y154.793
X94.648Y154.798
X94.676Y154.804
X94.703Y154.811
X94.73Y154.818
X94.757Y154.825
X94.783Y154.833
X94.81Y154.841
X94.836Y154.85
X94.863Y154.86
X94.889Y154.869
X94.915Y154.88
X94.94Y154.89
X94.966Y154.901
X94.991Y154.913
X95.017Y154.925
X95.041Y154.937
X95.066Y154.95
X95.091Y154.963
X95.115Y154.977
X95.139Y154.991
X95.163Y155.006
X95.186Y155.021
X95.209Y155.036
X95.232Y155.052
X95.255Y155.068
X95.277Y155.085
X95.3Y155.102
X95.321Y155.119
X95.343Y155.137
X95.385Y155.173
X95.405Y155.192
X95.426Y155.211
X95.445Y155.231
X95.465Y155.251
X95.484Y155.271
X95.522Y155.312
X95.54Y155.334
X95.557Y155.355
X95.575Y155.377
X95.592Y155.399
X95.608Y155.421
X95.624Y155.444
X95.64Y155.467
X95.671Y155.514
X95.685Y155.538
X95.699Y155.562
X95.713Y155.586
X95.726Y155.61
X95.739Y155.635
X95.752Y155.66
X95.764Y155.685
X95.775Y155.711
X95.786Y155.736
X95.797Y155.762
X95.817Y155.814
X95.826Y155.84
X95.835Y155.866
X95.843Y155.893
X95.859Y155.947
X95.866Y155.974
X95.872Y156.001
X95.878Y156.028
X95.884Y156.055
X95.889Y156.083
X95.894Y156.11
X95.898Y156.138
X95.901Y156.165
X95.904Y156.193
X95.907Y156.221
X95.909Y156.249
X95.911Y156.276
X95.912Y156.304
X95.913Y156.332
Y156.36
Y156.388
X95.912Y156.416
X95.911Y156.443
X95.909Y156.471
X95.907Y156.499
X95.904Y156.527
X95.901Y156.555
X95.898Y156.582
X95.894Y156.61
X95.889Y156.637
X95.884Y156.664
X95.878Y156.692
X95.872Y156.719
X95.866Y156.746
X95.859Y156.773
X95.851Y156.8
X95.843Y156.827
X95.835Y156.853
X95.826Y156.88
X95.817Y156.906
X95.807Y156.932
X95.797Y156.958
X95.786Y156.984
X95.775Y157.009
X95.764Y157.035
X95.752Y157.06
X95.739Y157.085
X95.726Y157.109
X95.713Y157.134
X95.699Y157.158
X95.685Y157.182
X95.671Y157.206
X95.656Y157.229
X95.64Y157.253
X95.624Y157.276
X95.608Y157.298
X95.592Y157.321
X95.575Y157.343
X95.557Y157.365
X95.54Y157.386
X95.521Y157.408
X95.503Y157.428
X95.484Y157.449
X95.465Y157.469
X95.445Y157.489
X95.426Y157.509
X95.405Y157.528
X95.385Y157.546
X95.364Y157.565
X95.343Y157.583
X95.321Y157.601
X95.299Y157.618
X95.278Y157.635
X95.255Y157.652
X95.232Y157.668
X95.209Y157.684
X95.186Y157.699
X95.163Y157.714
X95.139Y157.728
X95.115Y157.743
X95.09Y157.756
X95.066Y157.77
X95.041Y157.783
X95.017Y157.795
X94.991Y157.807
X94.966Y157.819
X94.94Y157.83
X94.915Y157.84
X94.889Y157.851
X94.862Y157.86
X94.836Y157.87
X94.81Y157.878
X94.783Y157.887
X94.757Y157.895
X94.73Y157.902
X94.703Y157.909
X94.676Y157.916
X94.649Y157.922
X94.621Y157.927
X94.594Y157.932
X94.566Y157.937
X94.539Y157.941
X94.511Y157.945
X94.484Y157.948
X94.456Y157.95
X94.428Y157.953
X94.4Y157.954
X94.372Y157.956
X94.344
X94.298
X94.258
X94.233Y157.954
X94.205Y157.953
X94.15Y157.948
X94.122Y157.945
X94.095Y157.941
X94.067Y157.937
X94.039Y157.932
X94.012Y157.927
X93.984Y157.922
X93.957Y157.916
X93.93Y157.909
X93.903Y157.902
X93.876Y157.895
X93.85Y157.887
X93.823Y157.878
X93.797Y157.87
X93.771Y157.86
X93.744Y157.851
X93.718Y157.84
X93.693Y157.83
X93.667Y157.819
X93.642Y157.807
X93.617Y157.795
X93.592Y157.783
X93.567Y157.77
X93.543Y157.756
X93.518Y157.743
X93.494Y157.728
X93.47Y157.714
X93.447Y157.699
X93.424Y157.684
X93.405Y157.671
X93.377Y157.651
X93.355Y157.635
X93.334Y157.618
X93.312Y157.601
X93.29Y157.583
X93.269Y157.565
X93.248Y157.546
X93.228Y157.528
X93.208Y157.509
X93.188Y157.489
X93.168Y157.469
X93.149Y157.449
X93.13Y157.428
X93.1Y157.394
X93.074Y157.362
X93.058Y157.343
X93.041Y157.321
X93.025Y157.298
X93.009Y157.276
X92.993Y157.253
X92.977Y157.229
X92.963Y157.206
X92.946Y157.178
X92.934Y157.158
X92.92Y157.134
X92.907Y157.109
X92.882Y157.06
X92.87Y157.035
X92.858Y157.009
X92.847Y156.984
X92.836Y156.958
X92.826Y156.932
X92.807Y156.88
X92.798Y156.853
X92.791Y156.83
X92.782Y156.799
X92.774Y156.773
X92.767Y156.746
X92.761Y156.719
X92.755Y156.692
X92.749Y156.665
X92.744Y156.637
X92.74Y156.61
X92.735Y156.582
X92.732Y156.555
X92.729Y156.527
X92.726Y156.499
X92.724Y156.471
X92.722Y156.443
X92.721Y156.416
X92.72Y156.388
Y156.343
X92.721Y156.302
X92.722Y156.276
X92.724Y156.249
X92.726Y156.221
X92.728Y156.2
X92.732Y156.164
X92.735Y156.138
X92.74Y156.11
X92.744Y156.083
X92.749Y156.055
X92.755Y156.028
X92.761Y156.001
X92.767Y155.974
X92.774Y155.947
X92.782Y155.92
X92.79Y155.893
X92.798Y155.867
X92.807Y155.84
X92.816Y155.814
X92.826Y155.788
X92.838Y155.758
X92.847Y155.736
X92.858Y155.711
X92.87Y155.685
X92.882Y155.66
X92.894Y155.635
X92.907Y155.61
X92.921Y155.584
X92.934Y155.562
X92.948Y155.538
X92.962Y155.514
X92.977Y155.49
X92.993Y155.467
X93.009Y155.444
X93.043Y155.397
X93.07Y155.363
X93.095Y155.332
X93.112Y155.312
X93.13Y155.292
X93.168Y155.251
X93.188Y155.231
X93.207Y155.211
X93.241Y155.18
X93.271Y155.153
X93.29Y155.137
X93.312Y155.119
X93.333Y155.102
X93.356Y155.085
X93.378Y155.068
X93.401Y155.052
X93.427Y155.034
X93.447Y155.021
X93.47Y155.006
X93.494Y154.991
G0Z1
X107.701Y156.345
G1Z-0.05F50
X107.718Y156.169F100
X107.77Y156
X107.853Y155.844
X107.965Y155.707
X108.102Y155.595
X108.257Y155.512
X108.426Y155.461
X108.602Y155.443
X108.778Y155.461
X108.947Y155.512
X109.103Y155.595
X109.24Y155.707
X109.352Y155.844
X109.435Y156
X109.486Y156.169
X109.504Y156.345
X109.486Y156.52
X109.435Y156.689
X109.352Y156.845
X109.24Y156.982
X109.103Y157.094
X108.947Y157.177
X108.778Y157.229
X108.602Y157.246
X108.426Y157.229
X108.257Y157.177
X108.102Y157.094
X107.965Y156.982
X107.853Y156.845
X107.77Y156.689
X107.718Y156.52
X107.701Y156.345
G0Z1
X123.605
G1Z-0.05F50
X123.622Y156.169F100
X123.674Y156
X123.757Y155.844
X123.869Y155.707
X124.006Y155.595
X124.161Y155.512
X124.33Y155.461
X124.506Y155.443
X124.682Y155.461
X124.851Y155.512
X125.007Y155.595
X125.144Y155.707
X125.256Y155.844
X125.339Y156
X125.39Y156.169
X125.408Y156.345
X125.39Y156.52
X125.339Y156.689
X125.256Y156.845
X125.144Y156.982
X125.007Y157.094
X124.851Y157.177
X124.682Y157.229
X124.506Y157.246
X124.33Y157.229
X124.161Y157.177
X124.006Y157.094
X123.869Y156.982
X123.757Y156.845
X123.674Y156.689
X123.622Y156.52
X123.605Y156.345
G0Z1
X127.108Y148.419
G1Z-0.05F50
X100.653F100
X99.999Y148.425
X99.345Y148.441
X98.692Y148.469
X98.039Y148.507
X97.387Y148.556
X96.736Y148.616
X96.085Y148.686
X95.436Y148.768
X94.789Y148.86
X94.143Y148.963
X93.499Y149.077
X92.856Y149.201
X92.733Y149.228
X92.609Y149.256
X92.486Y149.287
X92.364Y149.32
X92.243Y149.355
X92.121Y149.392
X92.001Y149.431
X91.881Y149.472
X91.762Y149.515
X91.644Y149.56
X91.527Y149.608
X91.41Y149.657
X91.295Y149.708
X91.18Y149.762
X91.066Y149.817
X90.953Y149.874
X90.841Y149.934
X90.73Y149.995
X90.621Y150.058
X90.512Y150.123
X90.404Y150.19
X90.298Y150.258
X90.193Y150.329
X90.089Y150.401
X89.987Y150.475
X89.885Y150.551
X89.785Y150.629
X89.687Y150.708
X89.589Y150.789
X89.494Y150.872
X89.399Y150.956
X89.306Y151.042
X89.215Y151.13
X89.125Y151.219
X89.037Y151.31
X88.95Y151.402
X88.865Y151.496
X88.782Y151.591
X88.7Y151.688
X88.6Y151.81
X88.502Y151.934
X88.407Y152.059
X88.313Y152.186
X88.221Y152.315
X88.132Y152.446
X88.045Y152.578
X87.961Y152.711
X87.878Y152.846
X87.798Y152.982
X87.72Y153.119
X87.645Y153.258
X87.572Y153.398
X87.502Y153.54
X87.433Y153.682
X87.368Y153.826
X87.305Y153.97
X87.244Y154.116
X87.186Y154.263
X87.13Y154.411
X87.077Y154.56
X87.026Y154.709
X86.978Y154.86
X86.933Y155.011
X86.89Y155.163
X86.85Y155.316
X86.812Y155.469
X86.778Y155.623
X86.745Y155.778
X86.716Y155.933
X86.689Y156.089
X86.664Y156.245
X86.643Y156.401
X86.624Y156.558
X86.608Y156.715
X86.594Y156.873
X86.583Y157.03
X86.575Y157.188
X86.57Y157.346
X86.567Y157.504
Y157.662
X86.569Y157.82
X86.575Y157.977
X86.583Y158.135
X86.594Y158.293
X86.607Y158.45
X86.623Y158.607
X86.642Y158.764
X86.662Y158.907
X87.081Y161.798
X87.095Y161.873
X87.112Y161.95
X87.131Y162.025
X87.152Y162.099
X87.176Y162.172
X87.203Y162.245
X87.233Y162.317
X87.264Y162.388
X87.298Y162.457
X87.335Y162.526
X87.374Y162.592
X87.415Y162.658
X87.458Y162.722
X87.504Y162.785
X87.553Y162.846
X87.602Y162.905
X87.654Y162.962
X87.709Y163.019
X87.763Y163.071
X87.822Y163.123
X87.881Y163.173
X87.942Y163.22
X88.005Y163.266
X88.069Y163.309
X88.136Y163.35
X88.202Y163.388
X88.27Y163.424
X88.341Y163.459
X88.411Y163.49
X88.483Y163.519
X88.555Y163.545
X88.63Y163.569
X88.705Y163.591
X88.779Y163.609
X88.855Y163.625
X88.932Y163.639
X89.008Y163.649
X89.085Y163.657
X89.163Y163.663
X89.239Y163.666
X89.278
X94.329
X94.446Y163.665
X94.563Y163.662
X94.68Y163.657
X94.796Y163.65
X96.052Y163.56
X97.204Y163.495
X98.358Y163.449
X99.512Y163.421
X100.673Y163.412
X104.226
X104.264Y163.415
X104.302Y163.418
X104.34Y163.419
X104.378
X132.378
X132.418
X132.458Y163.417
X132.498Y163.415
X132.537Y163.411
X132.577Y163.407
X132.616Y163.402
X132.656Y163.395
X132.695Y163.388
X132.733Y163.379
X132.772Y163.37
X132.81Y163.36
X132.849Y163.348
X132.886Y163.336
X132.924Y163.323
X132.961Y163.309
X132.998Y163.294
X133.034Y163.278
X133.07Y163.261
X133.106Y163.243
X133.141Y163.225
X133.176Y163.205
X133.211Y163.184
X133.245Y163.163
X133.279Y163.14
X133.312Y163.117
X133.344Y163.093
X133.376Y163.068
X133.407Y163.042
X133.422Y163.029
X133.452Y163.003
X133.474Y162.982
X133.496Y162.961
X133.524Y162.933
X133.551Y162.904
X133.583Y162.868
X133.614Y162.831
X133.636Y162.803
X133.657Y162.775
X133.678Y162.746
X133.698Y162.717
X133.717Y162.688
X133.736Y162.657
X133.753Y162.629
X133.769Y162.601
X133.785Y162.572
X133.804Y162.534
X133.822Y162.497
X133.836Y162.467
X133.848Y162.438
X133.864Y162.397
X133.873Y162.375
X133.887Y162.335
X133.9Y162.294
X133.912Y162.252
X133.923Y162.21
X133.933Y162.167
X133.941Y162.127
X133.948Y162.086
X133.956Y162.035
X133.962Y161.979
X133.965Y161.945
X133.967Y161.912
X133.969Y161.878
Y161.828
Y161.596
X133.98Y161.534
X133.991Y161.457
X133.999Y161.38
X134.005Y161.303
X134.007Y161.224
X134.008Y161.186
Y150.352
X134.007Y150.313
X134.006Y150.273
X134.003Y150.234
X134Y150.195
X133.995Y150.156
X133.99Y150.116
X133.984Y150.078
X133.976Y150.039
X133.969Y150.005
X133.968Y149.963
X133.966Y149.92
X133.962Y149.877
X133.958Y149.834
X133.952Y149.792
X133.945Y149.749
X133.937Y149.707
X133.927Y149.665
X133.917Y149.623
X133.907Y149.588
X133.897Y149.554
X133.886Y149.52
X133.874Y149.486
X133.862Y149.452
X133.845Y149.411
X133.827Y149.37
X133.808Y149.33
X133.786Y149.286
X133.77Y149.257
X133.753Y149.227
X133.731Y149.191
X133.709Y149.155
X133.687Y149.123
X133.665Y149.092
X133.642Y149.061
X133.618Y149.031
X133.593Y149.001
X133.568Y148.972
X133.542Y148.943
X133.515Y148.915
X133.488Y148.888
X133.46Y148.862
X133.431Y148.836
X133.402Y148.811
X133.372Y148.786
X133.342Y148.762
X133.311Y148.739
X133.28Y148.717
X133.247Y148.696
X133.215Y148.675
X133.182Y148.655
X133.148Y148.636
X133.114Y148.617
X133.079Y148.6
X133.045Y148.584
X133.01Y148.568
X132.975Y148.553
X132.939Y148.54
X132.903Y148.526
X132.867Y148.514
X132.831Y148.503
X132.794Y148.493
X132.757Y148.483
X132.72Y148.474
X132.682Y148.467
X132.645Y148.46
X132.607Y148.454
X132.569Y148.449
X132.531Y148.445
X132.493Y148.441
X132.455Y148.439
X132.417Y148.438
X132.378Y148.437
X128.442
X127.852Y148.424
X127.108Y148.419
G0Z1
X93.494Y154.991
G1Z-0.075F50
X93.518Y154.977F100
X93.542Y154.963
X93.567Y154.95
X93.592Y154.937
X93.617Y154.925
X93.642Y154.913
X93.667Y154.901
X93.693Y154.89
X93.718Y154.88
X93.744Y154.869
X93.797Y154.85
X93.823Y154.841
X93.876Y154.825
X93.932Y154.81
X93.987Y154.798
X94.012Y154.793
X94.039Y154.788
X94.067Y154.783
X94.095Y154.779
X94.122Y154.775
X94.15Y154.772
X94.177Y154.769
X94.205Y154.767
X94.233Y154.765
X94.261Y154.764
X94.289
X94.317Y154.763
X94.344Y154.764
X94.372
X94.4Y154.765
X94.428Y154.767
X94.456Y154.769
X94.484Y154.772
X94.511Y154.775
X94.539Y154.779
X94.566Y154.783
X94.594Y154.788
X94.621Y154.793
X94.648Y154.798
X94.676Y154.804
X94.703Y154.811
X94.73Y154.818
X94.757Y154.825
X94.783Y154.833
X94.81Y154.841
X94.836Y154.85
X94.863Y154.86
X94.889Y154.869
X94.915Y154.88
X94.94Y154.89
X94.966Y154.901
X94.991Y154.913
X95.017Y154.925
X95.041Y154.937
X95.066Y154.95
X95.091Y154.963
X95.115Y154.977
X95.139Y154.991
X95.163Y155.006
X95.186Y155.021
X95.209Y155.036
X95.232Y155.052
X95.255Y155.068
X95.277Y155.085
X95.3Y155.102
X95.321Y155.119
X95.343Y155.137
X95.385Y155.173
X95.405Y155.192
X95.426Y155.211
X95.445Y155.231
X95.465Y155.251
X95.484Y155.271
X95.522Y155.312
X95.54Y155.334
X95.557Y155.355
X95.575Y155.377
X95.592Y155.399
X95.608Y155.421
X95.624Y155.444
X95.64Y155.467
X95.671Y155.514
X95.685Y155.538
X95.699Y155.562
X95.713Y155.586
X95.726Y155.61
X95.739Y155.635
X95.752Y155.66
X95.764Y155.685
X95.775Y155.711
X95.786Y155.736
X95.797Y155.762
X95.817Y155.814
X95.826Y155.84
X95.835Y155.866
X95.843Y155.893
X95.859Y155.947
X95.866Y155.974
X95.872Y156.001
X95.878Y156.028
X95.884Y156.055
X95.889Y156.083
X95.894Y156.11
X95.898Y156.138
X95.901Y156.165
X95.904Y156.193
X95.907Y156.221
X95.909Y156.249
X95.911Y156.276
X95.912Y156.304
X95.913Y156.332
Y156.36
Y156.388
X95.912Y156.416
X95.911Y156.443
X95.909Y156.471
X95.907Y156.499
X95.904Y156.527
X95.901Y156.555
X95.898Y156.582
X95.894Y156.61
X95.889Y156.637
X95.884Y156.664
X95.878Y156.692
X95.872Y156.719
X95.866Y156.746
X95.859Y156.773
X95.851Y156.8
X95.843Y156.827
X95.835Y156.853
X95.826Y156.88
X95.817Y156.906
X95.807Y156.932
X95.797Y156.958
X95.786Y156.984
X95.775Y157.009
X95.764Y157.035
X95.752Y157.06
X95.739Y157.085
X95.726Y157.109
X95.713Y157.134
X95.699Y157.158
X95.685Y157.182
X95.671Y157.206
X95.656Y157.229
X95.64Y157.253
X95.624Y157.276
X95.608Y157.298
X95.592Y157.321
X95.575Y157.343
X95.557Y157.365
X95.54Y157.386
X95.521Y157.408
X95.503Y157.428
X95.484Y157.449
X95.465Y157.469
X95.445Y157.489
X95.426Y157.509
X95.405Y157.528
X95.385Y157.546
X95.364Y157.565
X95.343Y157.583
X95.321Y157.601
X95.299Y157.618
X95.278Y157.635
X95.255Y157.652
X95.232Y157.668
X95.209Y157.684
X95.186Y157.699
X95.163Y157.714
X95.139Y157.728
X95.115Y157.743
X95.09Y157.756
X95.066Y157.77
X95.041Y157.783
X95.017Y157.795
X94.991Y157.807
X94.966Y157.819
X94.94Y157.83
X94.915Y157.84
X94.889Y157.851
X94.862Y157.86
X94.836Y157.87
X94.81Y157.878
X94.783Y157.887
X94.757Y157.895
X94.73Y157.902
X94.703Y157.909
X94.676Y157.916
X94.649Y157.922
X94.621Y157.927
X94.594Y157.932
X94.566Y157.937
X94.539Y157.941
X94.511Y157.945
X94.484Y157.948
X94.456Y157.95
X94.428Y157.953
X94.4Y157.954
X94.372Y157.956
X94.344
X94.298
X94.258
X94.233Y157.954
X94.205Y157.953
X94.15Y157.948
X94.122Y157.945
X94.095Y157.941
X94.067Y157.937
X94.039Y157.932
X94.012Y157.927
X93.984Y157.922
X93.957Y157.916
X93.93Y157.909
X93.903Y157.902
X93.876Y157.895
X93.85Y157.887
X93.823Y157.878
X93.797Y157.87
X93.771Y157.86
X93.744Y157.851
X93.718Y157.84
X93.693Y157.83
X93.667Y157.819
X93.642Y157.807
X93.617Y157.795
X93.592Y157.783
X93.567Y157.77
X93.543Y157.756
X93.518Y157.743
X93.494Y157.728
X93.47Y157.714
X93.447Y157.699
X93.424Y157.684
X93.405Y157.671
X93.377Y157.651
X93.355Y157.635
X93.334Y157.618
X93.312Y157.601
X93.29Y157.583
X93.269Y157.565
X93.248Y157.546
X93.228Y157.528
X93.208Y157.509
X93.188Y157.489
X93.168Y157.469
X93.149Y157.449
X93.13Y157.428
X93.1Y157.394
X93.074Y157.362
X93.058Y157.343
X93.041Y157.321
X93.025Y157.298
X93.009Y157.276
X92.993Y157.253
X92.977Y157.229
X92.963Y157.206
X92.946Y157.178
X92.934Y157.158
X92.92Y157.134
X92.907Y157.109
X92.882Y157.06
X92.87Y157.035
X92.858Y157.009
X92.847Y156.984
X92.836Y156.958
X92.826Y156.932
X92.807Y156.88
X92.798Y156.853
X92.791Y156.83
X92.782Y156.799
X92.774Y156.773
X92.767Y156.746
X92.761Y156.719
X92.755Y156.692
X92.749Y156.665
X92.744Y156.637
X92.74Y156.61
X92.735Y156.582
X92.732Y156.555
X92.729Y156.527
X92.726Y156.499
X92.724Y156.471
X92.722Y156.443
X92.721Y156.416
X92.72Y156.388
Y156.343
X92.721Y156.302
X92.722Y156.276
X92.724Y156.249
X92.726Y156.221
X92.728Y156.2
X92.732Y156.164
X92.735Y156.138
X92.74Y156.11
X92.744Y156.083
X92.749Y156.055
X92.755Y156.028
X92.761Y156.001
X92.767Y155.974
X92.774Y155.947
X92.782Y155.92
X92.79Y155.893
X92.798Y155.867
X92.807Y155.84
X92.816Y155.814
X92.826Y155.788
X92.838Y155.758
X92.847Y155.736
X92.858Y155.711
X92.87Y155.685
X92.882Y155.66
X92.894Y155.635
X92.907Y155.61
X92.921Y155.584
X92.934Y155.562
X92.948Y155.538
X92.962Y155.514
X92.977Y155.49
X92.993Y155.467
X93.009Y155.444
X93.043Y155.397
X93.07Y155.363
X93.095Y155.332
X93.112Y155.312
X93.13Y155.292
X93.168Y155.251
X93.188Y155.231
X93.207Y155.211
X93.241Y155.18
X93.271Y155.153
X93.29Y155.137
X93.312Y155.119
X93.333Y155.102
X93.356Y155.085
X93.378Y155.068
X93.401Y155.052
X93.427Y155.034
X93.447Y155.021
X93.47Y155.006
X93.494Y154.991
G0Z1
X107.701Y156.345
G1Z-0.075F50
X107.718Y156.169F100
X107.77Y156
X107.853Y155.844
X107.965Y155.707
X108.102Y155.595
X108.257Y155.512
X108.426Y155.461
X108.602Y155.443
X108.778Y155.461
X108.947Y155.512
X109.103Y155.595
X109.24Y155.707
X109.352Y155.844
X109.435Y156
X109.486Y156.169
X109.504Y156.345
X109.486Y156.52
X109.435Y156.689
X109.352Y156.845
X109.24Y156.982
X109.103Y157.094
X108.947Y157.177
X108.778Y157.229
X108.602Y157.246
X108.426Y157.229
X108.257Y157.177
X108.102Y157.094
X107.965Y156.982
X107.853Y156.845
X107.77Y156.689
X107.718Y156.52
X107.701Y156.345
G0Z1
X123.605
G1Z-0.075F50
X123.622Y156.169F100
X123.674Y156
X123.757Y155.844
X123.869Y155.707
X124.006Y155.595
X124.161Y155.512
X124.33Y155.461
X124.506Y155.443
X124.682Y155.461
X124.851Y155.512
X125.007Y155.595
X125.144Y155.707
X125.256Y155.844
X125.339Y156
X125.39Y156.169
X125.408Y156.345
X125.39Y156.52
X125.339Y156.689
X125.256Y156.845
X125.144Y156.982
X125.007Y157.094
X124.851Y157.177
X124.682Y157.229
X124.506Y157.246
X124.33Y157.229
X124.161Y157.177
X124.006Y157.094
X123.869Y156.982
X123.757Y156.845
X123.674Y156.689
X123.622Y156.52
X123.605Y156.345
G0Z1
X127.108Y148.419
G1Z-0.075F50
X100.653F100
X99.999Y148.425
X99.345Y148.441
X98.692Y148.469
X98.039Y148.507
X97.387Y148.556
X96.736Y148.616
X96.085Y148.686
X95.436Y148.768
X94.789Y148.86
X94.143Y148.963
X93.499Y149.077
X92.856Y149.201
X92.733Y149.228
X92.609Y149.256
X92.486Y149.287
X92.364Y149.32
X92.243Y149.355
X92.121Y149.392
X92.001Y149.431
X91.881Y149.472
X91.762Y149.515
X91.644Y149.56
X91.527Y149.608
X91.41Y149.657
X91.295Y149.708
X91.18Y149.762
X91.066Y149.817
X90.953Y149.874
X90.841Y149.934
X90.73Y149.995
X90.621Y150.058
X90.512Y150.123
X90.404Y150.19
X90.298Y150.258
X90.193Y150.329
X90.089Y150.401
X89.987Y150.475
X89.885Y150.551
X89.785Y150.629
X89.687Y150.708
X89.589Y150.789
X89.494Y150.872
X89.399Y150.956
X89.306Y151.042
X89.215Y151.13
X89.125Y151.219
X89.037Y151.31
X88.95Y151.402
X88.865Y151.496
X88.782Y151.591
X88.7Y151.688
X88.6Y151.81
X88.502Y151.934
X88.407Y152.059
X88.313Y152.186
X88.221Y152.315
X88.132Y152.446
X88.045Y152.578
X87.961Y152.711
X87.878Y152.846
X87.798Y152.982
X87.72Y153.119
X87.645Y153.258
X87.572Y153.398
X87.502Y153.54
X87.433Y153.682
X87.368Y153.826
X87.305Y153.97
X87.244Y154.116
X87.186Y154.263
X87.13Y154.411
X87.077Y154.56
X87.026Y154.709
X86.978Y154.86
X86.933Y155.011
X86.89Y155.163
X86.85Y155.316
X86.812Y155.469
X86.778Y155.623
X86.745Y155.778
X86.716Y155.933
X86.689Y156.089
X86.664Y156.245
X86.643Y156.401
X86.624Y156.558
X86.608Y156.715
X86.594Y156.873
X86.583Y157.03
X86.575Y157.188
X86.57Y157.346
X86.567Y157.504
Y157.662
X86.569Y157.82
X86.575Y157.977
X86.583Y158.135
X86.594Y158.293
X86.607Y158.45
X86.623Y158.607
X86.642Y158.764
X86.662Y158.907
X87.081Y161.798
X87.095Y161.873
X87.112Y161.95
X87.131Y162.025
X87.152Y162.099
X87.176Y162.172
X87.203Y162.245
X87.233Y162.317
X87.264Y162.388
X87.298Y162.457
X87.335Y162.526
X87.374Y162.592
X87.415Y162.658
X87.458Y162.722
X87.504Y162.785
X87.553Y162.846
X87.602Y162.905
X87.654Y162.962
X87.709Y163.019
X87.763Y163.071
X87.822Y163.123
X87.881Y163.173
X87.942Y163.22
X88.005Y163.266
X88.069Y163.309
X88.136Y163.35
X88.202Y163.388
X88.27Y163.424
X88.341Y163.459
X88.411Y163.49
X88.483Y163.519
X88.555Y163.545
X88.63Y163.569
X88.705Y163.591
X88.779Y163.609
X88.855Y163.625
X88.932Y163.639
X89.008Y163.649
X89.085Y163.657
X89.163Y163.663
X89.239Y163.666
X89.278
X94.329
X94.446Y163.665
X94.563Y163.662
X94.68Y163.657
X94.796Y163.65
X96.052Y163.56
X97.204Y163.495
X98.358Y163.449
X99.512Y163.421
X100.673Y163.412
X104.226
X104.264Y163.415
X104.302Y163.418
X104.34Y163.419
X104.378
X132.378
X132.418
X132.458Y163.417
X132.498Y163.415
X132.537Y163.411
X132.577Y163.407
X132.616Y163.402
X132.656Y163.395
X132.695Y163.388
X132.733Y163.379
X132.772Y163.37
X132.81Y163.36
X132.849Y163.348
X132.886Y163.336
X132.924Y163.323
X132.961Y163.309
X132.998Y163.294
X133.034Y163.278
X133.07Y163.261
X133.106Y163.243
X133.141Y163.225
X133.176Y163.205
X133.211Y163.184
X133.245Y163.163
X133.279Y163.14
X133.312Y163.117
X133.344Y163.093
X133.376Y163.068
X133.407Y163.042
X133.422Y163.029
X133.452Y163.003
X133.474Y162.982
X133.496Y162.961
X133.524Y162.933
X133.551Y162.904
X133.583Y162.868
X133.614Y162.831
X133.636Y162.803
X133.657Y162.775
X133.678Y162.746
X133.698Y162.717
X133.717Y162.688
X133.736Y162.657
X133.753Y162.629
X133.769Y162.601
X133.785Y162.572
X133.804Y162.534
X133.822Y162.497
X133.836Y162.467
X133.848Y162.438
X133.864Y162.397
X133.873Y162.375
X133.887Y162.335
X133.9Y162.294
X133.912Y162.252
X133.923Y162.21
X133.933Y162.167
X133.941Y162.127
X133.948Y162.086
X133.956Y162.035
X133.962Y161.979
X133.965Y161.945
X133.967Y161.912
X133.969Y161.878
Y161.828
Y161.596
X133.98Y161.534
X133.991Y161.457
X133.999Y161.38
X134.005Y161.303
X134.007Y161.224
X134.008Y161.186
Y150.352
X134.007Y150.313
X134.006Y150.273
X134.003Y150.234
X134Y150.195
X133.995Y150.156
X133.99Y150.116
X133.984Y150.078
X133.976Y150.039
X133.969Y150.005
X133.968Y149.963
X133.966Y149.92
X133.962Y149.877
X133.958Y149.834
X133.952Y149.792
X133.945Y149.749
X133.937Y149.707
X133.927Y149.665
X133.917Y149.623
X133.907Y149.588
X133.897Y149.554
X133.886Y149.52
X133.874Y149.486
X133.862Y149.452
X133.845Y149.411
X133.827Y149.37
X133.808Y149.33
X133.786Y149.286
X133.77Y149.257
X133.753Y149.227
X133.731Y149.191
X133.709Y149.155
X133.687Y149.123
X133.665Y149.092
X133.642Y149.061
X133.618Y149.031
X133.593Y149.001
X133.568Y148.972
X133.542Y148.943
X133.515Y148.915
X133.488Y148.888
X133.46Y148.862
X133.431Y148.836
X133.402Y148.811
X133.372Y148.786
X133.342Y148.762
X133.311Y148.739
X133.28Y148.717
X133.247Y148.696
X133.215Y148.675
X133.182Y148.655
X133.148Y148.636
X133.114Y148.617
X133.079Y148.6
X133.045Y148.584
X133.01Y148.568
X132.975Y148.553
X132.939Y148.54
X132.903Y148.526
X132.867Y148.514
X132.831Y148.503
X132.794Y148.493
X132.757Y148.483
X132.72Y148.474
X132.682Y148.467
X132.645Y148.46
X132.607Y148.454
X132.569Y148.449
X132.531Y148.445
X132.493Y148.441
X132.455Y148.439
X132.417Y148.438
X132.378Y148.437
X128.442
X127.852Y148.424
X127.108Y148.419
G0Z1
X93.494Y154.991
G1Z-0.1F50
X93.518Y154.977F100
X93.542Y154.963
X93.567Y154.95
X93.592Y154.937
X93.617Y154.925
X93.642Y154.913
X93.667Y154.901
X93.693Y154.89
X93.718Y154.88
X93.744Y154.869
X93.797Y154.85
X93.823Y154.841
X93.876Y154.825
X93.932Y154.81
X93.987Y154.798
X94.012Y154.793
X94.039Y154.788
X94.067Y154.783
X94.095Y154.779
X94.122Y154.775
X94.15Y154.772
X94.177Y154.769
X94.205Y154.767
X94.233Y154.765
X94.261Y154.764
X94.289
X94.317Y154.763
X94.344Y154.764
X94.372
X94.4Y154.765
X94.428Y154.767
X94.456Y154.769
X94.484Y154.772
X94.511Y154.775
X94.539Y154.779
X94.566Y154.783
X94.594Y154.788
X94.621Y154.793
X94.648Y154.798
X94.676Y154.804
X94.703Y154.811
X94.73Y154.818
X94.757Y154.825
X94.783Y154.833
X94.81Y154.841
X94.836Y154.85
X94.863Y154.86
X94.889Y154.869
X94.915Y154.88
X94.94Y154.89
X94.966Y154.901
X94.991Y154.913
X95.017Y154.925
X95.041Y154.937
X95.066Y154.95
X95.091Y154.963
X95.115Y154.977
X95.139Y154.991
X95.163Y155.006
X95.186Y155.021
X95.209Y155.036
X95.232Y155.052
X95.255Y155.068
X95.277Y155.085
X95.3Y155.102
X95.321Y155.119
X95.343Y155.137
X95.385Y155.173
X95.405Y155.192
X95.426Y155.211
X95.445Y155.231
X95.465Y155.251
X95.484Y155.271
X95.522Y155.312
X95.54Y155.334
X95.557Y155.355
X95.575Y155.377
X95.592Y155.399
X95.608Y155.421
X95.624Y155.444
X95.64Y155.467
X95.671Y155.514
X95.685Y155.538
X95.699Y155.562
X95.713Y155.586
X95.726Y155.61
X95.739Y155.635
X95.752Y155.66
X95.764Y155.685
X95.775Y155.711
X95.786Y155.736
X95.797Y155.762
X95.817Y155.814
X95.826Y155.84
X95.835Y155.866
X95.843Y155.893
X95.859Y155.947
X95.866Y155.974
X95.872Y156.001
X95.878Y156.028
X95.884Y156.055
X95.889Y156.083
X95.894Y156.11
X95.898Y156.138
X95.901Y156.165
X95.904Y156.193
X95.907Y156.221
X95.909Y156.249
X95.911Y156.276
X95.912Y156.304
X95.913Y156.332
Y156.36
Y156.388
X95.912Y156.416
X95.911Y156.443
X95.909Y156.471
X95.907Y156.499
X95.904Y156.527
X95.901Y156.555
X95.898Y156.582
X95.894Y156.61
X95.889Y156.637
X95.884Y156.664
X95.878Y156.692
X95.872Y156.719
X95.866Y156.746
X95.859Y156.773
X95.851Y156.8
X95.843Y156.827
X95.835Y156.853
X95.826Y156.88
X95.817Y156.906
X95.807Y156.932
X95.797Y156.958
X95.786Y156.984
X95.775Y157.009
X95.764Y157.035
X95.752Y157.06
X95.739Y157.085
X95.726Y157.109
X95.713Y157.134
X95.699Y157.158
X95.685Y157.182
X95.671Y157.206
X95.656Y157.229
X95.64Y157.253
X95.624Y157.276
X95.608Y157.298
X95.592Y157.321
X95.575Y157.343
X95.557Y157.365
X95.54Y157.386
X95.521Y157.408
X95.503Y157.428
X95.484Y157.449
X95.465Y157.469
X95.445Y157.489
X95.426Y157.509
X95.405Y157.528
X95.385Y157.546
X95.364Y157.565
X95.343Y157.583
X95.321Y157.601
X95.299Y157.618
X95.278Y157.635
X95.255Y157.652
X95.232Y157.668
X95.209Y157.684
X95.186Y157.699
X95.163Y157.714
X95.139Y157.728
X95.115Y157.743
X95.09Y157.756
X95.066Y157.77
X95.041Y157.783
X95.017Y157.795
X94.991Y157.807
X94.966Y157.819
X94.94Y157.83
X94.915Y157.84
X94.889Y157.851
X94.862Y157.86
X94.836Y157.87
X94.81Y157.878
X94.783Y157.887
X94.757Y157.895
X94.73Y157.902
X94.703Y157.909
X94.676Y157.916
X94.649Y157.922
X94.621Y157.927
X94.594Y157.932
X94.566Y157.937
X94.539Y157.941
X94.511Y157.945
X94.484Y157.948
X94.456Y157.95
X94.428Y157.953
X94.4Y157.954
X94.372Y157.956
X94.344
X94.298
X94.258
X94.233Y157.954
X94.205Y157.953
X94.15Y157.948
X94.122Y157.945
X94.095Y157.941
X94.067Y157.937
X94.039Y157.932
X94.012Y157.927
X93.984Y157.922
X93.957Y157.916
X93.93Y157.909
X93.903Y157.902
X93.876Y157.895
X93.85Y157.887
X93.823Y157.878
X93.797Y157.87
X93.771Y157.86
X93.744Y157.851
X93.718Y157.84
X93.693Y157.83
X93.667Y157.819
X93.642Y157.807
X93.617Y157.795
X93.592Y157.783
X93.567Y157.77
X93.543Y157.756
X93.518Y157.743
X93.494Y157.728
X93.47Y157.714
X93.447Y157.699
X93.424Y157.684
X93.405Y157.671
X93.377Y157.651
X93.355Y157.635
X93.334Y157.618
X93.312Y157.601
X93.29Y157.583
X93.269Y157.565
X93.248Y157.546
X93.228Y157.528
X93.208Y157.509
X93.188Y157.489
X93.168Y157.469
X93.149Y157.449
X93.13Y157.428
X93.1Y157.394
X93.074Y157.362
X93.058Y157.343
X93.041Y157.321
X93.025Y157.298
X93.009Y157.276
X92.993Y157.253
X92.977Y157.229
X92.963Y157.206
X92.946Y157.178
X92.934Y157.158
X92.92Y157.134
X92.907Y157.109
X92.882Y157.06
X92.87Y157.035
X92.858Y157.009
X92.847Y156.984
X92.836Y156.958
X92.826Y156.932
X92.807Y156.88
X92.798Y156.853
X92.791Y156.83
X92.782Y156.799
X92.774Y156.773
X92.767Y156.746
X92.761Y156.719
X92.755Y156.692
X92.749Y156.665
X92.744Y156.637
X92.74Y156.61
X92.735Y156.582
X92.732Y156.555
X92.729Y156.527
X92.726Y156.499
X92.724Y156.471
X92.722Y156.443
X92.721Y156.416
X92.72Y156.388
Y156.343
X92.721Y156.302
X92.722Y156.276
X92.724Y156.249
X92.726Y156.221
X92.728Y156.2
X92.732Y156.164
X92.735Y156.138
X92.74Y156.11
X92.744Y156.083
X92.749Y156.055
X92.755Y156.028
X92.761Y156.001
X92.767Y155.974
X92.774Y155.947
X92.782Y155.92
X92.79Y155.893
X92.798Y155.867
X92.807Y155.84
X92.816Y155.814
X92.826Y155.788
X92.838Y155.758
X92.847Y155.736
X92.858Y155.711
X92.87Y155.685
X92.882Y155.66
X92.894Y155.635
X92.907Y155.61
X92.921Y155.584
X92.934Y155.562
X92.948Y155.538
X92.962Y155.514
X92.977Y155.49
X92.993Y155.467
X93.009Y155.444
X93.043Y155.397
X93.07Y155.363
X93.095Y155.332
X93.112Y155.312
X93.13Y155.292
X93.168Y155.251
X93.188Y155.231
X93.207Y155.211
X93.241Y155.18
X93.271Y155.153
X93.29Y155.137
X93.312Y155.119
X93.333Y155.102
X93.356Y155.085
X93.378Y155.068
X93.401Y155.052
X93.427Y155.034
X93.447Y155.021
X93.47Y155.006
X93.494Y154.991
G0Z1
X107.701Y156.345
G1Z-0.1F50
X107.718Y156.169F100
X107.77Y156
X107.853Y155.844
X107.965Y155.707
X108.102Y155.595
X108.257Y155.512
X108.426Y155.461
X108.602Y155.443
X108.778Y155.461
X108.947Y155.512
X109.103Y155.595
X109.24Y155.707
X109.352Y155.844
X109.435Y156
X109.486Y156.169
X109.504Y156.345
X109.486Y156.52
X109.435Y156.689
X109.352Y156.845
X109.24Y156.982
X109.103Y157.094
X108.947Y157.177
X108.778Y157.229
X108.602Y157.246
X108.426Y157.229
X108.257Y157.177
X108.102Y157.094
X107.965Y156.982
X107.853Y156.845
X107.77Y156.689
X107.718Y156.52
X107.701Y156.345
G0Z1
X123.605
G1Z-0.1F50
X123.622Y156.169F100
X123.674Y156
X123.757Y155.844
X123.869Y155.707
X124.006Y155.595
X124.161Y155.512
X124.33Y155.461
X124.506Y155.443
X124.682Y155.461
X124.851Y155.512
X125.007Y155.595
X125.144Y155.707
X125.256Y155.844
X125.339Y156
X125.39Y156.169
X125.408Y156.345
X125.39Y156.52
X125.339Y156.689
X125.256Y156.845
X125.144Y156.982
X125.007Y157.094
X124.851Y157.177
X124.682Y157.229
X124.506Y157.246
X124.33Y157.229
X124.161Y157.177
X124.006Y157.094
X123.869Y156.982
X123.757Y156.845
X123.674Y156.689
X123.622Y156.52
X123.605Y156.345
G0Z1
X127.108Y148.419
G1Z-0.1F50
X100.653F100
X99.999Y148.425
X99.345Y148.441
X98.692Y148.469
X98.039Y148.507
X97.387Y148.556
X96.736Y148.616
X96.085Y148.686
X95.436Y148.768
X94.789Y148.86
X94.143Y148.963
X93.499Y149.077
X92.856Y149.201
X92.733Y149.228
X92.609Y149.256
X92.486Y149.287
X92.364Y149.32
X92.243Y149.355
X92.121Y149.392
X92.001Y149.431
X91.881Y149.472
X91.762Y149.515
X91.644Y149.56
X91.527Y149.608
X91.41Y149.657
X91.295Y149.708
X91.18Y149.762
X91.066Y149.817
X90.953Y149.874
X90.841Y149.934
X90.73Y149.995
X90.621Y150.058
X90.512Y150.123
X90.404Y150.19
X90.298Y150.258
X90.193Y150.329
X90.089Y150.401
X89.987Y150.475
X89.885Y150.551
X89.785Y150.629
X89.687Y150.708
X89.589Y150.789
X89.494Y150.872
X89.399Y150.956
X89.306Y151.042
X89.215Y151.13
X89.125Y151.219
X89.037Y151.31
X88.95Y151.402
X88.865Y151.496
X88.782Y151.591
X88.7Y151.688
X88.6Y151.81
X88.502Y151.934
X88.407Y152.059
X88.313Y152.186
X88.221Y152.315
X88.132Y152.446
X88.045Y152.578
X87.961Y152.711
X87.878Y152.846
X87.798Y152.982
X87.72Y153.119
X87.645Y153.258
X87.572Y153.398
X87.502Y153.54
X87.433Y153.682
X87.368Y153.826
X87.305Y153.97
X87.244Y154.116
X87.186Y154.263
X87.13Y154.411
X87.077Y154.56
X87.026Y154.709
X86.978Y154.86
X86.933Y155.011
X86.89Y155.163
X86.85Y155.316
X86.812Y155.469
X86.778Y155.623
X86.745Y155.778
X86.716Y155.933
X86.689Y156.089
X86.664Y156.245
X86.643Y156.401
X86.624Y156.558
X86.608Y156.715
X86.594Y156.873
X86.583Y157.03
X86.575Y157.188
X86.57Y157.346
X86.567Y157.504
Y157.662
X86.569Y157.82
X86.575Y157.977
X86.583Y158.135
X86.594Y158.293
X86.607Y158.45
X86.623Y158.607
X86.642Y158.764
X86.662Y158.907
X87.081Y161.798
X87.095Y161.873
X87.112Y161.95
X87.131Y162.025
X87.152Y162.099
X87.176Y162.172
X87.203Y162.245
X87.233Y162.317
X87.264Y162.388
X87.298Y162.457
X87.335Y162.526
X87.374Y162.592
X87.415Y162.658
X87.458Y162.722
X87.504Y162.785
X87.553Y162.846
X87.602Y162.905
X87.654Y162.962
X87.709Y163.019
X87.763Y163.071
X87.822Y163.123
X87.881Y163.173
X87.942Y163.22
X88.005Y163.266
X88.069Y163.309
X88.136Y163.35
X88.202Y163.388
X88.27Y163.424
X88.341Y163.459
X88.411Y163.49
X88.483Y163.519
X88.555Y163.545
X88.63Y163.569
X88.705Y163.591
X88.779Y163.609
X88.855Y163.625
X88.932Y163.639
X89.008Y163.649
X89.085Y163.657
X89.163Y163.663
X89.239Y163.666
X89.278
X94.329
X94.446Y163.665
X94.563Y163.662
X94.68Y163.657
X94.796Y163.65
X96.052Y163.56
X97.204Y163.495
X98.358Y163.449
X99.512Y163.421
X100.673Y163.412
X104.226
X104.264Y163.415
X104.302Y163.418
X104.34Y163.419
X104.378
X132.378
X132.418
X132.458Y163.417
X132.498Y163.415
X132.537Y163.411
X132.577Y163.407
X132.616Y163.402
X132.656Y163.395
X132.695Y163.388
X132.733Y163.379
X132.772Y163.37
X132.81Y163.36
X132.849Y163.348
X132.886Y163.336
X132.924Y163.323
X132.961Y163.309
X132.998Y163.294
X133.034Y163.278
X133.07Y163.261
X133.106Y163.243
X133.141Y163.225
X133.176Y163.205
X133.211Y163.184
X133.245Y163.163
X133.279Y163.14
X133.312Y163.117
X133.344Y163.093
X133.376Y163.068
X133.407Y163.042
X133.422Y163.029
X133.452Y163.003
X133.474Y162.982
X133.496Y162.961
X133.524Y162.933
X133.551Y162.904
X133.583Y162.868
X133.614Y162.831
X133.636Y162.803
X133.657Y162.775
X133.678Y162.746
X133.698Y162.717
X133.717Y162.688
X133.736Y162.657
X133.753Y162.629
X133.769Y162.601
X133.785Y162.572
X133.804Y162.534
X133.822Y162.497
X133.836Y162.467
X133.848Y162.438
X133.864Y162.397
X133.873Y162.375
X133.887Y162.335
X133.9Y162.294
X133.912Y162.252
X133.923Y162.21
X133.933Y162.167
X133.941Y162.127
X133.948Y162.086
X133.956Y162.035
X133.962Y161.979
X133.965Y161.945
X133.967Y161.912
X133.969Y161.878
Y161.828
Y161.596
X133.98Y161.534
X133.991Y161.457
X133.999Y161.38
X134.005Y161.303
X134.007Y161.224
X134.008Y161.186
Y150.352
X134.007Y150.313
X134.006Y150.273
X134.003Y150.234
X134Y150.195
X133.995Y150.156
X133.99Y150.116
X133.984Y150.078
X133.976Y150.039
X133.969Y150.005
X133.968Y149.963
X133.966Y149.92
X133.962Y149.877
X133.958Y149.834
X133.952Y149.792
X133.945Y149.749
X133.937Y149.707
X133.927Y149.665
X133.917Y149.623
X133.907Y149.588
X133.897Y149.554
X133.886Y149.52
X133.874Y149.486
X133.862Y149.452
X133.845Y149.411
X133.827Y149.37
X133.808Y149.33
X133.786Y149.286
X133.77Y149.257
X133.753Y149.227
X133.731Y149.191
X133.709Y149.155
X133.687Y149.123
X133.665Y149.092
X133.642Y149.061
X133.618Y149.031
X133.593Y149.001
X133.568Y148.972
X133.542Y148.943
X133.515Y148.915
X133.488Y148.888
X133.46Y148.862
X133.431Y148.836
X133.402Y148.811
X133.372Y148.786
X133.342Y148.762
X133.311Y148.739
X133.28Y148.717
X133.247Y148.696
X133.215Y148.675
X133.182Y148.655
X133.148Y148.636
X133.114Y148.617
X133.079Y148.6
X133.045Y148.584
X133.01Y148.568
X132.975Y148.553
X132.939Y148.54
X132.903Y148.526
X132.867Y148.514
X132.831Y148.503
X132.794Y148.493
X132.757Y148.483
X132.72Y148.474
X132.682Y148.467
X132.645Y148.46
X132.607Y148.454
X132.569Y148.449
X132.531Y148.445
X132.493Y148.441
X132.455Y148.439
X132.417Y148.438
X132.378Y148.437
X128.442
X127.852Y148.424
X127.108Y148.419
G0Z1
X93.494Y154.991
G1Z-0.125F50
X93.518Y154.977F100
X93.542Y154.963
X93.567Y154.95
X93.592Y154.937
X93.617Y154.925
X93.642Y154.913
X93.667Y154.901
X93.693Y154.89
X93.718Y154.88
X93.744Y154.869
X93.797Y154.85
X93.823Y154.841
X93.876Y154.825
X93.932Y154.81
X93.987Y154.798
X94.012Y154.793
X94.039Y154.788
X94.067Y154.783
X94.095Y154.779
X94.122Y154.775
X94.15Y154.772
X94.177Y154.769
X94.205Y154.767
X94.233Y154.765
X94.261Y154.764
X94.289
X94.317Y154.763
X94.344Y154.764
X94.372
X94.4Y154.765
X94.428Y154.767
X94.456Y154.769
X94.484Y154.772
X94.511Y154.775
X94.539Y154.779
X94.566Y154.783
X94.594Y154.788
X94.621Y154.793
X94.648Y154.798
X94.676Y154.804
X94.703Y154.811
X94.73Y154.818
X94.757Y154.825
X94.783Y154.833
X94.81Y154.841
X94.836Y154.85
X94.863Y154.86
X94.889Y154.869
X94.915Y154.88
X94.94Y154.89
X94.966Y154.901
X94.991Y154.913
X95.017Y154.925
X95.041Y154.937
X95.066Y154.95
X95.091Y154.963
X95.115Y154.977
X95.139Y154.991
X95.163Y155.006
X95.186Y155.021
X95.209Y155.036
X95.232Y155.052
X95.255Y155.068
X95.277Y155.085
X95.3Y155.102
X95.321Y155.119
X95.343Y155.137
X95.385Y155.173
X95.405Y155.192
X95.426Y155.211
X95.445Y155.231
X95.465Y155.251
X95.484Y155.271
X95.522Y155.312
X95.54Y155.334
X95.557Y155.355
X95.575Y155.377
X95.592Y155.399
X95.608Y155.421
X95.624Y155.444
X95.64Y155.467
X95.671Y155.514
X95.685Y155.538
X95.699Y155.562
X95.713Y155.586
X95.726Y155.61
X95.739Y155.635
X95.752Y155.66
X95.764Y155.685
X95.775Y155.711
X95.786Y155.736
X95.797Y155.762
X95.817Y155.814
X95.826Y155.84
X95.835Y155.866
X95.843Y155.893
X95.859Y155.947
X95.866Y155.974
X95.872Y156.001
X95.878Y156.028
X95.884Y156.055
X95.889Y156.083
X95.894Y156.11
X95.898Y156.138
X95.901Y156.165
X95.904Y156.193
X95.907Y156.221
X95.909Y156.249
X95.911Y156.276
X95.912Y156.304
X95.913Y156.332
Y156.36
Y156.388
X95.912Y156.416
X95.911Y156.443
X95.909Y156.471
X95.907Y156.499
X95.904Y156.527
X95.901Y156.555
X95.898Y156.582
X95.894Y156.61
X95.889Y156.637
X95.884Y156.664
X95.878Y156.692
X95.872Y156.719
X95.866Y156.746
X95.859Y156.773
X95.851Y156.8
X95.843Y156.827
X95.835Y156.853
X95.826Y156.88
X95.817Y156.906
X95.807Y156.932
X95.797Y156.958
X95.786Y156.984
X95.775Y157.009
X95.764Y157.035
X95.752Y157.06
X95.739Y157.085
X95.726Y157.109
X95.713Y157.134
X95.699Y157.158
X95.685Y157.182
X95.671Y157.206
X95.656Y157.229
X95.64Y157.253
X95.624Y157.276
X95.608Y157.298
X95.592Y157.321
X95.575Y157.343
X95.557Y157.365
X95.54Y157.386
X95.521Y157.408
X95.503Y157.428
X95.484Y157.449
X95.465Y157.469
X95.445Y157.489
X95.426Y157.509
X95.405Y157.528
X95.385Y157.546
X95.364Y157.565
X95.343Y157.583
X95.321Y157.601
X95.299Y157.618
X95.278Y157.635
X95.255Y157.652
X95.232Y157.668
X95.209Y157.684
X95.186Y157.699
X95.163Y157.714
X95.139Y157.728
X95.115Y157.743
X95.09Y157.756
X95.066Y157.77
X95.041Y157.783
X95.017Y157.795
X94.991Y157.807
X94.966Y157.819
X94.94Y157.83
X94.915Y157.84
X94.889Y157.851
X94.862Y157.86
X94.836Y157.87
X94.81Y157.878
X94.783Y157.887
X94.757Y157.895
X94.73Y157.902
X94.703Y157.909
X94.676Y157.916
X94.649Y157.922
X94.621Y157.927
X94.594Y157.932
X94.566Y157.937
X94.539Y157.941
X94.511Y157.945
X94.484Y157.948
X94.456Y157.95
X94.428Y157.953
X94.4Y157.954
X94.372Y157.956
X94.344
X94.298
X94.258
X94.233Y157.954
X94.205Y157.953
X94.15Y157.948
X94.122Y157.945
X94.095Y157.941
X94.067Y157.937
X94.039Y157.932
X94.012Y157.927
X93.984Y157.922
X93.957Y157.916
X93.93Y157.909
X93.903Y157.902
X93.876Y157.895
X93.85Y157.887
X93.823Y157.878
X93.797Y157.87
X93.771Y157.86
X93.744Y157.851
X93.718Y157.84
X93.693Y157.83
X93.667Y157.819
X93.642Y157.807
X93.617Y157.795
X93.592Y157.783
X93.567Y157.77
X93.543Y157.756
X93.518Y157.743
X93.494Y157.728
X93.47Y157.714
X93.447Y157.699
X93.424Y157.684
X93.405Y157.671
X93.377Y157.651
X93.355Y157.635
X93.334Y157.618
X93.312Y157.601
X93.29Y157.583
X93.269Y157.565
X93.248Y157.546
X93.228Y157.528
X93.208Y157.509
X93.188Y157.489
X93.168Y157.469
X93.149Y157.449
X93.13Y157.428
X93.1Y157.394
X93.074Y157.362
X93.058Y157.343
X93.041Y157.321
X93.025Y157.298
X93.009Y157.276
X92.993Y157.253
X92.977Y157.229
X92.963Y157.206
X92.946Y157.178
X92.934Y157.158
X92.92Y157.134
X92.907Y157.109
X92.882Y157.06
X92.87Y157.035
X92.858Y157.009
X92.847Y156.984
X92.836Y156.958
X92.826Y156.932
X92.807Y156.88
X92.798Y156.853
X92.791Y156.83
X92.782Y156.799
X92.774Y156.773
X92.767Y156.746
X92.761Y156.719
X92.755Y156.692
X92.749Y156.665
X92.744Y156.637
X92.74Y156.61
X92.735Y156.582
X92.732Y156.555
X92.729Y156.527
X92.726Y156.499
X92.724Y156.471
X92.722Y156.443
X92.721Y156.416
X92.72Y156.388
Y156.343
X92.721Y156.302
X92.722Y156.276
X92.724Y156.249
X92.726Y156.221
X92.728Y156.2
X92.732Y156.164
X92.735Y156.138
X92.74Y156.11
X92.744Y156.083
X92.749Y156.055
X92.755Y156.028
X92.761Y156.001
X92.767Y155.974
X92.774Y155.947
X92.782Y155.92
X92.79Y155.893
X92.798Y155.867
X92.807Y155.84
X92.816Y155.814
X92.826Y155.788
X92.838Y155.758
X92.847Y155.736
X92.858Y155.711
X92.87Y155.685
X92.882Y155.66
X92.894Y155.635
X92.907Y155.61
X92.921Y155.584
X92.934Y155.562
X92.948Y155.538
X92.962Y155.514
X92.977Y155.49
X92.993Y155.467
X93.009Y155.444
X93.043Y155.397
X93.07Y155.363
X93.095Y155.332
X93.112Y155.312
X93.13Y155.292
X93.168Y155.251
X93.188Y155.231
X93.207Y155.211
X93.241Y155.18
X93.271Y155.153
X93.29Y155.137
X93.312Y155.119
X93.333Y155.102
X93.356Y155.085
X93.378Y155.068
X93.401Y155.052
X93.427Y155.034
X93.447Y155.021
X93.47Y155.006
X93.494Y154.991
G0Z1
X107.701Y156.345
G1Z-0.125F50
X107.718Y156.169F100
X107.77Y156
X107.853Y155.844
X107.965Y155.707
X108.102Y155.595
X108.257Y155.512
X108.426Y155.461
X108.602Y155.443
X108.778Y155.461
X108.947Y155.512
X109.103Y155.595
X109.24Y155.707
X109.352Y155.844
X109.435Y156
X109.486Y156.169
X109.504Y156.345
X109.486Y156.52
X109.435Y156.689
X109.352Y156.845
X109.24Y156.982
X109.103Y157.094
X108.947Y157.177
X108.778Y157.229
X108.602Y157.246
X108.426Y157.229
X108.257Y157.177
X108.102Y157.094
X107.965Y156.982
X107.853Y156.845
X107.77Y156.689
X107.718Y156.52
X107.701Y156.345
G0Z1
X123.605
G1Z-0.125F50
X123.622Y156.169F100
X123.674Y156
X123.757Y155.844
X123.869Y155.707
X124.006Y155.595
X124.161Y155.512
X124.33Y155.461
X124.506Y155.443
X124.682Y155.461
X124.851Y155.512
X125.007Y155.595
X125.144Y155.707
X125.256Y155.844
X125.339Y156
X125.39Y156.169
X125.408Y156.345
X125.39Y156.52
X125.339Y156.689
X125.256Y156.845
X125.144Y156.982
X125.007Y157.094
X124.851Y157.177
X124.682Y157.229
X124.506Y157.246
X124.33Y157.229
X124.161Y157.177
X124.006Y157.094
X123.869Y156.982
X123.757Y156.845
X123.674Y156.689
X123.622Y156.52
X123.605Y156.345
G0Z1
X127.108Y148.419
G1Z-0.125F50
X100.653F100
X99.999Y148.425
X99.345Y148.441
X98.692Y148.469
X98.039Y148.507
X97.387Y148.556
X96.736Y148.616
X96.085Y148.686
X95.436Y148.768
X94.789Y148.86
X94.143Y148.963
X93.499Y149.077
X92.856Y149.201
X92.733Y149.228
X92.609Y149.256
X92.486Y149.287
X92.364Y149.32
X92.243Y149.355
X92.121Y149.392
X92.001Y149.431
X91.881Y149.472
X91.762Y149.515
X91.644Y149.56
X91.527Y149.608
X91.41Y149.657
X91.295Y149.708
X91.18Y149.762
X91.066Y149.817
X90.953Y149.874
X90.841Y149.934
X90.73Y149.995
X90.621Y150.058
X90.512Y150.123
X90.404Y150.19
X90.298Y150.258
X90.193Y150.329
X90.089Y150.401
X89.987Y150.475
X89.885Y150.551
X89.785Y150.629
X89.687Y150.708
X89.589Y150.789
X89.494Y150.872
X89.399Y150.956
X89.306Y151.042
X89.215Y151.13
X89.125Y151.219
X89.037Y151.31
X88.95Y151.402
X88.865Y151.496
X88.782Y151.591
X88.7Y151.688
X88.6Y151.81
X88.502Y151.934
X88.407Y152.059
X88.313Y152.186
X88.221Y152.315
X88.132Y152.446
X88.045Y152.578
X87.961Y152.711
X87.878Y152.846
X87.798Y152.982
X87.72Y153.119
X87.645Y153.258
X87.572Y153.398
X87.502Y153.54
X87.433Y153.682
X87.368Y153.826
X87.305Y153.97
X87.244Y154.116
X87.186Y154.263
X87.13Y154.411
X87.077Y154.56
X87.026Y154.709
X86.978Y154.86
X86.933Y155.011
X86.89Y155.163
X86.85Y155.316
X86.812Y155.469
X86.778Y155.623
X86.745Y155.778
X86.716Y155.933
X86.689Y156.089
X86.664Y156.245
X86.643Y156.401
X86.624Y156.558
X86.608Y156.715
X86.594Y156.873
X86.583Y157.03
X86.575Y157.188
X86.57Y157.346
X86.567Y157.504
Y157.662
X86.569Y157.82
X86.575Y157.977
X86.583Y158.135
X86.594Y158.293
X86.607Y158.45
X86.623Y158.607
X86.642Y158.764
X86.662Y158.907
X87.081Y161.798
X87.095Y161.873
X87.112Y161.95
X87.131Y162.025
X87.152Y162.099
X87.176Y162.172
X87.203Y162.245
X87.233Y162.317
X87.264Y162.388
X87.298Y162.457
X87.335Y162.526
X87.374Y162.592
X87.415Y162.658
X87.458Y162.722
X87.504Y162.785
X87.553Y162.846
X87.602Y162.905
X87.654Y162.962
X87.709Y163.019
X87.763Y163.071
X87.822Y163.123
X87.881Y163.173
X87.942Y163.22
X88.005Y163.266
X88.069Y163.309
X88.136Y163.35
X88.202Y163.388
X88.27Y163.424
X88.341Y163.459
X88.411Y163.49
X88.483Y163.519
X88.555Y163.545
X88.63Y163.569
X88.705Y163.591
X88.779Y163.609
X88.855Y163.625
X88.932Y163.639
X89.008Y163.649
X89.085Y163.657
X89.163Y163.663
X89.239Y163.666
X89.278
X94.329
X94.446Y163.665
X94.563Y163.662
X94.68Y163.657
X94.796Y163.65
X96.052Y163.56
X97.204Y163.495
X98.358Y163.449
X99.512Y163.421
X100.673Y163.412
X104.226
X104.264Y163.415
X104.302Y163.418
X104.34Y163.419
X104.378
X132.378
X132.418
X132.458Y163.417
X132.498Y163.415
X132.537Y163.411
X132.577Y163.407
X132.616Y163.402
X132.656Y163.395
X132.695Y163.388
X132.733Y163.379
X132.772Y163.37
X132.81Y163.36
X132.849Y163.348
X132.886Y163.336
X132.924Y163.323
X132.961Y163.309
X132.998Y163.294
X133.034Y163.278
X133.07Y163.261
X133.106Y163.243
X133.141Y163.225
X133.176Y163.205
X133.211Y163.184
X133.245Y163.163
X133.279Y163.14
X133.312Y163.117
X133.344Y163.093
X133.376Y163.068
X133.407Y163.042
X133.422Y163.029
X133.452Y163.003
X133.474Y162.982
X133.496Y162.961
X133.524Y162.933
X133.551Y162.904
X133.583Y162.868
X133.614Y162.831
X133.636Y162.803
X133.657Y162.775
X133.678Y162.746
X133.698Y162.717
X133.717Y162.688
X133.736Y162.657
X133.753Y162.629
X133.769Y162.601
X133.785Y162.572
X133.804Y162.534
X133.822Y162.497
X133.836Y162.467
X133.848Y162.438
X133.864Y162.397
X133.873Y162.375
X133.887Y162.335
X133.9Y162.294
X133.912Y162.252
X133.923Y162.21
X133.933Y162.167
X133.941Y162.127
X133.948Y162.086
X133.956Y162.035
X133.962Y161.979
X133.965Y161.945
X133.967Y161.912
X133.969Y161.878
Y161.828
Y161.596
X133.98Y161.534
X133.991Y161.457
X133.999Y161.38
X134.005Y161.303
X134.007Y161.224
X134.008Y161.186
Y150.352
X134.007Y150.313
X134.006Y150.273
X134.003Y150.234
X134Y150.195
X133.995Y150.156
X133.99Y150.116
X133.984Y150.078
X133.976Y150.039
X133.969Y150.005
X133.968Y149.963
X133.966Y149.92
X133.962Y149.877
X133.958Y149.834
X133.952Y149.792
X133.945Y149.749
X133.937Y149.707
X133.927Y149.665
X133.917Y149.623
X133.907Y149.588
X133.897Y149.554
X133.886Y149.52
X133.874Y149.486
X133.862Y149.452
X133.845Y149.411
X133.827Y149.37
X133.808Y149.33
X133.786Y149.286
X133.77Y149.257
X133.753Y149.227
X133.731Y149.191
X133.709Y149.155
X133.687Y149.123
X133.665Y149.092
X133.642Y149.061
X133.618Y149.031
X133.593Y149.001
X133.568Y148.972
X133.542Y148.943
X133.515Y148.915
X133.488Y148.888
X133.46Y148.862
X133.431Y148.836
X133.402Y148.811
X133.372Y148.786
X133.342Y148.762
X133.311Y148.739
X133.28Y148.717
X133.247Y148.696
X133.215Y148.675
X133.182Y148.655
X133.148Y148.636
X133.114Y148.617
X133.079Y148.6
X133.045Y148.584
X133.01Y148.568
X132.975Y148.553
X132.939Y148.54
X132.903Y148.526
X132.867Y148.514
X132.831Y148.503
X132.794Y148.493
X132.757Y148.483
X132.72Y148.474
X132.682Y148.467
X132.645Y148.46
X132.607Y148.454
X132.569Y148.449
X132.531Y148.445
X132.493Y148.441
X132.455Y148.439
X132.417Y148.438
X132.378Y148.437
X128.442
X127.852Y148.424
X127.108Y148.419
G0Z1
X93.494Y154.991
G1Z-0.15F50
X93.518Y154.977F100
X93.542Y154.963
X93.567Y154.95
X93.592Y154.937
X93.617Y154.925
X93.642Y154.913
X93.667Y154.901
X93.693Y154.89
X93.718Y154.88
X93.744Y154.869
X93.797Y154.85
X93.823Y154.841
X93.876Y154.825
X93.932Y154.81
X93.987Y154.798
X94.012Y154.793
X94.039Y154.788
X94.067Y154.783
X94.095Y154.779
X94.122Y154.775
X94.15Y154.772
X94.177Y154.769
X94.205Y154.767
X94.233Y154.765
X94.261Y154.764
X94.289
X94.317Y154.763
X94.344Y154.764
X94.372
X94.4Y154.765
X94.428Y154.767
X94.456Y154.769
X94.484Y154.772
X94.511Y154.775
X94.539Y154.779
X94.566Y154.783
X94.594Y154.788
X94.621Y154.793
X94.648Y154.798
X94.676Y154.804
X94.703Y154.811
X94.73Y154.818
X94.757Y154.825
X94.783Y154.833
X94.81Y154.841
X94.836Y154.85
X94.863Y154.86
X94.889Y154.869
X94.915Y154.88
X94.94Y154.89
X94.966Y154.901
X94.991Y154.913
X95.017Y154.925
X95.041Y154.937
X95.066Y154.95
X95.091Y154.963
X95.115Y154.977
X95.139Y154.991
X95.163Y155.006
X95.186Y155.021
X95.209Y155.036
X95.232Y155.052
X95.255Y155.068
X95.277Y155.085
X95.3Y155.102
X95.321Y155.119
X95.343Y155.137
X95.385Y155.173
X95.405Y155.192
X95.426Y155.211
X95.445Y155.231
X95.465Y155.251
X95.484Y155.271
X95.522Y155.312
X95.54Y155.334
X95.557Y155.355
X95.575Y155.377
X95.592Y155.399
X95.608Y155.421
X95.624Y155.444
X95.64Y155.467
X95.671Y155.514
X95.685Y155.538
X95.699Y155.562
X95.713Y155.586
X95.726Y155.61
X95.739Y155.635
X95.752Y155.66
X95.764Y155.685
X95.775Y155.711
X95.786Y155.736
X95.797Y155.762
X95.817Y155.814
X95.826Y155.84
X95.835Y155.866
X95.843Y155.893
X95.859Y155.947
X95.866Y155.974
X95.872Y156.001
X95.878Y156.028
X95.884Y156.055
X95.889Y156.083
X95.894Y156.11
X95.898Y156.138
X95.901Y156.165
X95.904Y156.193
X95.907Y156.221
X95.909Y156.249
X95.911Y156.276
X95.912Y156.304
X95.913Y156.332
Y156.36
Y156.388
X95.912Y156.416
X95.911Y156.443
X95.909Y156.471
X95.907Y156.499
X95.904Y156.527
X95.901Y156.555
X95.898Y156.582
X95.894Y156.61
X95.889Y156.637
X95.884Y156.664
X95.878Y156.692
X95.872Y156.719
X95.866Y156.746
X95.859Y156.773
X95.851Y156.8
X95.843Y156.827
X95.835Y156.853
X95.826Y156.88
X95.817Y156.906
X95.807Y156.932
X95.797Y156.958
X95.786Y156.984
X95.775Y157.009
X95.764Y157.035
X95.752Y157.06
X95.739Y157.085
X95.726Y157.109
X95.713Y157.134
X95.699Y157.158
X95.685Y157.182
X95.671Y157.206
X95.656Y157.229
X95.64Y157.253
X95.624Y157.276
X95.608Y157.298
X95.592Y157.321
X95.575Y157.343
X95.557Y157.365
X95.54Y157.386
X95.521Y157.408
X95.503Y157.428
X95.484Y157.449
X95.465Y157.469
X95.445Y157.489
X95.426Y157.509
X95.405Y157.528
X95.385Y157.546
X95.364Y157.565
X95.343Y157.583
X95.321Y157.601
X95.299Y157.618
X95.278Y157.635
X95.255Y157.652
X95.232Y157.668
X95.209Y157.684
X95.186Y157.699
X95.163Y157.714
X95.139Y157.728
X95.115Y157.743
X95.09Y157.756
X95.066Y157.77
X95.041Y157.783
X95.017Y157.795
X94.991Y157.807
X94.966Y157.819
X94.94Y157.83
X94.915Y157.84
X94.889Y157.851
X94.862Y157.86
X94.836Y157.87
X94.81Y157.878
X94.783Y157.887
X94.757Y157.895
X94.73Y157.902
X94.703Y157.909
X94.676Y157.916
X94.649Y157.922
X94.621Y157.927
X94.594Y157.932
X94.566Y157.937
X94.539Y157.941
X94.511Y157.945
X94.484Y157.948
X94.456Y157.95
X94.428Y157.953
X94.4Y157.954
X94.372Y157.956
X94.344
X94.298
X94.258
X94.233Y157.954
X94.205Y157.953
X94.15Y157.948
X94.122Y157.945
X94.095Y157.941
X94.067Y157.937
X94.039Y157.932
X94.012Y157.927
X93.984Y157.922
X93.957Y157.916
X93.93Y157.909
X93.903Y157.902
X93.876Y157.895
X93.85Y157.887
X93.823Y157.878
X93.797Y157.87
X93.771Y157.86
X93.744Y157.851
X93.718Y157.84
X93.693Y157.83
X93.667Y157.819
X93.642Y157.807
X93.617Y157.795
X93.592Y157.783
X93.567Y157.77
X93.543Y157.756
X93.518Y157.743
X93.494Y157.728
X93.47Y157.714
X93.447Y157.699
X93.424Y157.684
X93.405Y157.671
X93.377Y157.651
X93.355Y157.635
X93.334Y157.618
X93.312Y157.601
X93.29Y157.583
X93.269Y157.565
X93.248Y157.546
X93.228Y157.528
X93.208Y157.509
X93.188Y157.489
X93.168Y157.469
X93.149Y157.449
X93.13Y157.428
X93.1Y157.394
X93.074Y157.362
X93.058Y157.343
X93.041Y157.321
X93.025Y157.298
X93.009Y157.276
X92.993Y157.253
X92.977Y157.229
X92.963Y157.206
X92.946Y157.178
X92.934Y157.158
X92.92Y157.134
X92.907Y157.109
X92.882Y157.06
X92.87Y157.035
X92.858Y157.009
X92.847Y156.984
X92.836Y156.958
X92.826Y156.932
X92.807Y156.88
X92.798Y156.853
X92.791Y156.83
X92.782Y156.799
X92.774Y156.773
X92.767Y156.746
X92.761Y156.719
X92.755Y156.692
X92.749Y156.665
X92.744Y156.637
X92.74Y156.61
X92.735Y156.582
X92.732Y156.555
X92.729Y156.527
X92.726Y156.499
X92.724Y156.471
X92.722Y156.443
X92.721Y156.416
X92.72Y156.388
Y156.343
X92.721Y156.302
X92.722Y156.276
X92.724Y156.249
X92.726Y156.221
X92.728Y156.2
X92.732Y156.164
X92.735Y156.138
X92.74Y156.11
X92.744Y156.083
X92.749Y156.055
X92.755Y156.028
X92.761Y156.001
X92.767Y155.974
X92.774Y155.947
X92.782Y155.92
X92.79Y155.893
X92.798Y155.867
X92.807Y155.84
X92.816Y155.814
X92.826Y155.788
X92.838Y155.758
X92.847Y155.736
X92.858Y155.711
X92.87Y155.685
X92.882Y155.66
X92.894Y155.635
X92.907Y155.61
X92.921Y155.584
X92.934Y155.562
X92.948Y155.538
X92.962Y155.514
X92.977Y155.49
X92.993Y155.467
X93.009Y155.444
X93.043Y155.397
X93.07Y155.363
X93.095Y155.332
X93.112Y155.312
X93.13Y155.292
X93.168Y155.251
X93.188Y155.231
X93.207Y155.211
X93.241Y155.18
X93.271Y155.153
X93.29Y155.137
X93.312Y155.119
X93.333Y155.102
X93.356Y155.085
X93.378Y155.068
X93.401Y155.052
X93.427Y155.034
X93.447Y155.021
X93.47Y155.006
X93.494Y154.991
G0Z1
X107.701Y156.345
G1Z-0.15F50
X107.718Y156.169F100
X107.77Y156
X107.853Y155.844
X107.965Y155.707
X108.102Y155.595
X108.257Y155.512
X108.426Y155.461
X108.602Y155.443
X108.778Y155.461
X108.947Y155.512
X109.103Y155.595
X109.24Y155.707
X109.352Y155.844
X109.435Y156
X109.486Y156.169
X109.504Y156.345
X109.486Y156.52
X109.435Y156.689
X109.352Y156.845
X109.24Y156.982
X109.103Y157.094
X108.947Y157.177
X108.778Y157.229
X108.602Y157.246
X108.426Y157.229
X108.257Y157.177
X108.102Y157.094
X107.965Y156.982
X107.853Y156.845
X107.77Y156.689
X107.718Y156.52
X107.701Y156.345
G0Z1
X123.605
G1Z-0.15F50
X123.622Y156.169F100
X123.674Y156
X123.757Y155.844
X123.869Y155.707
X124.006Y155.595
X124.161Y155.512
X124.33Y155.461
X124.506Y155.443
X124.682Y155.461
X124.851Y155.512
X125.007Y155.595
X125.144Y155.707
X125.256Y155.844
X125.339Y156
X125.39Y156.169
X125.408Y156.345
X125.39Y156.52
X125.339Y156.689
X125.256Y156.845
X125.144Y156.982
X125.007Y157.094
X124.851Y157.177
X124.682Y157.229
X124.506Y157.246
X124.33Y157.229
X124.161Y157.177
X124.006Y157.094
X123.869Y156.982
X123.757Y156.845
X123.674Y156.689
X123.622Y156.52
X123.605Y156.345
G0Z1
X127.108Y148.419
G1Z-0.15F50
X100.653F100
X99.999Y148.425
X99.345Y148.441
X98.692Y148.469
X98.039Y148.507
X97.387Y148.556
X96.736Y148.616
X96.085Y148.686
X95.436Y148.768
X94.789Y148.86
X94.143Y148.963
X93.499Y149.077
X92.856Y149.201
X92.733Y149.228
X92.609Y149.256
X92.486Y149.287
X92.364Y149.32
X92.243Y149.355
X92.121Y149.392
X92.001Y149.431
X91.881Y149.472
X91.762Y149.515
X91.644Y149.56
X91.527Y149.608
X91.41Y149.657
X91.295Y149.708
X91.18Y149.762
X91.066Y149.817
X90.953Y149.874
X90.841Y149.934
X90.73Y149.995
X90.621Y150.058
X90.512Y150.123
X90.404Y150.19
X90.298Y150.258
X90.193Y150.329
X90.089Y150.401
X89.987Y150.475
X89.885Y150.551
X89.785Y150.629
X89.687Y150.708
X89.589Y150.789
X89.494Y150.872
X89.399Y150.956
X89.306Y151.042
X89.215Y151.13
X89.125Y151.219
X89.037Y151.31
X88.95Y151.402
X88.865Y151.496
X88.782Y151.591
X88.7Y151.688
X88.6Y151.81
X88.502Y151.934
X88.407Y152.059
X88.313Y152.186
X88.221Y152.315
X88.132Y152.446
X88.045Y152.578
X87.961Y152.711
X87.878Y152.846
X87.798Y152.982
X87.72Y153.119
X87.645Y153.258
X87.572Y153.398
X87.502Y153.54
X87.433Y153.682
X87.368Y153.826
X87.305Y153.97
X87.244Y154.116
X87.186Y154.263
X87.13Y154.411
X87.077Y154.56
X87.026Y154.709
X86.978Y154.86
X86.933Y155.011
X86.89Y155.163
X86.85Y155.316
X86.812Y155.469
X86.778Y155.623
X86.745Y155.778
X86.716Y155.933
X86.689Y156.089
X86.664Y156.245
X86.643Y156.401
X86.624Y156.558
X86.608Y156.715
X86.594Y156.873
X86.583Y157.03
X86.575Y157.188
X86.57Y157.346
X86.567Y157.504
Y157.662
X86.569Y157.82
X86.575Y157.977
X86.583Y158.135
X86.594Y158.293
X86.607Y158.45
X86.623Y158.607
X86.642Y158.764
X86.662Y158.907
X87.081Y161.798
X87.095Y161.873
X87.112Y161.95
X87.131Y162.025
X87.152Y162.099
X87.176Y162.172
X87.203Y162.245
X87.233Y162.317
X87.264Y162.388
X87.298Y162.457
X87.335Y162.526
X87.374Y162.592
X87.415Y162.658
X87.458Y162.722
X87.504Y162.785
X87.553Y162.846
X87.602Y162.905
X87.654Y162.962
X87.709Y163.019
X87.763Y163.071
X87.822Y163.123
X87.881Y163.173
X87.942Y163.22
X88.005Y163.266
X88.069Y163.309
X88.136Y163.35
X88.202Y163.388
X88.27Y163.424
X88.341Y163.459
X88.411Y163.49
X88.483Y163.519
X88.555Y163.545
X88.63Y163.569
X88.705Y163.591
X88.779Y163.609
X88.855Y163.625
X88.932Y163.639
X89.008Y163.649
X89.085Y163.657
X89.163Y163.663
X89.239Y163.666
X89.278
X94.329
X94.446Y163.665
X94.563Y163.662
X94.68Y163.657
X94.796Y163.65
X96.052Y163.56
X97.204Y163.495
X98.358Y163.449
X99.512Y163.421
X100.673Y163.412
X104.226
X104.264Y163.415
X104.302Y163.418
X104.34Y163.419
X104.378
X132.378
X132.418
X132.458Y163.417
X132.498Y163.415
X132.537Y163.411
X132.577Y163.407
X132.616Y163.402
X132.656Y163.395
X132.695Y163.388
X132.733Y163.379
X132.772Y163.37
X132.81Y163.36
X132.849Y163.348
X132.886Y163.336
X132.924Y163.323
X132.961Y163.309
X132.998Y163.294
X133.034Y163.278
X133.07Y163.261
X133.106Y163.243
X133.141Y163.225
X133.176Y163.205
X133.211Y163.184
X133.245Y163.163
X133.279Y163.14
X133.312Y163.117
X133.344Y163.093
X133.376Y163.068
X133.407Y163.042
X133.422Y163.029
X133.452Y163.003
X133.474Y162.982
X133.496Y162.961
X133.524Y162.933
X133.551Y162.904
X133.583Y162.868
X133.614Y162.831
X133.636Y162.803
X133.657Y162.775
X133.678Y162.746
X133.698Y162.717
X133.717Y162.688
X133.736Y162.657
X133.753Y162.629
X133.769Y162.601
X133.785Y162.572
X133.804Y162.534
X133.822Y162.497
X133.836Y162.467
X133.848Y162.438
X133.864Y162.397
X133.873Y162.375
X133.887Y162.335
X133.9Y162.294
X133.912Y162.252
X133.923Y162.21
X133.933Y162.167
X133.941Y162.127
X133.948Y162.086
X133.956Y162.035
X133.962Y161.979
X133.965Y161.945
X133.967Y161.912
X133.969Y161.878
Y161.828
Y161.596
X133.98Y161.534
X133.991Y161.457
X133.999Y161.38
X134.005Y161.303
X134.007Y161.224
X134.008Y161.186
Y150.352
X134.007Y150.313
X134.006Y150.273
X134.003Y150.234
X134Y150.195
X133.995Y150.156
X133.99Y150.116
X133.984Y150.078
X133.976Y150.039
X133.969Y150.005
X133.968Y149.963
X133.966Y149.92
X133.962Y149.877
X133.958Y149.834
X133.952Y149.792
X133.945Y149.749
X133.937Y149.707
X133.927Y149.665
X133.917Y149.623
X133.907Y149.588
X133.897Y149.554
X133.886Y149.52
X133.874Y149.486
X133.862Y149.452
X133.845Y149.411
X133.827Y149.37
X133.808Y149.33
X133.786Y149.286
X133.77Y149.257
X133.753Y149.227
X133.731Y149.191
X133.709Y149.155
X133.687Y149.123
X133.665Y149.092
X133.642Y149.061
X133.618Y149.031
X133.593Y149.001
X133.568Y148.972
X133.542Y148.943
X133.515Y148.915
X133.488Y148.888
X133.46Y148.862
X133.431Y148.836
X133.402Y148.811
X133.372Y148.786
X133.342Y148.762
X133.311Y148.739
X133.28Y148.717
X133.247Y148.696
X133.215Y148.675
X133.182Y148.655
X133.148Y148.636
X133.114Y148.617
X133.079Y148.6
X133.045Y148.584
X133.01Y148.568
X132.975Y148.553
X132.939Y148.54
X132.903Y148.526
X132.867Y148.514
X132.831Y148.503
X132.794Y148.493
X132.757Y148.483
X132.72Y148.474
X132.682Y148.467
X132.645Y148.46
X132.607Y148.454
X132.569Y148.449
X132.531Y148.445
X132.493Y148.441
X132.455Y148.439
X132.417Y148.438
X132.378Y148.437
X128.442
X127.852Y148.424
X127.108Y148.419
G0Z1
X93.494Y154.991
G1Z-0.175F50
X93.518Y154.977F100
X93.542Y154.963
X93.567Y154.95
X93.592Y154.937
X93.617Y154.925
X93.642Y154.913
X93.667Y154.901
X93.693Y154.89
X93.718Y154.88
X93.744Y154.869
X93.797Y154.85
X93.823Y154.841
X93.876Y154.825
X93.932Y154.81
X93.987Y154.798
X94.012Y154.793
X94.039Y154.788
X94.067Y154.783
X94.095Y154.779
X94.122Y154.775
X94.15Y154.772
X94.177Y154.769
X94.205Y154.767
X94.233Y154.765
X94.261Y154.764
X94.289
X94.317Y154.763
X94.344Y154.764
X94.372
X94.4Y154.765
X94.428Y154.767
X94.456Y154.769
X94.484Y154.772
X94.511Y154.775
X94.539Y154.779
X94.566Y154.783
X94.594Y154.788
X94.621Y154.793
X94.648Y154.798
X94.676Y154.804
X94.703Y154.811
X94.73Y154.818
X94.757Y154.825
X94.783Y154.833
X94.81Y154.841
X94.836Y154.85
X94.863Y154.86
X94.889Y154.869
X94.915Y154.88
X94.94Y154.89
X94.966Y154.901
X94.991Y154.913
X95.017Y154.925
X95.041Y154.937
X95.066Y154.95
X95.091Y154.963
X95.115Y154.977
X95.139Y154.991
X95.163Y155.006
X95.186Y155.021
X95.209Y155.036
X95.232Y155.052
X95.255Y155.068
X95.277Y155.085
X95.3Y155.102
X95.321Y155.119
X95.343Y155.137
X95.385Y155.173
X95.405Y155.192
X95.426Y155.211
X95.445Y155.231
X95.465Y155.251
X95.484Y155.271
X95.522Y155.312
X95.54Y155.334
X95.557Y155.355
X95.575Y155.377
X95.592Y155.399
X95.608Y155.421
X95.624Y155.444
X95.64Y155.467
X95.671Y155.514
X95.685Y155.538
X95.699Y155.562
X95.713Y155.586
X95.726Y155.61
X95.739Y155.635
X95.752Y155.66
X95.764Y155.685
X95.775Y155.711
X95.786Y155.736
X95.797Y155.762
X95.817Y155.814
X95.826Y155.84
X95.835Y155.866
X95.843Y155.893
X95.859Y155.947
X95.866Y155.974
X95.872Y156.001
X95.878Y156.028
X95.884Y156.055
X95.889Y156.083
X95.894Y156.11
X95.898Y156.138
X95.901Y156.165
X95.904Y156.193
X95.907Y156.221
X95.909Y156.249
X95.911Y156.276
X95.912Y156.304
X95.913Y156.332
Y156.36
Y156.388
X95.912Y156.416
X95.911Y156.443
X95.909Y156.471
X95.907Y156.499
X95.904Y156.527
X95.901Y156.555
X95.898Y156.582
X95.894Y156.61
X95.889Y156.637
X95.884Y156.664
X95.878Y156.692
X95.872Y156.719
X95.866Y156.746
X95.859Y156.773
X95.851Y156.8
X95.843Y156.827
X95.835Y156.853
X95.826Y156.88
X95.817Y156.906
X95.807Y156.932
X95.797Y156.958
X95.786Y156.984
X95.775Y157.009
X95.764Y157.035
X95.752Y157.06
X95.739Y157.085
X95.726Y157.109
X95.713Y157.134
X95.699Y157.158
X95.685Y157.182
X95.671Y157.206
X95.656Y157.229
X95.64Y157.253
X95.624Y157.276
X95.608Y157.298
X95.592Y157.321
X95.575Y157.343
X95.557Y157.365
X95.54Y157.386
X95.521Y157.408
X95.503Y157.428
X95.484Y157.449
X95.465Y157.469
X95.445Y157.489
X95.426Y157.509
X95.405Y157.528
X95.385Y157.546
X95.364Y157.565
X95.343Y157.583
X95.321Y157.601
X95.299Y157.618
X95.278Y157.635
X95.255Y157.652
X95.232Y157.668
X95.209Y157.684
X95.186Y157.699
X95.163Y157.714
X95.139Y157.728
X95.115Y157.743
X95.09Y157.756
X95.066Y157.77
X95.041Y157.783
X95.017Y157.795
X94.991Y157.807
X94.966Y157.819
X94.94Y157.83
X94.915Y157.84
X94.889Y157.851
X94.862Y157.86
X94.836Y157.87
X94.81Y157.878
X94.783Y157.887
X94.757Y157.895
X94.73Y157.902
X94.703Y157.909
X94.676Y157.916
X94.649Y157.922
X94.621Y157.927
X94.594Y157.932
X94.566Y157.937
X94.539Y157.941
X94.511Y157.945
X94.484Y157.948
X94.456Y157.95
X94.428Y157.953
X94.4Y157.954
X94.372Y157.956
X94.344
X94.298
X94.258
X94.233Y157.954
X94.205Y157.953
X94.15Y157.948
X94.122Y157.945
X94.095Y157.941
X94.067Y157.937
X94.039Y157.932
X94.012Y157.927
X93.984Y157.922
X93.957Y157.916
X93.93Y157.909
X93.903Y157.902
X93.876Y157.895
X93.85Y157.887
X93.823Y157.878
X93.797Y157.87
X93.771Y157.86
X93.744Y157.851
X93.718Y157.84
X93.693Y157.83
X93.667Y157.819
X93.642Y157.807
X93.617Y157.795
X93.592Y157.783
X93.567Y157.77
X93.543Y157.756
X93.518Y157.743
X93.494Y157.728
X93.47Y157.714
X93.447Y157.699
X93.424Y157.684
X93.405Y157.671
X93.377Y157.651
X93.355Y157.635
X93.334Y157.618
X93.312Y157.601
X93.29Y157.583
X93.269Y157.565
X93.248Y157.546
X93.228Y157.528
X93.208Y157.509
X93.188Y157.489
X93.168Y157.469
X93.149Y157.449
X93.13Y157.428
X93.1Y157.394
X93.074Y157.362
X93.058Y157.343
X93.041Y157.321
X93.025Y157.298
X93.009Y157.276
X92.993Y157.253
X92.977Y157.229
X92.963Y157.206
X92.946Y157.178
X92.934Y157.158
X92.92Y157.134
X92.907Y157.109
X92.882Y157.06
X92.87Y157.035
X92.858Y157.009
X92.847Y156.984
X92.836Y156.958
X92.826Y156.932
X92.807Y156.88
X92.798Y156.853
X92.791Y156.83
X92.782Y156.799
X92.774Y156.773
X92.767Y156.746
X92.761Y156.719
X92.755Y156.692
X92.749Y156.665
X92.744Y156.637
X92.74Y156.61
X92.735Y156.582
X92.732Y156.555
X92.729Y156.527
X92.726Y156.499
X92.724Y156.471
X92.722Y156.443
X92.721Y156.416
X92.72Y156.388
Y156.343
X92.721Y156.302
X92.722Y156.276
X92.724Y156.249
X92.726Y156.221
X92.728Y156.2
X92.732Y156.164
X92.735Y156.138
X92.74Y156.11
X92.744Y156.083
X92.749Y156.055
X92.755Y156.028
X92.761Y156.001
X92.767Y155.974
X92.774Y155.947
X92.782Y155.92
X92.79Y155.893
X92.798Y155.867
X92.807Y155.84
X92.816Y155.814
X92.826Y155.788
X92.838Y155.758
X92.847Y155.736
X92.858Y155.711
X92.87Y155.685
X92.882Y155.66
X92.894Y155.635
X92.907Y155.61
X92.921Y155.584
X92.934Y155.562
X92.948Y155.538
X92.962Y155.514
X92.977Y155.49
X92.993Y155.467
X93.009Y155.444
X93.043Y155.397
X93.07Y155.363
X93.095Y155.332
X93.112Y155.312
X93.13Y155.292
X93.168Y155.251
X93.188Y155.231
X93.207Y155.211
X93.241Y155.18
X93.271Y155.153
X93.29Y155.137
X93.312Y155.119
X93.333Y155.102
X93.356Y155.085
X93.378Y155.068
X93.401Y155.052
X93.427Y155.034
X93.447Y155.021
X93.47Y155.006
X93.494Y154.991
G0Z1
X107.701Y156.345
G1Z-0.175F50
X107.718Y156.169F100
X107.77Y156
X107.853Y155.844
X107.965Y155.707
X108.102Y155.595
X108.257Y155.512
X108.426Y155.461
X108.602Y155.443
X108.778Y155.461
X108.947Y155.512
X109.103Y155.595
X109.24Y155.707
X109.352Y155.844
X109.435Y156
X109.486Y156.169
X109.504Y156.345
X109.486Y156.52
X109.435Y156.689
X109.352Y156.845
X109.24Y156.982
X109.103Y157.094
X108.947Y157.177
X108.778Y157.229
X108.602Y157.246
X108.426Y157.229
X108.257Y157.177
X108.102Y157.094
X107.965Y156.982
X107.853Y156.845
X107.77Y156.689
X107.718Y156.52
X107.701Y156.345
G0Z1
X123.605
G1Z-0.175F50
X123.622Y156.169F100
X123.674Y156
X123.757Y155.844
X123.869Y155.707
X124.006Y155.595
X124.161Y155.512
X124.33Y155.461
X124.506Y155.443
X124.682Y155.461
X124.851Y155.512
X125.007Y155.595
X125.144Y155.707
X125.256Y155.844
X125.339Y156
X125.39Y156.169
X125.408Y156.345
X125.39Y156.52
X125.339Y156.689
X125.256Y156.845
X125.144Y156.982
X125.007Y157.094
X124.851Y157.177
X124.682Y157.229
X124.506Y157.246
X124.33Y157.229
X124.161Y157.177
X124.006Y157.094
X123.869Y156.982
X123.757Y156.845
X123.674Y156.689
X123.622Y156.52
X123.605Y156.345
G0Z1
X127.108Y148.419
G1Z-0.175F50
X100.653F100
X99.999Y148.425
X99.345Y148.441
X98.692Y148.469
X98.039Y148.507
X97.387Y148.556
X96.736Y148.616
X96.085Y148.686
X95.436Y148.768
X94.789Y148.86
X94.143Y148.963
X93.499Y149.077
X92.856Y149.201
X92.733Y149.228
X92.609Y149.256
X92.486Y149.287
X92.364Y149.32
X92.243Y149.355
X92.121Y149.392
X92.001Y149.431
X91.881Y149.472
X91.762Y149.515
X91.644Y149.56
X91.527Y149.608
X91.41Y149.657
X91.295Y149.708
X91.18Y149.762
X91.066Y149.817
X90.953Y149.874
X90.841Y149.934
X90.73Y149.995
X90.621Y150.058
X90.512Y150.123
X90.404Y150.19
X90.298Y150.258
X90.193Y150.329
X90.089Y150.401
X89.987Y150.475
X89.885Y150.551
X89.785Y150.629
X89.687Y150.708
X89.589Y150.789
X89.494Y150.872
X89.399Y150.956
X89.306Y151.042
X89.215Y151.13
X89.125Y151.219
X89.037Y151.31
X88.95Y151.402
X88.865Y151.496
X88.782Y151.591
X88.7Y151.688
X88.6Y151.81
X88.502Y151.934
X88.407Y152.059
X88.313Y152.186
X88.221Y152.315
X88.132Y152.446
X88.045Y152.578
X87.961Y152.711
X87.878Y152.846
X87.798Y152.982
X87.72Y153.119
X87.645Y153.258
X87.572Y153.398
X87.502Y153.54
X87.433Y153.682
X87.368Y153.826
X87.305Y153.97
X87.244Y154.116
X87.186Y154.263
X87.13Y154.411
X87.077Y154.56
X87.026Y154.709
X86.978Y154.86
X86.933Y155.011
X86.89Y155.163
X86.85Y155.316
X86.812Y155.469
X86.778Y155.623
X86.745Y155.778
X86.716Y155.933
X86.689Y156.089
X86.664Y156.245
X86.643Y156.401
X86.624Y156.558
X86.608Y156.715
X86.594Y156.873
X86.583Y157.03
X86.575Y157.188
X86.57Y157.346
X86.567Y157.504
Y157.662
X86.569Y157.82
X86.575Y157.977
X86.583Y158.135
X86.594Y158.293
X86.607Y158.45
X86.623Y158.607
X86.642Y158.764
X86.662Y158.907
X87.081Y161.798
X87.095Y161.873
X87.112Y161.95
X87.131Y162.025
X87.152Y162.099
X87.176Y162.172
X87.203Y162.245
X87.233Y162.317
X87.264Y162.388
X87.298Y162.457
X87.335Y162.526
X87.374Y162.592
X87.415Y162.658
X87.458Y162.722
X87.504Y162.785
X87.553Y162.846
X87.602Y162.905
X87.654Y162.962
X87.709Y163.019
X87.763Y163.071
X87.822Y163.123
X87.881Y163.173
X87.942Y163.22
X88.005Y163.266
X88.069Y163.309
X88.136Y163.35
X88.202Y163.388
X88.27Y163.424
X88.341Y163.459
X88.411Y163.49
X88.483Y163.519
X88.555Y163.545
X88.63Y163.569
X88.705Y163.591
X88.779Y163.609
X88.855Y163.625
X88.932Y163.639
X89.008Y163.649
X89.085Y163.657
X89.163Y163.663
X89.239Y163.666
X89.278
X94.329
X94.446Y163.665
X94.563Y163.662
X94.68Y163.657
X94.796Y163.65
X96.052Y163.56
X97.204Y163.495
X98.358Y163.449
X99.512Y163.421
X100.673Y163.412
X104.226
X104.264Y163.415
X104.302Y163.418
X104.34Y163.419
X104.378
X132.378
X132.418
X132.458Y163.417
X132.498Y163.415
X132.537Y163.411
X132.577Y163.407
X132.616Y163.402
X132.656Y163.395
X132.695Y163.388
X132.733Y163.379
X132.772Y163.37
X132.81Y163.36
X132.849Y163.348
X132.886Y163.336
X132.924Y163.323
X132.961Y163.309
X132.998Y163.294
X133.034Y163.278
X133.07Y163.261
X133.106Y163.243
X133.141Y163.225
X133.176Y163.205
X133.211Y163.184
X133.245Y163.163
X133.279Y163.14
X133.312Y163.117
X133.344Y163.093
X133.376Y163.068
X133.407Y163.042
X133.422Y163.029
X133.452Y163.003
X133.474Y162.982
X133.496Y162.961
X133.524Y162.933
X133.551Y162.904
X133.583Y162.868
X133.614Y162.831
X133.636Y162.803
X133.657Y162.775
X133.678Y162.746
X133.698Y162.717
X133.717Y162.688
X133.736Y162.657
X133.753Y162.629
X133.769Y162.601
X133.785Y162.572
X133.804Y162.534
X133.822Y162.497
X133.836Y162.467
X133.848Y162.438
X133.864Y162.397
X133.873Y162.375
X133.887Y162.335
X133.9Y162.294
X133.912Y162.252
X133.923Y162.21
X133.933Y162.167
X133.941Y162.127
X133.948Y162.086
X133.956Y162.035
X133.962Y161.979
X133.965Y161.945
X133.967Y161.912
X133.969Y161.878
Y161.828
Y161.596
X133.98Y161.534
X133.991Y161.457
X133.999Y161.38
X134.005Y161.303
X134.007Y161.224
X134.008Y161.186
Y150.352
X134.007Y150.313
X134.006Y150.273
X134.003Y150.234
X134Y150.195
X133.995Y150.156
X133.99Y150.116
X133.984Y150.078
X133.976Y150.039
X133.969Y150.005
X133.968Y149.963
X133.966Y149.92
X133.962Y149.877
X133.958Y149.834
X133.952Y149.792
X133.945Y149.749
X133.937Y149.707
X133.927Y149.665
X133.917Y149.623
X133.907Y149.588
X133.897Y149.554
X133.886Y149.52
X133.874Y149.486
X133.862Y149.452
X133.845Y149.411
X133.827Y149.37
X133.808Y149.33
X133.786Y149.286
X133.77Y149.257
X133.753Y149.227
X133.731Y149.191
X133.709Y149.155
X133.687Y149.123
X133.665Y149.092
X133.642Y149.061
X133.618Y149.031
X133.593Y149.001
X133.568Y148.972
X133.542Y148.943
X133.515Y148.915
X133.488Y148.888
X133.46Y148.862
X133.431Y148.836
X133.402Y148.811
X133.372Y148.786
X133.342Y148.762
X133.311Y148.739
X133.28Y148.717
X133.247Y148.696
X133.215Y148.675
X133.182Y148.655
X133.148Y148.636
X133.114Y148.617
X133.079Y148.6
X133.045Y148.584
X133.01Y148.568
X132.975Y148.553
X132.939Y148.54
X132.903Y148.526
X132.867Y148.514
X132.831Y148.503
X132.794Y148.493
X132.757Y148.483
X132.72Y148.474
X132.682Y148.467
X132.645Y148.46
X132.607Y148.454
X132.569Y148.449
X132.531Y148.445
X132.493Y148.441
X132.455Y148.439
X132.417Y148.438
X132.378Y148.437
X128.442
X127.852Y148.424
X127.108Y148.419
G0Z1
X93.494Y154.991
G1Z-0.2F50
X93.518Y154.977F100
X93.542Y154.963
X93.567Y154.95
X93.592Y154.937
X93.617Y154.925
X93.642Y154.913
X93.667Y154.901
X93.693Y154.89
X93.718Y154.88
X93.744Y154.869
X93.797Y154.85
X93.823Y154.841
X93.876Y154.825
X93.932Y154.81
X93.987Y154.798
X94.012Y154.793
X94.039Y154.788
X94.067Y154.783
X94.095Y154.779
X94.122Y154.775
X94.15Y154.772
X94.177Y154.769
X94.205Y154.767
X94.233Y154.765
X94.261Y154.764
X94.289
X94.317Y154.763
X94.344Y154.764
X94.372
X94.4Y154.765
X94.428Y154.767
X94.456Y154.769
X94.484Y154.772
X94.511Y154.775
X94.539Y154.779
X94.566Y154.783
X94.594Y154.788
X94.621Y154.793
X94.648Y154.798
X94.676Y154.804
X94.703Y154.811
X94.73Y154.818
X94.757Y154.825
X94.783Y154.833
X94.81Y154.841
X94.836Y154.85
X94.863Y154.86
X94.889Y154.869
X94.915Y154.88
X94.94Y154.89
X94.966Y154.901
X94.991Y154.913
X95.017Y154.925
X95.041Y154.937
X95.066Y154.95
X95.091Y154.963
X95.115Y154.977
X95.139Y154.991
X95.163Y155.006
X95.186Y155.021
X95.209Y155.036
X95.232Y155.052
X95.255Y155.068
X95.277Y155.085
X95.3Y155.102
X95.321Y155.119
X95.343Y155.137
X95.385Y155.173
X95.405Y155.192
X95.426Y155.211
X95.445Y155.231
X95.465Y155.251
X95.484Y155.271
X95.522Y155.312
X95.54Y155.334
X95.557Y155.355
X95.575Y155.377
X95.592Y155.399
X95.608Y155.421
X95.624Y155.444
X95.64Y155.467
X95.671Y155.514
X95.685Y155.538
X95.699Y155.562
X95.713Y155.586
X95.726Y155.61
X95.739Y155.635
X95.752Y155.66
X95.764Y155.685
X95.775Y155.711
X95.786Y155.736
X95.797Y155.762
X95.817Y155.814
X95.826Y155.84
X95.835Y155.866
X95.843Y155.893
X95.859Y155.947
X95.866Y155.974
X95.872Y156.001
X95.878Y156.028
X95.884Y156.055
X95.889Y156.083
X95.894Y156.11
X95.898Y156.138
X95.901Y156.165
X95.904Y156.193
X95.907Y156.221
X95.909Y156.249
X95.911Y156.276
X95.912Y156.304
X95.913Y156.332
Y156.36
Y156.388
X95.912Y156.416
X95.911Y156.443
X95.909Y156.471
X95.907Y156.499
X95.904Y156.527
X95.901Y156.555
X95.898Y156.582
X95.894Y156.61
X95.889Y156.637
X95.884Y156.664
X95.878Y156.692
X95.872Y156.719
X95.866Y156.746
X95.859Y156.773
X95.851Y156.8
X95.843Y156.827
X95.835Y156.853
X95.826Y156.88
X95.817Y156.906
X95.807Y156.932
X95.797Y156.958
X95.786Y156.984
X95.775Y157.009
X95.764Y157.035
X95.752Y157.06
X95.739Y157.085
X95.726Y157.109
X95.713Y157.134
X95.699Y157.158
X95.685Y157.182
X95.671Y157.206
X95.656Y157.229
X95.64Y157.253
X95.624Y157.276
X95.608Y157.298
X95.592Y157.321
X95.575Y157.343
X95.557Y157.365
X95.54Y157.386
X95.521Y157.408
X95.503Y157.428
X95.484Y157.449
X95.465Y157.469
X95.445Y157.489
X95.426Y157.509
X95.405Y157.528
X95.385Y157.546
X95.364Y157.565
X95.343Y157.583
X95.321Y157.601
X95.299Y157.618
X95.278Y157.635
X95.255Y157.652
X95.232Y157.668
X95.209Y157.684
X95.186Y157.699
X95.163Y157.714
X95.139Y157.728
X95.115Y157.743
X95.09Y157.756
X95.066Y157.77
X95.041Y157.783
X95.017Y157.795
X94.991Y157.807
X94.966Y157.819
X94.94Y157.83
X94.915Y157.84
X94.889Y157.851
X94.862Y157.86
X94.836Y157.87
X94.81Y157.878
X94.783Y157.887
X94.757Y157.895
X94.73Y157.902
X94.703Y157.909
X94.676Y157.916
X94.649Y157.922
X94.621Y157.927
X94.594Y157.932
X94.566Y157.937
X94.539Y157.941
X94.511Y157.945
X94.484Y157.948
X94.456Y157.95
X94.428Y157.953
X94.4Y157.954
X94.372Y157.956
X94.344
X94.298
X94.258
X94.233Y157.954
X94.205Y157.953
X94.15Y157.948
X94.122Y157.945
X94.095Y157.941
X94.067Y157.937
X94.039Y157.932
X94.012Y157.927
X93.984Y157.922
X93.957Y157.916
X93.93Y157.909
X93.903Y157.902
X93.876Y157.895
X93.85Y157.887
X93.823Y157.878
X93.797Y157.87
X93.771Y157.86
X93.744Y157.851
X93.718Y157.84
X93.693Y157.83
X93.667Y157.819
X93.642Y157.807
X93.617Y157.795
X93.592Y157.783
X93.567Y157.77
X93.543Y157.756
X93.518Y157.743
X93.494Y157.728
X93.47Y157.714
X93.447Y157.699
X93.424Y157.684
X93.405Y157.671
X93.377Y157.651
X93.355Y157.635
X93.334Y157.618
X93.312Y157.601
X93.29Y157.583
X93.269Y157.565
X93.248Y157.546
X93.228Y157.528
X93.208Y157.509
X93.188Y157.489
X93.168Y157.469
X93.149Y157.449
X93.13Y157.428
X93.1Y157.394
X93.074Y157.362
X93.058Y157.343
X93.041Y157.321
X93.025Y157.298
X93.009Y157.276
X92.993Y157.253
X92.977Y157.229
X92.963Y157.206
X92.946Y157.178
X92.934Y157.158
X92.92Y157.134
X92.907Y157.109
X92.882Y157.06
X92.87Y157.035
X92.858Y157.009
X92.847Y156.984
X92.836Y156.958
X92.826Y156.932
X92.807Y156.88
X92.798Y156.853
X92.791Y156.83
X92.782Y156.799
X92.774Y156.773
X92.767Y156.746
X92.761Y156.719
X92.755Y156.692
X92.749Y156.665
X92.744Y156.637
X92.74Y156.61
X92.735Y156.582
X92.732Y156.555
X92.729Y156.527
X92.726Y156.499
X92.724Y156.471
X92.722Y156.443
X92.721Y156.416
X92.72Y156.388
Y156.343
X92.721Y156.302
X92.722Y156.276
X92.724Y156.249
X92.726Y156.221
X92.728Y156.2
X92.732Y156.164
X92.735Y156.138
X92.74Y156.11
X92.744Y156.083
X92.749Y156.055
X92.755Y156.028
X92.761Y156.001
X92.767Y155.974
X92.774Y155.947
X92.782Y155.92
X92.79Y155.893
X92.798Y155.867
X92.807Y155.84
X92.816Y155.814
X92.826Y155.788
X92.838Y155.758
X92.847Y155.736
X92.858Y155.711
X92.87Y155.685
X92.882Y155.66
X92.894Y155.635
X92.907Y155.61
X92.921Y155.584
X92.934Y155.562
X92.948Y155.538
X92.962Y155.514
X92.977Y155.49
X92.993Y155.467
X93.009Y155.444
X93.043Y155.397
X93.07Y155.363
X93.095Y155.332
X93.112Y155.312
X93.13Y155.292
X93.168Y155.251
X93.188Y155.231
X93.207Y155.211
X93.241Y155.18
X93.271Y155.153
X93.29Y155.137
X93.312Y155.119
X93.333Y155.102
X93.356Y155.085
X93.378Y155.068
X93.401Y155.052
X93.427Y155.034
X93.447Y155.021
X93.47Y155.006
X93.494Y154.991
G0Z1
X107.701Y156.345
G1Z-0.2F50
X107.718Y156.169F100
X107.77Y156
X107.853Y155.844
X107.965Y155.707
X108.102Y155.595
X108.257Y155.512
X108.426Y155.461
X108.602Y155.443
X108.778Y155.461
X108.947Y155.512
X109.103Y155.595
X109.24Y155.707
X109.352Y155.844
X109.435Y156
X109.486Y156.169
X109.504Y156.345
X109.486Y156.52
X109.435Y156.689
X109.352Y156.845
X109.24Y156.982
X109.103Y157.094
X108.947Y157.177
X108.778Y157.229
X108.602Y157.246
X108.426Y157.229
X108.257Y157.177
X108.102Y157.094
X107.965Y156.982
X107.853Y156.845
X107.77Y156.689
X107.718Y156.52
X107.701Y156.345
G0Z1
X123.605
G1Z-0.2F50
X123.622Y156.169F100
X123.674Y156
X123.757Y155.844
X123.869Y155.707
X124.006Y155.595
X124.161Y155.512
X124.33Y155.461
X124.506Y155.443
X124.682Y155.461
X124.851Y155.512
X125.007Y155.595
X125.144Y155.707
X125.256Y155.844
X125.339Y156
X125.39Y156.169
X125.408Y156.345
X125.39Y156.52
X125.339Y156.689
X125.256Y156.845
X125.144Y156.982
X125.007Y157.094
X124.851Y157.177
X124.682Y157.229
X124.506Y157.246
X124.33Y157.229
X124.161Y157.177
X124.006Y157.094
X123.869Y156.982
X123.757Y156.845
X123.674Y156.689
X123.622Y156.52
X123.605Y156.345
G0Z1
X127.108Y148.419
G1Z-0.2F50
X100.653F100
X99.999Y148.425
X99.345Y148.441
X98.692Y148.469
X98.039Y148.507
X97.387Y148.556
X96.736Y148.616
X96.085Y148.686
X95.436Y148.768
X94.789Y148.86
X94.143Y148.963
X93.499Y149.077
X92.856Y149.201
X92.733Y149.228
X92.609Y149.256
X92.486Y149.287
X92.364Y149.32
X92.243Y149.355
X92.121Y149.392
X92.001Y149.431
X91.881Y149.472
X91.762Y149.515
X91.644Y149.56
X91.527Y149.608
X91.41Y149.657
X91.295Y149.708
X91.18Y149.762
X91.066Y149.817
X90.953Y149.874
X90.841Y149.934
X90.73Y149.995
X90.621Y150.058
X90.512Y150.123
X90.404Y150.19
X90.298Y150.258
X90.193Y150.329
X90.089Y150.401
X89.987Y150.475
X89.885Y150.551
X89.785Y150.629
X89.687Y150.708
X89.589Y150.789
X89.494Y150.872
X89.399Y150.956
X89.306Y151.042
X89.215Y151.13
X89.125Y151.219
X89.037Y151.31
X88.95Y151.402
X88.865Y151.496
X88.782Y151.591
X88.7Y151.688
X88.6Y151.81
X88.502Y151.934
X88.407Y152.059
X88.313Y152.186
X88.221Y152.315
X88.132Y152.446
X88.045Y152.578
X87.961Y152.711
X87.878Y152.846
X87.798Y152.982
X87.72Y153.119
X87.645Y153.258
X87.572Y153.398
X87.502Y153.54
X87.433Y153.682
X87.368Y153.826
X87.305Y153.97
X87.244Y154.116
X87.186Y154.263
X87.13Y154.411
X87.077Y154.56
X87.026Y154.709
X86.978Y154.86
X86.933Y155.011
X86.89Y155.163
X86.85Y155.316
X86.812Y155.469
X86.778Y155.623
X86.745Y155.778
X86.716Y155.933
X86.689Y156.089
X86.664Y156.245
X86.643Y156.401
X86.624Y156.558
X86.608Y156.715
X86.594Y156.873
X86.583Y157.03
X86.575Y157.188
X86.57Y157.346
X86.567Y157.504
Y157.662
X86.569Y157.82
X86.575Y157.977
X86.583Y158.135
X86.594Y158.293
X86.607Y158.45
X86.623Y158.607
X86.642Y158.764
X86.662Y158.907
X87.081Y161.798
X87.095Y161.873
X87.112Y161.95
X87.131Y162.025
X87.152Y162.099
X87.176Y162.172
X87.203Y162.245
X87.233Y162.317
X87.264Y162.388
X87.298Y162.457
X87.335Y162.526
X87.374Y162.592
X87.415Y162.658
X87.458Y162.722
X87.504Y162.785
X87.553Y162.846
X87.602Y162.905
X87.654Y162.962
X87.709Y163.019
X87.763Y163.071
X87.822Y163.123
X87.881Y163.173
X87.942Y163.22
X88.005Y163.266
X88.069Y163.309
X88.136Y163.35
X88.202Y163.388
X88.27Y163.424
X88.341Y163.459
X88.411Y163.49
X88.483Y163.519
X88.555Y163.545
X88.63Y163.569
X88.705Y163.591
X88.779Y163.609
X88.855Y163.625
X88.932Y163.639
X89.008Y163.649
X89.085Y163.657
X89.163Y163.663
X89.239Y163.666
X89.278
X94.329
X94.446Y163.665
X94.563Y163.662
X94.68Y163.657
X94.796Y163.65
X96.052Y163.56
X97.204Y163.495
X98.358Y163.449
X99.512Y163.421
X100.673Y163.412
X104.226
X104.264Y163.415
X104.302Y163.418
X104.34Y163.419
X104.378
X132.378
X132.418
X132.458Y163.417
X132.498Y163.415
X132.537Y163.411
X132.577Y163.407
X132.616Y163.402
X132.656Y163.395
X132.695Y163.388
X132.733Y163.379
X132.772Y163.37
X132.81Y163.36
X132.849Y163.348
X132.886Y163.336
X132.924Y163.323
X132.961Y163.309
X132.998Y163.294
X133.034Y163.278
X133.07Y163.261
X133.106Y163.243
X133.141Y163.225
X133.176Y163.205
X133.211Y163.184
X133.245Y163.163
X133.279Y163.14
X133.312Y163.117
X133.344Y163.093
X133.376Y163.068
X133.407Y163.042
X133.422Y163.029
X133.452Y163.003
X133.474Y162.982
X133.496Y162.961
X133.524Y162.933
X133.551Y162.904
X133.583Y162.868
X133.614Y162.831
X133.636Y162.803
X133.657Y162.775
X133.678Y162.746
X133.698Y162.717
X133.717Y162.688
X133.736Y162.657
X133.753Y162.629
X133.769Y162.601
X133.785Y162.572
X133.804Y162.534
X133.822Y162.497
X133.836Y162.467
X133.848Y162.438
X133.864Y162.397
X133.873Y162.375
X133.887Y162.335
X133.9Y162.294
X133.912Y162.252
X133.923Y162.21
X133.933Y162.167
X133.941Y162.127
X133.948Y162.086
X133.956Y162.035
X133.962Y161.979
X133.965Y161.945
X133.967Y161.912
X133.969Y161.878
Y161.828
Y161.596
X133.98Y161.534
X133.991Y161.457
X133.999Y161.38
X134.005Y161.303
X134.007Y161.224
X134.008Y161.186
Y150.352
X134.007Y150.313
X134.006Y150.273
X134.003Y150.234
X134Y150.195
X133.995Y150.156
X133.99Y150.116
X133.984Y150.078
X133.976Y150.039
X133.969Y150.005
X133.968Y149.963
X133.966Y149.92
X133.962Y149.877
X133.958Y149.834
X133.952Y149.792
X133.945Y149.749
X133.937Y149.707
X133.927Y149.665
X133.917Y149.623
X133.907Y149.588
X133.897Y149.554
X133.886Y149.52
X133.874Y149.486
X133.862Y149.452
X133.845Y149.411
X133.827Y149.37
X133.808Y149.33
X133.786Y149.286
X133.77Y149.257
X133.753Y149.227
X133.731Y149.191
X133.709Y149.155
X133.687Y149.123
X133.665Y149.092
X133.642Y149.061
X133.618Y149.031
X133.593Y149.001
X133.568Y148.972
X133.542Y148.943
X133.515Y148.915
X133.488Y148.888
X133.46Y148.862
X133.431Y148.836
X133.402Y148.811
X133.372Y148.786
X133.342Y148.762
X133.311Y148.739
X133.28Y148.717
X133.247Y148.696
X133.215Y148.675
X133.182Y148.655
X133.148Y148.636
X133.114Y148.617
X133.079Y148.6
X133.045Y148.584
X133.01Y148.568
X132.975Y148.553
X132.939Y148.54
X132.903Y148.526
X132.867Y148.514
X132.831Y148.503
X132.794Y148.493
X132.757Y148.483
X132.72Y148.474
X132.682Y148.467
X132.645Y148.46
X132.607Y148.454
X132.569Y148.449
X132.531Y148.445
X132.493Y148.441
X132.455Y148.439
X132.417Y148.438
X132.378Y148.437
X128.442
X127.852Y148.424
X127.108Y148.419
G0Z1
X93.494Y154.991
G1Z-0.225F50
X93.518Y154.977F100
X93.542Y154.963
X93.567Y154.95
X93.592Y154.937
X93.617Y154.925
X93.642Y154.913
X93.667Y154.901
X93.693Y154.89
X93.718Y154.88
X93.744Y154.869
X93.797Y154.85
X93.823Y154.841
X93.876Y154.825
X93.932Y154.81
X93.987Y154.798
X94.012Y154.793
X94.039Y154.788
X94.067Y154.783
X94.095Y154.779
X94.122Y154.775
X94.15Y154.772
X94.177Y154.769
X94.205Y154.767
X94.233Y154.765
X94.261Y154.764
X94.289
X94.317Y154.763
X94.344Y154.764
X94.372
X94.4Y154.765
X94.428Y154.767
X94.456Y154.769
X94.484Y154.772
X94.511Y154.775
X94.539Y154.779
X94.566Y154.783
X94.594Y154.788
X94.621Y154.793
X94.648Y154.798
X94.676Y154.804
X94.703Y154.811
X94.73Y154.818
X94.757Y154.825
X94.783Y154.833
X94.81Y154.841
X94.836Y154.85
X94.863Y154.86
X94.889Y154.869
X94.915Y154.88
X94.94Y154.89
X94.966Y154.901
X94.991Y154.913
X95.017Y154.925
X95.041Y154.937
X95.066Y154.95
X95.091Y154.963
X95.115Y154.977
X95.139Y154.991
X95.163Y155.006
X95.186Y155.021
X95.209Y155.036
X95.232Y155.052
X95.255Y155.068
X95.277Y155.085
X95.3Y155.102
X95.321Y155.119
X95.343Y155.137
X95.385Y155.173
X95.405Y155.192
X95.426Y155.211
X95.445Y155.231
X95.465Y155.251
X95.484Y155.271
X95.522Y155.312
X95.54Y155.334
X95.557Y155.355
X95.575Y155.377
X95.592Y155.399
X95.608Y155.421
X95.624Y155.444
X95.64Y155.467
X95.671Y155.514
X95.685Y155.538
X95.699Y155.562
X95.713Y155.586
X95.726Y155.61
X95.739Y155.635
X95.752Y155.66
X95.764Y155.685
X95.775Y155.711
X95.786Y155.736
X95.797Y155.762
X95.817Y155.814
X95.826Y155.84
X95.835Y155.866
X95.843Y155.893
X95.859Y155.947
X95.866Y155.974
X95.872Y156.001
X95.878Y156.028
X95.884Y156.055
X95.889Y156.083
X95.894Y156.11
X95.898Y156.138
X95.901Y156.165
X95.904Y156.193
X95.907Y156.221
X95.909Y156.249
X95.911Y156.276
X95.912Y156.304
X95.913Y156.332
Y156.36
Y156.388
X95.912Y156.416
X95.911Y156.443
X95.909Y156.471
X95.907Y156.499
X95.904Y156.527
X95.901Y156.555
X95.898Y156.582
X95.894Y156.61
X95.889Y156.637
X95.884Y156.664
X95.878Y156.692
X95.872Y156.719
X95.866Y156.746
X95.859Y156.773
X95.851Y156.8
X95.843Y156.827
X95.835Y156.853
X95.826Y156.88
X95.817Y156.906
X95.807Y156.932
X95.797Y156.958
X95.786Y156.984
X95.775Y157.009
X95.764Y157.035
X95.752Y157.06
X95.739Y157.085
X95.726Y157.109
X95.713Y157.134
X95.699Y157.158
X95.685Y157.182
X95.671Y157.206
X95.656Y157.229
X95.64Y157.253
X95.624Y157.276
X95.608Y157.298
X95.592Y157.321
X95.575Y157.343
X95.557Y157.365
X95.54Y157.386
X95.521Y157.408
X95.503Y157.428
X95.484Y157.449
X95.465Y157.469
X95.445Y157.489
X95.426Y157.509
X95.405Y157.528
X95.385Y157.546
X95.364Y157.565
X95.343Y157.583
X95.321Y157.601
X95.299Y157.618
X95.278Y157.635
X95.255Y157.652
X95.232Y157.668
X95.209Y157.684
X95.186Y157.699
X95.163Y157.714
X95.139Y157.728
X95.115Y157.743
X95.09Y157.756
X95.066Y157.77
X95.041Y157.783
X95.017Y157.795
X94.991Y157.807
X94.966Y157.819
X94.94Y157.83
X94.915Y157.84
X94.889Y157.851
X94.862Y157.86
X94.836Y157.87
X94.81Y157.878
X94.783Y157.887
X94.757Y157.895
X94.73Y157.902
X94.703Y157.909
X94.676Y157.916
X94.649Y157.922
X94.621Y157.927
X94.594Y157.932
X94.566Y157.937
X94.539Y157.941
X94.511Y157.945
X94.484Y157.948
X94.456Y157.95
X94.428Y157.953
X94.4Y157.954
X94.372Y157.956
X94.344
X94.298
X94.258
X94.233Y157.954
X94.205Y157.953
X94.15Y157.948
X94.122Y157.945
X94.095Y157.941
X94.067Y157.937
X94.039Y157.932
X94.012Y157.927
X93.984Y157.922
X93.957Y157.916
X93.93Y157.909
X93.903Y157.902
X93.876Y157.895
X93.85Y157.887
X93.823Y157.878
X93.797Y157.87
X93.771Y157.86
X93.744Y157.851
X93.718Y157.84
X93.693Y157.83
X93.667Y157.819
X93.642Y157.807
X93.617Y157.795
X93.592Y157.783
X93.567Y157.77
X93.543Y157.756
X93.518Y157.743
X93.494Y157.728
X93.47Y157.714
X93.447Y157.699
X93.424Y157.684
X93.405Y157.671
X93.377Y157.651
X93.355Y157.635
X93.334Y157.618
X93.312Y157.601
X93.29Y157.583
X93.269Y157.565
X93.248Y157.546
X93.228Y157.528
X93.208Y157.509
X93.188Y157.489
X93.168Y157.469
X93.149Y157.449
X93.13Y157.428
X93.1Y157.394
X93.074Y157.362
X93.058Y157.343
X93.041Y157.321
X93.025Y157.298
X93.009Y157.276
X92.993Y157.253
X92.977Y157.229
X92.963Y157.206
X92.946Y157.178
X92.934Y157.158
X92.92Y157.134
X92.907Y157.109
X92.882Y157.06
X92.87Y157.035
X92.858Y157.009
X92.847Y156.984
X92.836Y156.958
X92.826Y156.932
X92.807Y156.88
X92.798Y156.853
X92.791Y156.83
X92.782Y156.799
X92.774Y156.773
X92.767Y156.746
X92.761Y156.719
X92.755Y156.692
X92.749Y156.665
X92.744Y156.637
X92.74Y156.61
X92.735Y156.582
X92.732Y156.555
X92.729Y156.527
X92.726Y156.499
X92.724Y156.471
X92.722Y156.443
X92.721Y156.416
X92.72Y156.388
Y156.343
X92.721Y156.302
X92.722Y156.276
X92.724Y156.249
X92.726Y156.221
X92.728Y156.2
X92.732Y156.164
X92.735Y156.138
X92.74Y156.11
X92.744Y156.083
X92.749Y156.055
X92.755Y156.028
X92.761Y156.001
X92.767Y155.974
X92.774Y155.947
X92.782Y155.92
X92.79Y155.893
X92.798Y155.867
X92.807Y155.84
X92.816Y155.814
X92.826Y155.788
X92.838Y155.758
X92.847Y155.736
X92.858Y155.711
X92.87Y155.685
X92.882Y155.66
X92.894Y155.635
X92.907Y155.61
X92.921Y155.584
X92.934Y155.562
X92.948Y155.538
X92.962Y155.514
X92.977Y155.49
X92.993Y155.467
X93.009Y155.444
X93.043Y155.397
X93.07Y155.363
X93.095Y155.332
X93.112Y155.312
X93.13Y155.292
X93.168Y155.251
X93.188Y155.231
X93.207Y155.211
X93.241Y155.18
X93.271Y155.153
X93.29Y155.137
X93.312Y155.119
X93.333Y155.102
X93.356Y155.085
X93.378Y155.068
X93.401Y155.052
X93.427Y155.034
X93.447Y155.021
X93.47Y155.006
X93.494Y154.991
G0Z1
X107.701Y156.345
G1Z-0.225F50
X107.718Y156.169F100
X107.77Y156
X107.853Y155.844
X107.965Y155.707
X108.102Y155.595
X108.257Y155.512
X108.426Y155.461
X108.602Y155.443
X108.778Y155.461
X108.947Y155.512
X109.103Y155.595
X109.24Y155.707
X109.352Y155.844
X109.435Y156
X109.486Y156.169
X109.504Y156.345
X109.486Y156.52
X109.435Y156.689
X109.352Y156.845
X109.24Y156.982
X109.103Y157.094
X108.947Y157.177
X108.778Y157.229
X108.602Y157.246
X108.426Y157.229
X108.257Y157.177
X108.102Y157.094
X107.965Y156.982
X107.853Y156.845
X107.77Y156.689
X107.718Y156.52
X107.701Y156.345
G0Z1
X123.605
G1Z-0.225F50
X123.622Y156.169F100
X123.674Y156
X123.757Y155.844
X123.869Y155.707
X124.006Y155.595
X124.161Y155.512
X124.33Y155.461
X124.506Y155.443
X124.682Y155.461
X124.851Y155.512
X125.007Y155.595
X125.144Y155.707
X125.256Y155.844
X125.339Y156
X125.39Y156.169
X125.408Y156.345
X125.39Y156.52
X125.339Y156.689
X125.256Y156.845
X125.144Y156.982
X125.007Y157.094
X124.851Y157.177
X124.682Y157.229
X124.506Y157.246
X124.33Y157.229
X124.161Y157.177
X124.006Y157.094
X123.869Y156.982
X123.757Y156.845
X123.674Y156.689
X123.622Y156.52
X123.605Y156.345
G0Z1
X127.108Y148.419
G1Z-0.225F50
X100.653F100
X99.999Y148.425
X99.345Y148.441
X98.692Y148.469
X98.039Y148.507
X97.387Y148.556
X96.736Y148.616
X96.085Y148.686
X95.436Y148.768
X94.789Y148.86
X94.143Y148.963
X93.499Y149.077
X92.856Y149.201
X92.733Y149.228
X92.609Y149.256
X92.486Y149.287
X92.364Y149.32
X92.243Y149.355
X92.121Y149.392
X92.001Y149.431
X91.881Y149.472
X91.762Y149.515
X91.644Y149.56
X91.527Y149.608
X91.41Y149.657
X91.295Y149.708
X91.18Y149.762
X91.066Y149.817
X90.953Y149.874
X90.841Y149.934
X90.73Y149.995
X90.621Y150.058
X90.512Y150.123
X90.404Y150.19
X90.298Y150.258
X90.193Y150.329
X90.089Y150.401
X89.987Y150.475
X89.885Y150.551
X89.785Y150.629
X89.687Y150.708
X89.589Y150.789
X89.494Y150.872
X89.399Y150.956
X89.306Y151.042
X89.215Y151.13
X89.125Y151.219
X89.037Y151.31
X88.95Y151.402
X88.865Y151.496
X88.782Y151.591
X88.7Y151.688
X88.6Y151.81
X88.502Y151.934
X88.407Y152.059
X88.313Y152.186
X88.221Y152.315
X88.132Y152.446
X88.045Y152.578
X87.961Y152.711
X87.878Y152.846
X87.798Y152.982
X87.72Y153.119
X87.645Y153.258
X87.572Y153.398
X87.502Y153.54
X87.433Y153.682
X87.368Y153.826
X87.305Y153.97
X87.244Y154.116
X87.186Y154.263
X87.13Y154.411
X87.077Y154.56
X87.026Y154.709
X86.978Y154.86
X86.933Y155.011
X86.89Y155.163
X86.85Y155.316
X86.812Y155.469
X86.778Y155.623
X86.745Y155.778
X86.716Y155.933
X86.689Y156.089
X86.664Y156.245
X86.643Y156.401
X86.624Y156.558
X86.608Y156.715
X86.594Y156.873
X86.583Y157.03
X86.575Y157.188
X86.57Y157.346
X86.567Y157.504
Y157.662
X86.569Y157.82
X86.575Y157.977
X86.583Y158.135
X86.594Y158.293
X86.607Y158.45
X86.623Y158.607
X86.642Y158.764
X86.662Y158.907
X87.081Y161.798
X87.095Y161.873
X87.112Y161.95
X87.131Y162.025
X87.152Y162.099
X87.176Y162.172
X87.203Y162.245
X87.233Y162.317
X87.264Y162.388
X87.298Y162.457
X87.335Y162.526
X87.374Y162.592
X87.415Y162.658
X87.458Y162.722
X87.504Y162.785
X87.553Y162.846
X87.602Y162.905
X87.654Y162.962
X87.709Y163.019
X87.763Y163.071
X87.822Y163.123
X87.881Y163.173
X87.942Y163.22
X88.005Y163.266
X88.069Y163.309
X88.136Y163.35
X88.202Y163.388
X88.27Y163.424
