(Created with grbl post processor 2025/01/01 12:05)
G21
(G-code generated with BlenderCAM and NC library)
G17G90
(Tool: D = 3.18 mm  type END flutes 2)
S1000M03
G00 Z1.0

G0X0Y0Z1
X117.942Y18.438
G1Z-0.1F50
X117.965Y18.363F100
X118.002Y18.294
X118.052Y18.233
X118.112Y18.183
X118.182Y18.146
X118.257Y18.123
X118.335Y18.115
X118.414Y18.123
X118.489Y18.146
X118.558Y18.183
X118.619Y18.233
X118.669Y18.294
X118.706Y18.363
X118.729Y18.438
X118.737Y18.517
X118.729Y18.595
X118.707Y18.667
X118.669Y18.74
X118.619Y18.8
X118.558Y18.85
X118.489Y18.887
X118.38Y18.92
X118.347Y18.927
X118.303Y18.937
X118.275Y18.944
X118.249Y18.928
X118.214Y18.906
X118.184Y18.889
X118.154Y18.873
X118.112Y18.85
X118.053Y18.802
X118.003Y18.741
X117.964Y18.669
X117.942Y18.595
X117.934Y18.517
X117.942Y18.438
G0Z1
X158.098Y18.525
G1Z-0.1F50
X158.106Y18.434F100
X158.127Y18.363
X158.165Y18.294
X158.214Y18.233
X158.275Y18.183
X158.345Y18.146
X158.42Y18.123
X158.498Y18.115
X158.577Y18.123
X158.652Y18.146
X158.721Y18.183
X158.782Y18.233
X158.832Y18.294
X158.869Y18.363
X158.892Y18.438
X158.9Y18.517
X158.892Y18.595
X158.87Y18.667
X158.832Y18.74
X158.782Y18.8
X158.721Y18.85
X158.652Y18.887
X158.577Y18.91
X158.473Y18.92
X158.436Y18.924
X158.398Y18.929
X158.356Y18.936
X158.324Y18.903
X158.295Y18.874
X158.265Y18.845
X158.234Y18.818
X158.216Y18.802
X158.165Y18.74
X158.127Y18.67
X158.105Y18.595
X158.098Y18.525
G0Z1
X168.098Y18.517
G1Z-0.1F50
X168.106Y18.438F100
X168.126Y18.372
X168.168Y18.291
X168.216Y18.232
X168.275Y18.184
X168.347Y18.145
X168.421Y18.123
X168.5Y18.115
X168.578Y18.123
X168.653Y18.145
X168.723Y18.183
X168.783Y18.232
X168.833Y18.293
X168.87Y18.363
X168.893Y18.438
X168.901Y18.516
X168.893Y18.595
X168.87Y18.67
X168.833Y18.739
X168.783Y18.8
X168.723Y18.85
X168.653Y18.887
X168.578Y18.91
X168.5Y18.918
X168.421Y18.91
X168.346Y18.887
X168.277Y18.85
X168.216Y18.8
X168.166Y18.739
X168.129Y18.67
X168.106Y18.595
X168.098Y18.517
G0Z1
X191.458Y12.123
G1Z-0.1F50
X191.475Y12.118F100
X193.132Y17.216
X193.114Y17.221
X191.458Y12.123
G0Z1
X203.483Y17.873
G1Z-0.1F50
X203.507Y17.84F100
X203.521Y17.821
X203.545Y17.795
X203.565Y17.776
X203.602Y17.749
X203.616Y17.738
X203.664Y17.715
X203.682Y17.706
X203.729Y17.693
X203.752Y17.686
X203.829Y17.679
X203.909Y17.687
X203.969Y17.705
X203.981Y17.708
X204.029Y17.733
X204.048Y17.742
X204.063Y17.754
X204.094Y17.778
X204.114Y17.796
X204.132Y17.816
X204.156Y17.848
X204.168Y17.862
X204.177Y17.881
X204.202Y17.929
X204.213Y17.967
X204.224Y18.002
X204.231Y18.08
X204.224Y18.157
X204.217Y18.181
X204.204Y18.228
X204.195Y18.245
X204.172Y18.294
X204.161Y18.308
X204.134Y18.345
X204.115Y18.365
X204.089Y18.389
X204.07Y18.403
X204.038Y18.428
X203.996Y18.447
X203.968Y18.461
X203.898Y18.479
X203.828Y18.485
X203.758Y18.479
X203.69Y18.461
X203.624Y18.43
X203.594Y18.409
X203.568Y18.391
X203.541Y18.365
X203.519Y18.342
X203.48Y18.286
X203.449Y18.22
X203.431Y18.152
X203.425Y18.082
X203.431Y18.013
X203.45Y17.942
X203.463Y17.914
X203.483Y17.873
G0Z1
X206.813Y10.999
G1Z-0.1F50
X206.743Y10.962F100
X206.682Y10.912
X206.632Y10.852
X206.595Y10.782
X206.572Y10.707
X206.564Y10.628
X206.572Y10.55
X206.595Y10.475
X206.632Y10.406
X206.682Y10.345
X206.743Y10.295
X206.812Y10.258
X206.887Y10.235
X206.966Y10.227
X207.044Y10.235
X207.119Y10.258
X207.188Y10.295
X207.249Y10.345
X207.299Y10.406
X207.336Y10.475
X207.359Y10.55
X207.367Y10.626
X207.359Y10.707
X207.336Y10.782
X207.299Y10.852
X207.249Y10.912
X207.188Y10.962
X207.119Y10.999
X207.044Y11.022
X206.966Y11.03
X206.887Y11.022
X206.813Y10.999
G0Z1
X222.177Y33.212
G1Z-0.1F50
X222.246Y33.175F100
X222.321Y33.152
X222.397Y33.144
X222.424Y33.147
X222.478Y33.152
X222.553Y33.175
X222.622Y33.212
X222.683Y33.262
X222.733Y33.323
X222.77Y33.392
X222.793Y33.467
X222.801Y33.546
X222.793Y33.624
X222.77Y33.699
X222.733Y33.768
X222.683Y33.829
X222.622Y33.879
X222.553Y33.916
X222.478Y33.939
X222.399Y33.947
X222.321Y33.939
X222.246Y33.916
X222.176Y33.879
X222.116Y33.829
X222.066Y33.768
X222.029Y33.699
X222.006Y33.624
X221.998Y33.545
X222.006Y33.467
X222.029Y33.392
X222.066Y33.323
X222.116Y33.262
X222.177Y33.212
G0Z1
X224.874Y41
G1Z-0.1F50
X236.622Y37.296F100
X238.059Y41.854
X226.311Y45.558
X224.874Y41
G0Z1
X265.763Y33.277
G1Z-0.1F50
X265.756Y33.207F100
X265.764Y33.115
X265.786Y33.045
X265.823Y32.976
X265.873Y32.915
X265.932Y32.866
X265.97Y32.845
X266.003Y32.828
X266.078Y32.805
X266.156Y32.797
X266.235Y32.805
X266.31Y32.828
X266.379Y32.865
X266.44Y32.915
X266.49Y32.975
X266.527Y33.045
X266.55Y33.12
X266.558Y33.198
X266.55Y33.277
X266.528Y33.35
X266.489Y33.422
X266.44Y33.482
X266.379Y33.532
X266.31Y33.569
X266.235Y33.592
X266.156Y33.6
X266.078Y33.592
X266.003Y33.569
X265.933Y33.532
X265.873Y33.482
X265.823Y33.421
X265.786Y33.352
X265.763Y33.277
G0Z1
X270.933Y51.092
G1Z-0.1F50
X271.011Y51.084F100
X271.09Y51.092
X271.162Y51.114
X271.235Y51.152
X271.295Y51.201
X271.345Y51.262
X271.382Y51.332
X271.405Y51.407
X271.413Y51.485
X271.405Y51.564
X271.382Y51.639
X271.345Y51.708
X271.295Y51.769
X271.234Y51.819
X271.165Y51.856
X271.09Y51.879
X271.011Y51.887
X270.933Y51.879
X270.858Y51.856
X270.788Y51.819
X270.728Y51.769
X270.678Y51.708
X270.641Y51.639
X270.618Y51.563
X270.61Y51.485
X270.618Y51.407
X270.641Y51.332
X270.678Y51.262
X270.728Y51.201
X270.782Y51.157
X270.863Y51.113
X270.933Y51.092
G0Z1
X282.927Y88.483
G1Z-0.1F50
X283.003Y88.461F100
X283.081Y88.453
X283.159Y88.461
X283.235Y88.483
X283.304Y88.52
X283.365Y88.57
X283.415Y88.631
X283.452Y88.701
X283.475Y88.776
X283.482Y88.854
X283.475Y88.932
X283.452Y89.008
X283.415Y89.077
X283.365Y89.138
X283.304Y89.188
X283.235Y89.225
X283.159Y89.248
X283.081Y89.255
X283.003Y89.248
X282.927Y89.225
X282.858Y89.188
X282.797Y89.138
X282.747Y89.077
X282.71Y89.008
X282.687Y88.933
X282.68Y88.854
X282.687Y88.776
X282.71Y88.701
X282.747Y88.631
X282.797Y88.57
X282.857Y88.521
X282.927Y88.483
G0Z1
X241.812Y92.963
G1Z-0.1F50
X241.819Y93.042F100
X241.812Y93.12
X241.789Y93.195
X241.752Y93.265
X241.701Y93.326
X241.641Y93.375
X241.572Y93.412
X241.496Y93.435
X241.418Y93.443
X241.34Y93.435
X241.265Y93.412
X241.195Y93.375
X241.134Y93.326
X241.085Y93.265
X241.047Y93.195
X241.025Y93.12
X241.017Y93.042
X241.025Y92.964
X241.047Y92.888
X241.085Y92.819
X241.134Y92.758
X241.195Y92.708
X241.263Y92.672
X241.341Y92.648
X241.418Y92.64
X241.496Y92.648
X241.572Y92.671
X241.641Y92.708
X241.702Y92.758
X241.752Y92.819
X241.789Y92.888
X241.812Y92.963
G0Z1
X236.88Y96.927
G1Z-0.1F50
X236.89Y96.956F100
X236.9Y96.986
X236.911Y97.014
X236.922Y97.043
X237.074Y97.42
X237.089Y97.457
X237.105Y97.493
X237.123Y97.529
X237.141Y97.565
X237.159Y97.6
X237.179Y97.634
X237.386Y97.985
X237.406Y98.018
X237.427Y98.051
X237.448Y98.083
X237.471Y98.114
X237.494Y98.145
X237.518Y98.175
X237.772Y98.49
X237.795Y98.519
X237.82Y98.547
X237.845Y98.575
X237.871Y98.602
X237.897Y98.628
X237.924Y98.654
X238.227Y98.937
X238.257Y98.965
X238.288Y98.991
X238.319Y99.017
X238.351Y99.042
X238.536Y99.183
X238.56Y99.2
X238.585Y99.218
X238.609Y99.235
X238.634Y99.251
X238.848Y99.389
X238.875Y99.406
X238.902Y99.423
X238.929Y99.439
X238.957Y99.454
X239.201Y99.585
X239.23Y99.601
X239.26Y99.615
X239.289Y99.629
X239.319Y99.643
X239.596Y99.763
X239.626Y99.776
X239.656Y99.788
X239.687Y99.8
X239.718Y99.811
X240.02Y99.914
X240.049Y99.923
X240.078Y99.932
X240.108Y99.941
X240.137Y99.949
X240.448Y100.029
X240.484Y100.038
X240.521Y100.046
X240.557Y100.053
X240.594Y100.059
X240.696Y100.075
X241.236Y100.159
X241.274Y100.164
X241.312Y100.169
X241.35Y100.173
X241.388Y100.175
X241.928Y100.206
X241.981Y100.208
X242.033Y100.209
X242.572Y100.204
X242.618Y100.203
X242.663Y100.201
X243.773Y100.128
X284.238Y96.446
X285.062Y96.369
X285.872Y96.292
X286.588Y96.219
X287.244Y96.147
X287.828Y96.073
X288.348Y95.995
X288.376Y95.991
X288.404Y95.986
X288.863Y95.9
X288.907Y95.892
X288.951Y95.881
X289.405Y95.77
X289.451Y95.758
X289.496Y95.745
X289.719Y95.675
X289.759Y95.663
X289.798Y95.649
X290.035Y95.561
X290.085Y95.542
X290.134Y95.522
X290.386Y95.409
X290.416Y95.396
X290.445Y95.381
X290.474Y95.366
X290.503Y95.351
X290.761Y95.209
X290.796Y95.19
X290.829Y95.17
X290.863Y95.149
X290.896Y95.127
X291.151Y94.952
X291.188Y94.926
X291.225Y94.898
X291.261Y94.87
X291.295Y94.84
X291.535Y94.632
X291.571Y94.599
X291.606Y94.566
X291.641Y94.531
X291.674Y94.496
X291.877Y94.27
X291.909Y94.233
X291.94Y94.195
X291.97Y94.157
X291.998Y94.118
X292.166Y93.878
X292.193Y93.839
X292.218Y93.799
X292.242Y93.758
X292.265Y93.717
X292.4Y93.465
X292.416Y93.435
X292.431Y93.405
X292.445Y93.375
X292.459Y93.344
X292.472Y93.313
X292.484Y93.282
X292.591Y93.001
X292.605Y92.965
X292.617Y92.929
X292.628Y92.893
X292.639Y92.856
X292.649Y92.819
X292.658Y92.782
X292.728Y92.468
X292.737Y92.427
X292.744Y92.387
X292.751Y92.346
X292.756Y92.304
X292.761Y92.263
X292.764Y92.222
X292.786Y91.883
X292.788Y91.842
X292.789Y91.801
Y91.76
X292.788Y91.719
X292.786Y91.678
X292.783Y91.638
X292.754Y91.309
X292.75Y91.271
X292.745Y91.232
X292.739Y91.193
X292.732Y91.155
X292.724Y91.117
X292.716Y91.079
X292.642Y90.772
X292.628Y90.716
X292.611Y90.661
X274.311Y33.246
X274.133Y32.462
X273.98Y31.686
X273.853Y30.921
X273.752Y30.17
X273.678Y29.433
X273.632Y28.713
X273.613Y28.01
X273.622Y27.324
X273.659Y26.655
X273.722Y26.004
X273.812Y25.371
X273.929Y24.756
X274.071Y24.159
X274.239Y23.58
X274.433Y23.018
X274.653Y22.472
X274.9Y21.941
X275.173Y21.423
X275.473Y20.917
X275.802Y20.424
X276.158Y19.942
X276.543Y19.472
X276.955Y19.015
X277.395Y18.572
X277.862Y18.142
X278.358Y17.727
X278.88Y17.326
X279.427Y16.943
X279.997Y16.577
X280.587Y16.232
X281.196Y15.907
X281.819Y15.606
X282.544Y15.293
X283.287Y15.01
X284.057Y14.753
X284.863Y14.52
X285.479Y14.364
X286.133Y14.215
X286.825Y14.073
X287.558Y13.934
X288.336Y13.798
X289.156Y13.66
X290.89Y13.379
X290.92Y13.374
X290.95Y13.368
X291.284Y13.301
X291.314Y13.294
X291.344Y13.288
X291.374Y13.28
X291.404Y13.272
X291.731Y13.179
X291.761Y13.17
X291.79Y13.161
X291.819Y13.151
X291.848Y13.141
X292.168Y13.023
X292.197Y13.012
X292.225Y13
X292.254Y12.988
X292.282Y12.976
X292.592Y12.833
X292.62Y12.82
X292.647Y12.806
X292.675Y12.792
X292.702Y12.777
X292.999Y12.611
X293.026Y12.596
X293.053Y12.58
X293.079Y12.564
X293.105Y12.547
X293.387Y12.359
X293.413Y12.342
X293.438Y12.324
X293.463Y12.305
X293.487Y12.287
X293.756Y12.076
X293.779Y12.057
X293.803Y12.038
X293.826Y12.018
X293.849Y11.998
X294.101Y11.767
X294.123Y11.746
X294.145Y11.725
X294.166Y11.704
X294.186Y11.683
X294.421Y11.433
X294.441Y11.411
X294.461Y11.389
X294.48Y11.367
X294.498Y11.344
X294.714Y11.078
X294.75Y11.032
X294.784Y10.985
X294.98Y10.704
X295.012Y10.655
X295.043Y10.606
X295.215Y10.314
X295.244Y10.263
X295.271Y10.212
X295.415Y9.921
X295.439Y9.87
X295.461Y9.82
X295.579Y9.533
X295.598Y9.484
X295.616Y9.435
X295.71Y9.154
X295.725Y9.108
X295.739Y9.061
X295.812Y8.789
X295.823Y8.747
X295.832Y8.705
X295.917Y8.306
X295.925Y8.267
X295.932Y8.229
X295.996Y7.833
X296.002Y7.793
X296.007Y7.753
X296.01Y7.712
X296.013Y7.671
X296.015Y7.633
X296.016Y7.595
Y7.557
X296.015Y7.518
X296.013Y7.48
X296.01Y7.442
X296.006Y7.404
X296.002Y7.366
X295.996Y7.328
X295.989Y7.29
X295.982Y7.253
X295.974Y7.215
X295.964Y7.177
X295.954Y7.139
X295.942Y7.102
X295.93Y7.064
X295.917Y7.027
X295.903Y6.991
X295.888Y6.954
X295.872Y6.919
X295.855Y6.883
X295.838Y6.848
X295.819Y6.813
X295.8Y6.779
X295.78Y6.746
X295.759Y6.712
X295.737Y6.68
X295.714Y6.647
X295.69Y6.614
X295.664Y6.581
X295.638Y6.55
X295.61Y6.518
X295.582Y6.488
X295.553Y6.458
X295.524Y6.429
X295.493Y6.401
X295.15Y6.09
X294.817Y5.793
X294.787Y5.768
X294.758Y5.743
X294.727Y5.72
X294.697Y5.697
X294.665Y5.674
X294.633Y5.653
X294.601Y5.632
X294.568Y5.612
X294.535Y5.593
X294.501Y5.575
X294.466Y5.557
X294.432Y5.54
X294.397Y5.525
X294.361Y5.51
X294.325Y5.495
X294.288Y5.482
X294.252Y5.47
X294.215Y5.458
X294.178Y5.448
X294.141Y5.438
X294.104Y5.429
X294.066Y5.421
X294.028Y5.414
X293.99Y5.408
X293.952Y5.403
X293.913Y5.399
X293.875Y5.396
X293.837Y5.393
X293.798Y5.392
X293.76
X114.382
X114.349
X114.315Y5.393
X114.281Y5.395
X114.247Y5.397
X114.213Y5.401
X114.179Y5.405
X114.139Y5.41
X114.099Y5.417
X114.074Y5.422
X114.038Y5.429
X114.004Y5.437
X113.962Y5.448
X113.929Y5.457
X113.876Y5.474
X113.825Y5.492
X113.795Y5.504
X113.767Y5.515
X113.731Y5.531
X113.695Y5.548
X113.66Y5.565
X113.625Y5.583
X113.59Y5.602
X113.556Y5.622
X113.523Y5.643
X113.49Y5.665
X113.458Y5.687
X113.426Y5.711
X113.395Y5.735
X113.364Y5.76
X113.334Y5.785
X113.305Y5.811
X113.276Y5.838
X113.242Y5.873
X113.215Y5.901
X113.189Y5.93
X113.164Y5.959
X113.14Y5.988
X113.118Y6.016
X113.095Y6.048
X113.072Y6.08
X113.05Y6.113
X113.028Y6.146
X113.008Y6.18
X112.988Y6.215
X112.97Y6.25
X112.952Y6.285
X112.935Y6.321
X112.919Y6.357
X112.904Y6.394
X112.89Y6.431
X112.876Y6.468
X112.864Y6.505
X112.853Y6.542
X112.837Y6.603
X112.825Y6.654
X112.817Y6.698
X112.811Y6.73
X112.803Y6.785
X112.799Y6.819
X112.794Y6.884
X112.791Y6.961
Y20.657
X112.792Y20.704
X112.794Y20.752
X112.796Y20.788
X112.8Y20.823
X112.804Y20.858
X112.807Y20.885
X112.815Y20.93
X112.824Y20.98
X112.831Y21.011
X112.839Y21.043
X112.847Y21.077
X112.86Y21.12
X112.873Y21.161
X112.887Y21.201
X112.902Y21.241
X112.919Y21.281
X112.941Y21.331
X112.956Y21.363
X112.972Y21.395
X112.992Y21.431
X113.013Y21.467
X113.041Y21.512
X113.055Y21.535
X113.071Y21.558
X113.089Y21.583
X113.107Y21.609
X113.145Y21.657
X113.745Y22.399
X113.77Y22.429
X113.796Y22.459
X113.822Y22.488
X113.849Y22.516
X113.877Y22.544
X113.906Y22.571
X113.935Y22.597
X113.965Y22.623
X113.996Y22.648
X114.027Y22.672
X114.059Y22.695
X114.091Y22.717
X114.124Y22.739
X114.157Y22.76
X114.191Y22.78
X114.226Y22.799
X114.261Y22.817
X114.297Y22.835
X114.332Y22.851
X114.369Y22.867
X114.405Y22.882
X114.442Y22.896
X114.479Y22.908
X114.517Y22.92
X114.554Y22.931
X114.592Y22.942
X114.631Y22.951
X114.669Y22.959
X114.708Y22.966
X114.747Y22.973
X114.786Y22.978
X114.825Y22.982
X114.864Y22.986
X114.903Y22.988
X114.943Y22.99
X114.982
X117.728
X117.901Y23.01
X117.934Y23.013
X117.967Y23.016
X117.999Y23.018
X118.032Y23.019
X118.156Y23.023
X118.204Y23.024
X118.252Y23.023
X118.376Y23.019
X118.408Y23.018
X118.441Y23.016
X118.474Y23.013
X118.507Y23.01
X118.68Y22.99
X157.728
X157.901Y23.01
X157.934Y23.013
X157.967Y23.016
X157.999Y23.018
X158.032Y23.019
X158.156Y23.023
X158.204Y23.024
X158.252Y23.023
X158.376Y23.019
X158.409Y23.018
X158.441Y23.016
X158.474Y23.013
X158.507Y23.01
X158.68Y22.99
X185.743
X200.984Y24.643
X203.728Y24.94
X204.553Y25.029
X205.246Y25.106
X205.548Y25.14
X205.823Y25.171
X206.174Y25.212
X206.48Y25.249
X206.743Y25.283
X206.971Y25.313
X207.164Y25.341
X207.505Y25.396
X207.81Y25.453
X208.135Y25.52
X208.488Y25.599
X208.858Y25.69
X209.244Y25.796
X209.642Y25.916
X210.051Y26.053
X210.467Y26.207
X210.888Y26.379
X211.311Y26.571
X211.732Y26.784
X212.151Y27.017
X212.561Y27.271
X212.954Y27.542
X213.332Y27.829
X213.693Y28.132
X214.038Y28.452
X214.367Y28.789
X214.68Y29.144
X214.978Y29.518
X215.255Y29.899
X215.501Y30.272
X215.718Y30.635
X215.912Y30.994
X216.081Y31.341
X216.399Y32.094
X216.682Y32.888
X216.71Y32.974
X217.011Y33.914
X236.88Y96.927
G0Z1
X117.942Y18.438
G1Z-0.2F50
X117.965Y18.363F100
X118.002Y18.294
X118.052Y18.233
X118.112Y18.183
X118.182Y18.146
X118.257Y18.123
X118.335Y18.115
X118.414Y18.123
X118.489Y18.146
X118.558Y18.183
X118.619Y18.233
X118.669Y18.294
X118.706Y18.363
X118.729Y18.438
X118.737Y18.517
X118.729Y18.595
X118.707Y18.667
X118.669Y18.74
X118.619Y18.8
X118.558Y18.85
X118.489Y18.887
X118.38Y18.92
X118.347Y18.927
X118.303Y18.937
X118.275Y18.944
X118.249Y18.928
X118.214Y18.906
X118.184Y18.889
X118.154Y18.873
X118.112Y18.85
X118.053Y18.802
X118.003Y18.741
X117.964Y18.669
X117.942Y18.595
X117.934Y18.517
X117.942Y18.438
G0Z1
X158.098Y18.525
G1Z-0.2F50
X158.106Y18.434F100
X158.127Y18.363
X158.165Y18.294
X158.214Y18.233
X158.275Y18.183
X158.345Y18.146
X158.42Y18.123
X158.498Y18.115
X158.577Y18.123
X158.652Y18.146
X158.721Y18.183
X158.782Y18.233
X158.832Y18.294
X158.869Y18.363
X158.892Y18.438
X158.9Y18.517
X158.892Y18.595
X158.87Y18.667
X158.832Y18.74
X158.782Y18.8
X158.721Y18.85
X158.652Y18.887
X158.577Y18.91
X158.473Y18.92
X158.436Y18.924
X158.398Y18.929
X158.356Y18.936
X158.324Y18.903
X158.295Y18.874
X158.265Y18.845
X158.234Y18.818
X158.216Y18.802
X158.165Y18.74
X158.127Y18.67
X158.105Y18.595
X158.098Y18.525
G0Z1
X168.098Y18.517
G1Z-0.2F50
X168.106Y18.438F100
X168.126Y18.372
X168.168Y18.291
X168.216Y18.232
X168.275Y18.184
X168.347Y18.145
X168.421Y18.123
X168.5Y18.115
X168.578Y18.123
X168.653Y18.145
X168.723Y18.183
X168.783Y18.232
X168.833Y18.293
X168.87Y18.363
X168.893Y18.438
X168.901Y18.516
X168.893Y18.595
X168.87Y18.67
X168.833Y18.739
X168.783Y18.8
X168.723Y18.85
X168.653Y18.887
X168.578Y18.91
X168.5Y18.918
X168.421Y18.91
X168.346Y18.887
X168.277Y18.85
X168.216Y18.8
X168.166Y18.739
X168.129Y18.67
X168.106Y18.595
X168.098Y18.517
G0Z1
X191.458Y12.123
G1Z-0.2F50
X191.475Y12.118F100
X193.132Y17.216
X193.114Y17.221
X191.458Y12.123
G0Z1
X203.483Y17.873
G1Z-0.2F50
X203.507Y17.84F100
X203.521Y17.821
X203.545Y17.795
X203.565Y17.776
X203.602Y17.749
X203.616Y17.738
X203.664Y17.715
X203.682Y17.706
X203.729Y17.693
X203.752Y17.686
X203.829Y17.679
X203.909Y17.687
X203.969Y17.705
X203.981Y17.708
X204.029Y17.733
X204.048Y17.742
X204.063Y17.754
X204.094Y17.778
X204.114Y17.796
X204.132Y17.816
X204.156Y17.848
X204.168Y17.862
X204.177Y17.881
X204.202Y17.929
X204.213Y17.967
X204.224Y18.002
X204.231Y18.08
X204.224Y18.157
X204.217Y18.181
X204.204Y18.228
X204.195Y18.245
X204.172Y18.294
X204.161Y18.308
X204.134Y18.345
X204.115Y18.365
X204.089Y18.389
X204.07Y18.403
X204.038Y18.428
X203.996Y18.447
X203.968Y18.461
X203.898Y18.479
X203.828Y18.485
X203.758Y18.479
X203.69Y18.461
X203.624Y18.43
X203.594Y18.409
X203.568Y18.391
X203.541Y18.365
X203.519Y18.342
X203.48Y18.286
X203.449Y18.22
X203.431Y18.152
X203.425Y18.082
X203.431Y18.013
X203.45Y17.942
X203.463Y17.914
X203.483Y17.873
G0Z1
X206.813Y10.999
G1Z-0.2F50
X206.743Y10.962F100
X206.682Y10.912
X206.632Y10.852
X206.595Y10.782
X206.572Y10.707
X206.564Y10.628
X206.572Y10.55
X206.595Y10.475
X206.632Y10.406
X206.682Y10.345
X206.743Y10.295
X206.812Y10.258
X206.887Y10.235
X206.966Y10.227
X207.044Y10.235
X207.119Y10.258
X207.188Y10.295
X207.249Y10.345
X207.299Y10.406
X207.336Y10.475
X207.359Y10.55
X207.367Y10.626
X207.359Y10.707
X207.336Y10.782
X207.299Y10.852
X207.249Y10.912
X207.188Y10.962
X207.119Y10.999
X207.044Y11.022
X206.966Y11.03
X206.887Y11.022
X206.813Y10.999
G0Z1
X222.177Y33.212
G1Z-0.2F50
X222.246Y33.175F100
X222.321Y33.152
X222.397Y33.144
X222.424Y33.147
X222.478Y33.152
X222.553Y33.175
X222.622Y33.212
X222.683Y33.262
X222.733Y33.323
X222.77Y33.392
X222.793Y33.467
X222.801Y33.546
X222.793Y33.624
X222.77Y33.699
X222.733Y33.768
X222.683Y33.829
X222.622Y33.879
X222.553Y33.916
X222.478Y33.939
X222.399Y33.947
X222.321Y33.939
X222.246Y33.916
X222.176Y33.879
X222.116Y33.829
X222.066Y33.768
X222.029Y33.699
X222.006Y33.624
X221.998Y33.545
X222.006Y33.467
X222.029Y33.392
X222.066Y33.323
X222.116Y33.262
X222.177Y33.212
G0Z1
X224.874Y41
G1Z-0.2F50
X236.622Y37.296F100
X238.059Y41.854
X226.311Y45.558
X224.874Y41
G0Z1
X265.763Y33.277
G1Z-0.2F50
X265.756Y33.207F100
X265.764Y33.115
X265.786Y33.045
X265.823Y32.976
X265.873Y32.915
X265.932Y32.866
X265.97Y32.845
X266.003Y32.828
X266.078Y32.805
X266.156Y32.797
X266.235Y32.805
X266.31Y32.828
X266.379Y32.865
X266.44Y32.915
X266.49Y32.975
X266.527Y33.045
X266.55Y33.12
X266.558Y33.198
X266.55Y33.277
X266.528Y33.35
X266.489Y33.422
X266.44Y33.482
X266.379Y33.532
X266.31Y33.569
X266.235Y33.592
X266.156Y33.6
X266.078Y33.592
X266.003Y33.569
X265.933Y33.532
X265.873Y33.482
X265.823Y33.421
X265.786Y33.352
X265.763Y33.277
G0Z1
X270.933Y51.092
G1Z-0.2F50
X271.011Y51.084F100
X271.09Y51.092
X271.162Y51.114
X271.235Y51.152
X271.295Y51.201
X271.345Y51.262
X271.382Y51.332
X271.405Y51.407
X271.413Y51.485
X271.405Y51.564
X271.382Y51.639
X271.345Y51.708
X271.295Y51.769
X271.234Y51.819
X271.165Y51.856
X271.09Y51.879
X271.011Y51.887
X270.933Y51.879
X270.858Y51.856
X270.788Y51.819
X270.728Y51.769
X270.678Y51.708
X270.641Y51.639
X270.618Y51.563
X270.61Y51.485
X270.618Y51.407
X270.641Y51.332
X270.678Y51.262
X270.728Y51.201
X270.782Y51.157
X270.863Y51.113
X270.933Y51.092
G0Z1
X282.927Y88.483
G1Z-0.2F50
X283.003Y88.461F100
X283.081Y88.453
X283.159Y88.461
X283.235Y88.483
X283.304Y88.52
X283.365Y88.57
X283.415Y88.631
X283.452Y88.701
X283.475Y88.776
X283.482Y88.854
X283.475Y88.932
X283.452Y89.008
X283.415Y89.077
X283.365Y89.138
X283.304Y89.188
X283.235Y89.225
X283.159Y89.248
X283.081Y89.255
X283.003Y89.248
X282.927Y89.225
X282.858Y89.188
X282.797Y89.138
X282.747Y89.077
X282.71Y89.008
X282.687Y88.933
X282.68Y88.854
X282.687Y88.776
X282.71Y88.701
X282.747Y88.631
X282.797Y88.57
X282.857Y88.521
X282.927Y88.483
G0Z1
X241.812Y92.963
G1Z-0.2F50
X241.819Y93.042F100
X241.812Y93.12
X241.789Y93.195
X241.752Y93.265
X241.701Y93.326
X241.641Y93.375
X241.572Y93.412
X241.496Y93.435
X241.418Y93.443
X241.34Y93.435
X241.265Y93.412
X241.195Y93.375
X241.134Y93.326
X241.085Y93.265
X241.047Y93.195
X241.025Y93.12
X241.017Y93.042
X241.025Y92.964
X241.047Y92.888
X241.085Y92.819
X241.134Y92.758
X241.195Y92.708
X241.263Y92.672
X241.341Y92.648
X241.418Y92.64
X241.496Y92.648
X241.572Y92.671
X241.641Y92.708
X241.702Y92.758
X241.752Y92.819
X241.789Y92.888
X241.812Y92.963
G0Z1
X236.88Y96.927
G1Z-0.2F50
X236.89Y96.956F100
X236.9Y96.986
X236.911Y97.014
X236.922Y97.043
X237.074Y97.42
X237.089Y97.457
X237.105Y97.493
X237.123Y97.529
X237.141Y97.565
X237.159Y97.6
X237.179Y97.634
X237.386Y97.985
X237.406Y98.018
X237.427Y98.051
X237.448Y98.083
X237.471Y98.114
X237.494Y98.145
X237.518Y98.175
X237.772Y98.49
X237.795Y98.519
X237.82Y98.547
X237.845Y98.575
X237.871Y98.602
X237.897Y98.628
X237.924Y98.654
X238.227Y98.937
X238.257Y98.965
X238.288Y98.991
X238.319Y99.017
X238.351Y99.042
X238.536Y99.183
X238.56Y99.2
X238.585Y99.218
X238.609Y99.235
X238.634Y99.251
X238.848Y99.389
X238.875Y99.406
X238.902Y99.423
X238.929Y99.439
X238.957Y99.454
X239.201Y99.585
X239.23Y99.601
X239.26Y99.615
X239.289Y99.629
X239.319Y99.643
X239.596Y99.763
X239.626Y99.776
X239.656Y99.788
X239.687Y99.8
X239.718Y99.811
X240.02Y99.914
X240.049Y99.923
X240.078Y99.932
X240.108Y99.941
X240.137Y99.949
X240.448Y100.029
X240.484Y100.038
X240.521Y100.046
X240.557Y100.053
X240.594Y100.059
X240.696Y100.075
X241.236Y100.159
X241.274Y100.164
X241.312Y100.169
X241.35Y100.173
X241.388Y100.175
X241.928Y100.206
X241.981Y100.208
X242.033Y100.209
X242.572Y100.204
X242.618Y100.203
X242.663Y100.201
X243.773Y100.128
X284.238Y96.446
X285.062Y96.369
X285.872Y96.292
X286.588Y96.219
X287.244Y96.147
X287.828Y96.073
X288.348Y95.995
X288.376Y95.991
X288.404Y95.986
X288.863Y95.9
X288.907Y95.892
X288.951Y95.881
X289.405Y95.77
X289.451Y95.758
X289.496Y95.745
X289.719Y95.675
X289.759Y95.663
X289.798Y95.649
X290.035Y95.561
X290.085Y95.542
X290.134Y95.522
X290.386Y95.409
X290.416Y95.396
X290.445Y95.381
X290.474Y95.366
X290.503Y95.351
X290.761Y95.209
X290.796Y95.19
X290.829Y95.17
X290.863Y95.149
X290.896Y95.127
X291.151Y94.952
X291.188Y94.926
X291.225Y94.898
X291.261Y94.87
X291.295Y94.84
X291.535Y94.632
X291.571Y94.599
X291.606Y94.566
X291.641Y94.531
X291.674Y94.496
X291.877Y94.27
X291.909Y94.233
X291.94Y94.195
X291.97Y94.157
X291.998Y94.118
X292.166Y93.878
X292.193Y93.839
X292.218Y93.799
X292.242Y93.758
X292.265Y93.717
X292.4Y93.465
X292.416Y93.435
X292.431Y93.405
X292.445Y93.375
X292.459Y93.344
X292.472Y93.313
X292.484Y93.282
X292.591Y93.001
X292.605Y92.965
X292.617Y92.929
X292.628Y92.893
X292.639Y92.856
X292.649Y92.819
X292.658Y92.782
X292.728Y92.468
X292.737Y92.427
X292.744Y92.387
X292.751Y92.346
X292.756Y92.304
X292.761Y92.263
X292.764Y92.222
X292.786Y91.883
X292.788Y91.842
X292.789Y91.801
Y91.76
X292.788Y91.719
X292.786Y91.678
X292.783Y91.638
X292.754Y91.309
X292.75Y91.271
X292.745Y91.232
X292.739Y91.193
X292.732Y91.155
X292.724Y91.117
X292.716Y91.079
X292.642Y90.772
X292.628Y90.716
X292.611Y90.661
X274.311Y33.246
X274.133Y32.462
X273.98Y31.686
X273.853Y30.921
X273.752Y30.17
X273.678Y29.433
X273.632Y28.713
X273.613Y28.01
X273.622Y27.324
X273.659Y26.655
X273.722Y26.004
X273.812Y25.371
X273.929Y24.756
X274.071Y24.159
X274.239Y23.58
X274.433Y23.018
X274.653Y22.472
X274.9Y21.941
X275.173Y21.423
X275.473Y20.917
X275.802Y20.424
X276.158Y19.942
X276.543Y19.472
X276.955Y19.015
X277.395Y18.572
X277.862Y18.142
X278.358Y17.727
X278.88Y17.326
X279.427Y16.943
X279.997Y16.577
X280.587Y16.232
X281.196Y15.907
X281.819Y15.606
X282.544Y15.293
X283.287Y15.01
X284.057Y14.753
X284.863Y14.52
X285.479Y14.364
X286.133Y14.215
X286.825Y14.073
X287.558Y13.934
X288.336Y13.798
X289.156Y13.66
X290.89Y13.379
X290.92Y13.374
X290.95Y13.368
X291.284Y13.301
X291.314Y13.294
X291.344Y13.288
X291.374Y13.28
X291.404Y13.272
X291.731Y13.179
X291.761Y13.17
X291.79Y13.161
X291.819Y13.151
X291.848Y13.141
X292.168Y13.023
X292.197Y13.012
X292.225Y13
X292.254Y12.988
X292.282Y12.976
X292.592Y12.833
X292.62Y12.82
X292.647Y12.806
X292.675Y12.792
X292.702Y12.777
X292.999Y12.611
X293.026Y12.596
X293.053Y12.58
X293.079Y12.564
X293.105Y12.547
X293.387Y12.359
X293.413Y12.342
X293.438Y12.324
X293.463Y12.305
X293.487Y12.287
X293.756Y12.076
X293.779Y12.057
X293.803Y12.038
X293.826Y12.018
X293.849Y11.998
X294.101Y11.767
X294.123Y11.746
X294.145Y11.725
X294.166Y11.704
X294.186Y11.683
X294.421Y11.433
X294.441Y11.411
X294.461Y11.389
X294.48Y11.367
X294.498Y11.344
X294.714Y11.078
X294.75Y11.032
X294.784Y10.985
X294.98Y10.704
X295.012Y10.655
X295.043Y10.606
X295.215Y10.314
X295.244Y10.263
X295.271Y10.212
X295.415Y9.921
X295.439Y9.87
X295.461Y9.82
X295.579Y9.533
X295.598Y9.484
X295.616Y9.435
X295.71Y9.154
X295.725Y9.108
X295.739Y9.061
X295.812Y8.789
X295.823Y8.747
X295.832Y8.705
X295.917Y8.306
X295.925Y8.267
X295.932Y8.229
X295.996Y7.833
X296.002Y7.793
X296.007Y7.753
X296.01Y7.712
X296.013Y7.671
X296.015Y7.633
X296.016Y7.595
Y7.557
X296.015Y7.518
X296.013Y7.48
X296.01Y7.442
X296.006Y7.404
X296.002Y7.366
X295.996Y7.328
X295.989Y7.29
X295.982Y7.253
X295.974Y7.215
X295.964Y7.177
X295.954Y7.139
X295.942Y7.102
X295.93Y7.064
X295.917Y7.027
X295.903Y6.991
X295.888Y6.954
X295.872Y6.919
X295.855Y6.883
X295.838Y6.848
X295.819Y6.813
X295.8Y6.779
X295.78Y6.746
X295.759Y6.712
X295.737Y6.68
X295.714Y6.647
X295.69Y6.614
X295.664Y6.581
X295.638Y6.55
X295.61Y6.518
X295.582Y6.488
X295.553Y6.458
X295.524Y6.429
X295.493Y6.401
X295.15Y6.09
X294.817Y5.793
X294.787Y5.768
X294.758Y5.743
X294.727Y5.72
X294.697Y5.697
X294.665Y5.674
X294.633Y5.653
X294.601Y5.632
X294.568Y5.612
X294.535Y5.593
X294.501Y5.575
X294.466Y5.557
X294.432Y5.54
X294.397Y5.525
X294.361Y5.51
X294.325Y5.495
X294.288Y5.482
X294.252Y5.47
X294.215Y5.458
X294.178Y5.448
X294.141Y5.438
X294.104Y5.429
X294.066Y5.421
X294.028Y5.414
X293.99Y5.408
X293.952Y5.403
X293.913Y5.399
X293.875Y5.396
X293.837Y5.393
X293.798Y5.392
X293.76
X114.382
X114.349
X114.315Y5.393
X114.281Y5.395
X114.247Y5.397
X114.213Y5.401
X114.179Y5.405
X114.139Y5.41
X114.099Y5.417
X114.074Y5.422
X114.038Y5.429
X114.004Y5.437
X113.962Y5.448
X113.929Y5.457
X113.876Y5.474
X113.825Y5.492
X113.795Y5.504
X113.767Y5.515
X113.731Y5.531
X113.695Y5.548
X113.66Y5.565
X113.625Y5.583
X113.59Y5.602
X113.556Y5.622
X113.523Y5.643
X113.49Y5.665
X113.458Y5.687
X113.426Y5.711
X113.395Y5.735
X113.364Y5.76
X113.334Y5.785
X113.305Y5.811
X113.276Y5.838
X113.242Y5.873
X113.215Y5.901
X113.189Y5.93
X113.164Y5.959
X113.14Y5.988
X113.118Y6.016
X113.095Y6.048
X113.072Y6.08
X113.05Y6.113
X113.028Y6.146
X113.008Y6.18
X112.988Y6.215
X112.97Y6.25
X112.952Y6.285
X112.935Y6.321
X112.919Y6.357
X112.904Y6.394
X112.89Y6.431
X112.876Y6.468
X112.864Y6.505
X112.853Y6.542
X112.837Y6.603
X112.825Y6.654
X112.817Y6.698
X112.811Y6.73
X112.803Y6.785
X112.799Y6.819
X112.794Y6.884
X112.791Y6.961
Y20.657
X112.792Y20.704
X112.794Y20.752
X112.796Y20.788
X112.8Y20.823
X112.804Y20.858
X112.807Y20.885
X112.815Y20.93
X112.824Y20.98
X112.831Y21.011
X112.839Y21.043
X112.847Y21.077
X112.86Y21.12
X112.873Y21.161
X112.887Y21.201
X112.902Y21.241
X112.919Y21.281
X112.941Y21.331
X112.956Y21.363
X112.972Y21.395
X112.992Y21.431
X113.013Y21.467
X113.041Y21.512
X113.055Y21.535
X113.071Y21.558
X113.089Y21.583
X113.107Y21.609
X113.145Y21.657
X113.745Y22.399
X113.77Y22.429
X113.796Y22.459
X113.822Y22.488
X113.849Y22.516
X113.877Y22.544
X113.906Y22.571
X113.935Y22.597
X113.965Y22.623
X113.996Y22.648
X114.027Y22.672
X114.059Y22.695
X114.091Y22.717
X114.124Y22.739
X114.157Y22.76
X114.191Y22.78
X114.226Y22.799
X114.261Y22.817
X114.297Y22.835
X114.332Y22.851
X114.369Y22.867
X114.405Y22.882
X114.442Y22.896
X114.479Y22.908
X114.517Y22.92
X114.554Y22.931
X114.592Y22.942
X114.631Y22.951
X114.669Y22.959
X114.708Y22.966
X114.747Y22.973
X114.786Y22.978
X114.825Y22.982
X114.864Y22.986
X114.903Y22.988
X114.943Y22.99
X114.982
X117.728
X117.901Y23.01
X117.934Y23.013
X117.967Y23.016
X117.999Y23.018
X118.032Y23.019
X118.156Y23.023
X118.204Y23.024
X118.252Y23.023
X118.376Y23.019
X118.408Y23.018
X118.441Y23.016
X118.474Y23.013
X118.507Y23.01
X118.68Y22.99
X157.728
X157.901Y23.01
X157.934Y23.013
X157.967Y23.016
X157.999Y23.018
X158.032Y23.019
X158.156Y23.023
X158.204Y23.024
X158.252Y23.023
X158.376Y23.019
X158.409Y23.018
X158.441Y23.016
X158.474Y23.013
X158.507Y23.01
X158.68Y22.99
X185.743
X200.984Y24.643
X203.728Y24.94
X204.553Y25.029
X205.246Y25.106
X205.548Y25.14
X205.823Y25.171
X206.174Y25.212
X206.48Y25.249
X206.743Y25.283
X206.971Y25.313
X207.164Y25.341
X207.505Y25.396
X207.81Y25.453
X208.135Y25.52
X208.488Y25.599
X208.858Y25.69
X209.244Y25.796
X209.642Y25.916
X210.051Y26.053
X210.467Y26.207
X210.888Y26.379
X211.311Y26.571
X211.732Y26.784
X212.151Y27.017
X212.561Y27.271
X212.954Y27.542
X213.332Y27.829
X213.693Y28.132
X214.038Y28.452
X214.367Y28.789
X214.68Y29.144
X214.978Y29.518
X215.255Y29.899
X215.501Y30.272
X215.718Y30.635
X215.912Y30.994
X216.081Y31.341
X216.399Y32.094
X216.682Y32.888
X216.71Y32.974
X217.011Y33.914
X236.88Y96.927
G0Z1
X117.942Y18.438
G1Z-0.3F50
X117.965Y18.363F100
X118.002Y18.294
X118.052Y18.233
X118.112Y18.183
X118.182Y18.146
X118.257Y18.123
X118.335Y18.115
X118.414Y18.123
X118.489Y18.146
X118.558Y18.183
X118.619Y18.233
X118.669Y18.294
X118.706Y18.363
X118.729Y18.438
X118.737Y18.517
X118.729Y18.595
X118.707Y18.667
X118.669Y18.74
X118.619Y18.8
X118.558Y18.85
X118.489Y18.887
X118.38Y18.92
X118.347Y18.927
X118.303Y18.937
X118.275Y18.944
X118.249Y18.928
X118.214Y18.906
X118.184Y18.889
X118.154Y18.873
X118.112Y18.85
X118.053Y18.802
X118.003Y18.741
X117.964Y18.669
X117.942Y18.595
X117.934Y18.517
X117.942Y18.438
G0Z1
X158.098Y18.525
G1Z-0.3F50
X158.106Y18.434F100
X158.127Y18.363
X158.165Y18.294
X158.214Y18.233
X158.275Y18.183
X158.345Y18.146
X158.42Y18.123
X158.498Y18.115
X158.577Y18.123
X158.652Y18.146
X158.721Y18.183
X158.782Y18.233
X158.832Y18.294
X158.869Y18.363
X158.892Y18.438
X158.9Y18.517
X158.892Y18.595
X158.87Y18.667
X158.832Y18.74
X158.782Y18.8
X158.721Y18.85
X158.652Y18.887
X158.577Y18.91
X158.473Y18.92
X158.436Y18.924
X158.398Y18.929
X158.356Y18.936
X158.324Y18.903
X158.295Y18.874
X158.265Y18.845
X158.234Y18.818
X158.216Y18.802
X158.165Y18.74
X158.127Y18.67
X158.105Y18.595
X158.098Y18.525
G0Z1
X168.098Y18.517
G1Z-0.3F50
X168.106Y18.438F100
X168.126Y18.372
X168.168Y18.291
X168.216Y18.232
X168.275Y18.184
X168.347Y18.145
X168.421Y18.123
X168.5Y18.115
X168.578Y18.123
X168.653Y18.145
X168.723Y18.183
X168.783Y18.232
X168.833Y18.293
X168.87Y18.363
X168.893Y18.438
X168.901Y18.516
X168.893Y18.595
X168.87Y18.67
X168.833Y18.739
X168.783Y18.8
X168.723Y18.85
X168.653Y18.887
X168.578Y18.91
X168.5Y18.918
X168.421Y18.91
X168.346Y18.887
X168.277Y18.85
X168.216Y18.8
X168.166Y18.739
X168.129Y18.67
X168.106Y18.595
X168.098Y18.517
G0Z1
X191.458Y12.123
G1Z-0.3F50
X191.475Y12.118F100
X193.132Y17.216
X193.114Y17.221
X191.458Y12.123
G0Z1
X203.483Y17.873
G1Z-0.3F50
X203.507Y17.84F100
X203.521Y17.821
X203.545Y17.795
X203.565Y17.776
X203.602Y17.749
X203.616Y17.738
X203.664Y17.715
X203.682Y17.706
X203.729Y17.693
X203.752Y17.686
X203.829Y17.679
X203.909Y17.687
X203.969Y17.705
X203.981Y17.708
X204.029Y17.733
X204.048Y17.742
X204.063Y17.754
X204.094Y17.778
X204.114Y17.796
X204.132Y17.816
X204.156Y17.848
X204.168Y17.862
X204.177Y17.881
X204.202Y17.929
X204.213Y17.967
X204.224Y18.002
X204.231Y18.08
X204.224Y18.157
X204.217Y18.181
X204.204Y18.228
X204.195Y18.245
X204.172Y18.294
X204.161Y18.308
X204.134Y18.345
X204.115Y18.365
X204.089Y18.389
X204.07Y18.403
X204.038Y18.428
X203.996Y18.447
X203.968Y18.461
X203.898Y18.479
X203.828Y18.485
X203.758Y18.479
X203.69Y18.461
X203.624Y18.43
X203.594Y18.409
X203.568Y18.391
X203.541Y18.365
X203.519Y18.342
X203.48Y18.286
X203.449Y18.22
X203.431Y18.152
X203.425Y18.082
X203.431Y18.013
X203.45Y17.942
X203.463Y17.914
X203.483Y17.873
G0Z1
X206.813Y10.999
G1Z-0.3F50
X206.743Y10.962F100
X206.682Y10.912
X206.632Y10.852
X206.595Y10.782
X206.572Y10.707
X206.564Y10.628
X206.572Y10.55
X206.595Y10.475
X206.632Y10.406
X206.682Y10.345
X206.743Y10.295
X206.812Y10.258
X206.887Y10.235
X206.966Y10.227
X207.044Y10.235
X207.119Y10.258
X207.188Y10.295
X207.249Y10.345
X207.299Y10.406
X207.336Y10.475
X207.359Y10.55
X207.367Y10.626
X207.359Y10.707
X207.336Y10.782
X207.299Y10.852
X207.249Y10.912
X207.188Y10.962
X207.119Y10.999
X207.044Y11.022
X206.966Y11.03
X206.887Y11.022
X206.813Y10.999
G0Z1
X222.177Y33.212
G1Z-0.3F50
X222.246Y33.175F100
X222.321Y33.152
X222.397Y33.144
X222.424Y33.147
X222.478Y33.152
X222.553Y33.175
X222.622Y33.212
X222.683Y33.262
X222.733Y33.323
X222.77Y33.392
X222.793Y33.467
X222.801Y33.546
X222.793Y33.624
X222.77Y33.699
X222.733Y33.768
X222.683Y33.829
X222.622Y33.879
X222.553Y33.916
X222.478Y33.939
X222.399Y33.947
X222.321Y33.939
X222.246Y33.916
X222.176Y33.879
X222.116Y33.829
X222.066Y33.768
X222.029Y33.699
X222.006Y33.624
X221.998Y33.545
X222.006Y33.467
X222.029Y33.392
X222.066Y33.323
X222.116Y33.262
X222.177Y33.212
G0Z1
X224.874Y41
G1Z-0.3F50
X236.622Y37.296F100
X238.059Y41.854
X226.311Y45.558
X224.874Y41
G0Z1
X265.763Y33.277
G1Z-0.3F50
X265.756Y33.207F100
X265.764Y33.115
X265.786Y33.045
X265.823Y32.976
X265.873Y32.915
X265.932Y32.866
X265.97Y32.845
X266.003Y32.828
X266.078Y32.805
X266.156Y32.797
X266.235Y32.805
X266.31Y32.828
X266.379Y32.865
X266.44Y32.915
X266.49Y32.975
X266.527Y33.045
X266.55Y33.12
X266.558Y33.198
X266.55Y33.277
X266.528Y33.35
X266.489Y33.422
X266.44Y33.482
X266.379Y33.532
X266.31Y33.569
X266.235Y33.592
X266.156Y33.6
X266.078Y33.592
X266.003Y33.569
X265.933Y33.532
X265.873Y33.482
X265.823Y33.421
X265.786Y33.352
X265.763Y33.277
G0Z1
X270.933Y51.092
G1Z-0.3F50
X271.011Y51.084F100
X271.09Y51.092
X271.162Y51.114
X271.235Y51.152
X271.295Y51.201
X271.345Y51.262
X271.382Y51.332
X271.405Y51.407
X271.413Y51.485
X271.405Y51.564
X271.382Y51.639
X271.345Y51.708
X271.295Y51.769
X271.234Y51.819
X271.165Y51.856
X271.09Y51.879
X271.011Y51.887
X270.933Y51.879
X270.858Y51.856
X270.788Y51.819
X270.728Y51.769
X270.678Y51.708
X270.641Y51.639
X270.618Y51.563
X270.61Y51.485
X270.618Y51.407
X270.641Y51.332
X270.678Y51.262
X270.728Y51.201
X270.782Y51.157
X270.863Y51.113
X270.933Y51.092
G0Z1
X282.927Y88.483
G1Z-0.3F50
X283.003Y88.461F100
X283.081Y88.453
X283.159Y88.461
X283.235Y88.483
X283.304Y88.52
X283.365Y88.57
X283.415Y88.631
X283.452Y88.701
X283.475Y88.776
X283.482Y88.854
X283.475Y88.932
X283.452Y89.008
X283.415Y89.077
X283.365Y89.138
X283.304Y89.188
X283.235Y89.225
X283.159Y89.248
X283.081Y89.255
X283.003Y89.248
X282.927Y89.225
X282.858Y89.188
X282.797Y89.138
X282.747Y89.077
X282.71Y89.008
X282.687Y88.933
X282.68Y88.854
X282.687Y88.776
X282.71Y88.701
X282.747Y88.631
X282.797Y88.57
X282.857Y88.521
X282.927Y88.483
G0Z1
X241.812Y92.963
G1Z-0.3F50
X241.819Y93.042F100
X241.812Y93.12
X241.789Y93.195
X241.752Y93.265
X241.701Y93.326
X241.641Y93.375
X241.572Y93.412
X241.496Y93.435
X241.418Y93.443
X241.34Y93.435
X241.265Y93.412
X241.195Y93.375
X241.134Y93.326
X241.085Y93.265
X241.047Y93.195
X241.025Y93.12
X241.017Y93.042
X241.025Y92.964
X241.047Y92.888
X241.085Y92.819
X241.134Y92.758
X241.195Y92.708
X241.263Y92.672
X241.341Y92.648
X241.418Y92.64
X241.496Y92.648
X241.572Y92.671
X241.641Y92.708
X241.702Y92.758
X241.752Y92.819
X241.789Y92.888
X241.812Y92.963
G0Z1
X236.88Y96.927
G1Z-0.3F50
X236.89Y96.956F100
X236.9Y96.986
X236.911Y97.014
X236.922Y97.043
X237.074Y97.42
X237.089Y97.457
X237.105Y97.493
X237.123Y97.529
X237.141Y97.565
X237.159Y97.6
X237.179Y97.634
X237.386Y97.985
X237.406Y98.018
X237.427Y98.051
X237.448Y98.083
X237.471Y98.114
X237.494Y98.145
X237.518Y98.175
X237.772Y98.49
X237.795Y98.519
X237.82Y98.547
X237.845Y98.575
X237.871Y98.602
X237.897Y98.628
X237.924Y98.654
X238.227Y98.937
X238.257Y98.965
X238.288Y98.991
X238.319Y99.017
X238.351Y99.042
X238.536Y99.183
X238.56Y99.2
X238.585Y99.218
X238.609Y99.235
X238.634Y99.251
X238.848Y99.389
X238.875Y99.406
X238.902Y99.423
X238.929Y99.439
X238.957Y99.454
X239.201Y99.585
X239.23Y99.601
X239.26Y99.615
X239.289Y99.629
X239.319Y99.643
X239.596Y99.763
X239.626Y99.776
X239.656Y99.788
X239.687Y99.8
X239.718Y99.811
X240.02Y99.914
X240.049Y99.923
X240.078Y99.932
X240.108Y99.941
X240.137Y99.949
X240.448Y100.029
X240.484Y100.038
X240.521Y100.046
X240.557Y100.053
X240.594Y100.059
X240.696Y100.075
X241.236Y100.159
X241.274Y100.164
X241.312Y100.169
X241.35Y100.173
X241.388Y100.175
X241.928Y100.206
X241.981Y100.208
X242.033Y100.209
X242.572Y100.204
X242.618Y100.203
X242.663Y100.201
X243.773Y100.128
X284.238Y96.446
X285.062Y96.369
X285.872Y96.292
X286.588Y96.219
X287.244Y96.147
X287.828Y96.073
X288.348Y95.995
X288.376Y95.991
X288.404Y95.986
X288.863Y95.9
X288.907Y95.892
X288.951Y95.881
X289.405Y95.77
X289.451Y95.758
X289.496Y95.745
X289.719Y95.675
X289.759Y95.663
X289.798Y95.649
X290.035Y95.561
X290.085Y95.542
X290.134Y95.522
X290.386Y95.409
X290.416Y95.396
X290.445Y95.381
X290.474Y95.366
X290.503Y95.351
X290.761Y95.209
X290.796Y95.19
X290.829Y95.17
X290.863Y95.149
X290.896Y95.127
X291.151Y94.952
X291.188Y94.926
X291.225Y94.898
X291.261Y94.87
X291.295Y94.84
X291.535Y94.632
X291.571Y94.599
X291.606Y94.566
X291.641Y94.531
X291.674Y94.496
X291.877Y94.27
X291.909Y94.233
X291.94Y94.195
X291.97Y94.157
X291.998Y94.118
X292.166Y93.878
X292.193Y93.839
X292.218Y93.799
X292.242Y93.758
X292.265Y93.717
X292.4Y93.465
X292.416Y93.435
X292.431Y93.405
X292.445Y93.375
X292.459Y93.344
X292.472Y93.313
X292.484Y93.282
X292.591Y93.001
X292.605Y92.965
X292.617Y92.929
X292.628Y92.893
X292.639Y92.856
X292.649Y92.819
X292.658Y92.782
X292.728Y92.468
X292.737Y92.427
X292.744Y92.387
X292.751Y92.346
X292.756Y92.304
X292.761Y92.263
X292.764Y92.222
X292.786Y91.883
X292.788Y91.842
X292.789Y91.801
Y91.76
X292.788Y91.719
X292.786Y91.678
X292.783Y91.638
X292.754Y91.309
X292.75Y91.271
X292.745Y91.232
X292.739Y91.193
X292.732Y91.155
X292.724Y91.117
X292.716Y91.079
X292.642Y90.772
X292.628Y90.716
X292.611Y90.661
X274.311Y33.246
X274.133Y32.462
X273.98Y31.686
X273.853Y30.921
X273.752Y30.17
X273.678Y29.433
X273.632Y28.713
X273.613Y28.01
X273.622Y27.324
X273.659Y26.655
X273.722Y26.004
X273.812Y25.371
X273.929Y24.756
X274.071Y24.159
X274.239Y23.58
X274.433Y23.018
X274.653Y22.472
X274.9Y21.941
X275.173Y21.423
X275.473Y20.917
X275.802Y20.424
X276.158Y19.942
X276.543Y19.472
X276.955Y19.015
X277.395Y18.572
X277.862Y18.142
X278.358Y17.727
X278.88Y17.326
X279.427Y16.943
X279.997Y16.577
X280.587Y16.232
X281.196Y15.907
X281.819Y15.606
X282.544Y15.293
X283.287Y15.01
X284.057Y14.753
X284.863Y14.52
X285.479Y14.364
X286.133Y14.215
X286.825Y14.073
X287.558Y13.934
X288.336Y13.798
X289.156Y13.66
X290.89Y13.379
X290.92Y13.374
X290.95Y13.368
X291.284Y13.301
X291.314Y13.294
X291.344Y13.288
X291.374Y13.28
X291.404Y13.272
X291.731Y13.179
X291.761Y13.17
X291.79Y13.161
X291.819Y13.151
X291.848Y13.141
X292.168Y13.023
X292.197Y13.012
X292.225Y13
X292.254Y12.988
X292.282Y12.976
X292.592Y12.833
X292.62Y12.82
X292.647Y12.806
X292.675Y12.792
X292.702Y12.777
X292.999Y12.611
X293.026Y12.596
X293.053Y12.58
X293.079Y12.564
X293.105Y12.547
X293.387Y12.359
X293.413Y12.342
X293.438Y12.324
X293.463Y12.305
X293.487Y12.287
X293.756Y12.076
X293.779Y12.057
X293.803Y12.038
X293.826Y12.018
X293.849Y11.998
X294.101Y11.767
X294.123Y11.746
X294.145Y11.725
X294.166Y11.704
X294.186Y11.683
X294.421Y11.433
X294.441Y11.411
X294.461Y11.389
X294.48Y11.367
X294.498Y11.344
X294.714Y11.078
X294.75Y11.032
X294.784Y10.985
X294.98Y10.704
X295.012Y10.655
X295.043Y10.606
X295.215Y10.314
X295.244Y10.263
X295.271Y10.212
X295.415Y9.921
X295.439Y9.87
X295.461Y9.82
X295.579Y9.533
X295.598Y9.484
X295.616Y9.435
X295.71Y9.154
X295.725Y9.108
X295.739Y9.061
X295.812Y8.789
X295.823Y8.747
X295.832Y8.705
X295.917Y8.306
X295.925Y8.267
X295.932Y8.229
X295.996Y7.833
X296.002Y7.793
X296.007Y7.753
X296.01Y7.712
X296.013Y7.671
X296.015Y7.633
X296.016Y7.595
Y7.557
X296.015Y7.518
X296.013Y7.48
X296.01Y7.442
X296.006Y7.404
X296.002Y7.366
X295.996Y7.328
X295.989Y7.29
X295.982Y7.253
X295.974Y7.215
X295.964Y7.177
X295.954Y7.139
X295.942Y7.102
X295.93Y7.064
X295.917Y7.027
X295.903Y6.991
X295.888Y6.954
X295.872Y6.919
X295.855Y6.883
X295.838Y6.848
X295.819Y6.813
X295.8Y6.779
X295.78Y6.746
X295.759Y6.712
X295.737Y6.68
X295.714Y6.647
X295.69Y6.614
X295.664Y6.581
X295.638Y6.55
X295.61Y6.518
X295.582Y6.488
X295.553Y6.458
X295.524Y6.429
X295.493Y6.401
X295.15Y6.09
X294.817Y5.793
X294.787Y5.768
X294.758Y5.743
X294.727Y5.72
X294.697Y5.697
X294.665Y5.674
X294.633Y5.653
X294.601Y5.632
X294.568Y5.612
X294.535Y5.593
X294.501Y5.575
X294.466Y5.557
X294.432Y5.54
X294.397Y5.525
X294.361Y5.51
X294.325Y5.495
X294.288Y5.482
X294.252Y5.47
X294.215Y5.458
X294.178Y5.448
X294.141Y5.438
X294.104Y5.429
X294.066Y5.421
X294.028Y5.414
X293.99Y5.408
X293.952Y5.403
X293.913Y5.399
X293.875Y5.396
X293.837Y5.393
X293.798Y5.392
X293.76
X114.382
X114.349
X114.315Y5.393
X114.281Y5.395
X114.247Y5.397
X114.213Y5.401
X114.179Y5.405
X114.139Y5.41
X114.099Y5.417
X114.074Y5.422
X114.038Y5.429
X114.004Y5.437
X113.962Y5.448
X113.929Y5.457
X113.876Y5.474
X113.825Y5.492
X113.795Y5.504
X113.767Y5.515
X113.731Y5.531
X113.695Y5.548
X113.66Y5.565
X113.625Y5.583
X113.59Y5.602
X113.556Y5.622
X113.523Y5.643
X113.49Y5.665
X113.458Y5.687
X113.426Y5.711
X113.395Y5.735
X113.364Y5.76
X113.334Y5.785
X113.305Y5.811
X113.276Y5.838
X113.242Y5.873
X113.215Y5.901
X113.189Y5.93
X113.164Y5.959
X113.14Y5.988
X113.118Y6.016
X113.095Y6.048
X113.072Y6.08
X113.05Y6.113
X113.028Y6.146
X113.008Y6.18
X112.988Y6.215
X112.97Y6.25
X112.952Y6.285
X112.935Y6.321
X112.919Y6.357
X112.904Y6.394
X112.89Y6.431
X112.876Y6.468
X112.864Y6.505
X112.853Y6.542
X112.837Y6.603
X112.825Y6.654
X112.817Y6.698
X112.811Y6.73
X112.803Y6.785
X112.799Y6.819
X112.794Y6.884
X112.791Y6.961
Y20.657
X112.792Y20.704
X112.794Y20.752
X112.796Y20.788
X112.8Y20.823
X112.804Y20.858
X112.807Y20.885
X112.815Y20.93
X112.824Y20.98
X112.831Y21.011
X112.839Y21.043
X112.847Y21.077
X112.86Y21.12
X112.873Y21.161
X112.887Y21.201
X112.902Y21.241
X112.919Y21.281
X112.941Y21.331
X112.956Y21.363
X112.972Y21.395
X112.992Y21.431
X113.013Y21.467
X113.041Y21.512
X113.055Y21.535
X113.071Y21.558
X113.089Y21.583
X113.107Y21.609
X113.145Y21.657
X113.745Y22.399
X113.77Y22.429
X113.796Y22.459
X113.822Y22.488
X113.849Y22.516
X113.877Y22.544
X113.906Y22.571
X113.935Y22.597
X113.965Y22.623
X113.996Y22.648
X114.027Y22.672
X114.059Y22.695
X114.091Y22.717
X114.124Y22.739
X114.157Y22.76
X114.191Y22.78
X114.226Y22.799
X114.261Y22.817
X114.297Y22.835
X114.332Y22.851
X114.369Y22.867
X114.405Y22.882
X114.442Y22.896
X114.479Y22.908
X114.517Y22.92
X114.554Y22.931
X114.592Y22.942
X114.631Y22.951
X114.669Y22.959
X114.708Y22.966
X114.747Y22.973
X114.786Y22.978
X114.825Y22.982
X114.864Y22.986
X114.903Y22.988
X114.943Y22.99
X114.982
X117.728
X117.901Y23.01
X117.934Y23.013
X117.967Y23.016
X117.999Y23.018
X118.032Y23.019
X118.156Y23.023
X118.204Y23.024
X118.252Y23.023
X118.376Y23.019
X118.408Y23.018
X118.441Y23.016
X118.474Y23.013
X118.507Y23.01
X118.68Y22.99
X157.728
X157.901Y23.01
X157.934Y23.013
X157.967Y23.016
X157.999Y23.018
X158.032Y23.019
X158.156Y23.023
X158.204Y23.024
X158.252Y23.023
X158.376Y23.019
X158.409Y23.018
X158.441Y23.016
X158.474Y23.013
X158.507Y23.01
X158.68Y22.99
X185.743
X200.984Y24.643
X203.728Y24.94
X204.553Y25.029
X205.246Y25.106
X205.548Y25.14
X205.823Y25.171
X206.174Y25.212
X206.48Y25.249
X206.743Y25.283
X206.971Y25.313
X207.164Y25.341
X207.505Y25.396
X207.81Y25.453
X208.135Y25.52
X208.488Y25.599
X208.858Y25.69
X209.244Y25.796
X209.642Y25.916
X210.051Y26.053
X210.467Y26.207
X210.888Y26.379
X211.311Y26.571
X211.732Y26.784
X212.151Y27.017
X212.561Y27.271
X212.954Y27.542
X213.332Y27.829
X213.693Y28.132
X214.038Y28.452
X214.367Y28.789
X214.68Y29.144
X214.978Y29.518
X215.255Y29.899
X215.501Y30.272
X215.718Y30.635
X215.912Y30.994
X216.081Y31.341
X216.399Y32.094
X216.682Y32.888
X216.71Y32.974
X217.011Y33.914
X236.88Y96.927
G0Z1
X117.942Y18.438
G1Z-0.4F50
X117.965Y18.363F100
X118.002Y18.294
X118.052Y18.233
X118.112Y18.183
X118.182Y18.146
X118.257Y18.123
X118.335Y18.115
X118.414Y18.123
X118.489Y18.146
X118.558Y18.183
X118.619Y18.233
X118.669Y18.294
X118.706Y18.363
X118.729Y18.438
X118.737Y18.517
X118.729Y18.595
X118.707Y18.667
X118.669Y18.74
X118.619Y18.8
X118.558Y18.85
X118.489Y18.887
X118.38Y18.92
X118.347Y18.927
X118.303Y18.937
X118.275Y18.944
X118.249Y18.928
X118.214Y18.906
X118.184Y18.889
X118.154Y18.873
X118.112Y18.85
X118.053Y18.802
X118.003Y18.741
X117.964Y18.669
X117.942Y18.595
X117.934Y18.517
X117.942Y18.438
G0Z1
X158.098Y18.525
G1Z-0.4F50
X158.106Y18.434F100
X158.127Y18.363
X158.165Y18.294
X158.214Y18.233
X158.275Y18.183
X158.345Y18.146
X158.42Y18.123
X158.498Y18.115
X158.577Y18.123
X158.652Y18.146
X158.721Y18.183
X158.782Y18.233
X158.832Y18.294
X158.869Y18.363
X158.892Y18.438
X158.9Y18.517
X158.892Y18.595
X158.87Y18.667
X158.832Y18.74
X158.782Y18.8
X158.721Y18.85
X158.652Y18.887
X158.577Y18.91
X158.473Y18.92
X158.436Y18.924
X158.398Y18.929
X158.356Y18.936
X158.324Y18.903
X158.295Y18.874
X158.265Y18.845
X158.234Y18.818
X158.216Y18.802
X158.165Y18.74
X158.127Y18.67
X158.105Y18.595
X158.098Y18.525
G0Z1
X168.098Y18.517
G1Z-0.4F50
X168.106Y18.438F100
X168.126Y18.372
X168.168Y18.291
X168.216Y18.232
X168.275Y18.184
X168.347Y18.145
X168.421Y18.123
X168.5Y18.115
X168.578Y18.123
X168.653Y18.145
X168.723Y18.183
X168.783Y18.232
X168.833Y18.293
X168.87Y18.363
X168.893Y18.438
X168.901Y18.516
X168.893Y18.595
X168.87Y18.67
X168.833Y18.739
X168.783Y18.8
X168.723Y18.85
X168.653Y18.887
X168.578Y18.91
X168.5Y18.918
X168.421Y18.91
X168.346Y18.887
X168.277Y18.85
X168.216Y18.8
X168.166Y18.739
X168.129Y18.67
X168.106Y18.595
X168.098Y18.517
G0Z1
X191.458Y12.123
G1Z-0.4F50
X191.475Y12.118F100
X193.132Y17.216
X193.114Y17.221
X191.458Y12.123
G0Z1
X203.483Y17.873
G1Z-0.4F50
X203.507Y17.84F100
X203.521Y17.821
X203.545Y17.795
X203.565Y17.776
X203.602Y17.749
X203.616Y17.738
X203.664Y17.715
X203.682Y17.706
X203.729Y17.693
X203.752Y17.686
X203.829Y17.679
X203.909Y17.687
X203.969Y17.705
X203.981Y17.708
X204.029Y17.733
X204.048Y17.742
X204.063Y17.754
X204.094Y17.778
X204.114Y17.796
X204.132Y17.816
X204.156Y17.848
X204.168Y17.862
X204.177Y17.881
X204.202Y17.929
X204.213Y17.967
X204.224Y18.002
X204.231Y18.08
X204.224Y18.157
X204.217Y18.181
X204.204Y18.228
X204.195Y18.245
X204.172Y18.294
X204.161Y18.308
X204.134Y18.345
X204.115Y18.365
X204.089Y18.389
X204.07Y18.403
X204.038Y18.428
X203.996Y18.447
X203.968Y18.461
X203.898Y18.479
X203.828Y18.485
X203.758Y18.479
X203.69Y18.461
X203.624Y18.43
X203.594Y18.409
X203.568Y18.391
X203.541Y18.365
X203.519Y18.342
X203.48Y18.286
X203.449Y18.22
X203.431Y18.152
X203.425Y18.082
X203.431Y18.013
X203.45Y17.942
X203.463Y17.914
X203.483Y17.873
G0Z1
X206.813Y10.999
G1Z-0.4F50
X206.743Y10.962F100
X206.682Y10.912
X206.632Y10.852
X206.595Y10.782
X206.572Y10.707
X206.564Y10.628
X206.572Y10.55
X206.595Y10.475
X206.632Y10.406
X206.682Y10.345
X206.743Y10.295
X206.812Y10.258
X206.887Y10.235
X206.966Y10.227
X207.044Y10.235
X207.119Y10.258
X207.188Y10.295
X207.249Y10.345
X207.299Y10.406
X207.336Y10.475
X207.359Y10.55
X207.367Y10.626
X207.359Y10.707
X207.336Y10.782
X207.299Y10.852
X207.249Y10.912
X207.188Y10.962
X207.119Y10.999
X207.044Y11.022
X206.966Y11.03
X206.887Y11.022
X206.813Y10.999
G0Z1
X222.177Y33.212
G1Z-0.4F50
X222.246Y33.175F100
X222.321Y33.152
X222.397Y33.144
X222.424Y33.147
X222.478Y33.152
X222.553Y33.175
X222.622Y33.212
X222.683Y33.262
X222.733Y33.323
X222.77Y33.392
X222.793Y33.467
X222.801Y33.546
X222.793Y33.624
X222.77Y33.699
X222.733Y33.768
X222.683Y33.829
X222.622Y33.879
X222.553Y33.916
X222.478Y33.939
X222.399Y33.947
X222.321Y33.939
X222.246Y33.916
X222.176Y33.879
X222.116Y33.829
X222.066Y33.768
X222.029Y33.699
X222.006Y33.624
X221.998Y33.545
X222.006Y33.467
X222.029Y33.392
X222.066Y33.323
X222.116Y33.262
X222.177Y33.212
G0Z1
X224.874Y41
G1Z-0.4F50
X236.622Y37.296F100
X238.059Y41.854
X226.311Y45.558
X224.874Y41
G0Z1
X265.763Y33.277
G1Z-0.4F50
X265.756Y33.207F100
X265.764Y33.115
X265.786Y33.045
X265.823Y32.976
X265.873Y32.915
X265.932Y32.866
X265.97Y32.845
X266.003Y32.828
X266.078Y32.805
X266.156Y32.797
X266.235Y32.805
X266.31Y32.828
X266.379Y32.865
X266.44Y32.915
X266.49Y32.975
X266.527Y33.045
X266.55Y33.12
X266.558Y33.198
X266.55Y33.277
X266.528Y33.35
X266.489Y33.422
X266.44Y33.482
X266.379Y33.532
X266.31Y33.569
X266.235Y33.592
X266.156Y33.6
X266.078Y33.592
X266.003Y33.569
X265.933Y33.532
X265.873Y33.482
X265.823Y33.421
X265.786Y33.352
X265.763Y33.277
G0Z1
X270.933Y51.092
G1Z-0.4F50
X271.011Y51.084F100
X271.09Y51.092
X271.162Y51.114
X271.235Y51.152
X271.295Y51.201
X271.345Y51.262
X271.382Y51.332
X271.405Y51.407
X271.413Y51.485
X271.405Y51.564
X271.382Y51.639
X271.345Y51.708
X271.295Y51.769
X271.234Y51.819
X271.165Y51.856
X271.09Y51.879
X271.011Y51.887
X270.933Y51.879
X270.858Y51.856
X270.788Y51.819
X270.728Y51.769
X270.678Y51.708
X270.641Y51.639
X270.618Y51.563
X270.61Y51.485
X270.618Y51.407
X270.641Y51.332
X270.678Y51.262
X270.728Y51.201
X270.782Y51.157
X270.863Y51.113
X270.933Y51.092
G0Z1
X282.927Y88.483
G1Z-0.4F50
X283.003Y88.461F100
X283.081Y88.453
X283.159Y88.461
X283.235Y88.483
X283.304Y88.52
X283.365Y88.57
X283.415Y88.631
X283.452Y88.701
X283.475Y88.776
X283.482Y88.854
X283.475Y88.932
X283.452Y89.008
X283.415Y89.077
X283.365Y89.138
X283.304Y89.188
X283.235Y89.225
X283.159Y89.248
X283.081Y89.255
X283.003Y89.248
X282.927Y89.225
X282.858Y89.188
X282.797Y89.138
X282.747Y89.077
X282.71Y89.008
X282.687Y88.933
X282.68Y88.854
X282.687Y88.776
X282.71Y88.701
X282.747Y88.631
X282.797Y88.57
X282.857Y88.521
X282.927Y88.483
G0Z1
X241.812Y92.963
G1Z-0.4F50
X241.819Y93.042F100
X241.812Y93.12
X241.789Y93.195
X241.752Y93.265
X241.701Y93.326
X241.641Y93.375
X241.572Y93.412
X241.496Y93.435
X241.418Y93.443
X241.34Y93.435
X241.265Y93.412
X241.195Y93.375
X241.134Y93.326
X241.085Y93.265
X241.047Y93.195
X241.025Y93.12
X241.017Y93.042
X241.025Y92.964
X241.047Y92.888
X241.085Y92.819
X241.134Y92.758
X241.195Y92.708
X241.263Y92.672
X241.341Y92.648
X241.418Y92.64
X241.496Y92.648
X241.572Y92.671
X241.641Y92.708
X241.702Y92.758
X241.752Y92.819
X241.789Y92.888
X241.812Y92.963
G0Z1
X236.88Y96.927
G1Z-0.4F50
X236.89Y96.956F100
X236.9Y96.986
X236.911Y97.014
X236.922Y97.043
X237.074Y97.42
X237.089Y97.457
X237.105Y97.493
X237.123Y97.529
X237.141Y97.565
X237.159Y97.6
X237.179Y97.634
X237.386Y97.985
X237.406Y98.018
X237.427Y98.051
X237.448Y98.083
X237.471Y98.114
X237.494Y98.145
X237.518Y98.175
X237.772Y98.49
X237.795Y98.519
X237.82Y98.547
X237.845Y98.575
X237.871Y98.602
X237.897Y98.628
X237.924Y98.654
X238.227Y98.937
X238.257Y98.965
X238.288Y98.991
X238.319Y99.017
X238.351Y99.042
X238.536Y99.183
X238.56Y99.2
X238.585Y99.218
X238.609Y99.235
X238.634Y99.251
X238.848Y99.389
X238.875Y99.406
X238.902Y99.423
X238.929Y99.439
X238.957Y99.454
X239.201Y99.585
X239.23Y99.601
X239.26Y99.615
X239.289Y99.629
X239.319Y99.643
X239.596Y99.763
X239.626Y99.776
X239.656Y99.788
X239.687Y99.8
X239.718Y99.811
X240.02Y99.914
X240.049Y99.923
X240.078Y99.932
X240.108Y99.941
X240.137Y99.949
X240.448Y100.029
X240.484Y100.038
X240.521Y100.046
X240.557Y100.053
X240.594Y100.059
X240.696Y100.075
X241.236Y100.159
X241.274Y100.164
X241.312Y100.169
X241.35Y100.173
X241.388Y100.175
X241.928Y100.206
X241.981Y100.208
X242.033Y100.209
X242.572Y100.204
X242.618Y100.203
X242.663Y100.201
X243.773Y100.128
X284.238Y96.446
X285.062Y96.369
X285.872Y96.292
X286.588Y96.219
X287.244Y96.147
X287.828Y96.073
X288.348Y95.995
X288.376Y95.991
X288.404Y95.986
X288.863Y95.9
X288.907Y95.892
X288.951Y95.881
X289.405Y95.77
X289.451Y95.758
X289.496Y95.745
X289.719Y95.675
X289.759Y95.663
X289.798Y95.649
X290.035Y95.561
X290.085Y95.542
X290.134Y95.522
X290.386Y95.409
X290.416Y95.396
X290.445Y95.381
X290.474Y95.366
X290.503Y95.351
X290.761Y95.209
X290.796Y95.19
X290.829Y95.17
X290.863Y95.149
X290.896Y95.127
X291.151Y94.952
X291.188Y94.926
X291.225Y94.898
X291.261Y94.87
X291.295Y94.84
X291.535Y94.632
X291.571Y94.599
X291.606Y94.566
X291.641Y94.531
X291.674Y94.496
X291.877Y94.27
X291.909Y94.233
X291.94Y94.195
X291.97Y94.157
X291.998Y94.118
X292.166Y93.878
X292.193Y93.839
X292.218Y93.799
X292.242Y93.758
X292.265Y93.717
X292.4Y93.465
X292.416Y93.435
X292.431Y93.405
X292.445Y93.375
X292.459Y93.344
X292.472Y93.313
X292.484Y93.282
X292.591Y93.001
X292.605Y92.965
X292.617Y92.929
X292.628Y92.893
X292.639Y92.856
X292.649Y92.819
X292.658Y92.782
X292.728Y92.468
X292.737Y92.427
X292.744Y92.387
X292.751Y92.346
X292.756Y92.304
X292.761Y92.263
X292.764Y92.222
X292.786Y91.883
X292.788Y91.842
X292.789Y91.801
Y91.76
X292.788Y91.719
X292.786Y91.678
X292.783Y91.638
X292.754Y91.309
X292.75Y91.271
X292.745Y91.232
X292.739Y91.193
X292.732Y91.155
X292.724Y91.117
X292.716Y91.079
X292.642Y90.772
X292.628Y90.716
X292.611Y90.661
X274.311Y33.246
X274.133Y32.462
X273.98Y31.686
X273.853Y30.921
X273.752Y30.17
X273.678Y29.433
X273.632Y28.713
X273.613Y28.01
X273.622Y27.324
X273.659Y26.655
X273.722Y26.004
X273.812Y25.371
X273.929Y24.756
X274.071Y24.159
X274.239Y23.58
X274.433Y23.018
X274.653Y22.472
X274.9Y21.941
X275.173Y21.423
X275.473Y20.917
X275.802Y20.424
X276.158Y19.942
X276.543Y19.472
X276.955Y19.015
X277.395Y18.572
X277.862Y18.142
X278.358Y17.727
X278.88Y17.326
X279.427Y16.943
X279.997Y16.577
X280.587Y16.232
X281.196Y15.907
X281.819Y15.606
X282.544Y15.293
X283.287Y15.01
X284.057Y14.753
X284.863Y14.52
X285.479Y14.364
X286.133Y14.215
X286.825Y14.073
X287.558Y13.934
X288.336Y13.798
X289.156Y13.66
X290.89Y13.379
X290.92Y13.374
X290.95Y13.368
X291.284Y13.301
X291.314Y13.294
X291.344Y13.288
X291.374Y13.28
X291.404Y13.272
X291.731Y13.179
X291.761Y13.17
X291.79Y13.161
X291.819Y13.151
X291.848Y13.141
X292.168Y13.023
X292.197Y13.012
X292.225Y13
X292.254Y12.988
X292.282Y12.976
X292.592Y12.833
X292.62Y12.82
X292.647Y12.806
X292.675Y12.792
X292.702Y12.777
X292.999Y12.611
X293.026Y12.596
X293.053Y12.58
X293.079Y12.564
X293.105Y12.547
X293.387Y12.359
X293.413Y12.342
X293.438Y12.324
X293.463Y12.305
X293.487Y12.287
X293.756Y12.076
X293.779Y12.057
X293.803Y12.038
X293.826Y12.018
X293.849Y11.998
X294.101Y11.767
X294.123Y11.746
X294.145Y11.725
X294.166Y11.704
X294.186Y11.683
X294.421Y11.433
X294.441Y11.411
X294.461Y11.389
X294.48Y11.367
X294.498Y11.344
X294.714Y11.078
X294.75Y11.032
X294.784Y10.985
X294.98Y10.704
X295.012Y10.655
X295.043Y10.606
X295.215Y10.314
X295.244Y10.263
X295.271Y10.212
X295.415Y9.921
X295.439Y9.87
X295.461Y9.82
X295.579Y9.533
X295.598Y9.484
X295.616Y9.435
X295.71Y9.154
X295.725Y9.108
X295.739Y9.061
X295.812Y8.789
X295.823Y8.747
X295.832Y8.705
X295.917Y8.306
X295.925Y8.267
X295.932Y8.229
X295.996Y7.833
X296.002Y7.793
X296.007Y7.753
X296.01Y7.712
X296.013Y7.671
X296.015Y7.633
X296.016Y7.595
Y7.557
X296.015Y7.518
X296.013Y7.48
X296.01Y7.442
X296.006Y7.404
X296.002Y7.366
X295.996Y7.328
X295.989Y7.29
X295.982Y7.253
X295.974Y7.215
X295.964Y7.177
X295.954Y7.139
X295.942Y7.102
X295.93Y7.064
X295.917Y7.027
X295.903Y6.991
X295.888Y6.954
X295.872Y6.919
X295.855Y6.883
X295.838Y6.848
X295.819Y6.813
X295.8Y6.779
X295.78Y6.746
X295.759Y6.712
X295.737Y6.68
X295.714Y6.647
X295.69Y6.614
X295.664Y6.581
X295.638Y6.55
X295.61Y6.518
X295.582Y6.488
X295.553Y6.458
X295.524Y6.429
X295.493Y6.401
X295.15Y6.09
X294.817Y5.793
X294.787Y5.768
X294.758Y5.743
X294.727Y5.72
X294.697Y5.697
X294.665Y5.674
X294.633Y5.653
X294.601Y5.632
X294.568Y5.612
X294.535Y5.593
X294.501Y5.575
X294.466Y5.557
X294.432Y5.54
X294.397Y5.525
X294.361Y5.51
X294.325Y5.495
X294.288Y5.482
X294.252Y5.47
X294.215Y5.458
X294.178Y5.448
X294.141Y5.438
X294.104Y5.429
X294.066Y5.421
X294.028Y5.414
X293.99Y5.408
X293.952Y5.403
X293.913Y5.399
X293.875Y5.396
X293.837Y5.393
X293.798Y5.392
X293.76
X114.382
X114.349
X114.315Y5.393
X114.281Y5.395
X114.247Y5.397
X114.213Y5.401
X114.179Y5.405
X114.139Y5.41
X114.099Y5.417
X114.074Y5.422
X114.038Y5.429
X114.004Y5.437
X113.962Y5.448
X113.929Y5.457
X113.876Y5.474
X113.825Y5.492
X113.795Y5.504
X113.767Y5.515
X113.731Y5.531
X113.695Y5.548
X113.66Y5.565
X113.625Y5.583
X113.59Y5.602
X113.556Y5.622
X113.523Y5.643
X113.49Y5.665
X113.458Y5.687
X113.426Y5.711
X113.395Y5.735
X113.364Y5.76
X113.334Y5.785
X113.305Y5.811
X113.276Y5.838
X113.242Y5.873
X113.215Y5.901
X113.189Y5.93
X113.164Y5.959
X113.14Y5.988
X113.118Y6.016
X113.095Y6.048
X113.072Y6.08
X113.05Y6.113
X113.028Y6.146
X113.008Y6.18
X112.988Y6.215
X112.97Y6.25
X112.952Y6.285
X112.935Y6.321
X112.919Y6.357
X112.904Y6.394
X112.89Y6.431
X112.876Y6.468
X112.864Y6.505
X112.853Y6.542
X112.837Y6.603
X112.825Y6.654
X112.817Y6.698
X112.811Y6.73
X112.803Y6.785
X112.799Y6.819
X112.794Y6.884
X112.791Y6.961
Y20.657
X112.792Y20.704
X112.794Y20.752
X112.796Y20.788
X112.8Y20.823
X112.804Y20.858
X112.807Y20.885
X112.815Y20.93
X112.824Y20.98
X112.831Y21.011
X112.839Y21.043
X112.847Y21.077
X112.86Y21.12
X112.873Y21.161
X112.887Y21.201
X112.902Y21.241
X112.919Y21.281
X112.941Y21.331
X112.956Y21.363
X112.972Y21.395
X112.992Y21.431
X113.013Y21.467
X113.041Y21.512
X113.055Y21.535
X113.071Y21.558
X113.089Y21.583
X113.107Y21.609
X113.145Y21.657
X113.745Y22.399
X113.77Y22.429
X113.796Y22.459
X113.822Y22.488
X113.849Y22.516
X113.877Y22.544
X113.906Y22.571
X113.935Y22.597
X113.965Y22.623
X113.996Y22.648
X114.027Y22.672
X114.059Y22.695
X114.091Y22.717
X114.124Y22.739
X114.157Y22.76
X114.191Y22.78
X114.226Y22.799
X114.261Y22.817
X114.297Y22.835
X114.332Y22.851
X114.369Y22.867
X114.405Y22.882
X114.442Y22.896
X114.479Y22.908
X114.517Y22.92
X114.554Y22.931
X114.592Y22.942
X114.631Y22.951
X114.669Y22.959
X114.708Y22.966
X114.747Y22.973
X114.786Y22.978
X114.825Y22.982
X114.864Y22.986
X114.903Y22.988
X114.943Y22.99
X114.982
X117.728
X117.901Y23.01
X117.934Y23.013
X117.967Y23.016
X117.999Y23.018
X118.032Y23.019
X118.156Y23.023
X118.204Y23.024
X118.252Y23.023
X118.376Y23.019
X118.408Y23.018
X118.441Y23.016
X118.474Y23.013
X118.507Y23.01
X118.68Y22.99
X157.728
X157.901Y23.01
X157.934Y23.013
X157.967Y23.016
X157.999Y23.018
X158.032Y23.019
X158.156Y23.023
X158.204Y23.024
X158.252Y23.023
X158.376Y23.019
X158.409Y23.018
X158.441Y23.016
X158.474Y23.013
X158.507Y23.01
X158.68Y22.99
X185.743
X200.984Y24.643
X203.728Y24.94
X204.553Y25.029
X205.246Y25.106
X205.548Y25.14
X205.823Y25.171
X206.174Y25.212
X206.48Y25.249
X206.743Y25.283
X206.971Y25.313
X207.164Y25.341
X207.505Y25.396
X207.81Y25.453
X208.135Y25.52
X208.488Y25.599
X208.858Y25.69
X209.244Y25.796
X209.642Y25.916
X210.051Y26.053
X210.467Y26.207
X210.888Y26.379
X211.311Y26.571
X211.732Y26.784
X212.151Y27.017
X212.561Y27.271
X212.954Y27.542
X213.332Y27.829
X213.693Y28.132
X214.038Y28.452
X214.367Y28.789
X214.68Y29.144
X214.978Y29.518
X215.255Y29.899
X215.501Y30.272
X215.718Y30.635
X215.912Y30.994
X216.081Y31.341
X216.399Y32.094
X216.682Y32.888
X216.71Y32.974
X217.011Y33.914
X236.88Y96.927
G0Z1
X117.942Y18.438
G1Z-0.5F50
X117.965Y18.363F100
X118.002Y18.294
X118.052Y18.233
X118.112Y18.183
X118.182Y18.146
X118.257Y18.123
X118.335Y18.115
X118.414Y18.123
X118.489Y18.146
X118.558Y18.183
X118.619Y18.233
X118.669Y18.294
X118.706Y18.363
X118.729Y18.438
X118.737Y18.517
X118.729Y18.595
X118.707Y18.667
X118.669Y18.74
X118.619Y18.8
X118.558Y18.85
X118.489Y18.887
X118.38Y18.92
X118.347Y18.927
X118.303Y18.937
X118.275Y18.944
X118.249Y18.928
X118.214Y18.906
X118.184Y18.889
X118.154Y18.873
X118.112Y18.85
X118.053Y18.802
X118.003Y18.741
X117.964Y18.669
X117.942Y18.595
X117.934Y18.517
X117.942Y18.438
G0Z1
X158.098Y18.525
G1Z-0.5F50
X158.106Y18.434F100
X158.127Y18.363
X158.165Y18.294
X158.214Y18.233
X158.275Y18.183
X158.345Y18.146
X158.42Y18.123
X158.498Y18.115
X158.577Y18.123
X158.652Y18.146
X158.721Y18.183
X158.782Y18.233
X158.832Y18.294
X158.869Y18.363
X158.892Y18.438
X158.9Y18.517
X158.892Y18.595
X158.87Y18.667
X158.832Y18.74
X158.782Y18.8
X158.721Y18.85
X158.652Y18.887
X158.577Y18.91
X158.473Y18.92
X158.436Y18.924
X158.398Y18.929
X158.356Y18.936
X158.324Y18.903
X158.295Y18.874
X158.265Y18.845
X158.234Y18.818
X158.216Y18.802
X158.165Y18.74
X158.127Y18.67
X158.105Y18.595
X158.098Y18.525
G0Z1
X168.098Y18.517
G1Z-0.5F50
X168.106Y18.438F100
X168.126Y18.372
X168.168Y18.291
X168.216Y18.232
X168.275Y18.184
X168.347Y18.145
X168.421Y18.123
X168.5Y18.115
X168.578Y18.123
X168.653Y18.145
X168.723Y18.183
X168.783Y18.232
X168.833Y18.293
X168.87Y18.363
X168.893Y18.438
X168.901Y18.516
X168.893Y18.595
X168.87Y18.67
X168.833Y18.739
X168.783Y18.8
X168.723Y18.85
X168.653Y18.887
X168.578Y18.91
X168.5Y18.918
X168.421Y18.91
X168.346Y18.887
X168.277Y18.85
X168.216Y18.8
X168.166Y18.739
X168.129Y18.67
X168.106Y18.595
X168.098Y18.517
G0Z1
X191.458Y12.123
G1Z-0.5F50
X191.475Y12.118F100
X193.132Y17.216
X193.114Y17.221
X191.458Y12.123
G0Z1
X203.483Y17.873
G1Z-0.5F50
X203.507Y17.84F100
X203.521Y17.821
X203.545Y17.795
X203.565Y17.776
X203.602Y17.749
X203.616Y17.738
X203.664Y17.715
X203.682Y17.706
X203.729Y17.693
X203.752Y17.686
X203.829Y17.679
X203.909Y17.687
X203.969Y17.705
X203.981Y17.708
X204.029Y17.733
X204.048Y17.742
X204.063Y17.754
X204.094Y17.778
X204.114Y17.796
X204.132Y17.816
X204.156Y17.848
X204.168Y17.862
X204.177Y17.881
X204.202Y17.929
X204.213Y17.967
X204.224Y18.002
X204.231Y18.08
X204.224Y18.157
X204.217Y18.181
X204.204Y18.228
X204.195Y18.245
X204.172Y18.294
X204.161Y18.308
X204.134Y18.345
X204.115Y18.365
X204.089Y18.389
X204.07Y18.403
X204.038Y18.428
X203.996Y18.447
X203.968Y18.461
X203.898Y18.479
X203.828Y18.485
X203.758Y18.479
X203.69Y18.461
X203.624Y18.43
X203.594Y18.409
X203.568Y18.391
X203.541Y18.365
X203.519Y18.342
X203.48Y18.286
X203.449Y18.22
X203.431Y18.152
X203.425Y18.082
X203.431Y18.013
X203.45Y17.942
X203.463Y17.914
X203.483Y17.873
G0Z1
X206.813Y10.999
G1Z-0.5F50
X206.743Y10.962F100
X206.682Y10.912
X206.632Y10.852
X206.595Y10.782
X206.572Y10.707
X206.564Y10.628
X206.572Y10.55
X206.595Y10.475
X206.632Y10.406
X206.682Y10.345
X206.743Y10.295
X206.812Y10.258
X206.887Y10.235
X206.966Y10.227
X207.044Y10.235
X207.119Y10.258
X207.188Y10.295
X207.249Y10.345
X207.299Y10.406
X207.336Y10.475
X207.359Y10.55
X207.367Y10.626
X207.359Y10.707
X207.336Y10.782
X207.299Y10.852
X207.249Y10.912
X207.188Y10.962
X207.119Y10.999
X207.044Y11.022
X206.966Y11.03
X206.887Y11.022
X206.813Y10.999
G0Z1
X222.177Y33.212
G1Z-0.5F50
X222.246Y33.175F100
X222.321Y33.152
X222.397Y33.144
X222.424Y33.147
X222.478Y33.152
X222.553Y33.175
X222.622Y33.212
X222.683Y33.262
X222.733Y33.323
X222.77Y33.392
X222.793Y33.467
X222.801Y33.546
X222.793Y33.624
X222.77Y33.699
X222.733Y33.768
X222.683Y33.829
X222.622Y33.879
X222.553Y33.916
X222.478Y33.939
X222.399Y33.947
X222.321Y33.939
X222.246Y33.916
X222.176Y33.879
X222.116Y33.829
X222.066Y33.768
X222.029Y33.699
X222.006Y33.624
X221.998Y33.545
X222.006Y33.467
X222.029Y33.392
X222.066Y33.323
X222.116Y33.262
X222.177Y33.212
G0Z1
X224.874Y41
G1Z-0.5F50
X236.622Y37.296F100
X238.059Y41.854
X226.311Y45.558
X224.874Y41
G0Z1
X265.763Y33.277
G1Z-0.5F50
X265.756Y33.207F100
X265.764Y33.115
X265.786Y33.045
X265.823Y32.976
X265.873Y32.915
X265.932Y32.866
X265.97Y32.845
X266.003Y32.828
X266.078Y32.805
X266.156Y32.797
X266.235Y32.805
X266.31Y32.828
X266.379Y32.865
X266.44Y32.915
X266.49Y32.975
X266.527Y33.045
X266.55Y33.12
X266.558Y33.198
X266.55Y33.277
X266.528Y33.35
X266.489Y33.422
X266.44Y33.482
X266.379Y33.532
X266.31Y33.569
X266.235Y33.592
X266.156Y33.6
X266.078Y33.592
X266.003Y33.569
X265.933Y33.532
X265.873Y33.482
X265.823Y33.421
X265.786Y33.352
X265.763Y33.277
G0Z1
X270.933Y51.092
G1Z-0.5F50
X271.011Y51.084F100
X271.09Y51.092
X271.162Y51.114
X271.235Y51.152
X271.295Y51.201
X271.345Y51.262
X271.382Y51.332
X271.405Y51.407
X271.413Y51.485
X271.405Y51.564
X271.382Y51.639
X271.345Y51.708
X271.295Y51.769
X271.234Y51.819
X271.165Y51.856
X271.09Y51.879
X271.011Y51.887
X270.933Y51.879
X270.858Y51.856
X270.788Y51.819
X270.728Y51.769
X270.678Y51.708
X270.641Y51.639
X270.618Y51.563
X270.61Y51.485
X270.618Y51.407
X270.641Y51.332
X270.678Y51.262
X270.728Y51.201
X270.782Y51.157
X270.863Y51.113
X270.933Y51.092
G0Z1
X282.927Y88.483
G1Z-0.5F50
X283.003Y88.461F100
X283.081Y88.453
X283.159Y88.461
X283.235Y88.483
X283.304Y88.52
X283.365Y88.57
X283.415Y88.631
X283.452Y88.701
X283.475Y88.776
X283.482Y88.854
X283.475Y88.932
X283.452Y89.008
X283.415Y89.077
X283.365Y89.138
X283.304Y89.188
X283.235Y89.225
X283.159Y89.248
X283.081Y89.255
X283.003Y89.248
X282.927Y89.225
X282.858Y89.188
X282.797Y89.138
X282.747Y89.077
X282.71Y89.008
X282.687Y88.933
X282.68Y88.854
X282.687Y88.776
X282.71Y88.701
X282.747Y88.631
X282.797Y88.57
X282.857Y88.521
X282.927Y88.483
G0Z1
X241.812Y92.963
G1Z-0.5F50
X241.819Y93.042F100
X241.812Y93.12
X241.789Y93.195
X241.752Y93.265
X241.701Y93.326
X241.641Y93.375
X241.572Y93.412
X241.496Y93.435
X241.418Y93.443
X241.34Y93.435
X241.265Y93.412
X241.195Y93.375
X241.134Y93.326
X241.085Y93.265
X241.047Y93.195
X241.025Y93.12
X241.017Y93.042
X241.025Y92.964
X241.047Y92.888
X241.085Y92.819
X241.134Y92.758
X241.195Y92.708
X241.263Y92.672
X241.341Y92.648
X241.418Y92.64
X241.496Y92.648
X241.572Y92.671
X241.641Y92.708
X241.702Y92.758
X241.752Y92.819
X241.789Y92.888
X241.812Y92.963
G0Z1
X236.88Y96.927
G1Z-0.5F50
X236.89Y96.956F100
X236.9Y96.986
X236.911Y97.014
X236.922Y97.043
X237.074Y97.42
X237.089Y97.457
X237.105Y97.493
X237.123Y97.529
X237.141Y97.565
X237.159Y97.6
X237.179Y97.634
X237.386Y97.985
X237.406Y98.018
X237.427Y98.051
X237.448Y98.083
X237.471Y98.114
X237.494Y98.145
X237.518Y98.175
X237.772Y98.49
X237.795Y98.519
X237.82Y98.547
X237.845Y98.575
X237.871Y98.602
X237.897Y98.628
X237.924Y98.654
X238.227Y98.937
X238.257Y98.965
X238.288Y98.991
X238.319Y99.017
X238.351Y99.042
X238.536Y99.183
X238.56Y99.2
X238.585Y99.218
X238.609Y99.235
X238.634Y99.251
X238.848Y99.389
X238.875Y99.406
X238.902Y99.423
X238.929Y99.439
X238.957Y99.454
X239.201Y99.585
X239.23Y99.601
X239.26Y99.615
X239.289Y99.629
X239.319Y99.643
X239.596Y99.763
X239.626Y99.776
X239.656Y99.788
X239.687Y99.8
X239.718Y99.811
X240.02Y99.914
X240.049Y99.923
X240.078Y99.932
X240.108Y99.941
X240.137Y99.949
X240.448Y100.029
X240.484Y100.038
X240.521Y100.046
X240.557Y100.053
X240.594Y100.059
X240.696Y100.075
X241.236Y100.159
X241.274Y100.164
X241.312Y100.169
X241.35Y100.173
X241.388Y100.175
X241.928Y100.206
X241.981Y100.208
X242.033Y100.209
X242.572Y100.204
X242.618Y100.203
X242.663Y100.201
X243.773Y100.128
X284.238Y96.446
X285.062Y96.369
X285.872Y96.292
X286.588Y96.219
X287.244Y96.147
X287.828Y96.073
X288.348Y95.995
X288.376Y95.991
X288.404Y95.986
X288.863Y95.9
X288.907Y95.892
X288.951Y95.881
X289.405Y95.77
X289.451Y95.758
X289.496Y95.745
X289.719Y95.675
X289.759Y95.663
X289.798Y95.649
X290.035Y95.561
X290.085Y95.542
X290.134Y95.522
X290.386Y95.409
X290.416Y95.396
X290.445Y95.381
X290.474Y95.366
X290.503Y95.351
X290.761Y95.209
X290.796Y95.19
X290.829Y95.17
X290.863Y95.149
X290.896Y95.127
X291.151Y94.952
X291.188Y94.926
X291.225Y94.898
X291.261Y94.87
X291.295Y94.84
X291.535Y94.632
X291.571Y94.599
X291.606Y94.566
X291.641Y94.531
X291.674Y94.496
X291.877Y94.27
X291.909Y94.233
X291.94Y94.195
X291.97Y94.157
X291.998Y94.118
X292.166Y93.878
X292.193Y93.839
X292.218Y93.799
X292.242Y93.758
X292.265Y93.717
X292.4Y93.465
X292.416Y93.435
X292.431Y93.405
X292.445Y93.375
X292.459Y93.344
X292.472Y93.313
X292.484Y93.282
X292.591Y93.001
X292.605Y92.965
X292.617Y92.929
X292.628Y92.893
X292.639Y92.856
X292.649Y92.819
X292.658Y92.782
X292.728Y92.468
X292.737Y92.427
X292.744Y92.387
X292.751Y92.346
X292.756Y92.304
X292.761Y92.263
X292.764Y92.222
X292.786Y91.883
X292.788Y91.842
X292.789Y91.801
Y91.76
X292.788Y91.719
X292.786Y91.678
X292.783Y91.638
X292.754Y91.309
X292.75Y91.271
X292.745Y91.232
X292.739Y91.193
X292.732Y91.155
X292.724Y91.117
X292.716Y91.079
X292.642Y90.772
X292.628Y90.716
X292.611Y90.661
X274.311Y33.246
X274.133Y32.462
X273.98Y31.686
X273.853Y30.921
X273.752Y30.17
X273.678Y29.433
X273.632Y28.713
X273.613Y28.01
X273.622Y27.324
X273.659Y26.655
X273.722Y26.004
X273.812Y25.371
X273.929Y24.756
X274.071Y24.159
X274.239Y23.58
X274.433Y23.018
X274.653Y22.472
X274.9Y21.941
X275.173Y21.423
X275.473Y20.917
X275.802Y20.424
X276.158Y19.942
X276.543Y19.472
X276.955Y19.015
X277.395Y18.572
X277.862Y18.142
X278.358Y17.727
X278.88Y17.326
X279.427Y16.943
X279.997Y16.577
X280.587Y16.232
X281.196Y15.907
X281.819Y15.606
X282.544Y15.293
X283.287Y15.01
X284.057Y14.753
X284.863Y14.52
X285.479Y14.364
X286.133Y14.215
X286.825Y14.073
X287.558Y13.934
X288.336Y13.798
X289.156Y13.66
X290.89Y13.379
X290.92Y13.374
X290.95Y13.368
X291.284Y13.301
X291.314Y13.294
X291.344Y13.288
X291.374Y13.28
X291.404Y13.272
X291.731Y13.179
X291.761Y13.17
X291.79Y13.161
X291.819Y13.151
X291.848Y13.141
X292.168Y13.023
X292.197Y13.012
X292.225Y13
X292.254Y12.988
X292.282Y12.976
X292.592Y12.833
X292.62Y12.82
X292.647Y12.806
X292.675Y12.792
X292.702Y12.777
X292.999Y12.611
X293.026Y12.596
X293.053Y12.58
X293.079Y12.564
X293.105Y12.547
X293.387Y12.359
X293.413Y12.342
X293.438Y12.324
X293.463Y12.305
X293.487Y12.287
X293.756Y12.076
X293.779Y12.057
X293.803Y12.038
X293.826Y12.018
X293.849Y11.998
X294.101Y11.767
X294.123Y11.746
X294.145Y11.725
X294.166Y11.704
X294.186Y11.683
X294.421Y11.433
X294.441Y11.411
X294.461Y11.389
X294.48Y11.367
X294.498Y11.344
X294.714Y11.078
X294.75Y11.032
X294.784Y10.985
X294.98Y10.704
X295.012Y10.655
X295.043Y10.606
X295.215Y10.314
X295.244Y10.263
X295.271Y10.212
X295.415Y9.921
X295.439Y9.87
X295.461Y9.82
X295.579Y9.533
X295.598Y9.484
X295.616Y9.435
X295.71Y9.154
X295.725Y9.108
X295.739Y9.061
X295.812Y8.789
X295.823Y8.747
X295.832Y8.705
X295.917Y8.306
X295.925Y8.267
X295.932Y8.229
X295.996Y7.833
X296.002Y7.793
X296.007Y7.753
X296.01Y7.712
X296.013Y7.671
X296.015Y7.633
X296.016Y7.595
Y7.557
X296.015Y7.518
X296.013Y7.48
X296.01Y7.442
X296.006Y7.404
X296.002Y7.366
X295.996Y7.328
X295.989Y7.29
X295.982Y7.253
X295.974Y7.215
X295.964Y7.177
X295.954Y7.139
X295.942Y7.102
X295.93Y7.064
X295.917Y7.027
X295.903Y6.991
X295.888Y6.954
X295.872Y6.919
X295.855Y6.883
X295.838Y6.848
X295.819Y6.813
X295.8Y6.779
X295.78Y6.746
X295.759Y6.712
X295.737Y6.68
X295.714Y6.647
X295.69Y6.614
X295.664Y6.581
X295.638Y6.55
X295.61Y6.518
X295.582Y6.488
X295.553Y6.458
X295.524Y6.429
X295.493Y6.401
X295.15Y6.09
X294.817Y5.793
X294.787Y5.768
X294.758Y5.743
X294.727Y5.72
X294.697Y5.697
X294.665Y5.674
X294.633Y5.653
X294.601Y5.632
X294.568Y5.612
X294.535Y5.593
X294.501Y5.575
X294.466Y5.557
X294.432Y5.54
X294.397Y5.525
X294.361Y5.51
X294.325Y5.495
X294.288Y5.482
X294.252Y5.47
X294.215Y5.458
X294.178Y5.448
X294.141Y5.438
X294.104Y5.429
X294.066Y5.421
X294.028Y5.414
X293.99Y5.408
X293.952Y5.403
X293.913Y5.399
X293.875Y5.396
X293.837Y5.393
X293.798Y5.392
X293.76
X114.382
X114.349
X114.315Y5.393
X114.281Y5.395
X114.247Y5.397
X114.213Y5.401
X114.179Y5.405
X114.139Y5.41
X114.099Y5.417
X114.074Y5.422
X114.038Y5.429
X114.004Y5.437
X113.962Y5.448
X113.929Y5.457
X113.876Y5.474
X113.825Y5.492
X113.795Y5.504
X113.767Y5.515
X113.731Y5.531
X113.695Y5.548
X113.66Y5.565
X113.625Y5.583
X113.59Y5.602
X113.556Y5.622
X113.523Y5.643
X113.49Y5.665
X113.458Y5.687
X113.426Y5.711
X113.395Y5.735
X113.364Y5.76
X113.334Y5.785
X113.305Y5.811
X113.276Y5.838
X113.242Y5.873
X113.215Y5.901
X113.189Y5.93
X113.164Y5.959
X113.14Y5.988
X113.118Y6.016
X113.095Y6.048
X113.072Y6.08
X113.05Y6.113
X113.028Y6.146
X113.008Y6.18
X112.988Y6.215
X112.97Y6.25
X112.952Y6.285
X112.935Y6.321
X112.919Y6.357
X112.904Y6.394
X112.89Y6.431
X112.876Y6.468
X112.864Y6.505
X112.853Y6.542
X112.837Y6.603
X112.825Y6.654
X112.817Y6.698
X112.811Y6.73
X112.803Y6.785
X112.799Y6.819
X112.794Y6.884
X112.791Y6.961
Y20.657
X112.792Y20.704
X112.794Y20.752
X112.796Y20.788
X112.8Y20.823
X112.804Y20.858
X112.807Y20.885
X112.815Y20.93
X112.824Y20.98
X112.831Y21.011
X112.839Y21.043
X112.847Y21.077
X112.86Y21.12
X112.873Y21.161
X112.887Y21.201
X112.902Y21.241
X112.919Y21.281
X112.941Y21.331
X112.956Y21.363
X112.972Y21.395
X112.992Y21.431
X113.013Y21.467
X113.041Y21.512
X113.055Y21.535
X113.071Y21.558
X113.089Y21.583
X113.107Y21.609
X113.145Y21.657
X113.745Y22.399
X113.77Y22.429
X113.796Y22.459
X113.822Y22.488
X113.849Y22.516
X113.877Y22.544
X113.906Y22.571
X113.935Y22.597
X113.965Y22.623
X113.996Y22.648
X114.027Y22.672
X114.059Y22.695
X114.091Y22.717
X114.124Y22.739
X114.157Y22.76
X114.191Y22.78
X114.226Y22.799
X114.261Y22.817
X114.297Y22.835
X114.332Y22.851
X114.369Y22.867
X114.405Y22.882
X114.442Y22.896
X114.479Y22.908
X114.517Y22.92
X114.554Y22.931
X114.592Y22.942
X114.631Y22.951
X114.669Y22.959
X114.708Y22.966
X114.747Y22.973
X114.786Y22.978
X114.825Y22.982
X114.864Y22.986
X114.903Y22.988
X114.943Y22.99
X114.982
X117.728
X117.901Y23.01
X117.934Y23.013
X117.967Y23.016
X117.999Y23.018
X118.032Y23.019
X118.156Y23.023
X118.204Y23.024
X118.252Y23.023
X118.376Y23.019
X118.408Y23.018
X118.441Y23.016
X118.474Y23.013
X118.507Y23.01
X118.68Y22.99
X157.728
X157.901Y23.01
X157.934Y23.013
X157.967Y23.016
X157.999Y23.018
X158.032Y23.019
X158.156Y23.023
X158.204Y23.024
X158.252Y23.023
X158.376Y23.019
X158.409Y23.018
X158.441Y23.016
X158.474Y23.013
X158.507Y23.01
X158.68Y22.99
X185.743
X200.984Y24.643
X203.728Y24.94
X204.553Y25.029
X205.246Y25.106
X205.548Y25.14
X205.823Y25.171
X206.174Y25.212
X206.48Y25.249
X206.743Y25.283
X206.971Y25.313
X207.164Y25.341
X207.505Y25.396
X207.81Y25.453
X208.135Y25.52
X208.488Y25.599
X208.858Y25.69
X209.244Y25.796
X209.642Y25.916
X210.051Y26.053
X210.467Y26.207
X210.888Y26.379
X211.311Y26.571
X211.732Y26.784
X212.151Y27.017
X212.561Y27.271
X212.954Y27.542
X213.332Y27.829
X213.693Y28.132
X214.038Y28.452
X214.367Y28.789
X214.68Y29.144
X214.978Y29.518
X215.255Y29.899
X215.501Y30.272
X215.718Y30.635
X215.912Y30.994
X216.081Y31.341
X216.399Y32.094
X216.682Y32.888
X216.71Y32.974
X217.011Y33.914
X236.88Y96.927
G0Z1
X117.942Y18.438
G1Z-0.6F50
X117.965Y18.363F100
X118.002Y18.294
X118.052Y18.233
X118.112Y18.183
X118.182Y18.146
X118.257Y18.123
X118.335Y18.115
X118.414Y18.123
X118.489Y18.146
X118.558Y18.183
X118.619Y18.233
X118.669Y18.294
X118.706Y18.363
X118.729Y18.438
X118.737Y18.517
X118.729Y18.595
X118.707Y18.667
X118.669Y18.74
X118.619Y18.8
X118.558Y18.85
X118.489Y18.887
X118.38Y18.92
X118.347Y18.927
X118.303Y18.937
X118.275Y18.944
X118.249Y18.928
X118.214Y18.906
X118.184Y18.889
X118.154Y18.873
X118.112Y18.85
X118.053Y18.802
X118.003Y18.741
X117.964Y18.669
X117.942Y18.595
X117.934Y18.517
X117.942Y18.438
G0Z1
X158.098Y18.525
G1Z-0.6F50
X158.106Y18.434F100
X158.127Y18.363
X158.165Y18.294
X158.214Y18.233
X158.275Y18.183
X158.345Y18.146
X158.42Y18.123
X158.498Y18.115
X158.577Y18.123
X158.652Y18.146
X158.721Y18.183
X158.782Y18.233
X158.832Y18.294
X158.869Y18.363
X158.892Y18.438
X158.9Y18.517
X158.892Y18.595
X158.87Y18.667
X158.832Y18.74
X158.782Y18.8
X158.721Y18.85
X158.652Y18.887
X158.577Y18.91
X158.473Y18.92
X158.436Y18.924
X158.398Y18.929
X158.356Y18.936
X158.324Y18.903
X158.295Y18.874
X158.265Y18.845
X158.234Y18.818
X158.216Y18.802
X158.165Y18.74
X158.127Y18.67
X158.105Y18.595
X158.098Y18.525
G0Z1
X168.098Y18.517
G1Z-0.6F50
X168.106Y18.438F100
X168.126Y18.372
X168.168Y18.291
X168.216Y18.232
X168.275Y18.184
X168.347Y18.145
X168.421Y18.123
X168.5Y18.115
X168.578Y18.123
X168.653Y18.145
X168.723Y18.183
X168.783Y18.232
X168.833Y18.293
X168.87Y18.363
X168.893Y18.438
X168.901Y18.516
X168.893Y18.595
X168.87Y18.67
X168.833Y18.739
X168.783Y18.8
X168.723Y18.85
X168.653Y18.887
X168.578Y18.91
X168.5Y18.918
X168.421Y18.91
X168.346Y18.887
X168.277Y18.85
X168.216Y18.8
X168.166Y18.739
X168.129Y18.67
X168.106Y18.595
X168.098Y18.517
G0Z1
X191.458Y12.123
G1Z-0.6F50
X191.475Y12.118F100
X193.132Y17.216
X193.114Y17.221
X191.458Y12.123
G0Z1
X203.483Y17.873
G1Z-0.6F50
X203.507Y17.84F100
X203.521Y17.821
X203.545Y17.795
X203.565Y17.776
X203.602Y17.749
X203.616Y17.738
X203.664Y17.715
X203.682Y17.706
X203.729Y17.693
X203.752Y17.686
X203.829Y17.679
X203.909Y17.687
X203.969Y17.705
X203.981Y17.708
X204.029Y17.733
X204.048Y17.742
X204.063Y17.754
X204.094Y17.778
X204.114Y17.796
X204.132Y17.816
X204.156Y17.848
X204.168Y17.862
X204.177Y17.881
X204.202Y17.929
X204.213Y17.967
X204.224Y18.002
X204.231Y18.08
X204.224Y18.157
X204.217Y18.181
X204.204Y18.228
X204.195Y18.245
X204.172Y18.294
X204.161Y18.308
X204.134Y18.345
X204.115Y18.365
X204.089Y18.389
X204.07Y18.403
X204.038Y18.428
X203.996Y18.447
X203.968Y18.461
X203.898Y18.479
X203.828Y18.485
X203.758Y18.479
X203.69Y18.461
X203.624Y18.43
X203.594Y18.409
X203.568Y18.391
X203.541Y18.365
X203.519Y18.342
X203.48Y18.286
X203.449Y18.22
X203.431Y18.152
X203.425Y18.082
X203.431Y18.013
X203.45Y17.942
X203.463Y17.914
X203.483Y17.873
G0Z1
X206.813Y10.999
G1Z-0.6F50
X206.743Y10.962F100
X206.682Y10.912
X206.632Y10.852
X206.595Y10.782
X206.572Y10.707
X206.564Y10.628
X206.572Y10.55
X206.595Y10.475
X206.632Y10.406
X206.682Y10.345
X206.743Y10.295
X206.812Y10.258
X206.887Y10.235
X206.966Y10.227
X207.044Y10.235
X207.119Y10.258
X207.188Y10.295
X207.249Y10.345
X207.299Y10.406
X207.336Y10.475
X207.359Y10.55
X207.367Y10.626
X207.359Y10.707
X207.336Y10.782
X207.299Y10.852
X207.249Y10.912
X207.188Y10.962
X207.119Y10.999
X207.044Y11.022
X206.966Y11.03
X206.887Y11.022
X206.813Y10.999
G0Z1
X222.177Y33.212
G1Z-0.6F50
X222.246Y33.175F100
X222.321Y33.152
X222.397Y33.144
X222.424Y33.147
X222.478Y33.152
X222.553Y33.175
X222.622Y33.212
X222.683Y33.262
X222.733Y33.323
X222.77Y33.392
X222.793Y33.467
X222.801Y33.546
X222.793Y33.624
X222.77Y33.699
X222.733Y33.768
X222.683Y33.829
X222.622Y33.879
X222.553Y33.916
X222.478Y33.939
X222.399Y33.947
X222.321Y33.939
X222.246Y33.916
X222.176Y33.879
X222.116Y33.829
X222.066Y33.768
X222.029Y33.699
X222.006Y33.624
X221.998Y33.545
X222.006Y33.467
X222.029Y33.392
X222.066Y33.323
X222.116Y33.262
X222.177Y33.212
G0Z1
X224.874Y41
G1Z-0.6F50
X236.622Y37.296F100
X238.059Y41.854
X226.311Y45.558
X224.874Y41
G0Z1
X265.763Y33.277
G1Z-0.6F50
X265.756Y33.207F100
X265.764Y33.115
X265.786Y33.045
X265.823Y32.976
X265.873Y32.915
X265.932Y32.866
X265.97Y32.845
X266.003Y32.828
X266.078Y32.805
X266.156Y32.797
X266.235Y32.805
X266.31Y32.828
X266.379Y32.865
X266.44Y32.915
X266.49Y32.975
X266.527Y33.045
X266.55Y33.12
X266.558Y33.198
X266.55Y33.277
X266.528Y33.35
X266.489Y33.422
X266.44Y33.482
X266.379Y33.532
X266.31Y33.569
X266.235Y33.592
X266.156Y33.6
X266.078Y33.592
X266.003Y33.569
X265.933Y33.532
X265.873Y33.482
X265.823Y33.421
X265.786Y33.352
X265.763Y33.277
G0Z1
X270.933Y51.092
G1Z-0.6F50
X271.011Y51.084F100
X271.09Y51.092
X271.162Y51.114
X271.235Y51.152
X271.295Y51.201
X271.345Y51.262
X271.382Y51.332
X271.405Y51.407
X271.413Y51.485
X271.405Y51.564
X271.382Y51.639
X271.345Y51.708
X271.295Y51.769
X271.234Y51.819
X271.165Y51.856
X271.09Y51.879
X271.011Y51.887
X270.933Y51.879
X270.858Y51.856
X270.788Y51.819
X270.728Y51.769
X270.678Y51.708
X270.641Y51.639
X270.618Y51.563
X270.61Y51.485
X270.618Y51.407
X270.641Y51.332
X270.678Y51.262
X270.728Y51.201
X270.782Y51.157
X270.863Y51.113
X270.933Y51.092
G0Z1
X282.927Y88.483
G1Z-0.6F50
X283.003Y88.461F100
X283.081Y88.453
X283.159Y88.461
X283.235Y88.483
X283.304Y88.52
X283.365Y88.57
X283.415Y88.631
X283.452Y88.701
X283.475Y88.776
X283.482Y88.854
X283.475Y88.932
X283.452Y89.008
X283.415Y89.077
X283.365Y89.138
X283.304Y89.188
X283.235Y89.225
X283.159Y89.248
X283.081Y89.255
X283.003Y89.248
X282.927Y89.225
X282.858Y89.188
X282.797Y89.138
X282.747Y89.077
X282.71Y89.008
X282.687Y88.933
X282.68Y88.854
X282.687Y88.776
X282.71Y88.701
X282.747Y88.631
X282.797Y88.57
X282.857Y88.521
X282.927Y88.483
G0Z1
X241.812Y92.963
G1Z-0.6F50
X241.819Y93.042F100
X241.812Y93.12
X241.789Y93.195
X241.752Y93.265
X241.701Y93.326
X241.641Y93.375
X241.572Y93.412
X241.496Y93.435
X241.418Y93.443
X241.34Y93.435
X241.265Y93.412
X241.195Y93.375
X241.134Y93.326
X241.085Y93.265
X241.047Y93.195
X241.025Y93.12
X241.017Y93.042
X241.025Y92.964
X241.047Y92.888
X241.085Y92.819
X241.134Y92.758
X241.195Y92.708
X241.263Y92.672
X241.341Y92.648
X241.418Y92.64
X241.496Y92.648
X241.572Y92.671
X241.641Y92.708
X241.702Y92.758
X241.752Y92.819
X241.789Y92.888
X241.812Y92.963
G0Z1
X236.88Y96.927
G1Z-0.6F50
X236.89Y96.956F100
X236.9Y96.986
X236.911Y97.014
X236.922Y97.043
X237.074Y97.42
X237.089Y97.457
X237.105Y97.493
X237.123Y97.529
X237.141Y97.565
X237.159Y97.6
X237.179Y97.634
X237.386Y97.985
X237.406Y98.018
X237.427Y98.051
X237.448Y98.083
X237.471Y98.114
X237.494Y98.145
X237.518Y98.175
X237.772Y98.49
X237.795Y98.519
X237.82Y98.547
X237.845Y98.575
X237.871Y98.602
X237.897Y98.628
X237.924Y98.654
X238.227Y98.937
X238.257Y98.965
X238.288Y98.991
X238.319Y99.017
X238.351Y99.042
X238.536Y99.183
X238.56Y99.2
X238.585Y99.218
X238.609Y99.235
X238.634Y99.251
X238.848Y99.389
X238.875Y99.406
X238.902Y99.423
X238.929Y99.439
X238.957Y99.454
X239.201Y99.585
X239.23Y99.601
X239.26Y99.615
X239.289Y99.629
X239.319Y99.643
X239.596Y99.763
X239.626Y99.776
X239.656Y99.788
X239.687Y99.8
X239.718Y99.811
X240.02Y99.914
X240.049Y99.923
X240.078Y99.932
X240.108Y99.941
X240.137Y99.949
X240.448Y100.029
X240.484Y100.038
X240.521Y100.046
X240.557Y100.053
X240.594Y100.059
X240.696Y100.075
X241.236Y100.159
X241.274Y100.164
X241.312Y100.169
X241.35Y100.173
X241.388Y100.175
X241.928Y100.206
X241.981Y100.208
X242.033Y100.209
X242.572Y100.204
X242.618Y100.203
X242.663Y100.201
X243.773Y100.128
X284.238Y96.446
X285.062Y96.369
X285.872Y96.292
X286.588Y96.219
X287.244Y96.147
X287.828Y96.073
X288.348Y95.995
X288.376Y95.991
X288.404Y95.986
X288.863Y95.9
X288.907Y95.892
X288.951Y95.881
X289.405Y95.77
X289.451Y95.758
X289.496Y95.745
X289.719Y95.675
X289.759Y95.663
X289.798Y95.649
X290.035Y95.561
X290.085Y95.542
X290.134Y95.522
X290.386Y95.409
X290.416Y95.396
X290.445Y95.381
X290.474Y95.366
X290.503Y95.351
X290.761Y95.209
X290.796Y95.19
X290.829Y95.17
X290.863Y95.149
X290.896Y95.127
X291.151Y94.952
X291.188Y94.926
X291.225Y94.898
X291.261Y94.87
X291.295Y94.84
X291.535Y94.632
X291.571Y94.599
X291.606Y94.566
X291.641Y94.531
X291.674Y94.496
X291.877Y94.27
X291.909Y94.233
X291.94Y94.195
X291.97Y94.157
X291.998Y94.118
X292.166Y93.878
X292.193Y93.839
X292.218Y93.799
X292.242Y93.758
X292.265Y93.717
X292.4Y93.465
X292.416Y93.435
X292.431Y93.405
X292.445Y93.375
X292.459Y93.344
X292.472Y93.313
X292.484Y93.282
X292.591Y93.001
X292.605Y92.965
X292.617Y92.929
X292.628Y92.893
X292.639Y92.856
X292.649Y92.819
X292.658Y92.782
X292.728Y92.468
X292.737Y92.427
X292.744Y92.387
X292.751Y92.346
X292.756Y92.304
X292.761Y92.263
X292.764Y92.222
X292.786Y91.883
X292.788Y91.842
X292.789Y91.801
Y91.76
X292.788Y91.719
X292.786Y91.678
X292.783Y91.638
X292.754Y91.309
X292.75Y91.271
X292.745Y91.232
X292.739Y91.193
X292.732Y91.155
X292.724Y91.117
X292.716Y91.079
X292.642Y90.772
X292.628Y90.716
X292.611Y90.661
X274.311Y33.246
X274.133Y32.462
X273.98Y31.686
X273.853Y30.921
X273.752Y30.17
X273.678Y29.433
X273.632Y28.713
X273.613Y28.01
X273.622Y27.324
X273.659Y26.655
X273.722Y26.004
X273.812Y25.371
X273.929Y24.756
X274.071Y24.159
X274.239Y23.58
X274.433Y23.018
X274.653Y22.472
X274.9Y21.941
X275.173Y21.423
X275.473Y20.917
X275.802Y20.424
X276.158Y19.942
X276.543Y19.472
X276.955Y19.015
X277.395Y18.572
X277.862Y18.142
X278.358Y17.727
X278.88Y17.326
X279.427Y16.943
X279.997Y16.577
X280.587Y16.232
X281.196Y15.907
X281.819Y15.606
X282.544Y15.293
X283.287Y15.01
X284.057Y14.753
X284.863Y14.52
X285.479Y14.364
X286.133Y14.215
X286.825Y14.073
X287.558Y13.934
X288.336Y13.798
X289.156Y13.66
X290.89Y13.379
X290.92Y13.374
X290.95Y13.368
X291.284Y13.301
X291.314Y13.294
X291.344Y13.288
X291.374Y13.28
X291.404Y13.272
X291.731Y13.179
X291.761Y13.17
X291.79Y13.161
X291.819Y13.151
X291.848Y13.141
X292.168Y13.023
X292.197Y13.012
X292.225Y13
X292.254Y12.988
X292.282Y12.976
X292.592Y12.833
X292.62Y12.82
X292.647Y12.806
X292.675Y12.792
X292.702Y12.777
X292.999Y12.611
X293.026Y12.596
X293.053Y12.58
X293.079Y12.564
X293.105Y12.547
X293.387Y12.359
X293.413Y12.342
X293.438Y12.324
X293.463Y12.305
X293.487Y12.287
X293.756Y12.076
X293.779Y12.057
X293.803Y12.038
X293.826Y12.018
X293.849Y11.998
X294.101Y11.767
X294.123Y11.746
X294.145Y11.725
X294.166Y11.704
X294.186Y11.683
X294.421Y11.433
X294.441Y11.411
X294.461Y11.389
X294.48Y11.367
X294.498Y11.344
X294.714Y11.078
X294.75Y11.032
X294.784Y10.985
X294.98Y10.704
X295.012Y10.655
X295.043Y10.606
X295.215Y10.314
X295.244Y10.263
X295.271Y10.212
X295.415Y9.921
X295.439Y9.87
X295.461Y9.82
X295.579Y9.533
X295.598Y9.484
X295.616Y9.435
X295.71Y9.154
X295.725Y9.108
X295.739Y9.061
X295.812Y8.789
X295.823Y8.747
X295.832Y8.705
X295.917Y8.306
X295.925Y8.267
X295.932Y8.229
X295.996Y7.833
X296.002Y7.793
X296.007Y7.753
X296.01Y7.712
X296.013Y7.671
X296.015Y7.633
X296.016Y7.595
Y7.557
X296.015Y7.518
X296.013Y7.48
X296.01Y7.442
X296.006Y7.404
X296.002Y7.366
X295.996Y7.328
X295.989Y7.29
X295.982Y7.253
X295.974Y7.215
X295.964Y7.177
X295.954Y7.139
X295.942Y7.102
X295.93Y7.064
X295.917Y7.027
X295.903Y6.991
X295.888Y6.954
X295.872Y6.919
X295.855Y6.883
X295.838Y6.848
X295.819Y6.813
X295.8Y6.779
X295.78Y6.746
X295.759Y6.712
X295.737Y6.68
X295.714Y6.647
X295.69Y6.614
X295.664Y6.581
X295.638Y6.55
X295.61Y6.518
X295.582Y6.488
X295.553Y6.458
X295.524Y6.429
X295.493Y6.401
X295.15Y6.09
X294.817Y5.793
X294.787Y5.768
X294.758Y5.743
X294.727Y5.72
X294.697Y5.697
X294.665Y5.674
X294.633Y5.653
X294.601Y5.632
X294.568Y5.612
X294.535Y5.593
X294.501Y5.575
X294.466Y5.557
X294.432Y5.54
X294.397Y5.525
X294.361Y5.51
X294.325Y5.495
X294.288Y5.482
X294.252Y5.47
X294.215Y5.458
X294.178Y5.448
X294.141Y5.438
X294.104Y5.429
X294.066Y5.421
X294.028Y5.414
X293.99Y5.408
X293.952Y5.403
X293.913Y5.399
X293.875Y5.396
X293.837Y5.393
X293.798Y5.392
X293.76
X114.382
X114.349
X114.315Y5.393
X114.281Y5.395
X114.247Y5.397
X114.213Y5.401
X114.179Y5.405
X114.139Y5.41
X114.099Y5.417
X114.074Y5.422
X114.038Y5.429
X114.004Y5.437
X113.962Y5.448
X113.929Y5.457
X113.876Y5.474
X113.825Y5.492
X113.795Y5.504
X113.767Y5.515
X113.731Y5.531
X113.695Y5.548
X113.66Y5.565
X113.625Y5.583
X113.59Y5.602
X113.556Y5.622
X113.523Y5.643
X113.49Y5.665
X113.458Y5.687
X113.426Y5.711
X113.395Y5.735
X113.364Y5.76
X113.334Y5.785
X113.305Y5.811
X113.276Y5.838
X113.242Y5.873
X113.215Y5.901
X113.189Y5.93
X113.164Y5.959
X113.14Y5.988
X113.118Y6.016
X113.095Y6.048
X113.072Y6.08
X113.05Y6.113
X113.028Y6.146
X113.008Y6.18
X112.988Y6.215
X112.97Y6.25
X112.952Y6.285
X112.935Y6.321
X112.919Y6.357
X112.904Y6.394
X112.89Y6.431
X112.876Y6.468
X112.864Y6.505
X112.853Y6.542
X112.837Y6.603
X112.825Y6.654
X112.817Y6.698
X112.811Y6.73
X112.803Y6.785
X112.799Y6.819
X112.794Y6.884
X112.791Y6.961
Y20.657
X112.792Y20.704
X112.794Y20.752
X112.796Y20.788
X112.8Y20.823
X112.804Y20.858
X112.807Y20.885
X112.815Y20.93
X112.824Y20.98
X112.831Y21.011
X112.839Y21.043
X112.847Y21.077
X112.86Y21.12
X112.873Y21.161
X112.887Y21.201
X112.902Y21.241
X112.919Y21.281
X112.941Y21.331
X112.956Y21.363
X112.972Y21.395
X112.992Y21.431
X113.013Y21.467
X113.041Y21.512
X113.055Y21.535
X113.071Y21.558
X113.089Y21.583
X113.107Y21.609
X113.145Y21.657
X113.745Y22.399
X113.77Y22.429
X113.796Y22.459
X113.822Y22.488
X113.849Y22.516
X113.877Y22.544
X113.906Y22.571
X113.935Y22.597
X113.965Y22.623
X113.996Y22.648
X114.027Y22.672
X114.059Y22.695
X114.091Y22.717
X114.124Y22.739
X114.157Y22.76
X114.191Y22.78
X114.226Y22.799
X114.261Y22.817
X114.297Y22.835
X114.332Y22.851
X114.369Y22.867
X114.405Y22.882
X114.442Y22.896
X114.479Y22.908
X114.517Y22.92
X114.554Y22.931
X114.592Y22.942
X114.631Y22.951
X114.669Y22.959
X114.708Y22.966
X114.747Y22.973
X114.786Y22.978
X114.825Y22.982
X114.864Y22.986
X114.903Y22.988
X114.943Y22.99
X114.982
X117.728
X117.901Y23.01
X117.934Y23.013
X117.967Y23.016
X117.999Y23.018
X118.032Y23.019
X118.156Y23.023
X118.204Y23.024
X118.252Y23.023
X118.376Y23.019
X118.408Y23.018
X118.441Y23.016
X118.474Y23.013
X118.507Y23.01
X118.68Y22.99
X157.728
X157.901Y23.01
X157.934Y23.013
X157.967Y23.016
X157.999Y23.018
X158.032Y23.019
X158.156Y23.023
X158.204Y23.024
X158.252Y23.023
X158.376Y23.019
X158.409Y23.018
X158.441Y23.016
X158.474Y23.013
X158.507Y23.01
X158.68Y22.99
X185.743
X200.984Y24.643
X203.728Y24.94
X204.553Y25.029
X205.246Y25.106
X205.548Y25.14
X205.823Y25.171
X206.174Y25.212
X206.48Y25.249
X206.743Y25.283
X206.971Y25.313
X207.164Y25.341
X207.505Y25.396
X207.81Y25.453
X208.135Y25.52
X208.488Y25.599
X208.858Y25.69
X209.244Y25.796
X209.642Y25.916
X210.051Y26.053
X210.467Y26.207
X210.888Y26.379
X211.311Y26.571
X211.732Y26.784
X212.151Y27.017
X212.561Y27.271
X212.954Y27.542
X213.332Y27.829
X213.693Y28.132
X214.038Y28.452
X214.367Y28.789
X214.68Y29.144
X214.978Y29.518
X215.255Y29.899
X215.501Y30.272
X215.718Y30.635
X215.912Y30.994
X216.081Y31.341
X216.399Y32.094
X216.682Y32.888
X216.71Y32.974
X217.011Y33.914
X236.88Y96.927
G0Z1
X117.942Y18.438
G1Z-0.7F50
X117.965Y18.363F100
X118.002Y18.294
X118.052Y18.233
X118.112Y18.183
X118.182Y18.146
X118.257Y18.123
X118.335Y18.115
X118.414Y18.123
X118.489Y18.146
X118.558Y18.183
X118.619Y18.233
X118.669Y18.294
X118.706Y18.363
X118.729Y18.438
X118.737Y18.517
X118.729Y18.595
X118.707Y18.667
X118.669Y18.74
X118.619Y18.8
X118.558Y18.85
X118.489Y18.887
X118.38Y18.92
X118.347Y18.927
X118.303Y18.937
X118.275Y18.944
X118.249Y18.928
X118.214Y18.906
X118.184Y18.889
X118.154Y18.873
X118.112Y18.85
X118.053Y18.802
X118.003Y18.741
X117.964Y18.669
X117.942Y18.595
X117.934Y18.517
X117.942Y18.438
G0Z1
X158.098Y18.525
G1Z-0.7F50
X158.106Y18.434F100
X158.127Y18.363
X158.165Y18.294
X158.214Y18.233
X158.275Y18.183
X158.345Y18.146
X158.42Y18.123
X158.498Y18.115
X158.577Y18.123
X158.652Y18.146
X158.721Y18.183
X158.782Y18.233
X158.832Y18.294
X158.869Y18.363
X158.892Y18.438
X158.9Y18.517
X158.892Y18.595
X158.87Y18.667
X158.832Y18.74
X158.782Y18.8
X158.721Y18.85
X158.652Y18.887
X158.577Y18.91
X158.473Y18.92
X158.436Y18.924
X158.398Y18.929
X158.356Y18.936
X158.324Y18.903
X158.295Y18.874
X158.265Y18.845
X158.234Y18.818
X158.216Y18.802
X158.165Y18.74
X158.127Y18.67
X158.105Y18.595
X158.098Y18.525
G0Z1
X168.098Y18.517
G1Z-0.7F50
X168.106Y18.438F100
X168.126Y18.372
X168.168Y18.291
X168.216Y18.232
X168.275Y18.184
X168.347Y18.145
X168.421Y18.123
X168.5Y18.115
X168.578Y18.123
X168.653Y18.145
X168.723Y18.183
X168.783Y18.232
X168.833Y18.293
X168.87Y18.363
X168.893Y18.438
X168.901Y18.516
X168.893Y18.595
X168.87Y18.67
X168.833Y18.739
X168.783Y18.8
X168.723Y18.85
X168.653Y18.887
X168.578Y18.91
X168.5Y18.918
X168.421Y18.91
X168.346Y18.887
X168.277Y18.85
X168.216Y18.8
X168.166Y18.739
X168.129Y18.67
X168.106Y18.595
X168.098Y18.517
G0Z1
X191.458Y12.123
G1Z-0.7F50
X191.475Y12.118F100
X193.132Y17.216
X193.114Y17.221
X191.458Y12.123
G0Z1
X203.483Y17.873
G1Z-0.7F50
X203.507Y17.84F100
X203.521Y17.821
X203.545Y17.795
X203.565Y17.776
X203.602Y17.749
X203.616Y17.738
X203.664Y17.715
X203.682Y17.706
X203.729Y17.693
X203.752Y17.686
X203.829Y17.679
X203.909Y17.687
X203.969Y17.705
X203.981Y17.708
X204.029Y17.733
X204.048Y17.742
X204.063Y17.754
X204.094Y17.778
X204.114Y17.796
X204.132Y17.816
X204.156Y17.848
X204.168Y17.862
X204.177Y17.881
X204.202Y17.929
X204.213Y17.967
X204.224Y18.002
X204.231Y18.08
X204.224Y18.157
X204.217Y18.181
X204.204Y18.228
X204.195Y18.245
X204.172Y18.294
X204.161Y18.308
X204.134Y18.345
X204.115Y18.365
X204.089Y18.389
X204.07Y18.403
X204.038Y18.428
X203.996Y18.447
X203.968Y18.461
X203.898Y18.479
X203.828Y18.485
X203.758Y18.479
X203.69Y18.461
X203.624Y18.43
X203.594Y18.409
X203.568Y18.391
X203.541Y18.365
X203.519Y18.342
X203.48Y18.286
X203.449Y18.22
X203.431Y18.152
X203.425Y18.082
X203.431Y18.013
X203.45Y17.942
X203.463Y17.914
X203.483Y17.873
G0Z1
X206.813Y10.999
G1Z-0.7F50
X206.743Y10.962F100
X206.682Y10.912
X206.632Y10.852
X206.595Y10.782
X206.572Y10.707
X206.564Y10.628
X206.572Y10.55
X206.595Y10.475
X206.632Y10.406
X206.682Y10.345
X206.743Y10.295
X206.812Y10.258
X206.887Y10.235
X206.966Y10.227
X207.044Y10.235
X207.119Y10.258
X207.188Y10.295
X207.249Y10.345
X207.299Y10.406
X207.336Y10.475
X207.359Y10.55
X207.367Y10.626
X207.359Y10.707
X207.336Y10.782
X207.299Y10.852
X207.249Y10.912
X207.188Y10.962
X207.119Y10.999
X207.044Y11.022
X206.966Y11.03
X206.887Y11.022
X206.813Y10.999
G0Z1
X222.177Y33.212
G1Z-0.7F50
X222.246Y33.175F100
X222.321Y33.152
X222.397Y33.144
X222.424Y33.147
X222.478Y33.152
X222.553Y33.175
X222.622Y33.212
X222.683Y33.262
X222.733Y33.323
X222.77Y33.392
X222.793Y33.467
X222.801Y33.546
X222.793Y33.624
X222.77Y33.699
X222.733Y33.768
X222.683Y33.829
X222.622Y33.879
X222.553Y33.916
X222.478Y33.939
X222.399Y33.947
X222.321Y33.939
X222.246Y33.916
X222.176Y33.879
X222.116Y33.829
X222.066Y33.768
X222.029Y33.699
X222.006Y33.624
X221.998Y33.545
X222.006Y33.467
X222.029Y33.392
X222.066Y33.323
X222.116Y33.262
X222.177Y33.212
G0Z1
X224.874Y41
G1Z-0.7F50
X236.622Y37.296F100
X238.059Y41.854
X226.311Y45.558
X224.874Y41
G0Z1
X265.763Y33.277
G1Z-0.7F50
X265.756Y33.207F100
X265.764Y33.115
X265.786Y33.045
X265.823Y32.976
X265.873Y32.915
X265.932Y32.866
X265.97Y32.845
X266.003Y32.828
X266.078Y32.805
X266.156Y32.797
X266.235Y32.805
X266.31Y32.828
X266.379Y32.865
X266.44Y32.915
X266.49Y32.975
X266.527Y33.045
X266.55Y33.12
X266.558Y33.198
X266.55Y33.277
X266.528Y33.35
X266.489Y33.422
X266.44Y33.482
X266.379Y33.532
X266.31Y33.569
X266.235Y33.592
X266.156Y33.6
X266.078Y33.592
X266.003Y33.569
X265.933Y33.532
X265.873Y33.482
X265.823Y33.421
X265.786Y33.352
X265.763Y33.277
G0Z1
X270.933Y51.092
G1Z-0.7F50
X271.011Y51.084F100
X271.09Y51.092
X271.162Y51.114
X271.235Y51.152
X271.295Y51.201
X271.345Y51.262
X271.382Y51.332
X271.405Y51.407
X271.413Y51.485
X271.405Y51.564
X271.382Y51.639
X271.345Y51.708
X271.295Y51.769
X271.234Y51.819
X271.165Y51.856
X271.09Y51.879
X271.011Y51.887
X270.933Y51.879
X270.858Y51.856
X270.788Y51.819
X270.728Y51.769
X270.678Y51.708
X270.641Y51.639
X270.618Y51.563
X270.61Y51.485
X270.618Y51.407
X270.641Y51.332
X270.678Y51.262
X270.728Y51.201
X270.782Y51.157
X270.863Y51.113
X270.933Y51.092
G0Z1
X282.927Y88.483
G1Z-0.7F50
X283.003Y88.461F100
X283.081Y88.453
X283.159Y88.461
X283.235Y88.483
X283.304Y88.52
X283.365Y88.57
X283.415Y88.631
X283.452Y88.701
X283.475Y88.776
X283.482Y88.854
X283.475Y88.932
X283.452Y89.008
X283.415Y89.077
X283.365Y89.138
X283.304Y89.188
X283.235Y89.225
X283.159Y89.248
X283.081Y89.255
X283.003Y89.248
X282.927Y89.225
X282.858Y89.188
X282.797Y89.138
X282.747Y89.077
X282.71Y89.008
X282.687Y88.933
X282.68Y88.854
X282.687Y88.776
X282.71Y88.701
X282.747Y88.631
X282.797Y88.57
X282.857Y88.521
X282.927Y88.483
G0Z1
X241.812Y92.963
G1Z-0.7F50
X241.819Y93.042F100
X241.812Y93.12
X241.789Y93.195
X241.752Y93.265
X241.701Y93.326
X241.641Y93.375
X241.572Y93.412
X241.496Y93.435
X241.418Y93.443
X241.34Y93.435
X241.265Y93.412
X241.195Y93.375
X241.134Y93.326
X241.085Y93.265
X241.047Y93.195
X241.025Y93.12
X241.017Y93.042
X241.025Y92.964
X241.047Y92.888
X241.085Y92.819
X241.134Y92.758
X241.195Y92.708
X241.263Y92.672
X241.341Y92.648
X241.418Y92.64
X241.496Y92.648
X241.572Y92.671
X241.641Y92.708
X241.702Y92.758
X241.752Y92.819
X241.789Y92.888
X241.812Y92.963
G0Z1
X236.88Y96.927
G1Z-0.7F50
X236.89Y96.956F100
X236.9Y96.986
X236.911Y97.014
X236.922Y97.043
X237.074Y97.42
X237.089Y97.457
X237.105Y97.493
X237.123Y97.529
X237.141Y97.565
X237.159Y97.6
X237.179Y97.634
X237.386Y97.985
X237.406Y98.018
X237.427Y98.051
X237.448Y98.083
X237.471Y98.114
X237.494Y98.145
X237.518Y98.175
X237.772Y98.49
X237.795Y98.519
X237.82Y98.547
X237.845Y98.575
X237.871Y98.602
X237.897Y98.628
X237.924Y98.654
X238.227Y98.937
X238.257Y98.965
X238.288Y98.991
X238.319Y99.017
X238.351Y99.042
X238.536Y99.183
X238.56Y99.2
X238.585Y99.218
X238.609Y99.235
X238.634Y99.251
X238.848Y99.389
X238.875Y99.406
X238.902Y99.423
X238.929Y99.439
X238.957Y99.454
X239.201Y99.585
X239.23Y99.601
X239.26Y99.615
X239.289Y99.629
X239.319Y99.643
X239.596Y99.763
X239.626Y99.776
X239.656Y99.788
X239.687Y99.8
X239.718Y99.811
X240.02Y99.914
X240.049Y99.923
X240.078Y99.932
X240.108Y99.941
X240.137Y99.949
X240.448Y100.029
X240.484Y100.038
X240.521Y100.046
X240.557Y100.053
X240.594Y100.059
X240.696Y100.075
X241.236Y100.159
X241.274Y100.164
X241.312Y100.169
X241.35Y100.173
X241.388Y100.175
X241.928Y100.206
X241.981Y100.208
X242.033Y100.209
X242.572Y100.204
X242.618Y100.203
X242.663Y100.201
X243.773Y100.128
X284.238Y96.446
X285.062Y96.369
X285.872Y96.292
X286.588Y96.219
X287.244Y96.147
X287.828Y96.073
X288.348Y95.995
X288.376Y95.991
X288.404Y95.986
X288.863Y95.9
X288.907Y95.892
X288.951Y95.881
X289.405Y95.77
X289.451Y95.758
X289.496Y95.745
X289.719Y95.675
X289.759Y95.663
X289.798Y95.649
X290.035Y95.561
X290.085Y95.542
X290.134Y95.522
X290.386Y95.409
X290.416Y95.396
X290.445Y95.381
X290.474Y95.366
X290.503Y95.351
X290.761Y95.209
X290.796Y95.19
X290.829Y95.17
X290.863Y95.149
X290.896Y95.127
X291.151Y94.952
X291.188Y94.926
X291.225Y94.898
X291.261Y94.87
X291.295Y94.84
X291.535Y94.632
X291.571Y94.599
X291.606Y94.566
X291.641Y94.531
X291.674Y94.496
X291.877Y94.27
X291.909Y94.233
X291.94Y94.195
X291.97Y94.157
X291.998Y94.118
X292.166Y93.878
X292.193Y93.839
X292.218Y93.799
X292.242Y93.758
X292.265Y93.717
X292.4Y93.465
X292.416Y93.435
X292.431Y93.405
X292.445Y93.375
X292.459Y93.344
X292.472Y93.313
X292.484Y93.282
X292.591Y93.001
X292.605Y92.965
X292.617Y92.929
X292.628Y92.893
X292.639Y92.856
X292.649Y92.819
X292.658Y92.782
X292.728Y92.468
X292.737Y92.427
X292.744Y92.387
X292.751Y92.346
X292.756Y92.304
X292.761Y92.263
X292.764Y92.222
X292.786Y91.883
X292.788Y91.842
X292.789Y91.801
Y91.76
X292.788Y91.719
X292.786Y91.678
X292.783Y91.638
X292.754Y91.309
X292.75Y91.271
X292.745Y91.232
X292.739Y91.193
X292.732Y91.155
X292.724Y91.117
X292.716Y91.079
X292.642Y90.772
X292.628Y90.716
X292.611Y90.661
X274.311Y33.246
X274.133Y32.462
X273.98Y31.686
X273.853Y30.921
X273.752Y30.17
X273.678Y29.433
X273.632Y28.713
X273.613Y28.01
X273.622Y27.324
X273.659Y26.655
X273.722Y26.004
X273.812Y25.371
X273.929Y24.756
X274.071Y24.159
X274.239Y23.58
X274.433Y23.018
X274.653Y22.472
X274.9Y21.941
X275.173Y21.423
X275.473Y20.917
X275.802Y20.424
X276.158Y19.942
X276.543Y19.472
X276.955Y19.015
X277.395Y18.572
X277.862Y18.142
X278.358Y17.727
X278.88Y17.326
X279.427Y16.943
X279.997Y16.577
X280.587Y16.232
X281.196Y15.907
X281.819Y15.606
X282.544Y15.293
X283.287Y15.01
X284.057Y14.753
X284.863Y14.52
X285.479Y14.364
X286.133Y14.215
X286.825Y14.073
X287.558Y13.934
X288.336Y13.798
X289.156Y13.66
X290.89Y13.379
X290.92Y13.374
X290.95Y13.368
X291.284Y13.301
X291.314Y13.294
X291.344Y13.288
X291.374Y13.28
X291.404Y13.272
X291.731Y13.179
X291.761Y13.17
X291.79Y13.161
X291.819Y13.151
X291.848Y13.141
X292.168Y13.023
X292.197Y13.012
X292.225Y13
X292.254Y12.988
X292.282Y12.976
X292.592Y12.833
X292.62Y12.82
X292.647Y12.806
X292.675Y12.792
X292.702Y12.777
X292.999Y12.611
X293.026Y12.596
X293.053Y12.58
X293.079Y12.564
X293.105Y12.547
X293.387Y12.359
X293.413Y12.342
X293.438Y12.324
X293.463Y12.305
X293.487Y12.287
X293.756Y12.076
X293.779Y12.057
X293.803Y12.038
X293.826Y12.018
X293.849Y11.998
X294.101Y11.767
X294.123Y11.746
X294.145Y11.725
X294.166Y11.704
X294.186Y11.683
X294.421Y11.433
X294.441Y11.411
X294.461Y11.389
X294.48Y11.367
X294.498Y11.344
X294.714Y11.078
X294.75Y11.032
X294.784Y10.985
X294.98Y10.704
X295.012Y10.655
X295.043Y10.606
X295.215Y10.314
X295.244Y10.263
X295.271Y10.212
X295.415Y9.921
X295.439Y9.87
X295.461Y9.82
X295.579Y9.533
X295.598Y9.484
X295.616Y9.435
X295.71Y9.154
X295.725Y9.108
X295.739Y9.061
X295.812Y8.789
X295.823Y8.747
X295.832Y8.705
X295.917Y8.306
X295.925Y8.267
X295.932Y8.229
X295.996Y7.833
X296.002Y7.793
X296.007Y7.753
X296.01Y7.712
X296.013Y7.671
X296.015Y7.633
X296.016Y7.595
Y7.557
X296.015Y7.518
X296.013Y7.48
X296.01Y7.442
X296.006Y7.404
X296.002Y7.366
X295.996Y7.328
X295.989Y7.29
X295.982Y7.253
X295.974Y7.215
X295.964Y7.177
X295.954Y7.139
X295.942Y7.102
X295.93Y7.064
X295.917Y7.027
X295.903Y6.991
X295.888Y6.954
X295.872Y6.919
X295.855Y6.883
X295.838Y6.848
X295.819Y6.813
X295.8Y6.779
X295.78Y6.746
X295.759Y6.712
X295.737Y6.68
X295.714Y6.647
X295.69Y6.614
X295.664Y6.581
X295.638Y6.55
X295.61Y6.518
X295.582Y6.488
X295.553Y6.458
X295.524Y6.429
X295.493Y6.401
X295.15Y6.09
X294.817Y5.793
X294.787Y5.768
X294.758Y5.743
X294.727Y5.72
X294.697Y5.697
X294.665Y5.674
X294.633Y5.653
X294.601Y5.632
X294.568Y5.612
X294.535Y5.593
X294.501Y5.575
X294.466Y5.557
X294.432Y5.54
X294.397Y5.525
X294.361Y5.51
X294.325Y5.495
X294.288Y5.482
X294.252Y5.47
X294.215Y5.458
X294.178Y5.448
X294.141Y5.438
X294.104Y5.429
X294.066Y5.421
X294.028Y5.414
X293.99Y5.408
X293.952Y5.403
X293.913Y5.399
X293.875Y5.396
X293.837Y5.393
X293.798Y5.392
X293.76
X114.382
X114.349
X114.315Y5.393
X114.281Y5.395
X114.247Y5.397
X114.213Y5.401
X114.179Y5.405
X114.139Y5.41
X114.099Y5.417
X114.074Y5.422
X114.038Y5.429
X114.004Y5.437
X113.962Y5.448
