(Created with grbl post processor 2025/01/12 12:43)
G21
(G-code generated with BlenderCAM and NC library)
G17G90
(Tool: D = 3.18 mm  type END flutes 2)
S1000M03
G00 Z1.0

G0X0Y0Z1
X46.321Y134.896
G1Z-0.1F50
X46.348Y134.887F100
X46.374Y134.879
X46.401Y134.871
X46.455Y134.857
X46.482Y134.85
X46.508Y134.844
X46.537Y134.839
X46.592Y134.829
X46.619Y134.825
X46.647Y134.821
X46.674Y134.818
X46.719Y134.814
X46.765Y134.811
X46.785Y134.81
X46.813
X46.841Y134.809
X46.869Y134.81
X46.897
X46.953Y134.813
X46.98Y134.815
X47.008Y134.818
X47.036Y134.821
X47.063Y134.825
X47.118Y134.834
X47.146Y134.839
X47.173Y134.844
X47.2Y134.85
X47.227Y134.857
X47.254Y134.864
X47.281Y134.871
X47.308Y134.879
X47.335Y134.887
X47.361Y134.896
X47.387Y134.906
X47.413Y134.915
X47.439Y134.926
X47.465Y134.936
X47.49Y134.947
X47.516Y134.959
X47.541Y134.971
X47.566Y134.983
X47.591Y134.996
X47.615Y135.009
X47.639Y135.023
X47.664Y135.037
X47.687Y135.052
X47.711Y135.067
X47.734Y135.082
X47.757Y135.098
X47.78Y135.114
X47.802Y135.131
X47.824Y135.148
X47.846Y135.165
X47.867Y135.183
X47.902Y135.212
X47.933Y135.242
X47.95Y135.257
X47.983Y135.29
X48.011Y135.319
X48.028Y135.338
X48.046Y135.358
X48.064Y135.38
X48.082Y135.401
X48.099Y135.423
X48.116Y135.445
X48.149Y135.49
X48.165Y135.513
X48.19Y135.552
X48.211Y135.586
X48.224Y135.608
X48.238Y135.632
X48.251Y135.656
X48.264Y135.681
X48.276Y135.706
X48.288Y135.731
X48.311Y135.782
X48.321Y135.808
X48.333Y135.837
X48.341Y135.86
X48.351Y135.886
X48.36Y135.913
X48.368Y135.939
X48.376Y135.966
X48.383Y135.993
X48.39Y136.02
X48.397Y136.047
X48.403Y136.074
X48.408Y136.101
X48.413Y136.129
X48.418Y136.156
X48.422Y136.184
X48.426Y136.211
X48.429Y136.239
X48.432Y136.267
X48.434Y136.295
X48.436Y136.322
X48.437Y136.35
Y136.378
X48.438Y136.406
X48.437Y136.434
Y136.462
X48.436Y136.489
X48.434Y136.517
X48.432Y136.545
X48.429Y136.573
X48.426Y136.601
X48.422Y136.628
X48.418Y136.656
X48.413Y136.683
X48.408Y136.711
X48.403Y136.738
X48.397Y136.765
X48.39Y136.792
X48.383Y136.819
X48.376Y136.846
X48.368Y136.873
X48.36Y136.899
X48.351Y136.926
X48.341Y136.952
X48.332Y136.978
X48.321Y137.004
X48.311Y137.03
X48.3Y137.055
X48.288Y137.081
X48.276Y137.106
X48.264Y137.131
X48.251Y137.155
X48.238Y137.18
X48.224Y137.204
X48.21Y137.228
X48.195Y137.252
X48.18Y137.275
X48.165Y137.299
X48.149Y137.322
X48.133Y137.344
X48.116Y137.367
X48.099Y137.389
X48.082Y137.411
X48.064Y137.432
X48.046Y137.454
X48.028Y137.474
X48.009Y137.495
X47.99Y137.515
X47.97Y137.535
X47.95Y137.555
X47.93Y137.574
X47.91Y137.592
X47.889Y137.611
X47.867Y137.629
X47.846Y137.647
X47.824Y137.664
X47.802Y137.681
X47.78Y137.698
X47.757Y137.714
X47.734Y137.73
X47.711Y137.745
X47.687Y137.76
X47.664Y137.774
X47.639Y137.789
X47.615Y137.803
X47.591Y137.816
X47.566Y137.829
X47.541Y137.841
X47.516Y137.853
X47.49Y137.865
X47.465Y137.876
X47.439Y137.886
X47.413Y137.897
X47.387Y137.906
X47.361Y137.916
X47.335Y137.924
X47.308Y137.933
X47.281Y137.941
X47.254Y137.948
X47.227Y137.955
X47.2Y137.962
X47.173Y137.968
X47.146Y137.973
X47.118Y137.978
X47.091Y137.983
X47.063Y137.987
X47.036Y137.991
X47.008Y137.994
X46.98Y137.997
X46.952Y137.999
X46.925Y138
X46.897Y138.002
X46.869
X46.841Y138.003
X46.818Y138.002
X46.758Y138
X46.73Y137.999
X46.702Y137.997
X46.677Y137.994
X46.646Y137.991
X46.619Y137.987
X46.591Y137.983
X46.564Y137.978
X46.536Y137.973
X46.509Y137.968
X46.482Y137.962
X46.455Y137.955
X46.428Y137.948
X46.401Y137.941
X46.374Y137.933
X46.348Y137.924
X46.321Y137.916
X46.295Y137.906
X46.269Y137.897
X46.243Y137.886
X46.217Y137.876
X46.192Y137.865
X46.166Y137.853
X46.141Y137.841
X46.116Y137.829
X46.078Y137.808
X46.04Y137.787
X45.995Y137.76
X45.972Y137.745
X45.948Y137.73
X45.925Y137.714
X45.903Y137.698
X45.88Y137.681
X45.858Y137.664
X45.836Y137.647
X45.815Y137.629
X45.793Y137.611
X45.773Y137.592
X45.752Y137.574
X45.732Y137.555
X45.712Y137.535
X45.693Y137.515
X45.673Y137.495
X45.655Y137.474
X45.636Y137.454
X45.618Y137.432
X45.6Y137.411
X45.583Y137.389
X45.566Y137.367
X45.549Y137.344
X45.533Y137.322
X45.517Y137.299
X45.502Y137.275
X45.477Y137.236
X45.457Y137.202
X45.445Y137.18
X45.431Y137.155
X45.406Y137.106
X45.394Y137.081
X45.381Y137.052
X45.371Y137.03
X45.361Y137.004
X45.351Y136.978
X45.341Y136.952
X45.331Y136.926
X45.323Y136.901
X45.314Y136.872
X45.306Y136.846
X45.299Y136.819
X45.292Y136.792
X45.285Y136.765
X45.279Y136.738
X45.274Y136.711
X45.269Y136.683
X45.264Y136.656
X45.26Y136.628
X45.256Y136.601
X45.253Y136.573
X45.251Y136.545
X45.248Y136.517
X45.247Y136.489
X45.245Y136.462
X45.244Y136.406
X45.245Y136.378
Y136.35
X45.247Y136.322
X45.248Y136.295
X45.251Y136.267
X45.253Y136.239
X45.256Y136.211
X45.26Y136.184
X45.264Y136.156
X45.269Y136.129
X45.274Y136.101
X45.279Y136.074
X45.285Y136.047
X45.292Y136.02
X45.299Y135.993
X45.306Y135.966
X45.314Y135.939
X45.323Y135.913
X45.331Y135.886
X45.341Y135.86
X45.351Y135.834
X45.361Y135.808
X45.371Y135.782
X45.382Y135.757
X45.394Y135.731
X45.406Y135.706
X45.418Y135.681
X45.431Y135.656
X45.445Y135.632
X45.458Y135.608
X45.473Y135.584
X45.487Y135.56
X45.502Y135.536
X45.517Y135.513
X45.533Y135.49
X45.549Y135.468
X45.583Y135.423
X45.618Y135.38
X45.636Y135.358
X45.655Y135.338
X45.673Y135.317
X45.693Y135.297
X45.712Y135.277
X45.732Y135.257
X45.773Y135.219
X45.793Y135.201
X45.815Y135.183
X45.836Y135.165
X45.858Y135.148
X45.88Y135.131
X45.903Y135.114
X45.925Y135.098
X45.948Y135.082
X45.972Y135.067
X45.995Y135.052
X46.019Y135.037
X46.043Y135.023
X46.067Y135.009
X46.092Y134.996
X46.116Y134.983
X46.141Y134.971
X46.166Y134.959
X46.192Y134.947
X46.217Y134.936
X46.243Y134.926
X46.269Y134.915
X46.321Y134.896
G0Z1
X60.243Y136.215
G1Z-0.1F50
X60.294Y136.046F100
X60.377Y135.89
X60.49Y135.753
X60.626Y135.641
X60.782Y135.558
X60.951Y135.507
X61.127Y135.489
X61.303Y135.507
X61.472Y135.558
X61.628Y135.641
X61.764Y135.753
X61.876Y135.89
X61.96Y136.046
X62.011Y136.215
X62.028Y136.391
X62.011Y136.566
X61.96Y136.735
X61.876Y136.891
X61.764Y137.028
X61.628Y137.14
X61.472Y137.223
X61.303Y137.275
X61.127Y137.292
X60.951Y137.275
X60.782Y137.223
X60.626Y137.14
X60.49Y137.028
X60.377Y136.891
X60.294Y136.735
X60.243Y136.566
X60.226Y136.391
X60.243Y136.215
G0Z1
X76.129Y136.391
G1Z-0.1F50
X76.147Y136.215F100
X76.198Y136.046
X76.281Y135.89
X76.393Y135.753
X76.53Y135.641
X76.686Y135.558
X76.855Y135.507
X77.031Y135.489
X77.207Y135.507
X77.376Y135.558
X77.532Y135.641
X77.668Y135.753
X77.78Y135.89
X77.863Y136.046
X77.915Y136.215
X77.932Y136.391
X77.915Y136.566
X77.863Y136.735
X77.78Y136.891
X77.668Y137.028
X77.532Y137.14
X77.376Y137.223
X77.207Y137.275
X77.031Y137.292
X76.855Y137.275
X76.686Y137.223
X76.53Y137.14
X76.393Y137.028
X76.281Y136.891
X76.198Y136.735
X76.147Y136.566
X76.129Y136.391
G0Z1
X79.633Y128.465
G1Z-0.1F50
X53.178F100
X52.524Y128.471
X51.87Y128.487
X51.217Y128.515
X50.564Y128.553
X49.911Y128.602
X49.26Y128.662
X48.61Y128.732
X47.961Y128.814
X47.313Y128.906
X46.668Y129.009
X46.023Y129.123
X45.381Y129.247
X45.257Y129.274
X45.134Y129.302
X45.011Y129.333
X44.889Y129.366
X44.767Y129.401
X44.646Y129.438
X44.525Y129.477
X44.406Y129.518
X44.287Y129.561
X44.169Y129.606
X44.051Y129.654
X43.935Y129.703
X43.819Y129.754
X43.704Y129.808
X43.59Y129.863
X43.478Y129.92
X43.366Y129.98
X43.255Y130.041
X43.145Y130.104
X43.036Y130.169
X42.929Y130.236
X42.823Y130.304
X42.718Y130.375
X42.614Y130.447
X42.511Y130.521
X42.41Y130.597
X42.31Y130.675
X42.211Y130.754
X42.114Y130.835
X42.018Y130.918
X41.924Y131.002
X41.831Y131.089
X41.74Y131.176
X41.65Y131.265
X41.562Y131.356
X41.475Y131.448
X41.39Y131.542
X41.306Y131.637
X41.225Y131.734
X41.125Y131.856
X41.027Y131.98
X40.931Y132.105
X40.837Y132.233
X40.746Y132.361
X40.657Y132.492
X40.57Y132.624
X40.485Y132.757
X40.403Y132.892
X40.323Y133.028
X40.245Y133.165
X40.17Y133.304
X40.097Y133.444
X40.026Y133.586
X39.958Y133.728
X39.892Y133.872
X39.829Y134.017
X39.769Y134.162
X39.71Y134.309
X39.655Y134.457
X39.602Y134.606
X39.551Y134.755
X39.503Y134.906
X39.458Y135.057
X39.415Y135.209
X39.375Y135.362
X39.337Y135.515
X39.302Y135.669
X39.27Y135.824
X39.24Y135.979
X39.213Y136.135
X39.189Y136.291
X39.167Y136.447
X39.148Y136.604
X39.132Y136.761
X39.119Y136.919
X39.108Y137.076
X39.1Y137.234
X39.094Y137.392
X39.091Y137.55
Y137.708
X39.094Y137.866
X39.099Y138.023
X39.108Y138.181
X39.118Y138.339
X39.132Y138.496
X39.148Y138.653
X39.167Y138.81
X39.186Y138.953
X39.606Y141.844
X39.62Y141.92
X39.636Y141.996
X39.655Y142.071
X39.677Y142.145
X39.701Y142.218
X39.728Y142.292
X39.757Y142.363
X39.789Y142.434
X39.823Y142.503
X39.86Y142.572
X39.898Y142.638
X39.94Y142.704
X39.983Y142.768
X40.029Y142.831
X40.077Y142.892
X40.127Y142.951
X40.178Y143.007
X40.223Y143.054
X40.277Y143.107
X40.336Y143.16
X40.395Y143.21
X40.455Y143.257
X40.519Y143.304
X40.581Y143.347
X40.648Y143.389
X40.715Y143.428
X40.781Y143.464
X40.852Y143.499
X40.923Y143.53
X40.995Y143.56
X41.067Y143.587
X41.141Y143.611
X41.216Y143.633
X41.303Y143.655
X41.379Y143.671
X41.456Y143.685
X41.533Y143.695
X41.609Y143.704
X41.687Y143.709
X41.764Y143.712
X41.803
X46.854
X46.97Y143.711
X47.087Y143.708
X47.204Y143.703
X47.321Y143.696
X48.576Y143.606
X49.729Y143.541
X50.882Y143.495
X52.037Y143.467
X53.197Y143.458
X56.75
X56.788Y143.461
X56.827Y143.464
X56.865Y143.465
X56.903
X84.903
X84.943
X84.982Y143.463
X85.022Y143.461
X85.062Y143.457
X85.101Y143.453
X85.141Y143.448
X85.18Y143.441
X85.219Y143.434
X85.258Y143.425
X85.297Y143.416
X85.335Y143.406
X85.373Y143.394
X85.411Y143.382
X85.448Y143.369
X85.486Y143.355
X85.522Y143.34
X85.559Y143.324
X85.595Y143.307
X85.63Y143.289
X85.666Y143.271
X85.701Y143.251
X85.735Y143.23
X85.77Y143.209
X85.803Y143.186
X85.836Y143.163
X85.869Y143.139
X85.901Y143.114
X85.932Y143.088
X85.947Y143.075
X85.976Y143.049
X85.998Y143.028
X86.02Y143.007
X86.048Y142.979
X86.076Y142.95
X86.108Y142.914
X86.139Y142.877
X86.16Y142.849
X86.182Y142.821
X86.202Y142.792
X86.223Y142.763
X86.242Y142.734
X86.261Y142.703
X86.278Y142.675
X86.294Y142.647
X86.31Y142.618
X86.329Y142.58
X86.347Y142.543
X86.36Y142.513
X86.373Y142.484
X86.389Y142.443
X86.397Y142.421
X86.411Y142.381
X86.424Y142.34
X86.436Y142.298
X86.448Y142.256
X86.458Y142.213
X86.466Y142.173
X86.473Y142.132
X86.48Y142.081
X86.487Y142.025
X86.49Y141.991
X86.492Y141.958
X86.493Y141.924
X86.494Y141.874
Y141.642
X86.505Y141.58
X86.515Y141.504
X86.524Y141.425
X86.529Y141.349
X86.532Y141.271
Y141.232
Y130.398
Y130.359
X86.53Y130.319
X86.528Y130.28
X86.524Y130.241
X86.52Y130.202
X86.515Y130.162
X86.508Y130.124
X86.501Y130.085
X86.494Y130.051
X86.493Y130.009
X86.49Y129.966
X86.487Y129.923
X86.482Y129.88
X86.476Y129.838
X86.469Y129.795
X86.461Y129.753
X86.452Y129.711
X86.441Y129.669
X86.432Y129.634
X86.422Y129.6
X86.411Y129.566
X86.399Y129.532
X86.386Y129.498
X86.369Y129.457
X86.351Y129.416
X86.332Y129.376
X86.31Y129.332
X86.294Y129.303
X86.277Y129.273
X86.256Y129.237
X86.233Y129.201
X86.212Y129.169
X86.189Y129.138
X86.166Y129.107
X86.142Y129.077
X86.118Y129.047
X86.092Y129.018
X86.067Y128.989
X86.04Y128.961
X86.013Y128.934
X85.985Y128.908
X85.956Y128.882
X85.927Y128.857
X85.897Y128.832
X85.867Y128.808
X85.836Y128.785
X85.804Y128.763
X85.772Y128.742
X85.739Y128.721
X85.706Y128.701
X85.673Y128.682
X85.638Y128.663
X85.604Y128.646
X85.569Y128.63
X85.535Y128.614
X85.499Y128.599
X85.464Y128.586
X85.428Y128.573
X85.392Y128.56
X85.355Y128.549
X85.318Y128.539
X85.281Y128.529
X85.244Y128.52
X85.207Y128.513
X85.169Y128.506
X85.131Y128.5
X85.094Y128.495
X85.056Y128.491
X85.018Y128.488
X84.979Y128.485
X84.941Y128.484
X84.903Y128.483
X80.967
X80.377Y128.47
X79.633Y128.465
G0Z1
X46.321Y134.896
G1Z-0.2F50
X46.348Y134.887F100
X46.374Y134.879
X46.401Y134.871
X46.455Y134.857
X46.482Y134.85
X46.508Y134.844
X46.537Y134.839
X46.592Y134.829
X46.619Y134.825
X46.647Y134.821
X46.674Y134.818
X46.719Y134.814
X46.765Y134.811
X46.785Y134.81
X46.813
X46.841Y134.809
X46.869Y134.81
X46.897
X46.953Y134.813
X46.98Y134.815
X47.008Y134.818
X47.036Y134.821
X47.063Y134.825
X47.118Y134.834
X47.146Y134.839
X47.173Y134.844
X47.2Y134.85
X47.227Y134.857
X47.254Y134.864
X47.281Y134.871
X47.308Y134.879
X47.335Y134.887
X47.361Y134.896
X47.387Y134.906
X47.413Y134.915
X47.439Y134.926
X47.465Y134.936
X47.49Y134.947
X47.516Y134.959
X47.541Y134.971
X47.566Y134.983
X47.591Y134.996
X47.615Y135.009
X47.639Y135.023
X47.664Y135.037
X47.687Y135.052
X47.711Y135.067
X47.734Y135.082
X47.757Y135.098
X47.78Y135.114
X47.802Y135.131
X47.824Y135.148
X47.846Y135.165
X47.867Y135.183
X47.902Y135.212
X47.933Y135.242
X47.95Y135.257
X47.983Y135.29
X48.011Y135.319
X48.028Y135.338
X48.046Y135.358
X48.064Y135.38
X48.082Y135.401
X48.099Y135.423
X48.116Y135.445
X48.149Y135.49
X48.165Y135.513
X48.19Y135.552
X48.211Y135.586
X48.224Y135.608
X48.238Y135.632
X48.251Y135.656
X48.264Y135.681
X48.276Y135.706
X48.288Y135.731
X48.311Y135.782
X48.321Y135.808
X48.333Y135.837
X48.341Y135.86
X48.351Y135.886
X48.36Y135.913
X48.368Y135.939
X48.376Y135.966
X48.383Y135.993
X48.39Y136.02
X48.397Y136.047
X48.403Y136.074
X48.408Y136.101
X48.413Y136.129
X48.418Y136.156
X48.422Y136.184
X48.426Y136.211
X48.429Y136.239
X48.432Y136.267
X48.434Y136.295
X48.436Y136.322
X48.437Y136.35
Y136.378
X48.438Y136.406
X48.437Y136.434
Y136.462
X48.436Y136.489
X48.434Y136.517
X48.432Y136.545
X48.429Y136.573
X48.426Y136.601
X48.422Y136.628
X48.418Y136.656
X48.413Y136.683
X48.408Y136.711
X48.403Y136.738
X48.397Y136.765
X48.39Y136.792
X48.383Y136.819
X48.376Y136.846
X48.368Y136.873
X48.36Y136.899
X48.351Y136.926
X48.341Y136.952
X48.332Y136.978
X48.321Y137.004
X48.311Y137.03
X48.3Y137.055
X48.288Y137.081
X48.276Y137.106
X48.264Y137.131
X48.251Y137.155
X48.238Y137.18
X48.224Y137.204
X48.21Y137.228
X48.195Y137.252
X48.18Y137.275
X48.165Y137.299
X48.149Y137.322
X48.133Y137.344
X48.116Y137.367
X48.099Y137.389
X48.082Y137.411
X48.064Y137.432
X48.046Y137.454
X48.028Y137.474
X48.009Y137.495
X47.99Y137.515
X47.97Y137.535
X47.95Y137.555
X47.93Y137.574
X47.91Y137.592
X47.889Y137.611
X47.867Y137.629
X47.846Y137.647
X47.824Y137.664
X47.802Y137.681
X47.78Y137.698
X47.757Y137.714
X47.734Y137.73
X47.711Y137.745
X47.687Y137.76
X47.664Y137.774
X47.639Y137.789
X47.615Y137.803
X47.591Y137.816
X47.566Y137.829
X47.541Y137.841
X47.516Y137.853
X47.49Y137.865
X47.465Y137.876
X47.439Y137.886
X47.413Y137.897
X47.387Y137.906
X47.361Y137.916
X47.335Y137.924
X47.308Y137.933
X47.281Y137.941
X47.254Y137.948
X47.227Y137.955
X47.2Y137.962
X47.173Y137.968
X47.146Y137.973
X47.118Y137.978
X47.091Y137.983
X47.063Y137.987
X47.036Y137.991
X47.008Y137.994
X46.98Y137.997
X46.952Y137.999
X46.925Y138
X46.897Y138.002
X46.869
X46.841Y138.003
X46.818Y138.002
X46.758Y138
X46.73Y137.999
X46.702Y137.997
X46.677Y137.994
X46.646Y137.991
X46.619Y137.987
X46.591Y137.983
X46.564Y137.978
X46.536Y137.973
X46.509Y137.968
X46.482Y137.962
X46.455Y137.955
X46.428Y137.948
X46.401Y137.941
X46.374Y137.933
X46.348Y137.924
X46.321Y137.916
X46.295Y137.906
X46.269Y137.897
X46.243Y137.886
X46.217Y137.876
X46.192Y137.865
X46.166Y137.853
X46.141Y137.841
X46.116Y137.829
X46.078Y137.808
X46.04Y137.787
X45.995Y137.76
X45.972Y137.745
X45.948Y137.73
X45.925Y137.714
X45.903Y137.698
X45.88Y137.681
X45.858Y137.664
X45.836Y137.647
X45.815Y137.629
X45.793Y137.611
X45.773Y137.592
X45.752Y137.574
X45.732Y137.555
X45.712Y137.535
X45.693Y137.515
X45.673Y137.495
X45.655Y137.474
X45.636Y137.454
X45.618Y137.432
X45.6Y137.411
X45.583Y137.389
X45.566Y137.367
X45.549Y137.344
X45.533Y137.322
X45.517Y137.299
X45.502Y137.275
X45.477Y137.236
X45.457Y137.202
X45.445Y137.18
X45.431Y137.155
X45.406Y137.106
X45.394Y137.081
X45.381Y137.052
X45.371Y137.03
X45.361Y137.004
X45.351Y136.978
X45.341Y136.952
X45.331Y136.926
X45.323Y136.901
X45.314Y136.872
X45.306Y136.846
X45.299Y136.819
X45.292Y136.792
X45.285Y136.765
X45.279Y136.738
X45.274Y136.711
X45.269Y136.683
X45.264Y136.656
X45.26Y136.628
X45.256Y136.601
X45.253Y136.573
X45.251Y136.545
X45.248Y136.517
X45.247Y136.489
X45.245Y136.462
X45.244Y136.406
X45.245Y136.378
Y136.35
X45.247Y136.322
X45.248Y136.295
X45.251Y136.267
X45.253Y136.239
X45.256Y136.211
X45.26Y136.184
X45.264Y136.156
X45.269Y136.129
X45.274Y136.101
X45.279Y136.074
X45.285Y136.047
X45.292Y136.02
X45.299Y135.993
X45.306Y135.966
X45.314Y135.939
X45.323Y135.913
X45.331Y135.886
X45.341Y135.86
X45.351Y135.834
X45.361Y135.808
X45.371Y135.782
X45.382Y135.757
X45.394Y135.731
X45.406Y135.706
X45.418Y135.681
X45.431Y135.656
X45.445Y135.632
X45.458Y135.608
X45.473Y135.584
X45.487Y135.56
X45.502Y135.536
X45.517Y135.513
X45.533Y135.49
X45.549Y135.468
X45.583Y135.423
X45.618Y135.38
X45.636Y135.358
X45.655Y135.338
X45.673Y135.317
X45.693Y135.297
X45.712Y135.277
X45.732Y135.257
X45.773Y135.219
X45.793Y135.201
X45.815Y135.183
X45.836Y135.165
X45.858Y135.148
X45.88Y135.131
X45.903Y135.114
X45.925Y135.098
X45.948Y135.082
X45.972Y135.067
X45.995Y135.052
X46.019Y135.037
X46.043Y135.023
X46.067Y135.009
X46.092Y134.996
X46.116Y134.983
X46.141Y134.971
X46.166Y134.959
X46.192Y134.947
X46.217Y134.936
X46.243Y134.926
X46.269Y134.915
X46.321Y134.896
G0Z1
X60.243Y136.215
G1Z-0.2F50
X60.294Y136.046F100
X60.377Y135.89
X60.49Y135.753
X60.626Y135.641
X60.782Y135.558
X60.951Y135.507
X61.127Y135.489
X61.303Y135.507
X61.472Y135.558
X61.628Y135.641
X61.764Y135.753
X61.876Y135.89
X61.96Y136.046
X62.011Y136.215
X62.028Y136.391
X62.011Y136.566
X61.96Y136.735
X61.876Y136.891
X61.764Y137.028
X61.628Y137.14
X61.472Y137.223
X61.303Y137.275
X61.127Y137.292
X60.951Y137.275
X60.782Y137.223
X60.626Y137.14
X60.49Y137.028
X60.377Y136.891
X60.294Y136.735
X60.243Y136.566
X60.226Y136.391
X60.243Y136.215
G0Z1
X76.129Y136.391
G1Z-0.2F50
X76.147Y136.215F100
X76.198Y136.046
X76.281Y135.89
X76.393Y135.753
X76.53Y135.641
X76.686Y135.558
X76.855Y135.507
X77.031Y135.489
X77.207Y135.507
X77.376Y135.558
X77.532Y135.641
X77.668Y135.753
X77.78Y135.89
X77.863Y136.046
X77.915Y136.215
X77.932Y136.391
X77.915Y136.566
X77.863Y136.735
X77.78Y136.891
X77.668Y137.028
X77.532Y137.14
X77.376Y137.223
X77.207Y137.275
X77.031Y137.292
X76.855Y137.275
X76.686Y137.223
X76.53Y137.14
X76.393Y137.028
X76.281Y136.891
X76.198Y136.735
X76.147Y136.566
X76.129Y136.391
G0Z1
X79.633Y128.465
G1Z-0.2F50
X53.178F100
X52.524Y128.471
X51.87Y128.487
X51.217Y128.515
X50.564Y128.553
X49.911Y128.602
X49.26Y128.662
X48.61Y128.732
X47.961Y128.814
X47.313Y128.906
X46.668Y129.009
X46.023Y129.123
X45.381Y129.247
X45.257Y129.274
X45.134Y129.302
X45.011Y129.333
X44.889Y129.366
X44.767Y129.401
X44.646Y129.438
X44.525Y129.477
X44.406Y129.518
X44.287Y129.561
X44.169Y129.606
X44.051Y129.654
X43.935Y129.703
X43.819Y129.754
X43.704Y129.808
X43.59Y129.863
X43.478Y129.92
X43.366Y129.98
X43.255Y130.041
X43.145Y130.104
X43.036Y130.169
X42.929Y130.236
X42.823Y130.304
X42.718Y130.375
X42.614Y130.447
X42.511Y130.521
X42.41Y130.597
X42.31Y130.675
X42.211Y130.754
X42.114Y130.835
X42.018Y130.918
X41.924Y131.002
X41.831Y131.089
X41.74Y131.176
X41.65Y131.265
X41.562Y131.356
X41.475Y131.448
X41.39Y131.542
X41.306Y131.637
X41.225Y131.734
X41.125Y131.856
X41.027Y131.98
X40.931Y132.105
X40.837Y132.233
X40.746Y132.361
X40.657Y132.492
X40.57Y132.624
X40.485Y132.757
X40.403Y132.892
X40.323Y133.028
X40.245Y133.165
X40.17Y133.304
X40.097Y133.444
X40.026Y133.586
X39.958Y133.728
X39.892Y133.872
X39.829Y134.017
X39.769Y134.162
X39.71Y134.309
X39.655Y134.457
X39.602Y134.606
X39.551Y134.755
X39.503Y134.906
X39.458Y135.057
X39.415Y135.209
X39.375Y135.362
X39.337Y135.515
X39.302Y135.669
X39.27Y135.824
X39.24Y135.979
X39.213Y136.135
X39.189Y136.291
X39.167Y136.447
X39.148Y136.604
X39.132Y136.761
X39.119Y136.919
X39.108Y137.076
X39.1Y137.234
X39.094Y137.392
X39.091Y137.55
Y137.708
X39.094Y137.866
X39.099Y138.023
X39.108Y138.181
X39.118Y138.339
X39.132Y138.496
X39.148Y138.653
X39.167Y138.81
X39.186Y138.953
X39.606Y141.844
X39.62Y141.92
X39.636Y141.996
X39.655Y142.071
X39.677Y142.145
X39.701Y142.218
X39.728Y142.292
X39.757Y142.363
X39.789Y142.434
X39.823Y142.503
X39.86Y142.572
X39.898Y142.638
X39.94Y142.704
X39.983Y142.768
X40.029Y142.831
X40.077Y142.892
X40.127Y142.951
X40.178Y143.007
X40.223Y143.054
X40.277Y143.107
X40.336Y143.16
X40.395Y143.21
X40.455Y143.257
X40.519Y143.304
X40.581Y143.347
X40.648Y143.389
X40.715Y143.428
X40.781Y143.464
X40.852Y143.499
X40.923Y143.53
X40.995Y143.56
X41.067Y143.587
X41.141Y143.611
X41.216Y143.633
X41.303Y143.655
X41.379Y143.671
X41.456Y143.685
X41.533Y143.695
X41.609Y143.704
X41.687Y143.709
X41.764Y143.712
X41.803
X46.854
X46.97Y143.711
X47.087Y143.708
X47.204Y143.703
X47.321Y143.696
X48.576Y143.606
X49.729Y143.541
X50.882Y143.495
X52.037Y143.467
X53.197Y143.458
X56.75
X56.788Y143.461
X56.827Y143.464
X56.865Y143.465
X56.903
X84.903
X84.943
X84.982Y143.463
X85.022Y143.461
X85.062Y143.457
X85.101Y143.453
X85.141Y143.448
X85.18Y143.441
X85.219Y143.434
X85.258Y143.425
X85.297Y143.416
X85.335Y143.406
X85.373Y143.394
X85.411Y143.382
X85.448Y143.369
X85.486Y143.355
X85.522Y143.34
X85.559Y143.324
X85.595Y143.307
X85.63Y143.289
X85.666Y143.271
X85.701Y143.251
X85.735Y143.23
X85.77Y143.209
X85.803Y143.186
X85.836Y143.163
X85.869Y143.139
X85.901Y143.114
X85.932Y143.088
X85.947Y143.075
X85.976Y143.049
X85.998Y143.028
X86.02Y143.007
X86.048Y142.979
X86.076Y142.95
X86.108Y142.914
X86.139Y142.877
X86.16Y142.849
X86.182Y142.821
X86.202Y142.792
X86.223Y142.763
X86.242Y142.734
X86.261Y142.703
X86.278Y142.675
X86.294Y142.647
X86.31Y142.618
X86.329Y142.58
X86.347Y142.543
X86.36Y142.513
X86.373Y142.484
X86.389Y142.443
X86.397Y142.421
X86.411Y142.381
X86.424Y142.34
X86.436Y142.298
X86.448Y142.256
X86.458Y142.213
X86.466Y142.173
X86.473Y142.132
X86.48Y142.081
X86.487Y142.025
X86.49Y141.991
X86.492Y141.958
X86.493Y141.924
X86.494Y141.874
Y141.642
X86.505Y141.58
X86.515Y141.504
X86.524Y141.425
X86.529Y141.349
X86.532Y141.271
Y141.232
Y130.398
Y130.359
X86.53Y130.319
X86.528Y130.28
X86.524Y130.241
X86.52Y130.202
X86.515Y130.162
X86.508Y130.124
X86.501Y130.085
X86.494Y130.051
X86.493Y130.009
X86.49Y129.966
X86.487Y129.923
X86.482Y129.88
X86.476Y129.838
X86.469Y129.795
X86.461Y129.753
X86.452Y129.711
X86.441Y129.669
X86.432Y129.634
X86.422Y129.6
X86.411Y129.566
X86.399Y129.532
X86.386Y129.498
X86.369Y129.457
X86.351Y129.416
X86.332Y129.376
X86.31Y129.332
X86.294Y129.303
X86.277Y129.273
X86.256Y129.237
X86.233Y129.201
X86.212Y129.169
X86.189Y129.138
X86.166Y129.107
X86.142Y129.077
X86.118Y129.047
X86.092Y129.018
X86.067Y128.989
X86.04Y128.961
X86.013Y128.934
X85.985Y128.908
X85.956Y128.882
X85.927Y128.857
X85.897Y128.832
X85.867Y128.808
X85.836Y128.785
X85.804Y128.763
X85.772Y128.742
X85.739Y128.721
X85.706Y128.701
X85.673Y128.682
X85.638Y128.663
X85.604Y128.646
X85.569Y128.63
X85.535Y128.614
X85.499Y128.599
X85.464Y128.586
X85.428Y128.573
X85.392Y128.56
X85.355Y128.549
X85.318Y128.539
X85.281Y128.529
X85.244Y128.52
X85.207Y128.513
X85.169Y128.506
X85.131Y128.5
X85.094Y128.495
X85.056Y128.491
X85.018Y128.488
X84.979Y128.485
X84.941Y128.484
X84.903Y128.483
X80.967
X80.377Y128.47
X79.633Y128.465
G0Z1
X46.321Y134.896
G1Z-0.3F50
X46.348Y134.887F100
X46.374Y134.879
X46.401Y134.871
X46.455Y134.857
X46.482Y134.85
X46.508Y134.844
X46.537Y134.839
X46.592Y134.829
X46.619Y134.825
X46.647Y134.821
X46.674Y134.818
X46.719Y134.814
X46.765Y134.811
X46.785Y134.81
X46.813
X46.841Y134.809
X46.869Y134.81
X46.897
X46.953Y134.813
X46.98Y134.815
X47.008Y134.818
X47.036Y134.821
X47.063Y134.825
X47.118Y134.834
X47.146Y134.839
X47.173Y134.844
X47.2Y134.85
X47.227Y134.857
X47.254Y134.864
X47.281Y134.871
X47.308Y134.879
X47.335Y134.887
X47.361Y134.896
X47.387Y134.906
X47.413Y134.915
X47.439Y134.926
X47.465Y134.936
X47.49Y134.947
X47.516Y134.959
X47.541Y134.971
X47.566Y134.983
X47.591Y134.996
X47.615Y135.009
X47.639Y135.023
X47.664Y135.037
X47.687Y135.052
X47.711Y135.067
X47.734Y135.082
X47.757Y135.098
X47.78Y135.114
X47.802Y135.131
X47.824Y135.148
X47.846Y135.165
X47.867Y135.183
X47.902Y135.212
X47.933Y135.242
X47.95Y135.257
X47.983Y135.29
X48.011Y135.319
X48.028Y135.338
X48.046Y135.358
X48.064Y135.38
X48.082Y135.401
X48.099Y135.423
X48.116Y135.445
X48.149Y135.49
X48.165Y135.513
X48.19Y135.552
X48.211Y135.586
X48.224Y135.608
X48.238Y135.632
X48.251Y135.656
X48.264Y135.681
X48.276Y135.706
X48.288Y135.731
X48.311Y135.782
X48.321Y135.808
X48.333Y135.837
X48.341Y135.86
X48.351Y135.886
X48.36Y135.913
X48.368Y135.939
X48.376Y135.966
X48.383Y135.993
X48.39Y136.02
X48.397Y136.047
X48.403Y136.074
X48.408Y136.101
X48.413Y136.129
X48.418Y136.156
X48.422Y136.184
X48.426Y136.211
X48.429Y136.239
X48.432Y136.267
X48.434Y136.295
X48.436Y136.322
X48.437Y136.35
Y136.378
X48.438Y136.406
X48.437Y136.434
Y136.462
X48.436Y136.489
X48.434Y136.517
X48.432Y136.545
X48.429Y136.573
X48.426Y136.601
X48.422Y136.628
X48.418Y136.656
X48.413Y136.683
X48.408Y136.711
X48.403Y136.738
X48.397Y136.765
X48.39Y136.792
X48.383Y136.819
X48.376Y136.846
X48.368Y136.873
X48.36Y136.899
X48.351Y136.926
X48.341Y136.952
X48.332Y136.978
X48.321Y137.004
X48.311Y137.03
X48.3Y137.055
X48.288Y137.081
X48.276Y137.106
X48.264Y137.131
X48.251Y137.155
X48.238Y137.18
X48.224Y137.204
X48.21Y137.228
X48.195Y137.252
X48.18Y137.275
X48.165Y137.299
X48.149Y137.322
X48.133Y137.344
X48.116Y137.367
X48.099Y137.389
X48.082Y137.411
X48.064Y137.432
X48.046Y137.454
X48.028Y137.474
X48.009Y137.495
X47.99Y137.515
X47.97Y137.535
X47.95Y137.555
X47.93Y137.574
X47.91Y137.592
X47.889Y137.611
X47.867Y137.629
X47.846Y137.647
X47.824Y137.664
X47.802Y137.681
X47.78Y137.698
X47.757Y137.714
X47.734Y137.73
X47.711Y137.745
X47.687Y137.76
X47.664Y137.774
X47.639Y137.789
X47.615Y137.803
X47.591Y137.816
X47.566Y137.829
X47.541Y137.841
X47.516Y137.853
X47.49Y137.865
X47.465Y137.876
X47.439Y137.886
X47.413Y137.897
X47.387Y137.906
X47.361Y137.916
X47.335Y137.924
X47.308Y137.933
X47.281Y137.941
X47.254Y137.948
X47.227Y137.955
X47.2Y137.962
X47.173Y137.968
X47.146Y137.973
X47.118Y137.978
X47.091Y137.983
X47.063Y137.987
X47.036Y137.991
X47.008Y137.994
X46.98Y137.997
X46.952Y137.999
X46.925Y138
X46.897Y138.002
X46.869
X46.841Y138.003
X46.818Y138.002
X46.758Y138
X46.73Y137.999
X46.702Y137.997
X46.677Y137.994
X46.646Y137.991
X46.619Y137.987
X46.591Y137.983
X46.564Y137.978
X46.536Y137.973
X46.509Y137.968
X46.482Y137.962
X46.455Y137.955
X46.428Y137.948
X46.401Y137.941
X46.374Y137.933
X46.348Y137.924
X46.321Y137.916
X46.295Y137.906
X46.269Y137.897
X46.243Y137.886
X46.217Y137.876
X46.192Y137.865
X46.166Y137.853
X46.141Y137.841
X46.116Y137.829
X46.078Y137.808
X46.04Y137.787
X45.995Y137.76
X45.972Y137.745
X45.948Y137.73
X45.925Y137.714
X45.903Y137.698
X45.88Y137.681
X45.858Y137.664
X45.836Y137.647
X45.815Y137.629
X45.793Y137.611
X45.773Y137.592
X45.752Y137.574
X45.732Y137.555
X45.712Y137.535
X45.693Y137.515
X45.673Y137.495
X45.655Y137.474
X45.636Y137.454
X45.618Y137.432
X45.6Y137.411
X45.583Y137.389
X45.566Y137.367
X45.549Y137.344
X45.533Y137.322
X45.517Y137.299
X45.502Y137.275
X45.477Y137.236
X45.457Y137.202
X45.445Y137.18
X45.431Y137.155
X45.406Y137.106
X45.394Y137.081
X45.381Y137.052
X45.371Y137.03
X45.361Y137.004
X45.351Y136.978
X45.341Y136.952
X45.331Y136.926
X45.323Y136.901
X45.314Y136.872
X45.306Y136.846
X45.299Y136.819
X45.292Y136.792
X45.285Y136.765
X45.279Y136.738
X45.274Y136.711
X45.269Y136.683
X45.264Y136.656
X45.26Y136.628
X45.256Y136.601
X45.253Y136.573
X45.251Y136.545
X45.248Y136.517
X45.247Y136.489
X45.245Y136.462
X45.244Y136.406
X45.245Y136.378
Y136.35
X45.247Y136.322
X45.248Y136.295
X45.251Y136.267
X45.253Y136.239
X45.256Y136.211
X45.26Y136.184
X45.264Y136.156
X45.269Y136.129
X45.274Y136.101
X45.279Y136.074
X45.285Y136.047
X45.292Y136.02
X45.299Y135.993
X45.306Y135.966
X45.314Y135.939
X45.323Y135.913
X45.331Y135.886
X45.341Y135.86
X45.351Y135.834
X45.361Y135.808
X45.371Y135.782
X45.382Y135.757
X45.394Y135.731
X45.406Y135.706
X45.418Y135.681
X45.431Y135.656
X45.445Y135.632
X45.458Y135.608
X45.473Y135.584
X45.487Y135.56
X45.502Y135.536
X45.517Y135.513
X45.533Y135.49
X45.549Y135.468
X45.583Y135.423
X45.618Y135.38
X45.636Y135.358
X45.655Y135.338
X45.673Y135.317
X45.693Y135.297
X45.712Y135.277
X45.732Y135.257
X45.773Y135.219
X45.793Y135.201
X45.815Y135.183
X45.836Y135.165
X45.858Y135.148
X45.88Y135.131
X45.903Y135.114
X45.925Y135.098
X45.948Y135.082
X45.972Y135.067
X45.995Y135.052
X46.019Y135.037
X46.043Y135.023
X46.067Y135.009
X46.092Y134.996
X46.116Y134.983
X46.141Y134.971
X46.166Y134.959
X46.192Y134.947
X46.217Y134.936
X46.243Y134.926
X46.269Y134.915
X46.321Y134.896
G0Z1
X60.243Y136.215
G1Z-0.3F50
X60.294Y136.046F100
X60.377Y135.89
X60.49Y135.753
X60.626Y135.641
X60.782Y135.558
X60.951Y135.507
X61.127Y135.489
X61.303Y135.507
X61.472Y135.558
X61.628Y135.641
X61.764Y135.753
X61.876Y135.89
X61.96Y136.046
X62.011Y136.215
X62.028Y136.391
X62.011Y136.566
X61.96Y136.735
X61.876Y136.891
X61.764Y137.028
X61.628Y137.14
X61.472Y137.223
X61.303Y137.275
X61.127Y137.292
X60.951Y137.275
X60.782Y137.223
X60.626Y137.14
X60.49Y137.028
X60.377Y136.891
X60.294Y136.735
X60.243Y136.566
X60.226Y136.391
X60.243Y136.215
G0Z1
X76.129Y136.391
G1Z-0.3F50
X76.147Y136.215F100
X76.198Y136.046
X76.281Y135.89
X76.393Y135.753
X76.53Y135.641
X76.686Y135.558
X76.855Y135.507
X77.031Y135.489
X77.207Y135.507
X77.376Y135.558
X77.532Y135.641
X77.668Y135.753
X77.78Y135.89
X77.863Y136.046
X77.915Y136.215
X77.932Y136.391
X77.915Y136.566
X77.863Y136.735
X77.78Y136.891
X77.668Y137.028
X77.532Y137.14
X77.376Y137.223
X77.207Y137.275
X77.031Y137.292
X76.855Y137.275
X76.686Y137.223
X76.53Y137.14
X76.393Y137.028
X76.281Y136.891
X76.198Y136.735
X76.147Y136.566
X76.129Y136.391
G0Z1
X79.633Y128.465
G1Z-0.3F50
X53.178F100
X52.524Y128.471
X51.87Y128.487
X51.217Y128.515
X50.564Y128.553
X49.911Y128.602
X49.26Y128.662
X48.61Y128.732
X47.961Y128.814
X47.313Y128.906
X46.668Y129.009
X46.023Y129.123
X45.381Y129.247
X45.257Y129.274
X45.134Y129.302
X45.011Y129.333
X44.889Y129.366
X44.767Y129.401
X44.646Y129.438
X44.525Y129.477
X44.406Y129.518
X44.287Y129.561
X44.169Y129.606
X44.051Y129.654
X43.935Y129.703
X43.819Y129.754
X43.704Y129.808
X43.59Y129.863
X43.478Y129.92
X43.366Y129.98
X43.255Y130.041
X43.145Y130.104
X43.036Y130.169
X42.929Y130.236
X42.823Y130.304
X42.718Y130.375
X42.614Y130.447
X42.511Y130.521
X42.41Y130.597
X42.31Y130.675
X42.211Y130.754
X42.114Y130.835
X42.018Y130.918
X41.924Y131.002
X41.831Y131.089
X41.74Y131.176
X41.65Y131.265
X41.562Y131.356
X41.475Y131.448
X41.39Y131.542
X41.306Y131.637
X41.225Y131.734
X41.125Y131.856
X41.027Y131.98
X40.931Y132.105
X40.837Y132.233
X40.746Y132.361
X40.657Y132.492
X40.57Y132.624
X40.485Y132.757
X40.403Y132.892
X40.323Y133.028
X40.245Y133.165
X40.17Y133.304
X40.097Y133.444
X40.026Y133.586
X39.958Y133.728
X39.892Y133.872
X39.829Y134.017
X39.769Y134.162
X39.71Y134.309
X39.655Y134.457
X39.602Y134.606
X39.551Y134.755
X39.503Y134.906
X39.458Y135.057
X39.415Y135.209
X39.375Y135.362
X39.337Y135.515
X39.302Y135.669
X39.27Y135.824
X39.24Y135.979
X39.213Y136.135
X39.189Y136.291
X39.167Y136.447
X39.148Y136.604
X39.132Y136.761
X39.119Y136.919
X39.108Y137.076
X39.1Y137.234
X39.094Y137.392
X39.091Y137.55
Y137.708
X39.094Y137.866
X39.099Y138.023
X39.108Y138.181
X39.118Y138.339
X39.132Y138.496
X39.148Y138.653
X39.167Y138.81
X39.186Y138.953
X39.606Y141.844
X39.62Y141.92
X39.636Y141.996
X39.655Y142.071
X39.677Y142.145
X39.701Y142.218
X39.728Y142.292
X39.757Y142.363
X39.789Y142.434
X39.823Y142.503
X39.86Y142.572
X39.898Y142.638
X39.94Y142.704
X39.983Y142.768
X40.029Y142.831
X40.077Y142.892
X40.127Y142.951
X40.178Y143.007
X40.223Y143.054
X40.277Y143.107
X40.336Y143.16
X40.395Y143.21
X40.455Y143.257
X40.519Y143.304
X40.581Y143.347
X40.648Y143.389
X40.715Y143.428
X40.781Y143.464
X40.852Y143.499
X40.923Y143.53
X40.995Y143.56
X41.067Y143.587
X41.141Y143.611
X41.216Y143.633
X41.303Y143.655
X41.379Y143.671
X41.456Y143.685
X41.533Y143.695
X41.609Y143.704
X41.687Y143.709
X41.764Y143.712
X41.803
X46.854
X46.97Y143.711
X47.087Y143.708
X47.204Y143.703
X47.321Y143.696
X48.576Y143.606
X49.729Y143.541
X50.882Y143.495
X52.037Y143.467
X53.197Y143.458
X56.75
X56.788Y143.461
X56.827Y143.464
X56.865Y143.465
X56.903
X84.903
X84.943
X84.982Y143.463
X85.022Y143.461
X85.062Y143.457
X85.101Y143.453
X85.141Y143.448
X85.18Y143.441
X85.219Y143.434
X85.258Y143.425
X85.297Y143.416
X85.335Y143.406
X85.373Y143.394
X85.411Y143.382
X85.448Y143.369
X85.486Y143.355
X85.522Y143.34
X85.559Y143.324
X85.595Y143.307
X85.63Y143.289
X85.666Y143.271
X85.701Y143.251
X85.735Y143.23
X85.77Y143.209
X85.803Y143.186
X85.836Y143.163
X85.869Y143.139
X85.901Y143.114
X85.932Y143.088
X85.947Y143.075
X85.976Y143.049
X85.998Y143.028
X86.02Y143.007
X86.048Y142.979
X86.076Y142.95
X86.108Y142.914
X86.139Y142.877
X86.16Y142.849
X86.182Y142.821
X86.202Y142.792
X86.223Y142.763
X86.242Y142.734
X86.261Y142.703
X86.278Y142.675
X86.294Y142.647
X86.31Y142.618
X86.329Y142.58
X86.347Y142.543
X86.36Y142.513
X86.373Y142.484
X86.389Y142.443
X86.397Y142.421
X86.411Y142.381
X86.424Y142.34
X86.436Y142.298
X86.448Y142.256
X86.458Y142.213
X86.466Y142.173
X86.473Y142.132
X86.48Y142.081
X86.487Y142.025
X86.49Y141.991
X86.492Y141.958
X86.493Y141.924
X86.494Y141.874
Y141.642
X86.505Y141.58
X86.515Y141.504
X86.524Y141.425
X86.529Y141.349
X86.532Y141.271
Y141.232
Y130.398
Y130.359
X86.53Y130.319
X86.528Y130.28
X86.524Y130.241
X86.52Y130.202
X86.515Y130.162
X86.508Y130.124
X86.501Y130.085
X86.494Y130.051
X86.493Y130.009
X86.49Y129.966
X86.487Y129.923
X86.482Y129.88
X86.476Y129.838
X86.469Y129.795
X86.461Y129.753
X86.452Y129.711
X86.441Y129.669
X86.432Y129.634
X86.422Y129.6
X86.411Y129.566
X86.399Y129.532
X86.386Y129.498
X86.369Y129.457
X86.351Y129.416
X86.332Y129.376
X86.31Y129.332
X86.294Y129.303
X86.277Y129.273
X86.256Y129.237
X86.233Y129.201
X86.212Y129.169
X86.189Y129.138
X86.166Y129.107
X86.142Y129.077
X86.118Y129.047
X86.092Y129.018
X86.067Y128.989
X86.04Y128.961
X86.013Y128.934
X85.985Y128.908
X85.956Y128.882
X85.927Y128.857
X85.897Y128.832
X85.867Y128.808
X85.836Y128.785
X85.804Y128.763
X85.772Y128.742
X85.739Y128.721
X85.706Y128.701
X85.673Y128.682
X85.638Y128.663
X85.604Y128.646
X85.569Y128.63
X85.535Y128.614
X85.499Y128.599
X85.464Y128.586
X85.428Y128.573
X85.392Y128.56
X85.355Y128.549
X85.318Y128.539
X85.281Y128.529
X85.244Y128.52
X85.207Y128.513
X85.169Y128.506
X85.131Y128.5
X85.094Y128.495
X85.056Y128.491
X85.018Y128.488
X84.979Y128.485
X84.941Y128.484
X84.903Y128.483
X80.967
X80.377Y128.47
X79.633Y128.465
G0Z1
X46.321Y134.896
G1Z-0.4F50
X46.348Y134.887F100
X46.374Y134.879
X46.401Y134.871
X46.455Y134.857
X46.482Y134.85
X46.508Y134.844
X46.537Y134.839
X46.592Y134.829
X46.619Y134.825
X46.647Y134.821
X46.674Y134.818
X46.719Y134.814
X46.765Y134.811
X46.785Y134.81
X46.813
X46.841Y134.809
X46.869Y134.81
X46.897
X46.953Y134.813
X46.98Y134.815
X47.008Y134.818
X47.036Y134.821
X47.063Y134.825
X47.118Y134.834
X47.146Y134.839
X47.173Y134.844
X47.2Y134.85
X47.227Y134.857
X47.254Y134.864
X47.281Y134.871
X47.308Y134.879
X47.335Y134.887
X47.361Y134.896
X47.387Y134.906
X47.413Y134.915
X47.439Y134.926
X47.465Y134.936
X47.49Y134.947
X47.516Y134.959
X47.541Y134.971
X47.566Y134.983
X47.591Y134.996
X47.615Y135.009
X47.639Y135.023
X47.664Y135.037
X47.687Y135.052
X47.711Y135.067
X47.734Y135.082
X47.757Y135.098
X47.78Y135.114
X47.802Y135.131
X47.824Y135.148
X47.846Y135.165
X47.867Y135.183
X47.902Y135.212
X47.933Y135.242
X47.95Y135.257
X47.983Y135.29
X48.011Y135.319
X48.028Y135.338
X48.046Y135.358
X48.064Y135.38
X48.082Y135.401
X48.099Y135.423
X48.116Y135.445
X48.149Y135.49
X48.165Y135.513
X48.19Y135.552
X48.211Y135.586
X48.224Y135.608
X48.238Y135.632
X48.251Y135.656
X48.264Y135.681
X48.276Y135.706
X48.288Y135.731
X48.311Y135.782
X48.321Y135.808
X48.333Y135.837
X48.341Y135.86
X48.351Y135.886
X48.36Y135.913
X48.368Y135.939
X48.376Y135.966
X48.383Y135.993
X48.39Y136.02
X48.397Y136.047
X48.403Y136.074
X48.408Y136.101
X48.413Y136.129
X48.418Y136.156
X48.422Y136.184
X48.426Y136.211
X48.429Y136.239
X48.432Y136.267
X48.434Y136.295
X48.436Y136.322
X48.437Y136.35
Y136.378
X48.438Y136.406
X48.437Y136.434
Y136.462
X48.436Y136.489
X48.434Y136.517
X48.432Y136.545
X48.429Y136.573
X48.426Y136.601
X48.422Y136.628
X48.418Y136.656
X48.413Y136.683
X48.408Y136.711
X48.403Y136.738
X48.397Y136.765
X48.39Y136.792
X48.383Y136.819
X48.376Y136.846
X48.368Y136.873
X48.36Y136.899
X48.351Y136.926
X48.341Y136.952
X48.332Y136.978
X48.321Y137.004
X48.311Y137.03
X48.3Y137.055
X48.288Y137.081
X48.276Y137.106
X48.264Y137.131
X48.251Y137.155
X48.238Y137.18
X48.224Y137.204
X48.21Y137.228
X48.195Y137.252
X48.18Y137.275
X48.165Y137.299
X48.149Y137.322
X48.133Y137.344
X48.116Y137.367
X48.099Y137.389
X48.082Y137.411
X48.064Y137.432
X48.046Y137.454
X48.028Y137.474
X48.009Y137.495
X47.99Y137.515
X47.97Y137.535
X47.95Y137.555
X47.93Y137.574
X47.91Y137.592
X47.889Y137.611
X47.867Y137.629
X47.846Y137.647
X47.824Y137.664
X47.802Y137.681
X47.78Y137.698
X47.757Y137.714
X47.734Y137.73
X47.711Y137.745
X47.687Y137.76
X47.664Y137.774
X47.639Y137.789
X47.615Y137.803
X47.591Y137.816
X47.566Y137.829
X47.541Y137.841
X47.516Y137.853
X47.49Y137.865
X47.465Y137.876
X47.439Y137.886
X47.413Y137.897
X47.387Y137.906
X47.361Y137.916
X47.335Y137.924
X47.308Y137.933
X47.281Y137.941
X47.254Y137.948
X47.227Y137.955
X47.2Y137.962
X47.173Y137.968
X47.146Y137.973
X47.118Y137.978
X47.091Y137.983
X47.063Y137.987
X47.036Y137.991
X47.008Y137.994
X46.98Y137.997
X46.952Y137.999
X46.925Y138
X46.897Y138.002
X46.869
X46.841Y138.003
X46.818Y138.002
X46.758Y138
X46.73Y137.999
X46.702Y137.997
X46.677Y137.994
X46.646Y137.991
X46.619Y137.987
X46.591Y137.983
X46.564Y137.978
X46.536Y137.973
X46.509Y137.968
X46.482Y137.962
X46.455Y137.955
X46.428Y137.948
X46.401Y137.941
X46.374Y137.933
X46.348Y137.924
X46.321Y137.916
X46.295Y137.906
X46.269Y137.897
X46.243Y137.886
X46.217Y137.876
X46.192Y137.865
X46.166Y137.853
X46.141Y137.841
X46.116Y137.829
X46.078Y137.808
X46.04Y137.787
X45.995Y137.76
X45.972Y137.745
X45.948Y137.73
X45.925Y137.714
X45.903Y137.698
X45.88Y137.681
X45.858Y137.664
X45.836Y137.647
X45.815Y137.629
X45.793Y137.611
X45.773Y137.592
X45.752Y137.574
X45.732Y137.555
X45.712Y137.535
X45.693Y137.515
X45.673Y137.495
X45.655Y137.474
X45.636Y137.454
X45.618Y137.432
X45.6Y137.411
X45.583Y137.389
X45.566Y137.367
X45.549Y137.344
X45.533Y137.322
X45.517Y137.299
X45.502Y137.275
X45.477Y137.236
X45.457Y137.202
X45.445Y137.18
X45.431Y137.155
X45.406Y137.106
X45.394Y137.081
X45.381Y137.052
X45.371Y137.03
X45.361Y137.004
X45.351Y136.978
X45.341Y136.952
X45.331Y136.926
X45.323Y136.901
X45.314Y136.872
X45.306Y136.846
X45.299Y136.819
X45.292Y136.792
X45.285Y136.765
X45.279Y136.738
X45.274Y136.711
X45.269Y136.683
X45.264Y136.656
X45.26Y136.628
X45.256Y136.601
X45.253Y136.573
X45.251Y136.545
X45.248Y136.517
X45.247Y136.489
X45.245Y136.462
X45.244Y136.406
X45.245Y136.378
Y136.35
X45.247Y136.322
X45.248Y136.295
X45.251Y136.267
X45.253Y136.239
X45.256Y136.211
X45.26Y136.184
X45.264Y136.156
X45.269Y136.129
X45.274Y136.101
X45.279Y136.074
X45.285Y136.047
X45.292Y136.02
X45.299Y135.993
X45.306Y135.966
X45.314Y135.939
X45.323Y135.913
X45.331Y135.886
X45.341Y135.86
X45.351Y135.834
X45.361Y135.808
X45.371Y135.782
X45.382Y135.757
X45.394Y135.731
X45.406Y135.706
X45.418Y135.681
X45.431Y135.656
X45.445Y135.632
X45.458Y135.608
X45.473Y135.584
X45.487Y135.56
X45.502Y135.536
X45.517Y135.513
X45.533Y135.49
X45.549Y135.468
X45.583Y135.423
X45.618Y135.38
X45.636Y135.358
X45.655Y135.338
X45.673Y135.317
X45.693Y135.297
X45.712Y135.277
X45.732Y135.257
X45.773Y135.219
X45.793Y135.201
X45.815Y135.183
X45.836Y135.165
X45.858Y135.148
X45.88Y135.131
X45.903Y135.114
X45.925Y135.098
X45.948Y135.082
X45.972Y135.067
X45.995Y135.052
X46.019Y135.037
X46.043Y135.023
X46.067Y135.009
X46.092Y134.996
X46.116Y134.983
X46.141Y134.971
X46.166Y134.959
X46.192Y134.947
X46.217Y134.936
X46.243Y134.926
X46.269Y134.915
X46.321Y134.896
G0Z1
X60.243Y136.215
G1Z-0.4F50
X60.294Y136.046F100
X60.377Y135.89
X60.49Y135.753
X60.626Y135.641
X60.782Y135.558
X60.951Y135.507
X61.127Y135.489
X61.303Y135.507
X61.472Y135.558
X61.628Y135.641
X61.764Y135.753
X61.876Y135.89
X61.96Y136.046
X62.011Y136.215
X62.028Y136.391
X62.011Y136.566
X61.96Y136.735
X61.876Y136.891
X61.764Y137.028
X61.628Y137.14
X61.472Y137.223
X61.303Y137.275
X61.127Y137.292
X60.951Y137.275
X60.782Y137.223
X60.626Y137.14
X60.49Y137.028
X60.377Y136.891
X60.294Y136.735
X60.243Y136.566
X60.226Y136.391
X60.243Y136.215
G0Z1
X76.129Y136.391
G1Z-0.4F50
X76.147Y136.215F100
X76.198Y136.046
X76.281Y135.89
X76.393Y135.753
X76.53Y135.641
X76.686Y135.558
X76.855Y135.507
X77.031Y135.489
X77.207Y135.507
X77.376Y135.558
X77.532Y135.641
X77.668Y135.753
X77.78Y135.89
X77.863Y136.046
X77.915Y136.215
X77.932Y136.391
X77.915Y136.566
X77.863Y136.735
X77.78Y136.891
X77.668Y137.028
X77.532Y137.14
X77.376Y137.223
X77.207Y137.275
X77.031Y137.292
X76.855Y137.275
X76.686Y137.223
X76.53Y137.14
X76.393Y137.028
X76.281Y136.891
X76.198Y136.735
X76.147Y136.566
X76.129Y136.391
G0Z1
X79.633Y128.465
G1Z-0.4F50
X53.178F100
X52.524Y128.471
X51.87Y128.487
X51.217Y128.515
X50.564Y128.553
X49.911Y128.602
X49.26Y128.662
X48.61Y128.732
X47.961Y128.814
X47.313Y128.906
X46.668Y129.009
X46.023Y129.123
X45.381Y129.247
X45.257Y129.274
X45.134Y129.302
X45.011Y129.333
X44.889Y129.366
X44.767Y129.401
X44.646Y129.438
X44.525Y129.477
X44.406Y129.518
X44.287Y129.561
X44.169Y129.606
X44.051Y129.654
X43.935Y129.703
X43.819Y129.754
X43.704Y129.808
X43.59Y129.863
X43.478Y129.92
X43.366Y129.98
X43.255Y130.041
X43.145Y130.104
X43.036Y130.169
X42.929Y130.236
X42.823Y130.304
X42.718Y130.375
X42.614Y130.447
X42.511Y130.521
X42.41Y130.597
X42.31Y130.675
X42.211Y130.754
X42.114Y130.835
X42.018Y130.918
X41.924Y131.002
X41.831Y131.089
X41.74Y131.176
X41.65Y131.265
X41.562Y131.356
X41.475Y131.448
X41.39Y131.542
X41.306Y131.637
X41.225Y131.734
X41.125Y131.856
X41.027Y131.98
X40.931Y132.105
X40.837Y132.233
X40.746Y132.361
X40.657Y132.492
X40.57Y132.624
X40.485Y132.757
X40.403Y132.892
X40.323Y133.028
X40.245Y133.165
X40.17Y133.304
X40.097Y133.444
X40.026Y133.586
X39.958Y133.728
X39.892Y133.872
X39.829Y134.017
X39.769Y134.162
X39.71Y134.309
X39.655Y134.457
X39.602Y134.606
X39.551Y134.755
X39.503Y134.906
X39.458Y135.057
X39.415Y135.209
X39.375Y135.362
X39.337Y135.515
X39.302Y135.669
X39.27Y135.824
X39.24Y135.979
X39.213Y136.135
X39.189Y136.291
X39.167Y136.447
X39.148Y136.604
X39.132Y136.761
X39.119Y136.919
X39.108Y137.076
X39.1Y137.234
X39.094Y137.392
X39.091Y137.55
Y137.708
X39.094Y137.866
X39.099Y138.023
X39.108Y138.181
X39.118Y138.339
X39.132Y138.496
X39.148Y138.653
X39.167Y138.81
X39.186Y138.953
X39.606Y141.844
X39.62Y141.92
X39.636Y141.996
X39.655Y142.071
X39.677Y142.145
X39.701Y142.218
X39.728Y142.292
X39.757Y142.363
X39.789Y142.434
X39.823Y142.503
X39.86Y142.572
X39.898Y142.638
X39.94Y142.704
X39.983Y142.768
X40.029Y142.831
X40.077Y142.892
X40.127Y142.951
X40.178Y143.007
X40.223Y143.054
X40.277Y143.107
X40.336Y143.16
X40.395Y143.21
X40.455Y143.257
X40.519Y143.304
X40.581Y143.347
X40.648Y143.389
X40.715Y143.428
X40.781Y143.464
X40.852Y143.499
X40.923Y143.53
X40.995Y143.56
X41.067Y143.587
X41.141Y143.611
X41.216Y143.633
X41.303Y143.655
X41.379Y143.671
X41.456Y143.685
X41.533Y143.695
X41.609Y143.704
X41.687Y143.709
X41.764Y143.712
X41.803
X46.854
X46.97Y143.711
X47.087Y143.708
X47.204Y143.703
X47.321Y143.696
X48.576Y143.606
X49.729Y143.541
X50.882Y143.495
X52.037Y143.467
X53.197Y143.458
X56.75
X56.788Y143.461
X56.827Y143.464
X56.865Y143.465
X56.903
X84.903
X84.943
X84.982Y143.463
X85.022Y143.461
X85.062Y143.457
X85.101Y143.453
X85.141Y143.448
X85.18Y143.441
X85.219Y143.434
X85.258Y143.425
X85.297Y143.416
X85.335Y143.406
X85.373Y143.394
X85.411Y143.382
X85.448Y143.369
X85.486Y143.355
X85.522Y143.34
X85.559Y143.324
X85.595Y143.307
X85.63Y143.289
X85.666Y143.271
X85.701Y143.251
X85.735Y143.23
X85.77Y143.209
X85.803Y143.186
X85.836Y143.163
X85.869Y143.139
X85.901Y143.114
X85.932Y143.088
X85.947Y143.075
X85.976Y143.049
X85.998Y143.028
X86.02Y143.007
X86.048Y142.979
X86.076Y142.95
X86.108Y142.914
X86.139Y142.877
X86.16Y142.849
X86.182Y142.821
X86.202Y142.792
X86.223Y142.763
X86.242Y142.734
X86.261Y142.703
X86.278Y142.675
X86.294Y142.647
X86.31Y142.618
X86.329Y142.58
X86.347Y142.543
X86.36Y142.513
X86.373Y142.484
X86.389Y142.443
X86.397Y142.421
X86.411Y142.381
X86.424Y142.34
X86.436Y142.298
X86.448Y142.256
X86.458Y142.213
X86.466Y142.173
X86.473Y142.132
X86.48Y142.081
X86.487Y142.025
X86.49Y141.991
X86.492Y141.958
X86.493Y141.924
X86.494Y141.874
Y141.642
X86.505Y141.58
X86.515Y141.504
X86.524Y141.425
X86.529Y141.349
X86.532Y141.271
Y141.232
Y130.398
Y130.359
X86.53Y130.319
X86.528Y130.28
X86.524Y130.241
X86.52Y130.202
X86.515Y130.162
X86.508Y130.124
X86.501Y130.085
X86.494Y130.051
X86.493Y130.009
X86.49Y129.966
X86.487Y129.923
X86.482Y129.88
X86.476Y129.838
X86.469Y129.795
X86.461Y129.753
X86.452Y129.711
X86.441Y129.669
X86.432Y129.634
X86.422Y129.6
X86.411Y129.566
X86.399Y129.532
X86.386Y129.498
X86.369Y129.457
X86.351Y129.416
X86.332Y129.376
X86.31Y129.332
X86.294Y129.303
X86.277Y129.273
X86.256Y129.237
X86.233Y129.201
X86.212Y129.169
X86.189Y129.138
X86.166Y129.107
X86.142Y129.077
X86.118Y129.047
X86.092Y129.018
X86.067Y128.989
X86.04Y128.961
X86.013Y128.934
X85.985Y128.908
X85.956Y128.882
X85.927Y128.857
X85.897Y128.832
X85.867Y128.808
X85.836Y128.785
X85.804Y128.763
X85.772Y128.742
X85.739Y128.721
X85.706Y128.701
X85.673Y128.682
X85.638Y128.663
X85.604Y128.646
X85.569Y128.63
X85.535Y128.614
X85.499Y128.599
X85.464Y128.586
X85.428Y128.573
X85.392Y128.56
X85.355Y128.549
X85.318Y128.539
X85.281Y128.529
X85.244Y128.52
X85.207Y128.513
X85.169Y128.506
X85.131Y128.5
X85.094Y128.495
X85.056Y128.491
X85.018Y128.488
X84.979Y128.485
X84.941Y128.484
X84.903Y128.483
X80.967
X80.377Y128.47
X79.633Y128.465
G0Z1
X46.321Y134.896
G1Z-0.5F50
X46.348Y134.887F100
X46.374Y134.879
X46.401Y134.871
X46.455Y134.857
X46.482Y134.85
X46.508Y134.844
X46.537Y134.839
X46.592Y134.829
X46.619Y134.825
X46.647Y134.821
X46.674Y134.818
X46.719Y134.814
X46.765Y134.811
X46.785Y134.81
X46.813
X46.841Y134.809
X46.869Y134.81
X46.897
X46.953Y134.813
X46.98Y134.815
X47.008Y134.818
X47.036Y134.821
X47.063Y134.825
X47.118Y134.834
X47.146Y134.839
X47.173Y134.844
X47.2Y134.85
X47.227Y134.857
X47.254Y134.864
X47.281Y134.871
X47.308Y134.879
X47.335Y134.887
X47.361Y134.896
X47.387Y134.906
X47.413Y134.915
X47.439Y134.926
X47.465Y134.936
X47.49Y134.947
X47.516Y134.959
X47.541Y134.971
X47.566Y134.983
X47.591Y134.996
X47.615Y135.009
X47.639Y135.023
X47.664Y135.037
X47.687Y135.052
X47.711Y135.067
X47.734Y135.082
X47.757Y135.098
X47.78Y135.114
X47.802Y135.131
X47.824Y135.148
X47.846Y135.165
X47.867Y135.183
X47.902Y135.212
X47.933Y135.242
X47.95Y135.257
X47.983Y135.29
X48.011Y135.319
X48.028Y135.338
X48.046Y135.358
X48.064Y135.38
X48.082Y135.401
X48.099Y135.423
X48.116Y135.445
X48.149Y135.49
X48.165Y135.513
X48.19Y135.552
X48.211Y135.586
X48.224Y135.608
X48.238Y135.632
X48.251Y135.656
X48.264Y135.681
X48.276Y135.706
X48.288Y135.731
X48.311Y135.782
X48.321Y135.808
X48.333Y135.837
X48.341Y135.86
X48.351Y135.886
X48.36Y135.913
X48.368Y135.939
X48.376Y135.966
X48.383Y135.993
X48.39Y136.02
X48.397Y136.047
X48.403Y136.074
X48.408Y136.101
X48.413Y136.129
X48.418Y136.156
X48.422Y136.184
X48.426Y136.211
X48.429Y136.239
X48.432Y136.267
X48.434Y136.295
X48.436Y136.322
X48.437Y136.35
Y136.378
X48.438Y136.406
X48.437Y136.434
Y136.462
X48.436Y136.489
X48.434Y136.517
X48.432Y136.545
X48.429Y136.573
X48.426Y136.601
X48.422Y136.628
X48.418Y136.656
X48.413Y136.683
X48.408Y136.711
X48.403Y136.738
X48.397Y136.765
X48.39Y136.792
X48.383Y136.819
X48.376Y136.846
X48.368Y136.873
X48.36Y136.899
X48.351Y136.926
X48.341Y136.952
X48.332Y136.978
X48.321Y137.004
X48.311Y137.03
X48.3Y137.055
X48.288Y137.081
X48.276Y137.106
X48.264Y137.131
X48.251Y137.155
X48.238Y137.18
X48.224Y137.204
X48.21Y137.228
X48.195Y137.252
X48.18Y137.275
X48.165Y137.299
X48.149Y137.322
X48.133Y137.344
X48.116Y137.367
X48.099Y137.389
X48.082Y137.411
X48.064Y137.432
X48.046Y137.454
X48.028Y137.474
X48.009Y137.495
X47.99Y137.515
X47.97Y137.535
X47.95Y137.555
X47.93Y137.574
X47.91Y137.592
X47.889Y137.611
X47.867Y137.629
X47.846Y137.647
X47.824Y137.664
X47.802Y137.681
X47.78Y137.698
X47.757Y137.714
X47.734Y137.73
X47.711Y137.745
X47.687Y137.76
X47.664Y137.774
X47.639Y137.789
X47.615Y137.803
X47.591Y137.816
X47.566Y137.829
X47.541Y137.841
X47.516Y137.853
X47.49Y137.865
X47.465Y137.876
X47.439Y137.886
X47.413Y137.897
X47.387Y137.906
X47.361Y137.916
X47.335Y137.924
X47.308Y137.933
X47.281Y137.941
X47.254Y137.948
X47.227Y137.955
X47.2Y137.962
X47.173Y137.968
X47.146Y137.973
X47.118Y137.978
X47.091Y137.983
X47.063Y137.987
X47.036Y137.991
X47.008Y137.994
X46.98Y137.997
X46.952Y137.999
X46.925Y138
X46.897Y138.002
X46.869
X46.841Y138.003
X46.818Y138.002
X46.758Y138
X46.73Y137.999
X46.702Y137.997
X46.677Y137.994
X46.646Y137.991
X46.619Y137.987
X46.591Y137.983
X46.564Y137.978
X46.536Y137.973
X46.509Y137.968
X46.482Y137.962
X46.455Y137.955
X46.428Y137.948
X46.401Y137.941
X46.374Y137.933
X46.348Y137.924
X46.321Y137.916
X46.295Y137.906
X46.269Y137.897
X46.243Y137.886
X46.217Y137.876
X46.192Y137.865
X46.166Y137.853
X46.141Y137.841
X46.116Y137.829
X46.078Y137.808
X46.04Y137.787
X45.995Y137.76
X45.972Y137.745
X45.948Y137.73
X45.925Y137.714
X45.903Y137.698
X45.88Y137.681
X45.858Y137.664
X45.836Y137.647
X45.815Y137.629
X45.793Y137.611
X45.773Y137.592
X45.752Y137.574
X45.732Y137.555
X45.712Y137.535
X45.693Y137.515
X45.673Y137.495
X45.655Y137.474
X45.636Y137.454
X45.618Y137.432
X45.6Y137.411
X45.583Y137.389
X45.566Y137.367
X45.549Y137.344
X45.533Y137.322
X45.517Y137.299
X45.502Y137.275
X45.477Y137.236
X45.457Y137.202
X45.445Y137.18
X45.431Y137.155
X45.406Y137.106
X45.394Y137.081
X45.381Y137.052
X45.371Y137.03
X45.361Y137.004
X45.351Y136.978
X45.341Y136.952
X45.331Y136.926
X45.323Y136.901
X45.314Y136.872
X45.306Y136.846
X45.299Y136.819
X45.292Y136.792
X45.285Y136.765
X45.279Y136.738
X45.274Y136.711
X45.269Y136.683
X45.264Y136.656
X45.26Y136.628
X45.256Y136.601
X45.253Y136.573
X45.251Y136.545
X45.248Y136.517
X45.247Y136.489
X45.245Y136.462
X45.244Y136.406
X45.245Y136.378
Y136.35
X45.247Y136.322
X45.248Y136.295
X45.251Y136.267
X45.253Y136.239
X45.256Y136.211
X45.26Y136.184
X45.264Y136.156
X45.269Y136.129
X45.274Y136.101
X45.279Y136.074
X45.285Y136.047
X45.292Y136.02
X45.299Y135.993
X45.306Y135.966
X45.314Y135.939
X45.323Y135.913
X45.331Y135.886
X45.341Y135.86
X45.351Y135.834
X45.361Y135.808
X45.371Y135.782
X45.382Y135.757
X45.394Y135.731
X45.406Y135.706
X45.418Y135.681
X45.431Y135.656
X45.445Y135.632
X45.458Y135.608
X45.473Y135.584
X45.487Y135.56
X45.502Y135.536
X45.517Y135.513
X45.533Y135.49
X45.549Y135.468
X45.583Y135.423
X45.618Y135.38
X45.636Y135.358
X45.655Y135.338
X45.673Y135.317
X45.693Y135.297
X45.712Y135.277
X45.732Y135.257
X45.773Y135.219
X45.793Y135.201
X45.815Y135.183
X45.836Y135.165
X45.858Y135.148
X45.88Y135.131
X45.903Y135.114
X45.925Y135.098
X45.948Y135.082
X45.972Y135.067
X45.995Y135.052
X46.019Y135.037
X46.043Y135.023
X46.067Y135.009
X46.092Y134.996
X46.116Y134.983
X46.141Y134.971
X46.166Y134.959
X46.192Y134.947
X46.217Y134.936
X46.243Y134.926
X46.269Y134.915
X46.321Y134.896
G0Z1
X60.243Y136.215
G1Z-0.5F50
X60.294Y136.046F100
X60.377Y135.89
X60.49Y135.753
X60.626Y135.641
X60.782Y135.558
X60.951Y135.507
X61.127Y135.489
X61.303Y135.507
X61.472Y135.558
X61.628Y135.641
X61.764Y135.753
X61.876Y135.89
X61.96Y136.046
X62.011Y136.215
X62.028Y136.391
X62.011Y136.566
X61.96Y136.735
X61.876Y136.891
X61.764Y137.028
X61.628Y137.14
X61.472Y137.223
X61.303Y137.275
X61.127Y137.292
X60.951Y137.275
X60.782Y137.223
X60.626Y137.14
X60.49Y137.028
X60.377Y136.891
X60.294Y136.735
X60.243Y136.566
X60.226Y136.391
X60.243Y136.215
G0Z1
X76.129Y136.391
G1Z-0.5F50
X76.147Y136.215F100
X76.198Y136.046
X76.281Y135.89
X76.393Y135.753
X76.53Y135.641
X76.686Y135.558
X76.855Y135.507
X77.031Y135.489
X77.207Y135.507
X77.376Y135.558
X77.532Y135.641
X77.668Y135.753
X77.78Y135.89
X77.863Y136.046
X77.915Y136.215
X77.932Y136.391
X77.915Y136.566
X77.863Y136.735
X77.78Y136.891
X77.668Y137.028
X77.532Y137.14
X77.376Y137.223
X77.207Y137.275
X77.031Y137.292
X76.855Y137.275
X76.686Y137.223
X76.53Y137.14
X76.393Y137.028
X76.281Y136.891
X76.198Y136.735
X76.147Y136.566
X76.129Y136.391
G0Z1
X79.633Y128.465
G1Z-0.5F50
X53.178F100
X52.524Y128.471
X51.87Y128.487
X51.217Y128.515
X50.564Y128.553
X49.911Y128.602
X49.26Y128.662
X48.61Y128.732
X47.961Y128.814
X47.313Y128.906
X46.668Y129.009
X46.023Y129.123
X45.381Y129.247
X45.257Y129.274
X45.134Y129.302
X45.011Y129.333
X44.889Y129.366
X44.767Y129.401
X44.646Y129.438
X44.525Y129.477
X44.406Y129.518
X44.287Y129.561
X44.169Y129.606
X44.051Y129.654
X43.935Y129.703
X43.819Y129.754
X43.704Y129.808
X43.59Y129.863
X43.478Y129.92
X43.366Y129.98
X43.255Y130.041
X43.145Y130.104
X43.036Y130.169
X42.929Y130.236
X42.823Y130.304
X42.718Y130.375
X42.614Y130.447
X42.511Y130.521
X42.41Y130.597
X42.31Y130.675
X42.211Y130.754
X42.114Y130.835
X42.018Y130.918
X41.924Y131.002
X41.831Y131.089
X41.74Y131.176
X41.65Y131.265
X41.562Y131.356
X41.475Y131.448
X41.39Y131.542
X41.306Y131.637
X41.225Y131.734
X41.125Y131.856
X41.027Y131.98
X40.931Y132.105
X40.837Y132.233
X40.746Y132.361
X40.657Y132.492
X40.57Y132.624
X40.485Y132.757
X40.403Y132.892
X40.323Y133.028
X40.245Y133.165
X40.17Y133.304
X40.097Y133.444
X40.026Y133.586
X39.958Y133.728
X39.892Y133.872
X39.829Y134.017
X39.769Y134.162
X39.71Y134.309
X39.655Y134.457
X39.602Y134.606
X39.551Y134.755
X39.503Y134.906
X39.458Y135.057
X39.415Y135.209
X39.375Y135.362
X39.337Y135.515
X39.302Y135.669
X39.27Y135.824
X39.24Y135.979
X39.213Y136.135
X39.189Y136.291
X39.167Y136.447
X39.148Y136.604
X39.132Y136.761
X39.119Y136.919
X39.108Y137.076
X39.1Y137.234
X39.094Y137.392
X39.091Y137.55
Y137.708
X39.094Y137.866
X39.099Y138.023
X39.108Y138.181
X39.118Y138.339
X39.132Y138.496
X39.148Y138.653
X39.167Y138.81
X39.186Y138.953
X39.606Y141.844
X39.62Y141.92
X39.636Y141.996
X39.655Y142.071
X39.677Y142.145
X39.701Y142.218
X39.728Y142.292
X39.757Y142.363
X39.789Y142.434
X39.823Y142.503
X39.86Y142.572
X39.898Y142.638
X39.94Y142.704
X39.983Y142.768
X40.029Y142.831
X40.077Y142.892
X40.127Y142.951
X40.178Y143.007
X40.223Y143.054
X40.277Y143.107
X40.336Y143.16
X40.395Y143.21
X40.455Y143.257
X40.519Y143.304
X40.581Y143.347
X40.648Y143.389
X40.715Y143.428
X40.781Y143.464
X40.852Y143.499
X40.923Y143.53
X40.995Y143.56
X41.067Y143.587
X41.141Y143.611
X41.216Y143.633
X41.303Y143.655
X41.379Y143.671
X41.456Y143.685
X41.533Y143.695
X41.609Y143.704
X41.687Y143.709
X41.764Y143.712
X41.803
X46.854
X46.97Y143.711
X47.087Y143.708
X47.204Y143.703
X47.321Y143.696
X48.576Y143.606
X49.729Y143.541
X50.882Y143.495
X52.037Y143.467
X53.197Y143.458
X56.75
X56.788Y143.461
X56.827Y143.464
X56.865Y143.465
X56.903
X84.903
X84.943
X84.982Y143.463
X85.022Y143.461
X85.062Y143.457
X85.101Y143.453
X85.141Y143.448
X85.18Y143.441
X85.219Y143.434
X85.258Y143.425
X85.297Y143.416
X85.335Y143.406
X85.373Y143.394
X85.411Y143.382
X85.448Y143.369
X85.486Y143.355
X85.522Y143.34
X85.559Y143.324
X85.595Y143.307
X85.63Y143.289
X85.666Y143.271
X85.701Y143.251
X85.735Y143.23
X85.77Y143.209
X85.803Y143.186
X85.836Y143.163
X85.869Y143.139
X85.901Y143.114
X85.932Y143.088
X85.947Y143.075
X85.976Y143.049
X85.998Y143.028
X86.02Y143.007
X86.048Y142.979
X86.076Y142.95
X86.108Y142.914
X86.139Y142.877
X86.16Y142.849
X86.182Y142.821
X86.202Y142.792
X86.223Y142.763
X86.242Y142.734
X86.261Y142.703
X86.278Y142.675
X86.294Y142.647
X86.31Y142.618
X86.329Y142.58
X86.347Y142.543
X86.36Y142.513
X86.373Y142.484
X86.389Y142.443
X86.397Y142.421
X86.411Y142.381
X86.424Y142.34
X86.436Y142.298
X86.448Y142.256
X86.458Y142.213
X86.466Y142.173
X86.473Y142.132
X86.48Y142.081
X86.487Y142.025
X86.49Y141.991
X86.492Y141.958
X86.493Y141.924
X86.494Y141.874
Y141.642
X86.505Y141.58
X86.515Y141.504
X86.524Y141.425
X86.529Y141.349
X86.532Y141.271
Y141.232
Y130.398
Y130.359
X86.53Y130.319
X86.528Y130.28
X86.524Y130.241
X86.52Y130.202
X86.515Y130.162
X86.508Y130.124
X86.501Y130.085
X86.494Y130.051
X86.493Y130.009
X86.49Y129.966
X86.487Y129.923
X86.482Y129.88
X86.476Y129.838
X86.469Y129.795
X86.461Y129.753
X86.452Y129.711
X86.441Y129.669
X86.432Y129.634
X86.422Y129.6
X86.411Y129.566
X86.399Y129.532
X86.386Y129.498
X86.369Y129.457
X86.351Y129.416
X86.332Y129.376
X86.31Y129.332
X86.294Y129.303
X86.277Y129.273
X86.256Y129.237
X86.233Y129.201
X86.212Y129.169
X86.189Y129.138
X86.166Y129.107
X86.142Y129.077
X86.118Y129.047
X86.092Y129.018
X86.067Y128.989
X86.04Y128.961
X86.013Y128.934
X85.985Y128.908
X85.956Y128.882
X85.927Y128.857
X85.897Y128.832
X85.867Y128.808
X85.836Y128.785
X85.804Y128.763
X85.772Y128.742
X85.739Y128.721
X85.706Y128.701
X85.673Y128.682
X85.638Y128.663
X85.604Y128.646
X85.569Y128.63
X85.535Y128.614
X85.499Y128.599
X85.464Y128.586
X85.428Y128.573
X85.392Y128.56
X85.355Y128.549
X85.318Y128.539
X85.281Y128.529
X85.244Y128.52
X85.207Y128.513
X85.169Y128.506
X85.131Y128.5
X85.094Y128.495
X85.056Y128.491
X85.018Y128.488
X84.979Y128.485
X84.941Y128.484
X84.903Y128.483
X80.967
X80.377Y128.47
X79.633Y128.465
G0Z1
X46.321Y134.896
G1Z-0.6F50
X46.348Y134.887F100
X46.374Y134.879
X46.401Y134.871
X46.455Y134.857
X46.482Y134.85
X46.508Y134.844
X46.537Y134.839
X46.592Y134.829
X46.619Y134.825
X46.647Y134.821
X46.674Y134.818
X46.719Y134.814
X46.765Y134.811
X46.785Y134.81
X46.813
X46.841Y134.809
X46.869Y134.81
X46.897
X46.953Y134.813
X46.98Y134.815
X47.008Y134.818
X47.036Y134.821
X47.063Y134.825
X47.118Y134.834
X47.146Y134.839
X47.173Y134.844
X47.2Y134.85
X47.227Y134.857
X47.254Y134.864
X47.281Y134.871
X47.308Y134.879
X47.335Y134.887
X47.361Y134.896
X47.387Y134.906
X47.413Y134.915
X47.439Y134.926
X47.465Y134.936
X47.49Y134.947
X47.516Y134.959
X47.541Y134.971
X47.566Y134.983
X47.591Y134.996
X47.615Y135.009
X47.639Y135.023
X47.664Y135.037
X47.687Y135.052
X47.711Y135.067
X47.734Y135.082
X47.757Y135.098
X47.78Y135.114
X47.802Y135.131
X47.824Y135.148
X47.846Y135.165
X47.867Y135.183
X47.902Y135.212
X47.933Y135.242
X47.95Y135.257
X47.983Y135.29
X48.011Y135.319
X48.028Y135.338
X48.046Y135.358
X48.064Y135.38
X48.082Y135.401
X48.099Y135.423
X48.116Y135.445
X48.149Y135.49
X48.165Y135.513
X48.19Y135.552
X48.211Y135.586
X48.224Y135.608
X48.238Y135.632
X48.251Y135.656
X48.264Y135.681
X48.276Y135.706
X48.288Y135.731
X48.311Y135.782
X48.321Y135.808
X48.333Y135.837
X48.341Y135.86
X48.351Y135.886
X48.36Y135.913
X48.368Y135.939
X48.376Y135.966
X48.383Y135.993
X48.39Y136.02
X48.397Y136.047
X48.403Y136.074
X48.408Y136.101
X48.413Y136.129
X48.418Y136.156
X48.422Y136.184
X48.426Y136.211
X48.429Y136.239
X48.432Y136.267
X48.434Y136.295
X48.436Y136.322
X48.437Y136.35
Y136.378
X48.438Y136.406
X48.437Y136.434
Y136.462
X48.436Y136.489
X48.434Y136.517
X48.432Y136.545
X48.429Y136.573
X48.426Y136.601
X48.422Y136.628
X48.418Y136.656
X48.413Y136.683
X48.408Y136.711
X48.403Y136.738
X48.397Y136.765
X48.39Y136.792
X48.383Y136.819
X48.376Y136.846
X48.368Y136.873
X48.36Y136.899
X48.351Y136.926
X48.341Y136.952
X48.332Y136.978
X48.321Y137.004
X48.311Y137.03
X48.3Y137.055
X48.288Y137.081
X48.276Y137.106
X48.264Y137.131
X48.251Y137.155
X48.238Y137.18
X48.224Y137.204
X48.21Y137.228
X48.195Y137.252
X48.18Y137.275
X48.165Y137.299
X48.149Y137.322
X48.133Y137.344
X48.116Y137.367
X48.099Y137.389
X48.082Y137.411
X48.064Y137.432
X48.046Y137.454
X48.028Y137.474
X48.009Y137.495
X47.99Y137.515
X47.97Y137.535
X47.95Y137.555
X47.93Y137.574
X47.91Y137.592
X47.889Y137.611
X47.867Y137.629
X47.846Y137.647
X47.824Y137.664
X47.802Y137.681
X47.78Y137.698
X47.757Y137.714
X47.734Y137.73
X47.711Y137.745
X47.687Y137.76
X47.664Y137.774
X47.639Y137.789
X47.615Y137.803
X47.591Y137.816
X47.566Y137.829
X47.541Y137.841
X47.516Y137.853
X47.49Y137.865
X47.465Y137.876
X47.439Y137.886
X47.413Y137.897
X47.387Y137.906
X47.361Y137.916
X47.335Y137.924
X47.308Y137.933
X47.281Y137.941
X47.254Y137.948
X47.227Y137.955
X47.2Y137.962
X47.173Y137.968
X47.146Y137.973
X47.118Y137.978
X47.091Y137.983
X47.063Y137.987
X47.036Y137.991
X47.008Y137.994
X46.98Y137.997
X46.952Y137.999
X46.925Y138
X46.897Y138.002
X46.869
X46.841Y138.003
X46.818Y138.002
X46.758Y138
X46.73Y137.999
X46.702Y137.997
X46.677Y137.994
X46.646Y137.991
X46.619Y137.987
X46.591Y137.983
X46.564Y137.978
X46.536Y137.973
X46.509Y137.968
X46.482Y137.962
X46.455Y137.955
X46.428Y137.948
X46.401Y137.941
X46.374Y137.933
X46.348Y137.924
X46.321Y137.916
X46.295Y137.906
X46.269Y137.897
X46.243Y137.886
X46.217Y137.876
X46.192Y137.865
X46.166Y137.853
X46.141Y137.841
X46.116Y137.829
X46.078Y137.808
X46.04Y137.787
X45.995Y137.76
X45.972Y137.745
X45.948Y137.73
X45.925Y137.714
X45.903Y137.698
X45.88Y137.681
X45.858Y137.664
X45.836Y137.647
X45.815Y137.629
X45.793Y137.611
X45.773Y137.592
X45.752Y137.574
X45.732Y137.555
X45.712Y137.535
X45.693Y137.515
X45.673Y137.495
X45.655Y137.474
X45.636Y137.454
X45.618Y137.432
X45.6Y137.411
X45.583Y137.389
X45.566Y137.367
X45.549Y137.344
X45.533Y137.322
X45.517Y137.299
X45.502Y137.275
X45.477Y137.236
X45.457Y137.202
X45.445Y137.18
X45.431Y137.155
X45.406Y137.106
X45.394Y137.081
X45.381Y137.052
X45.371Y137.03
X45.361Y137.004
X45.351Y136.978
X45.341Y136.952
X45.331Y136.926
X45.323Y136.901
X45.314Y136.872
X45.306Y136.846
X45.299Y136.819
X45.292Y136.792
X45.285Y136.765
X45.279Y136.738
X45.274Y136.711
X45.269Y136.683
X45.264Y136.656
X45.26Y136.628
X45.256Y136.601
X45.253Y136.573
X45.251Y136.545
X45.248Y136.517
X45.247Y136.489
X45.245Y136.462
X45.244Y136.406
X45.245Y136.378
Y136.35
X45.247Y136.322
X45.248Y136.295
X45.251Y136.267
X45.253Y136.239
X45.256Y136.211
X45.26Y136.184
X45.264Y136.156
X45.269Y136.129
X45.274Y136.101
X45.279Y136.074
X45.285Y136.047
X45.292Y136.02
X45.299Y135.993
X45.306Y135.966
X45.314Y135.939
X45.323Y135.913
X45.331Y135.886
X45.341Y135.86
X45.351Y135.834
X45.361Y135.808
X45.371Y135.782
X45.382Y135.757
X45.394Y135.731
X45.406Y135.706
X45.418Y135.681
X45.431Y135.656
X45.445Y135.632
X45.458Y135.608
X45.473Y135.584
X45.487Y135.56
X45.502Y135.536
X45.517Y135.513
X45.533Y135.49
X45.549Y135.468
X45.583Y135.423
X45.618Y135.38
X45.636Y135.358
X45.655Y135.338
X45.673Y135.317
X45.693Y135.297
X45.712Y135.277
X45.732Y135.257
X45.773Y135.219
X45.793Y135.201
X45.815Y135.183
X45.836Y135.165
X45.858Y135.148
X45.88Y135.131
X45.903Y135.114
X45.925Y135.098
X45.948Y135.082
X45.972Y135.067
X45.995Y135.052
X46.019Y135.037
X46.043Y135.023
X46.067Y135.009
X46.092Y134.996
X46.116Y134.983
X46.141Y134.971
X46.166Y134.959
X46.192Y134.947
X46.217Y134.936
X46.243Y134.926
X46.269Y134.915
X46.321Y134.896
G0Z1
X60.243Y136.215
G1Z-0.6F50
X60.294Y136.046F100
X60.377Y135.89
X60.49Y135.753
X60.626Y135.641
X60.782Y135.558
X60.951Y135.507
X61.127Y135.489
X61.303Y135.507
X61.472Y135.558
X61.628Y135.641
X61.764Y135.753
X61.876Y135.89
X61.96Y136.046
X62.011Y136.215
X62.028Y136.391
X62.011Y136.566
X61.96Y136.735
X61.876Y136.891
X61.764Y137.028
X61.628Y137.14
X61.472Y137.223
X61.303Y137.275
X61.127Y137.292
X60.951Y137.275
X60.782Y137.223
X60.626Y137.14
X60.49Y137.028
X60.377Y136.891
X60.294Y136.735
X60.243Y136.566
X60.226Y136.391
X60.243Y136.215
G0Z1
X76.129Y136.391
G1Z-0.6F50
X76.147Y136.215F100
X76.198Y136.046
X76.281Y135.89
X76.393Y135.753
X76.53Y135.641
X76.686Y135.558
X76.855Y135.507
X77.031Y135.489
X77.207Y135.507
X77.376Y135.558
X77.532Y135.641
X77.668Y135.753
X77.78Y135.89
X77.863Y136.046
X77.915Y136.215
X77.932Y136.391
X77.915Y136.566
X77.863Y136.735
X77.78Y136.891
X77.668Y137.028
X77.532Y137.14
X77.376Y137.223
X77.207Y137.275
X77.031Y137.292
X76.855Y137.275
X76.686Y137.223
X76.53Y137.14
X76.393Y137.028
X76.281Y136.891
X76.198Y136.735
X76.147Y136.566
X76.129Y136.391
G0Z1
X79.633Y128.465
G1Z-0.6F50
X53.178F100
X52.524Y128.471
X51.87Y128.487
X51.217Y128.515
X50.564Y128.553
X49.911Y128.602
X49.26Y128.662
X48.61Y128.732
X47.961Y128.814
X47.313Y128.906
X46.668Y129.009
X46.023Y129.123
X45.381Y129.247
X45.257Y129.274
X45.134Y129.302
X45.011Y129.333
X44.889Y129.366
X44.767Y129.401
X44.646Y129.438
X44.525Y129.477
X44.406Y129.518
X44.287Y129.561
X44.169Y129.606
X44.051Y129.654
X43.935Y129.703
X43.819Y129.754
X43.704Y129.808
X43.59Y129.863
X43.478Y129.92
X43.366Y129.98
X43.255Y130.041
X43.145Y130.104
X43.036Y130.169
X42.929Y130.236
X42.823Y130.304
X42.718Y130.375
X42.614Y130.447
X42.511Y130.521
X42.41Y130.597
X42.31Y130.675
X42.211Y130.754
X42.114Y130.835
X42.018Y130.918
X41.924Y131.002
X41.831Y131.089
X41.74Y131.176
X41.65Y131.265
X41.562Y131.356
X41.475Y131.448
X41.39Y131.542
X41.306Y131.637
X41.225Y131.734
X41.125Y131.856
X41.027Y131.98
X40.931Y132.105
X40.837Y132.233
X40.746Y132.361
X40.657Y132.492
X40.57Y132.624
X40.485Y132.757
X40.403Y132.892
X40.323Y133.028
X40.245Y133.165
X40.17Y133.304
X40.097Y133.444
X40.026Y133.586
X39.958Y133.728
X39.892Y133.872
X39.829Y134.017
X39.769Y134.162
X39.71Y134.309
X39.655Y134.457
X39.602Y134.606
X39.551Y134.755
X39.503Y134.906
X39.458Y135.057
X39.415Y135.209
X39.375Y135.362
X39.337Y135.515
X39.302Y135.669
X39.27Y135.824
X39.24Y135.979
X39.213Y136.135
X39.189Y136.291
X39.167Y136.447
X39.148Y136.604
X39.132Y136.761
X39.119Y136.919
X39.108Y137.076
X39.1Y137.234
X39.094Y137.392
X39.091Y137.55
Y137.708
X39.094Y137.866
X39.099Y138.023
X39.108Y138.181
X39.118Y138.339
X39.132Y138.496
X39.148Y138.653
X39.167Y138.81
X39.186Y138.953
X39.606Y141.844
X39.62Y141.92
X39.636Y141.996
X39.655Y142.071
X39.677Y142.145
X39.701Y142.218
X39.728Y142.292
X39.757Y142.363
X39.789Y142.434
X39.823Y142.503
X39.86Y142.572
X39.898Y142.638
X39.94Y142.704
X39.983Y142.768
X40.029Y142.831
X40.077Y142.892
X40.127Y142.951
X40.178Y143.007
X40.223Y143.054
X40.277Y143.107
X40.336Y143.16
X40.395Y143.21
X40.455Y143.257
X40.519Y143.304
X40.581Y143.347
X40.648Y143.389
X40.715Y143.428
X40.781Y143.464
X40.852Y143.499
X40.923Y143.53
X40.995Y143.56
X41.067Y143.587
X41.141Y143.611
X41.216Y143.633
X41.303Y143.655
X41.379Y143.671
X41.456Y143.685
X41.533Y143.695
X41.609Y143.704
X41.687Y143.709
X41.764Y143.712
X41.803
X46.854
X46.97Y143.711
X47.087Y143.708
X47.204Y143.703
X47.321Y143.696
X48.576Y143.606
X49.729Y143.541
X50.882Y143.495
X52.037Y143.467
X53.197Y143.458
X56.75
X56.788Y143.461
X56.827Y143.464
X56.865Y143.465
X56.903
X84.903
X84.943
X84.982Y143.463
X85.022Y143.461
X85.062Y143.457
X85.101Y143.453
X85.141Y143.448
X85.18Y143.441
X85.219Y143.434
X85.258Y143.425
X85.297Y143.416
X85.335Y143.406
X85.373Y143.394
X85.411Y143.382
X85.448Y143.369
X85.486Y143.355
X85.522Y143.34
X85.559Y143.324
X85.595Y143.307
X85.63Y143.289
X85.666Y143.271
X85.701Y143.251
X85.735Y143.23
X85.77Y143.209
X85.803Y143.186
X85.836Y143.163
X85.869Y143.139
X85.901Y143.114
X85.932Y143.088
X85.947Y143.075
X85.976Y143.049
X85.998Y143.028
X86.02Y143.007
X86.048Y142.979
X86.076Y142.95
X86.108Y142.914
X86.139Y142.877
X86.16Y142.849
X86.182Y142.821
X86.202Y142.792
X86.223Y142.763
X86.242Y142.734
X86.261Y142.703
X86.278Y142.675
X86.294Y142.647
X86.31Y142.618
X86.329Y142.58
X86.347Y142.543
X86.36Y142.513
X86.373Y142.484
X86.389Y142.443
X86.397Y142.421
X86.411Y142.381
X86.424Y142.34
X86.436Y142.298
X86.448Y142.256
X86.458Y142.213
X86.466Y142.173
X86.473Y142.132
X86.48Y142.081
X86.487Y142.025
X86.49Y141.991
X86.492Y141.958
X86.493Y141.924
X86.494Y141.874
Y141.642
X86.505Y141.58
X86.515Y141.504
X86.524Y141.425
X86.529Y141.349
X86.532Y141.271
Y141.232
Y130.398
Y130.359
X86.53Y130.319
X86.528Y130.28
X86.524Y130.241
X86.52Y130.202
X86.515Y130.162
X86.508Y130.124
X86.501Y130.085
X86.494Y130.051
X86.493Y130.009
X86.49Y129.966
X86.487Y129.923
X86.482Y129.88
X86.476Y129.838
X86.469Y129.795
X86.461Y129.753
X86.452Y129.711
X86.441Y129.669
X86.432Y129.634
X86.422Y129.6
X86.411Y129.566
X86.399Y129.532
X86.386Y129.498
X86.369Y129.457
X86.351Y129.416
X86.332Y129.376
X86.31Y129.332
X86.294Y129.303
X86.277Y129.273
X86.256Y129.237
X86.233Y129.201
X86.212Y129.169
X86.189Y129.138
X86.166Y129.107
X86.142Y129.077
X86.118Y129.047
X86.092Y129.018
X86.067Y128.989
X86.04Y128.961
X86.013Y128.934
X85.985Y128.908
X85.956Y128.882
X85.927Y128.857
X85.897Y128.832
X85.867Y128.808
X85.836Y128.785
X85.804Y128.763
X85.772Y128.742
X85.739Y128.721
X85.706Y128.701
X85.673Y128.682
X85.638Y128.663
X85.604Y128.646
X85.569Y128.63
X85.535Y128.614
X85.499Y128.599
X85.464Y128.586
X85.428Y128.573
X85.392Y128.56
X85.355Y128.549
X85.318Y128.539
X85.281Y128.529
X85.244Y128.52
X85.207Y128.513
X85.169Y128.506
X85.131Y128.5
X85.094Y128.495
X85.056Y128.491
X85.018Y128.488
X84.979Y128.485
X84.941Y128.484
X84.903Y128.483
X80.967
X80.377Y128.47
X79.633Y128.465
G0Z1
X46.321Y134.896
G1Z-0.7F50
X46.348Y134.887F100
X46.374Y134.879
X46.401Y134.871
X46.455Y134.857
X46.482Y134.85
X46.508Y134.844
X46.537Y134.839
X46.592Y134.829
X46.619Y134.825
X46.647Y134.821
X46.674Y134.818
X46.719Y134.814
X46.765Y134.811
X46.785Y134.81
X46.813
X46.841Y134.809
X46.869Y134.81
X46.897
X46.953Y134.813
X46.98Y134.815
X47.008Y134.818
X47.036Y134.821
X47.063Y134.825
X47.118Y134.834
X47.146Y134.839
X47.173Y134.844
X47.2Y134.85
X47.227Y134.857
X47.254Y134.864
X47.281Y134.871
X47.308Y134.879
X47.335Y134.887
X47.361Y134.896
X47.387Y134.906
X47.413Y134.915
X47.439Y134.926
X47.465Y134.936
X47.49Y134.947
X47.516Y134.959
X47.541Y134.971
X47.566Y134.983
X47.591Y134.996
X47.615Y135.009
X47.639Y135.023
X47.664Y135.037
X47.687Y135.052
X47.711Y135.067
X47.734Y135.082
X47.757Y135.098
X47.78Y135.114
X47.802Y135.131
X47.824Y135.148
X47.846Y135.165
X47.867Y135.183
X47.902Y135.212
X47.933Y135.242
X47.95Y135.257
X47.983Y135.29
X48.011Y135.319
X48.028Y135.338
X48.046Y135.358
X48.064Y135.38
X48.082Y135.401
X48.099Y135.423
X48.116Y135.445
X48.149Y135.49
X48.165Y135.513
X48.19Y135.552
X48.211Y135.586
X48.224Y135.608
X48.238Y135.632
X48.251Y135.656
X48.264Y135.681
X48.276Y135.706
X48.288Y135.731
X48.311Y135.782
X48.321Y135.808
X48.333Y135.837
X48.341Y135.86
X48.351Y135.886
X48.36Y135.913
X48.368Y135.939
X48.376Y135.966
X48.383Y135.993
X48.39Y136.02
X48.397Y136.047
X48.403Y136.074
X48.408Y136.101
X48.413Y136.129
X48.418Y136.156
X48.422Y136.184
X48.426Y136.211
X48.429Y136.239
X48.432Y136.267
X48.434Y136.295
X48.436Y136.322
X48.437Y136.35
Y136.378
X48.438Y136.406
X48.437Y136.434
Y136.462
X48.436Y136.489
X48.434Y136.517
X48.432Y136.545
X48.429Y136.573
X48.426Y136.601
X48.422Y136.628
X48.418Y136.656
X48.413Y136.683
X48.408Y136.711
X48.403Y136.738
X48.397Y136.765
X48.39Y136.792
X48.383Y136.819
X48.376Y136.846
X48.368Y136.873
X48.36Y136.899
X48.351Y136.926
X48.341Y136.952
X48.332Y136.978
X48.321Y137.004
X48.311Y137.03
X48.3Y137.055
X48.288Y137.081
X48.276Y137.106
X48.264Y137.131
X48.251Y137.155
X48.238Y137.18
X48.224Y137.204
X48.21Y137.228
X48.195Y137.252
X48.18Y137.275
X48.165Y137.299
X48.149Y137.322
X48.133Y137.344
X48.116Y137.367
X48.099Y137.389
X48.082Y137.411
X48.064Y137.432
X48.046Y137.454
X48.028Y137.474
X48.009Y137.495
X47.99Y137.515
X47.97Y137.535
X47.95Y137.555
X47.93Y137.574
X47.91Y137.592
X47.889Y137.611
X47.867Y137.629
X47.846Y137.647
X47.824Y137.664
X47.802Y137.681
X47.78Y137.698
X47.757Y137.714
X47.734Y137.73
X47.711Y137.745
X47.687Y137.76
X47.664Y137.774
X47.639Y137.789
X47.615Y137.803
X47.591Y137.816
X47.566Y137.829
X47.541Y137.841
X47.516Y137.853
X47.49Y137.865
X47.465Y137.876
X47.439Y137.886
X47.413Y137.897
X47.387Y137.906
X47.361Y137.916
X47.335Y137.924
X47.308Y137.933
X47.281Y137.941
X47.254Y137.948
X47.227Y137.955
X47.2Y137.962
X47.173Y137.968
X47.146Y137.973
X47.118Y137.978
X47.091Y137.983
X47.063Y137.987
X47.036Y137.991
X47.008Y137.994
X46.98Y137.997
X46.952Y137.999
X46.925Y138
X46.897Y138.002
X46.869
X46.841Y138.003
X46.818Y138.002
X46.758Y138
X46.73Y137.999
X46.702Y137.997
X46.677Y137.994
X46.646Y137.991
X46.619Y137.987
X46.591Y137.983
X46.564Y137.978
X46.536Y137.973
X46.509Y137.968
X46.482Y137.962
X46.455Y137.955
X46.428Y137.948
X46.401Y137.941
X46.374Y137.933
X46.348Y137.924
X46.321Y137.916
X46.295Y137.906
X46.269Y137.897
X46.243Y137.886
X46.217Y137.876
X46.192Y137.865
X46.166Y137.853
X46.141Y137.841
X46.116Y137.829
X46.078Y137.808
X46.04Y137.787
X45.995Y137.76
X45.972Y137.745
X45.948Y137.73
X45.925Y137.714
X45.903Y137.698
X45.88Y137.681
X45.858Y137.664
X45.836Y137.647
X45.815Y137.629
X45.793Y137.611
X45.773Y137.592
X45.752Y137.574
X45.732Y137.555
X45.712Y137.535
X45.693Y137.515
X45.673Y137.495
X45.655Y137.474
X45.636Y137.454
X45.618Y137.432
X45.6Y137.411
X45.583Y137.389
X45.566Y137.367
X45.549Y137.344
X45.533Y137.322
X45.517Y137.299
X45.502Y137.275
X45.477Y137.236
X45.457Y137.202
X45.445Y137.18
X45.431Y137.155
X45.406Y137.106
X45.394Y137.081
X45.381Y137.052
X45.371Y137.03
X45.361Y137.004
X45.351Y136.978
X45.341Y136.952
X45.331Y136.926
X45.323Y136.901
X45.314Y136.872
X45.306Y136.846
X45.299Y136.819
X45.292Y136.792
X45.285Y136.765
X45.279Y136.738
X45.274Y136.711
X45.269Y136.683
X45.264Y136.656
X45.26Y136.628
X45.256Y136.601
X45.253Y136.573
X45.251Y136.545
X45.248Y136.517
X45.247Y136.489
X45.245Y136.462
X45.244Y136.406
X45.245Y136.378
Y136.35
X45.247Y136.322
X45.248Y136.295
X45.251Y136.267
X45.253Y136.239
X45.256Y136.211
X45.26Y136.184
X45.264Y136.156
X45.269Y136.129
X45.274Y136.101
X45.279Y136.074
X45.285Y136.047
X45.292Y136.02
X45.299Y135.993
X45.306Y135.966
X45.314Y135.939
X45.323Y135.913
X45.331Y135.886
X45.341Y135.86
X45.351Y135.834
X45.361Y135.808
X45.371Y135.782
X45.382Y135.757
X45.394Y135.731
X45.406Y135.706
X45.418Y135.681
X45.431Y135.656
X45.445Y135.632
X45.458Y135.608
X45.473Y135.584
X45.487Y135.56
X45.502Y135.536
X45.517Y135.513
X45.533Y135.49
X45.549Y135.468
X45.583Y135.423
X45.618Y135.38
X45.636Y135.358
X45.655Y135.338
X45.673Y135.317
X45.693Y135.297
X45.712Y135.277
X45.732Y135.257
X45.773Y135.219
X45.793Y135.201
X45.815Y135.183
X45.836Y135.165
X45.858Y135.148
X45.88Y135.131
X45.903Y135.114
X45.925Y135.098
X45.948Y135.082
X45.972Y135.067
X45.995Y135.052
X46.019Y135.037
X46.043Y135.023
X46.067Y135.009
X46.092Y134.996
X46.116Y134.983
X46.141Y134.971
X46.166Y134.959
X46.192Y134.947
X46.217Y134.936
X46.243Y134.926
X46.269Y134.915
X46.321Y134.896
G0Z1
X60.243Y136.215
G1Z-0.7F50
X60.294Y136.046F100
X60.377Y135.89
X60.49Y135.753
X60.626Y135.641
X60.782Y135.558
X60.951Y135.507
X61.127Y135.489
X61.303Y135.507
X61.472Y135.558
X61.628Y135.641
X61.764Y135.753
X61.876Y135.89
X61.96Y136.046
X62.011Y136.215
X62.028Y136.391
X62.011Y136.566
X61.96Y136.735
X61.876Y136.891
X61.764Y137.028
X61.628Y137.14
X61.472Y137.223
X61.303Y137.275
X61.127Y137.292
X60.951Y137.275
X60.782Y137.223
X60.626Y137.14
X60.49Y137.028
X60.377Y136.891
X60.294Y136.735
X60.243Y136.566
X60.226Y136.391
X60.243Y136.215
G0Z1
X76.129Y136.391
G1Z-0.7F50
X76.147Y136.215F100
X76.198Y136.046
X76.281Y135.89
X76.393Y135.753
X76.53Y135.641
X76.686Y135.558
X76.855Y135.507
X77.031Y135.489
X77.207Y135.507
X77.376Y135.558
X77.532Y135.641
X77.668Y135.753
X77.78Y135.89
X77.863Y136.046
X77.915Y136.215
X77.932Y136.391
X77.915Y136.566
X77.863Y136.735
X77.78Y136.891
X77.668Y137.028
X77.532Y137.14
X77.376Y137.223
X77.207Y137.275
X77.031Y137.292
X76.855Y137.275
X76.686Y137.223
X76.53Y137.14
X76.393Y137.028
X76.281Y136.891
X76.198Y136.735
X76.147Y136.566
X76.129Y136.391
G0Z1
X79.633Y128.465
G1Z-0.7F50
X53.178F100
X52.524Y128.471
X51.87Y128.487
X51.217Y128.515
X50.564Y128.553
X49.911Y128.602
X49.26Y128.662
X48.61Y128.732
X47.961Y128.814
X47.313Y128.906
X46.668Y129.009
X46.023Y129.123
X45.381Y129.247
X45.257Y129.274
X45.134Y129.302
X45.011Y129.333
X44.889Y129.366
X44.767Y129.401
X44.646Y129.438
X44.525Y129.477
X44.406Y129.518
X44.287Y129.561
X44.169Y129.606
X44.051Y129.654
X43.935Y129.703
X43.819Y129.754
X43.704Y129.808
X43.59Y129.863
X43.478Y129.92
X43.366Y129.98
X43.255Y130.041
X43.145Y130.104
X43.036Y130.169
X42.929Y130.236
X42.823Y130.304
X42.718Y130.375
X42.614Y130.447
X42.511Y130.521
X42.41Y130.597
X42.31Y130.675
X42.211Y130.754
X42.114Y130.835
X42.018Y130.918
X41.924Y131.002
X41.831Y131.089
X41.74Y131.176
X41.65Y131.265
X41.562Y131.356
X41.475Y131.448
X41.39Y131.542
X41.306Y131.637
X41.225Y131.734
X41.125Y131.856
X41.027Y131.98
X40.931Y132.105
X40.837Y132.233
X40.746Y132.361
X40.657Y132.492
X40.57Y132.624
X40.485Y132.757
X40.403Y132.892
X40.323Y133.028
X40.245Y133.165
X40.17Y133.304
X40.097Y133.444
X40.026Y133.586
X39.958Y133.728
X39.892Y133.872
X39.829Y134.017
X39.769Y134.162
X39.71Y134.309
X39.655Y134.457
X39.602Y134.606
X39.551Y134.755
X39.503Y134.906
X39.458Y135.057
X39.415Y135.209
X39.375Y135.362
X39.337Y135.515
X39.302Y135.669
X39.27Y135.824
X39.24Y135.979
X39.213Y136.135
X39.189Y136.291
X39.167Y136.447
X39.148Y136.604
X39.132Y136.761
X39.119Y136.919
X39.108Y137.076
X39.1Y137.234
X39.094Y137.392
X39.091Y137.55
Y137.708
X39.094Y137.866
X39.099Y138.023
X39.108Y138.181
X39.118Y138.339
X39.132Y138.496
X39.148Y138.653
X39.167Y138.81
X39.186Y138.953
X39.606Y141.844
X39.62Y141.92
X39.636Y141.996
X39.655Y142.071
X39.677Y142.145
X39.701Y142.218
X39.728Y142.292
X39.757Y142.363
X39.789Y142.434
X39.823Y142.503
X39.86Y142.572
X39.898Y142.638
X39.94Y142.704
X39.983Y142.768
X40.029Y142.831
X40.077Y142.892
X40.127Y142.951
X40.178Y143.007
X40.223Y143.054
X40.277Y143.107
X40.336Y143.16
X40.395Y143.21
X40.455Y143.257
X40.519Y143.304
X40.581Y143.347
X40.648Y143.389
X40.715Y143.428
X40.781Y143.464
X40.852Y143.499
X40.923Y143.53
X40.995Y143.56
X41.067Y143.587
X41.141Y143.611
X41.216Y143.633
X41.303Y143.655
X41.379Y143.671
X41.456Y143.685
X41.533Y143.695
X41.609Y143.704
X41.687Y143.709
X41.764Y143.712
X41.803
X46.854
X46.97Y143.711
X47.087Y143.708
X47.204Y143.703
X47.321Y143.696
X48.576Y143.606
X49.729Y143.541
X50.882Y143.495
X52.037Y143.467
X53.197Y143.458
X56.75
X56.788Y143.461
X56.827Y143.464
X56.865Y143.465
X56.903
X84.903
X84.943
X84.982Y143.463
X85.022Y143.461
X85.062Y143.457
X85.101Y143.453
X85.141Y143.448
X85.18Y143.441
X85.219Y143.434
X85.258Y143.425
X85.297Y143.416
X85.335Y143.406
X85.373Y143.394
X85.411Y143.382
X85.448Y143.369
X85.486Y143.355
X85.522Y143.34
X85.559Y143.324
X85.595Y143.307
X85.63Y143.289
X85.666Y143.271
X85.701Y143.251
X85.735Y143.23
X85.77Y143.209
X85.803Y143.186
X85.836Y143.163
X85.869Y143.139
X85.901Y143.114
X85.932Y143.088
X85.947Y143.075
X85.976Y143.049
X85.998Y143.028
X86.02Y143.007
X86.048Y142.979
X86.076Y142.95
X86.108Y142.914
X86.139Y142.877
X86.16Y142.849
X86.182Y142.821
X86.202Y142.792
X86.223Y142.763
X86.242Y142.734
X86.261Y142.703
X86.278Y142.675
X86.294Y142.647
X86.31Y142.618
X86.329Y142.58
X86.347Y142.543
X86.36Y142.513
X86.373Y142.484
X86.389Y142.443
X86.397Y142.421
X86.411Y142.381
X86.424Y142.34
X86.436Y142.298
X86.448Y142.256
X86.458Y142.213
X86.466Y142.173
X86.473Y142.132
X86.48Y142.081
X86.487Y142.025
X86.49Y141.991
X86.492Y141.958
X86.493Y141.924
X86.494Y141.874
Y141.642
X86.505Y141.58
X86.515Y141.504
X86.524Y141.425
X86.529Y141.349
X86.532Y141.271
Y141.232
Y130.398
Y130.359
X86.53Y130.319
X86.528Y130.28
X86.524Y130.241
X86.52Y130.202
X86.515Y130.162
X86.508Y130.124
X86.501Y130.085
X86.494Y130.051
X86.493Y130.009
X86.49Y129.966
X86.487Y129.923
X86.482Y129.88
X86.476Y129.838
X86.469Y129.795
X86.461Y129.753
X86.452Y129.711
X86.441Y129.669
X86.432Y129.634
X86.422Y129.6
X86.411Y129.566
X86.399Y129.532
X86.386Y129.498
X86.369Y129.457
X86.351Y129.416
X86.332Y129.376
X86.31Y129.332
X86.294Y129.303
X86.277Y129.273
X86.256Y129.237
X86.233Y129.201
X86.212Y129.169
X86.189Y129.138
X86.166Y129.107
X86.142Y129.077
X86.118Y129.047
X86.092Y129.018
X86.067Y128.989
X86.04Y128.961
X86.013Y128.934
X85.985Y128.908
X85.956Y128.882
X85.927Y128.857
X85.897Y128.832
X85.867Y128.808
X85.836Y128.785
X85.804Y128.763
X85.772Y128.742
X85.739Y128.721
X85.706Y128.701
X85.673Y128.682
X85.638Y128.663
X85.604Y128.646
X85.569Y128.63
X85.535Y128.614
X85.499Y128.599
X85.464Y128.586
X85.428Y128.573
X85.392Y128.56
X85.355Y128.549
X85.318Y128.539
X85.281Y128.529
X85.244Y128.52
X85.207Y128.513
X85.169Y128.506
X85.131Y128.5
X85.094Y128.495
X85.056Y128.491
X85.018Y128.488
X84.979Y128.485
X84.941Y128.484
X84.903Y128.483
X80.967
X80.377Y128.47
X79.633Y128.465
G0Z1
X46.321Y134.896
G1Z-0.8F50
X46.348Y134.887F100
X46.374Y134.879
X46.401Y134.871
X46.455Y134.857
X46.482Y134.85
X46.508Y134.844
X46.537Y134.839
X46.592Y134.829
X46.619Y134.825
X46.647Y134.821
X46.674Y134.818
X46.719Y134.814
X46.765Y134.811
X46.785Y134.81
X46.813
X46.841Y134.809
X46.869Y134.81
X46.897
X46.953Y134.813
X46.98Y134.815
X47.008Y134.818
X47.036Y134.821
X47.063Y134.825
X47.118Y134.834
X47.146Y134.839
X47.173Y134.844
X47.2Y134.85
X47.227Y134.857
X47.254Y134.864
X47.281Y134.871
X47.308Y134.879
X47.335Y134.887
X47.361Y134.896
X47.387Y134.906
X47.413Y134.915
X47.439Y134.926
X47.465Y134.936
X47.49Y134.947
X47.516Y134.959
X47.541Y134.971
X47.566Y134.983
X47.591Y134.996
X47.615Y135.009
X47.639Y135.023
X47.664Y135.037
X47.687Y135.052
X47.711Y135.067
X47.734Y135.082
X47.757Y135.098
X47.78Y135.114
X47.802Y135.131
X47.824Y135.148
X47.846Y135.165
X47.867Y135.183
X47.902Y135.212
X47.933Y135.242
X47.95Y135.257
X47.983Y135.29
X48.011Y135.319
X48.028Y135.338
X48.046Y135.358
X48.064Y135.38
X48.082Y135.401
X48.099Y135.423
X48.116Y135.445
X48.149Y135.49
X48.165Y135.513
X48.19Y135.552
X48.211Y135.586
X48.224Y135.608
X48.238Y135.632
X48.251Y135.656
X48.264Y135.681
X48.276Y135.706
X48.288Y135.731
X48.311Y135.782
X48.321Y135.808
X48.333Y135.837
X48.341Y135.86
X48.351Y135.886
X48.36Y135.913
X48.368Y135.939
X48.376Y135.966
X48.383Y135.993
X48.39Y136.02
X48.397Y136.047
X48.403Y136.074
X48.408Y136.101
X48.413Y136.129
X48.418Y136.156
X48.422Y136.184
X48.426Y136.211
X48.429Y136.239
X48.432Y136.267
X48.434Y136.295
X48.436Y136.322
X48.437Y136.35
Y136.378
X48.438Y136.406
X48.437Y136.434
Y136.462
X48.436Y136.489
X48.434Y136.517
X48.432Y136.545
X48.429Y136.573
X48.426Y136.601
X48.422Y136.628
X48.418Y136.656
X48.413Y136.683
X48.408Y136.711
X48.403Y136.738
X48.397Y136.765
X48.39Y136.792
X48.383Y136.819
X48.376Y136.846
X48.368Y136.873
X48.36Y136.899
X48.351Y136.926
X48.341Y136.952
X48.332Y136.978
X48.321Y137.004
X48.311Y137.03
X48.3Y137.055
X48.288Y137.081
X48.276Y137.106
X48.264Y137.131
X48.251Y137.155
X48.238Y137.18
X48.224Y137.204
X48.21Y137.228
X48.195Y137.252
X48.18Y137.275
X48.165Y137.299
X48.149Y137.322
X48.133Y137.344
X48.116Y137.367
X48.099Y137.389
X48.082Y137.411
X48.064Y137.432
X48.046Y137.454
X48.028Y137.474
X48.009Y137.495
X47.99Y137.515
X47.97Y137.535
X47.95Y137.555
X47.93Y137.574
X47.91Y137.592
X47.889Y137.611
X47.867Y137.629
X47.846Y137.647
X47.824Y137.664
X47.802Y137.681
X47.78Y137.698
X47.757Y137.714
X47.734Y137.73
X47.711Y137.745
X47.687Y137.76
X47.664Y137.774
X47.639Y137.789
X47.615Y137.803
X47.591Y137.816
X47.566Y137.829
X47.541Y137.841
X47.516Y137.853
X47.49Y137.865
X47.465Y137.876
X47.439Y137.886
X47.413Y137.897
X47.387Y137.906
X47.361Y137.916
X47.335Y137.924
X47.308Y137.933
X47.281Y137.941
X47.254Y137.948
X47.227Y137.955
X47.2Y137.962
X47.173Y137.968
X47.146Y137.973
X47.118Y137.978
X47.091Y137.983
X47.063Y137.987
X47.036Y137.991
X47.008Y137.994
X46.98Y137.997
X46.952Y137.999
X46.925Y138
X46.897Y138.002
X46.869
X46.841Y138.003
X46.818Y138.002
X46.758Y138
X46.73Y137.999
X46.702Y137.997
X46.677Y137.994
X46.646Y137.991
X46.619Y137.987
X46.591Y137.983
X46.564Y137.978
X46.536Y137.973
X46.509Y137.968
X46.482Y137.962
X46.455Y137.955
X46.428Y137.948
X46.401Y137.941
X46.374Y137.933
X46.348Y137.924
X46.321Y137.916
X46.295Y137.906
X46.269Y137.897
X46.243Y137.886
X46.217Y137.876
X46.192Y137.865
X46.166Y137.853
X46.141Y137.841
X46.116Y137.829
X46.078Y137.808
X46.04Y137.787
X45.995Y137.76
X45.972Y137.745
X45.948Y137.73
X45.925Y137.714
X45.903Y137.698
X45.88Y137.681
X45.858Y137.664
X45.836Y137.647
X45.815Y137.629
X45.793Y137.611
X45.773Y137.592
X45.752Y137.574
X45.732Y137.555
X45.712Y137.535
X45.693Y137.515
X45.673Y137.495
X45.655Y137.474
X45.636Y137.454
X45.618Y137.432
X45.6Y137.411
X45.583Y137.389
X45.566Y137.367
X45.549Y137.344
X45.533Y137.322
X45.517Y137.299
X45.502Y137.275
X45.477Y137.236
X45.457Y137.202
X45.445Y137.18
X45.431Y137.155
X45.406Y137.106
X45.394Y137.081
X45.381Y137.052
X45.371Y137.03
X45.361Y137.004
X45.351Y136.978
X45.341Y136.952
X45.331Y136.926
X45.323Y136.901
X45.314Y136.872
X45.306Y136.846
X45.299Y136.819
X45.292Y136.792
X45.285Y136.765
X45.279Y136.738
X45.274Y136.711
X45.269Y136.683
X45.264Y136.656
X45.26Y136.628
X45.256Y136.601
X45.253Y136.573
X45.251Y136.545
X45.248Y136.517
X45.247Y136.489
X45.245Y136.462
X45.244Y136.406
X45.245Y136.378
Y136.35
X45.247Y136.322
X45.248Y136.295
X45.251Y136.267
X45.253Y136.239
X45.256Y136.211
X45.26Y136.184
X45.264Y136.156
X45.269Y136.129
X45.274Y136.101
X45.279Y136.074
X45.285Y136.047
X45.292Y136.02
X45.299Y135.993
X45.306Y135.966
X45.314Y135.939
X45.323Y135.913
X45.331Y135.886
X45.341Y135.86
X45.351Y135.834
X45.361Y135.808
X45.371Y135.782
X45.382Y135.757
X45.394Y135.731
X45.406Y135.706
X45.418Y135.681
X45.431Y135.656
X45.445Y135.632
X45.458Y135.608
X45.473Y135.584
X45.487Y135.56
X45.502Y135.536
X45.517Y135.513
X45.533Y135.49
X45.549Y135.468
X45.583Y135.423
X45.618Y135.38
X45.636Y135.358
X45.655Y135.338
X45.673Y135.317
X45.693Y135.297
X45.712Y135.277
X45.732Y135.257
X45.773Y135.219
X45.793Y135.201
X45.815Y135.183
X45.836Y135.165
X45.858Y135.148
X45.88Y135.131
X45.903Y135.114
X45.925Y135.098
X45.948Y135.082
X45.972Y135.067
X45.995Y135.052
X46.019Y135.037
X46.043Y135.023
X46.067Y135.009
X46.092Y134.996
X46.116Y134.983
X46.141Y134.971
X46.166Y134.959
X46.192Y134.947
X46.217Y134.936
X46.243Y134.926
X46.269Y134.915
X46.321Y134.896
G0Z1
X60.243Y136.215
G1Z-0.8F50
X60.294Y136.046F100
X60.377Y135.89
X60.49Y135.753
X60.626Y135.641
X60.782Y135.558
X60.951Y135.507
X61.127Y135.489
X61.303Y135.507
X61.472Y135.558
X61.628Y135.641
X61.764Y135.753
X61.876Y135.89
X61.96Y136.046
X62.011Y136.215
X62.028Y136.391
X62.011Y136.566
X61.96Y136.735
X61.876Y136.891
X61.764Y137.028
X61.628Y137.14
X61.472Y137.223
X61.303Y137.275
X61.127Y137.292
X60.951Y137.275
X60.782Y137.223
X60.626Y137.14
X60.49Y137.028
X60.377Y136.891
X60.294Y136.735
X60.243Y136.566
X60.226Y136.391
X60.243Y136.215
G0Z1
X76.129Y136.391
G1Z-0.8F50
X76.147Y136.215F100
X76.198Y136.046
X76.281Y135.89
X76.393Y135.753
X76.53Y135.641
X76.686Y135.558
X76.855Y135.507
X77.031Y135.489
X77.207Y135.507
X77.376Y135.558
X77.532Y135.641
X77.668Y135.753
X77.78Y135.89
X77.863Y136.046
X77.915Y136.215
X77.932Y136.391
X77.915Y136.566
X77.863Y136.735
X77.78Y136.891
X77.668Y137.028
X77.532Y137.14
X77.376Y137.223
X77.207Y137.275
X77.031Y137.292
X76.855Y137.275
X76.686Y137.223
X76.53Y137.14
X76.393Y137.028
X76.281Y136.891
X76.198Y136.735
X76.147Y136.566
X76.129Y136.391
G0Z1
X79.633Y128.465
G1Z-0.8F50
X53.178F100
X52.524Y128.471
X51.87Y128.487
X51.217Y128.515
X50.564Y128.553
X49.911Y128.602
X49.26Y128.662
X48.61Y128.732
X47.961Y128.814
X47.313Y128.906
X46.668Y129.009
X46.023Y129.123
X45.381Y129.247
X45.257Y129.274
X45.134Y129.302
X45.011Y129.333
X44.889Y129.366
X44.767Y129.401
X44.646Y129.438
X44.525Y129.477
X44.406Y129.518
X44.287Y129.561
X44.169Y129.606
X44.051Y129.654
X43.935Y129.703
X43.819Y129.754
X43.704Y129.808
X43.59Y129.863
X43.478Y129.92
X43.366Y129.98
X43.255Y130.041
X43.145Y130.104
X43.036Y130.169
X42.929Y130.236
X42.823Y130.304
X42.718Y130.375
X42.614Y130.447
X42.511Y130.521
X42.41Y130.597
X42.31Y130.675
X42.211Y130.754
X42.114Y130.835
X42.018Y130.918
X41.924Y131.002
X41.831Y131.089
X41.74Y131.176
X41.65Y131.265
X41.562Y131.356
X41.475Y131.448
X41.39Y131.542
X41.306Y131.637
X41.225Y131.734
X41.125Y131.856
X41.027Y131.98
X40.931Y132.105
X40.837Y132.233
X40.746Y132.361
X40.657Y132.492
X40.57Y132.624
X40.485Y132.757
X40.403Y132.892
X40.323Y133.028
X40.245Y133.165
X40.17Y133.304
X40.097Y133.444
X40.026Y133.586
X39.958Y133.728
X39.892Y133.872
X39.829Y134.017
X39.769Y134.162
X39.71Y134.309
X39.655Y134.457
X39.602Y134.606
X39.551Y134.755
X39.503Y134.906
X39.458Y135.057
X39.415Y135.209
X39.375Y135.362
X39.337Y135.515
X39.302Y135.669
X39.27Y135.824
X39.24Y135.979
X39.213Y136.135
X39.189Y136.291
X39.167Y136.447
X39.148Y136.604
X39.132Y136.761
X39.119Y136.919
X39.108Y137.076
X39.1Y137.234
X39.094Y137.392
X39.091Y137.55
Y137.708
X39.094Y137.866
X39.099Y138.023
X39.108Y138.181
X39.118Y138.339
X39.132Y138.496
X39.148Y138.653
X39.167Y138.81
X39.186Y138.953
X39.606Y141.844
X39.62Y141.92
X39.636Y141.996
X39.655Y142.071
X39.677Y142.145
X39.701Y142.218
X39.728Y142.292
X39.757Y142.363
X39.789Y142.434
X39.823Y142.503
X39.86Y142.572
X39.898Y142.638
X39.94Y142.704
X39.983Y142.768
X40.029Y142.831
X40.077Y142.892
X40.127Y142.951
X40.178Y143.007
X40.223Y143.054
X40.277Y143.107
X40.336Y143.16
X40.395Y143.21
X40.455Y143.257
X40.519Y143.304
X40.581Y143.347
X40.648Y143.389
X40.715Y143.428
X40.781Y143.464
X40.852Y143.499
X40.923Y143.53
X40.995Y143.56
X41.067Y143.587
X41.141Y143.611
X41.216Y143.633
X41.303Y143.655
X41.379Y143.671
X41.456Y143.685
X41.533Y143.695
X41.609Y143.704
X41.687Y143.709
X41.764Y143.712
X41.803
X46.854
X46.97Y143.711
X47.087Y143.708
X47.204Y143.703
X47.321Y143.696
X48.576Y143.606
X49.729Y143.541
X50.882Y143.495
X52.037Y143.467
X53.197Y143.458
X56.75
X56.788Y143.461
X56.827Y143.464
X56.865Y143.465
X56.903
X84.903
X84.943
X84.982Y143.463
X85.022Y143.461
X85.062Y143.457
X85.101Y143.453
X85.141Y143.448
X85.18Y143.441
X85.219Y143.434
X85.258Y143.425
X85.297Y143.416
X85.335Y143.406
X85.373Y143.394
X85.411Y143.382
X85.448Y143.369
X85.486Y143.355
X85.522Y143.34
X85.559Y143.324
X85.595Y143.307
X85.63Y143.289
X85.666Y143.271
X85.701Y143.251
X85.735Y143.23
X85.77Y143.209
X85.803Y143.186
X85.836Y143.163
X85.869Y143.139
X85.901Y143.114
X85.932Y143.088
X85.947Y143.075
X85.976Y143.049
X85.998Y143.028
X86.02Y143.007
X86.048Y142.979
X86.076Y142.95
X86.108Y142.914
X86.139Y142.877
X86.16Y142.849
X86.182Y142.821
X86.202Y142.792
X86.223Y142.763
X86.242Y142.734
X86.261Y142.703
X86.278Y142.675
X86.294Y142.647
X86.31Y142.618
X86.329Y142.58
X86.347Y142.543
X86.36Y142.513
X86.373Y142.484
X86.389Y142.443
X86.397Y142.421
X86.411Y142.381
X86.424Y142.34
X86.436Y142.298
X86.448Y142.256
X86.458Y142.213
X86.466Y142.173
X86.473Y142.132
X86.48Y142.081
X86.487Y142.025
X86.49Y141.991
X86.492Y141.958
X86.493Y141.924
X86.494Y141.874
Y141.642
X86.505Y141.58
X86.515Y141.504
X86.524Y141.425
X86.529Y141.349
X86.532Y141.271
Y141.232
Y130.398
Y130.359
X86.53Y130.319
X86.528Y130.28
X86.524Y130.241
X86.52Y130.202
X86.515Y130.162
X86.508Y130.124
X86.501Y130.085
X86.494Y130.051
X86.493Y130.009
X86.49Y129.966
X86.487Y129.923
X86.482Y129.88
X86.476Y129.838
X86.469Y129.795
X86.461Y129.753
X86.452Y129.711
X86.441Y129.669
X86.432Y129.634
X86.422Y129.6
X86.411Y129.566
X86.399Y129.532
X86.386Y129.498
X86.369Y129.457
X86.351Y129.416
X86.332Y129.376
X86.31Y129.332
X86.294Y129.303
X86.277Y129.273
X86.256Y129.237
X86.233Y129.201
X86.212Y129.169
X86.189Y129.138
X86.166Y129.107
X86.142Y129.077
X86.118Y129.047
X86.092Y129.018
X86.067Y128.989
X86.04Y128.961
X86.013Y128.934
X85.985Y128.908
X85.956Y128.882
X85.927Y128.857
X85.897Y128.832
X85.867Y128.808
X85.836Y128.785
X85.804Y128.763
X85.772Y128.742
X85.739Y128.721
X85.706Y128.701
X85.673Y128.682
X85.638Y128.663
X85.604Y128.646
X85.569Y128.63
X85.535Y128.614
X85.499Y128.599
X85.464Y128.586
X85.428Y128.573
X85.392Y128.56
X85.355Y128.549
X85.318Y128.539
X85.281Y128.529
X85.244Y128.52
X85.207Y128.513
X85.169Y128.506
X85.131Y128.5
X85.094Y128.495
X85.056Y128.491
X85.018Y128.488
X84.979Y128.485
X84.941Y128.484
X84.903Y128.483
X80.967
X80.377Y128.47
X79.633Y128.465
G0Z1
X46.321Y134.896
G1Z-0.9F50
X46.348Y134.887F100
X46.374Y134.879
X46.401Y134.871
X46.455Y134.857
X46.482Y134.85
X46.508Y134.844
X46.537Y134.839
X46.592Y134.829
X46.619Y134.825
X46.647Y134.821
X46.674Y134.818
X46.719Y134.814
X46.765Y134.811
X46.785Y134.81
X46.813
X46.841Y134.809
X46.869Y134.81
X46.897
X46.953Y134.813
X46.98Y134.815
X47.008Y134.818
X47.036Y134.821
X47.063Y134.825
X47.118Y134.834
X47.146Y134.839
X47.173Y134.844
X47.2Y134.85
X47.227Y134.857
X47.254Y134.864
X47.281Y134.871
X47.308Y134.879
X47.335Y134.887
X47.361Y134.896
X47.387Y134.906
X47.413Y134.915
X47.439Y134.926
X47.465Y134.936
X47.49Y134.947
X47.516Y134.959
X47.541Y134.971
X47.566Y134.983
X47.591Y134.996
X47.615Y135.009
X47.639Y135.023
X47.664Y135.037
X47.687Y135.052
X47.711Y135.067
X47.734Y135.082
X47.757Y135.098
X47.78Y135.114
X47.802Y135.131
X47.824Y135.148
X47.846Y135.165
X47.867Y135.183
X47.902Y135.212
X47.933Y135.242
X47.95Y135.257
X47.983Y135.29
X48.011Y135.319
X48.028Y135.338
X48.046Y135.358
X48.064Y135.38
X48.082Y135.401
X48.099Y135.423
X48.116Y135.445
X48.149Y135.49
X48.165Y135.513
X48.19Y135.552
X48.211Y135.586
X48.224Y135.608
X48.238Y135.632
X48.251Y135.656
X48.264Y135.681
X48.276Y135.706
X48.288Y135.731
X48.311Y135.782
X48.321Y135.808
X48.333Y135.837
X48.341Y135.86
X48.351Y135.886
X48.36Y135.913
X48.368Y135.939
X48.376Y135.966
X48.383Y135.993
X48.39Y136.02
X48.397Y136.047
X48.403Y136.074
X48.408Y136.101
X48.413Y136.129
X48.418Y136.156
X48.422Y136.184
X48.426Y136.211
X48.429Y136.239
X48.432Y136.267
X48.434Y136.295
X48.436Y136.322
X48.437Y136.35
Y136.378
X48.438Y136.406
X48.437Y136.434
Y136.462
X48.436Y136.489
X48.434Y136.517
X48.432Y136.545
X48.429Y136.573
X48.426Y136.601
X48.422Y136.628
X48.418Y136.656
X48.413Y136.683
X48.408Y136.711
X48.403Y136.738
X48.397Y136.765
X48.39Y136.792
X48.383Y136.819
X48.376Y136.846
X48.368Y136.873
X48.36Y136.899
X48.351Y136.926
X48.341Y136.952
X48.332Y136.978
X48.321Y137.004
X48.311Y137.03
X48.3Y137.055
X48.288Y137.081
X48.276Y137.106
X48.264Y137.131
X48.251Y137.155
X48.238Y137.18
X48.224Y137.204
X48.21Y137.228
X48.195Y137.252
X48.18Y137.275
X48.165Y137.299
X48.149Y137.322
X48.133Y137.344
X48.116Y137.367
X48.099Y137.389
X48.082Y137.411
X48.064Y137.432
X48.046Y137.454
X48.028Y137.474
X48.009Y137.495
X47.99Y137.515
X47.97Y137.535
X47.95Y137.555
X47.93Y137.574
X47.91Y137.592
X47.889Y137.611
X47.867Y137.629
X47.846Y137.647
X47.824Y137.664
X47.802Y137.681
X47.78Y137.698
X47.757Y137.714
X47.734Y137.73
X47.711Y137.745
X47.687Y137.76
X47.664Y137.774
X47.639Y137.789
X47.615Y137.803
X47.591Y137.816
X47.566Y137.829
X47.541Y137.841
X47.516Y137.853
X47.49Y137.865
X47.465Y137.876
X47.439Y137.886
X47.413Y137.897
X47.387Y137.906
X47.361Y137.916
X47.335Y137.924
X47.308Y137.933
X47.281Y137.941
X47.254Y137.948
X47.227Y137.955
X47.2Y137.962
X47.173Y137.968
X47.146Y137.973
X47.118Y137.978
X47.091Y137.983
X47.063Y137.987
X47.036Y137.991
X47.008Y137.994
X46.98Y137.997
X46.952Y137.999
X46.925Y138
X46.897Y138.002
X46.869
X46.841Y138.003
X46.818Y138.002
X46.758Y138
X46.73Y137.999
X46.702Y137.997
X46.677Y137.994
X46.646Y137.991
X46.619Y137.987
X46.591Y137.983
X46.564Y137.978
X46.536Y137.973
X46.509Y137.968
X46.482Y137.962
X46.455Y137.955
X46.428Y137.948
X46.401Y137.941
X46.374Y137.933
X46.348Y137.924
X46.321Y137.916
X46.295Y137.906
X46.269Y137.897
X46.243Y137.886
X46.217Y137.876
X46.192Y137.865
X46.166Y137.853
X46.141Y137.841
X46.116Y137.829
X46.078Y137.808
X46.04Y137.787
X45.995Y137.76
X45.972Y137.745
X45.948Y137.73
X45.925Y137.714
X45.903Y137.698
X45.88Y137.681
X45.858Y137.664
X45.836Y137.647
X45.815Y137.629
X45.793Y137.611
X45.773Y137.592
X45.752Y137.574
X45.732Y137.555
X45.712Y137.535
X45.693Y137.515
X45.673Y137.495
X45.655Y137.474
X45.636Y137.454
X45.618Y137.432
X45.6Y137.411
X45.583Y137.389
X45.566Y137.367
X45.549Y137.344
X45.533Y137.322
X45.517Y137.299
X45.502Y137.275
X45.477Y137.236
X45.457Y137.202
X45.445Y137.18
X45.431Y137.155
X45.406Y137.106
X45.394Y137.081
X45.381Y137.052
X45.371Y137.03
X45.361Y137.004
X45.351Y136.978
X45.341Y136.952
X45.331Y136.926
X45.323Y136.901
X45.314Y136.872
X45.306Y136.846
X45.299Y136.819
X45.292Y136.792
X45.285Y136.765
X45.279Y136.738
X45.274Y136.711
X45.269Y136.683
X45.264Y136.656
X45.26Y136.628
X45.256Y136.601
X45.253Y136.573
X45.251Y136.545
X45.248Y136.517
X45.247Y136.489
X45.245Y136.462
X45.244Y136.406
X45.245Y136.378
Y136.35
X45.247Y136.322
X45.248Y136.295
X45.251Y136.267
X45.253Y136.239
X45.256Y136.211
X45.26Y136.184
X45.264Y136.156
X45.269Y136.129
X45.274Y136.101
X45.279Y136.074
X45.285Y136.047
X45.292Y136.02
X45.299Y135.993
X45.306Y135.966
X45.314Y135.939
X45.323Y135.913
X45.331Y135.886
X45.341Y135.86
X45.351Y135.834
X45.361Y135.808
X45.371Y135.782
X45.382Y135.757
X45.394Y135.731
X45.406Y135.706
X45.418Y135.681
X45.431Y135.656
X45.445Y135.632
X45.458Y135.608
X45.473Y135.584
X45.487Y135.56
X45.502Y135.536
X45.517Y135.513
X45.533Y135.49
X45.549Y135.468
X45.583Y135.423
X45.618Y135.38
X45.636Y135.358
X45.655Y135.338
X45.673Y135.317
X45.693Y135.297
X45.712Y135.277
X45.732Y135.257
X45.773Y135.219
X45.793Y135.201
X45.815Y135.183
X45.836Y135.165
X45.858Y135.148
X45.88Y135.131
X45.903Y135.114
X45.925Y135.098
X45.948Y135.082
X45.972Y135.067
X45.995Y135.052
X46.019Y135.037
X46.043Y135.023
X46.067Y135.009
X46.092Y134.996
X46.116Y134.983
X46.141Y134.971
X46.166Y134.959
X46.192Y134.947
X46.217Y134.936
X46.243Y134.926
X46.269Y134.915
X46.321Y134.896
G0Z1
X60.243Y136.215
G1Z-0.9F50
X60.294Y136.046F100
X60.377Y135.89
X60.49Y135.753
X60.626Y135.641
X60.782Y135.558
X60.951Y135.507
X61.127Y135.489
X61.303Y135.507
X61.472Y135.558
X61.628Y135.641
X61.764Y135.753
X61.876Y135.89
X61.96Y136.046
X62.011Y136.215
X62.028Y136.391
X62.011Y136.566
X61.96Y136.735
X61.876Y136.891
X61.764Y137.028
X61.628Y137.14
X61.472Y137.223
X61.303Y137.275
X61.127Y137.292
X60.951Y137.275
X60.782Y137.223
X60.626Y137.14
X60.49Y137.028
X60.377Y136.891
X60.294Y136.735
X60.243Y136.566
X60.226Y136.391
X60.243Y136.215
G0Z1
X76.129Y136.391
G1Z-0.9F50
X76.147Y136.215F100
X76.198Y136.046
X76.281Y135.89
X76.393Y135.753
X76.53Y135.641
X76.686Y135.558
X76.855Y135.507
X77.031Y135.489
X77.207Y135.507
X77.376Y135.558
X77.532Y135.641
X77.668Y135.753
X77.78Y135.89
X77.863Y136.046
X77.915Y136.215
X77.932Y136.391
X77.915Y136.566
X77.863Y136.735
X77.78Y136.891
X77.668Y137.028
X77.532Y137.14
X77.376Y137.223
X77.207Y137.275
X77.031Y137.292
X76.855Y137.275
X76.686Y137.223
X76.53Y137.14
X76.393Y137.028
X76.281Y136.891
X76.198Y136.735
X76.147Y136.566
X76.129Y136.391
G0Z1
X79.633Y128.465
G1Z-0.9F50
X53.178F100
X52.524Y128.471
X51.87Y128.487
X51.217Y128.515
X50.564Y128.553
X49.911Y128.602
X49.26Y128.662
X48.61Y128.732
X47.961Y128.814
X47.313Y128.906
X46.668Y129.009
X46.023Y129.123
X45.381Y129.247
X45.257Y129.274
X45.134Y129.302
X45.011Y129.333
X44.889Y129.366
X44.767Y129.401
X44.646Y129.438
X44.525Y129.477
X44.406Y129.518
X44.287Y129.561
X44.169Y129.606
X44.051Y129.654
X43.935Y129.703
X43.819Y129.754
X43.704Y129.808
X43.59Y129.863
X43.478Y129.92
X43.366Y129.98
X43.255Y130.041
X43.145Y130.104
X43.036Y130.169
X42.929Y130.236
X42.823Y130.304
X42.718Y130.375
X42.614Y130.447
X42.511Y130.521
X42.41Y130.597
X42.31Y130.675
X42.211Y130.754
X42.114Y130.835
X42.018Y130.918
X41.924Y131.002
X41.831Y131.089
X41.74Y131.176
X41.65Y131.265
X41.562Y131.356
X41.475Y131.448
X41.39Y131.542
X41.306Y131.637
X41.225Y131.734
X41.125Y131.856
X41.027Y131.98
X40.931Y132.105
X40.837Y132.233
X40.746Y132.361
X40.657Y132.492
X40.57Y132.624
X40.485Y132.757
X40.403Y132.892
X40.323Y133.028
X40.245Y133.165
X40.17Y133.304
X40.097Y133.444
X40.026Y133.586
X39.958Y133.728
X39.892Y133.872
X39.829Y134.017
X39.769Y134.162
X39.71Y134.309
X39.655Y134.457
X39.602Y134.606
X39.551Y134.755
X39.503Y134.906
X39.458Y135.057
X39.415Y135.209
X39.375Y135.362
X39.337Y135.515
X39.302Y135.669
X39.27Y135.824
X39.24Y135.979
X39.213Y136.135
X39.189Y136.291
X39.167Y136.447
X39.148Y136.604
X39.132Y136.761
X39.119Y136.919
X39.108Y137.076
X39.1Y137.234
X39.094Y137.392
X39.091Y137.55
Y137.708
X39.094Y137.866
X39.099Y138.023
X39.108Y138.181
X39.118Y138.339
X39.132Y138.496
X39.148Y138.653
X39.167Y138.81
X39.186Y138.953
X39.606Y141.844
X39.62Y141.92
X39.636Y141.996
X39.655Y142.071
X39.677Y142.145
X39.701Y142.218
X39.728Y142.292
X39.757Y142.363
X39.789Y142.434
X39.823Y142.503
X39.86Y142.572
X39.898Y142.638
X39.94Y142.704
X39.983Y142.768
X40.029Y142.831
X40.077Y142.892
X40.127Y142.951
X40.178Y143.007
X40.223Y143.054
X40.277Y143.107
X40.336Y143.16
X40.395Y143.21
X40.455Y143.257
X40.519Y143.304
X40.581Y143.347
X40.648Y143.389
X40.715Y143.428
X40.781Y143.464
X40.852Y143.499
X40.923Y143.53
X40.995Y143.56
X41.067Y143.587
X41.141Y143.611
X41.216Y143.633
X41.303Y143.655
X41.379Y143.671
X41.456Y143.685
X41.533Y143.695
X41.609Y143.704
X41.687Y143.709
X41.764Y143.712
X41.803
X46.854
X46.97Y143.711
X47.087Y143.708
X47.204Y143.703
X47.321Y143.696
X48.576Y143.606
X49.729Y143.541
X50.882Y143.495
X52.037Y143.467
X53.197Y143.458
X56.75
X56.788Y143.461
X56.827Y143.464
X56.865Y143.465
X56.903
X84.903
X84.943
X84.982Y143.463
X85.022Y143.461
X85.062Y143.457
X85.101Y143.453
X85.141Y143.448
X85.18Y143.441
X85.219Y143.434
X85.258Y143.425
X85.297Y143.416
X85.335Y143.406
X85.373Y143.394
X85.411Y143.382
X85.448Y143.369
X85.486Y143.355
X85.522Y143.34
X85.559Y143.324
X85.595Y143.307
X85.63Y143.289
X85.666Y143.271
X85.701Y143.251
X85.735Y143.23
X85.77Y143.209
X85.803Y143.186
X85.836Y143.163
X85.869Y143.139
X85.901Y143.114
X85.932Y143.088
X85.947Y143.075
X85.976Y143.049
X85.998Y143.028
X86.02Y143.007
X86.048Y142.979
X86.076Y142.95
X86.108Y142.914
X86.139Y142.877
X86.16Y142.849
X86.182Y142.821
X86.202Y142.792
X86.223Y142.763
X86.242Y142.734
X86.261Y142.703
X86.278Y142.675
X86.294Y142.647
X86.31Y142.618
X86.329Y142.58
X86.347Y142.543
X86.36Y142.513
X86.373Y142.484
X86.389Y142.443
X86.397Y142.421
X86.411Y142.381
X86.424Y142.34
X86.436Y142.298
X86.448Y142.256
X86.458Y142.213
X86.466Y142.173
X86.473Y142.132
X86.48Y142.081
X86.487Y142.025
X86.49Y141.991
X86.492Y141.958
X86.493Y141.924
X86.494Y141.874
Y141.642
X86.505Y141.58
X86.515Y141.504
X86.524Y141.425
X86.529Y141.349
X86.532Y141.271
Y141.232
Y130.398
Y130.359
X86.53Y130.319
