(Created with grbl post processor 2025/01/20 06:12)
G21
(G-code generated with BlenderCAM and NC library)
G17G90
(Tool: D = 3.18 mm  type END flutes 2)
S1000M03
G00 Z1.0

G0X0Y0Z1
X204.532Y137.564
G1Z-0.1F50
X204.675Y137.396F100
X204.843Y137.253
X205.031Y137.138
X205.234Y137.054
X205.448Y137.002
X205.668Y136.985
X205.888Y137.002
X206.102Y137.054
X206.306Y137.138
X206.493Y137.253
X206.661Y137.396
X206.804Y137.564
X206.919Y137.751
X207.003Y137.955
X207.055Y138.169
X207.072Y138.389
X207.055Y138.608
X207.003Y138.823
X206.919Y139.026
X206.804Y139.214
X206.661Y139.382
X206.493Y139.525
X206.306Y139.64
X206.102Y139.724
X205.888Y139.776
X205.668Y139.793
X205.448Y139.776
X205.234Y139.724
X205.031Y139.64
X204.843Y139.525
X204.675Y139.382
X204.532Y139.214
X204.417Y139.026
X204.333Y138.823
X204.281Y138.608
X204.264Y138.389
X204.281Y138.169
X204.333Y137.955
X204.417Y137.751
X204.532Y137.564
G0Z1
X191.543Y130.234
G1Z-0.1F50
X191.385Y130.471F100
X191.199Y130.687
X190.986Y130.877
X190.752Y131.039
X190.499Y131.17
X190.231Y131.269
X189.937Y131.336
X189.764Y131.357
X189.573Y131.363
X189.383Y131.354
X189.103Y131.317
X188.599Y131.259
X188.553Y131.254
X188.506Y131.251
X188.459Y131.249
X188.412Y131.248
X187.899Y131.25
X187.851
X187.803Y131.253
X187.756Y131.256
X187.708Y131.262
X187.196Y131.325
X187.148Y131.332
X187.1Y131.34
X187.053Y131.349
X187.006Y131.36
X186.505Y131.485
X186.46Y131.497
X186.415Y131.511
X186.371Y131.525
X186.327Y131.541
X185.847Y131.723
X185.804Y131.74
X185.761Y131.759
X185.719Y131.778
X185.678Y131.799
X185.228Y132.033
X185.187Y132.055
X185.146Y132.079
X185.105Y132.103
X185.066Y132.129
X184.652Y132.411
X184.614Y132.438
X184.576Y132.466
X184.539Y132.496
X184.503Y132.526
X184.117Y132.862
X184.089Y132.887
X184.06Y132.914
X184.033Y132.941
X184.006Y132.969
X183.98Y132.997
X183.954Y133.026
X183.929Y133.056
X183.905Y133.086
X183.882Y133.117
X183.859Y133.148
X183.838Y133.18
X183.817Y133.212
X183.796Y133.245
X183.777Y133.279
X183.758Y133.313
X183.74Y133.347
X183.723Y133.382
X183.707Y133.417
X183.692Y133.453
X183.678Y133.489
X183.664Y133.525
X183.651Y133.561
X183.64Y133.598
X183.629Y133.635
X183.619Y133.672
X183.61Y133.71
X183.602Y133.748
X183.595Y133.786
X183.352Y135.165
X183.344Y135.21
X183.338Y135.256
X183.334Y135.294
X183.331Y135.333
X183.329Y135.371
X183.328Y135.41
X183.327Y135.448
X183.328Y135.487
X183.33Y135.526
X183.332Y135.564
X183.336Y135.603
X183.34Y135.641
X183.345Y135.679
X183.352Y135.718
X183.359Y135.755
X183.367Y135.794
X183.376Y135.83
X183.385Y135.866
X183.396Y135.902
X183.407Y135.938
X183.419Y135.973
X183.432Y136.008
X183.446Y136.043
X183.46Y136.078
X183.476Y136.112
X183.492Y136.146
X183.509Y136.179
X183.527Y136.212
X183.775Y136.659
X183.798Y136.7
X183.823Y136.74
X183.848Y136.78
X183.875Y136.818
X184.168Y137.224
X184.196Y137.262
X184.225Y137.3
X184.255Y137.336
X184.287Y137.371
X184.629Y137.744
X184.661Y137.778
X184.694Y137.81
X184.728Y137.842
X184.762Y137.873
X185.151Y138.208
X185.187Y138.238
X185.224Y138.267
X185.261Y138.295
X185.3Y138.322
X185.727Y138.611
X185.768Y138.637
X185.809Y138.662
X185.851Y138.686
X185.894Y138.709
X186.354Y138.944
X186.396Y138.965
X186.44Y138.984
X186.484Y139.003
X186.529Y139.02
X187.01Y139.197
X187.055Y139.213
X187.099Y139.227
X187.145Y139.24
X187.19Y139.251
X187.711Y139.375
X187.959Y139.43
X188.141Y139.486
X188.318Y139.558
X188.473Y139.636
X188.727Y139.8
X188.945Y139.984
X189.138Y140.194
X189.303Y140.426
X189.437Y140.678
X189.538Y140.944
X189.606Y141.221
X189.637Y141.504
X189.633Y141.79
X189.593Y142.072
X189.517Y142.347
X189.408Y142.61
X189.266Y142.857
X189.084Y143.098
X188.965Y143.225
X188.823Y143.352
X188.671Y143.468
X188.433Y143.619
X188.009Y143.898
X187.971Y143.925
X187.933Y143.952
X187.895Y143.981
X187.859Y144.011
X187.467Y144.342
X187.431Y144.373
X187.396Y144.406
X187.362Y144.439
X187.329Y144.473
X186.977Y144.851
X186.945Y144.887
X186.913Y144.924
X186.883Y144.962
X186.854Y145.001
X186.551Y145.418
X186.524Y145.457
X186.498Y145.496
X186.474Y145.535
X186.45Y145.576
X186.2Y146.024
X186.178Y146.065
X186.157Y146.106
X186.137Y146.148
X186.119Y146.19
X185.924Y146.658
X185.907Y146.702
X185.891Y146.747
X185.876Y146.791
X185.862Y146.837
X185.727Y147.319
X185.714Y147.364
X185.704Y147.41
X185.694Y147.456
X185.686Y147.502
X185.606Y148.008
X185.601Y148.045
X185.597Y148.082
X185.593Y148.119
X185.59Y148.156
X185.588Y148.194
X185.587Y148.231
Y148.268
X185.588Y148.306
X185.589Y148.343
X185.592Y148.38
X185.595Y148.418
X185.6Y148.455
X185.605Y148.494
X185.611Y148.532
X185.618Y148.57
X185.626Y148.608
X185.635Y148.645
X185.645Y148.682
X185.656Y148.72
X185.668Y148.756
X185.68Y148.793
X185.694Y148.829
X185.708Y148.865
X185.723Y148.9
X185.74Y148.936
X185.756Y148.97
X185.778Y149.011
X185.8Y149.051
X186.5Y150.264
X186.52Y150.297
X186.54Y150.33
X186.562Y150.362
X186.584Y150.394
X186.607Y150.425
X186.63Y150.455
X186.655Y150.485
X186.68Y150.515
X186.705Y150.544
X186.732Y150.572
X186.759Y150.599
X186.787Y150.626
X186.815Y150.652
X186.845Y150.678
X186.874Y150.703
X186.905Y150.727
X186.936Y150.75
X186.967Y150.773
X186.999Y150.794
X187.031Y150.815
X187.064Y150.835
X187.098Y150.855
X187.132Y150.873
X187.166Y150.891
X187.201Y150.908
X187.236Y150.924
X187.271Y150.939
X187.307Y150.953
X187.785Y151.137
X187.829Y151.153
X187.874Y151.168
X187.919Y151.182
X187.964Y151.194
X188.449Y151.317
X188.495Y151.328
X188.541Y151.338
X188.588Y151.346
X188.635Y151.353
X189.137Y151.418
X189.183Y151.424
X189.229Y151.428
X189.275Y151.43
X189.322Y151.432
X189.835Y151.439
X189.882
X189.929Y151.437
X189.975Y151.434
X190.022Y151.43
X190.535Y151.376
X190.583Y151.371
X190.631Y151.363
X190.679Y151.355
X190.726Y151.345
X191.229Y151.229
X191.275Y151.218
X191.321Y151.205
X191.367Y151.191
X191.412Y151.175
X191.895Y151.001
X191.939Y150.984
X191.982Y150.966
X192.025Y150.947
X192.067Y150.927
X192.546Y150.687
X192.771Y150.569
X192.947Y150.495
X193.129Y150.436
X193.298Y150.397
X193.597Y150.36
X193.882
X194.165Y150.397
X194.441Y150.469
X194.705Y150.575
X194.954Y150.714
X195.184Y150.883
X195.39Y151.08
X195.57Y151.301
X195.721Y151.543
X195.84Y151.802
X195.925Y152.074
X195.975Y152.355
X195.99Y152.657
X195.981Y152.83
X195.954Y153.019
X195.912Y153.205
X195.827Y153.474
X195.682Y153.96
X195.669Y154.005
X195.658Y154.051
X195.648Y154.097
X195.639Y154.143
X195.552Y154.649
X195.544Y154.696
X195.538Y154.743
X195.534Y154.791
X195.53Y154.838
X195.504Y155.353
X195.502Y155.402
Y155.45
X195.503Y155.499
X195.506Y155.547
X195.542Y156.062
X195.546Y156.109
X195.551Y156.155
X195.558Y156.201
X195.566Y156.248
X195.662Y156.752
X195.671Y156.797
X195.682Y156.842
X195.694Y156.887
X195.707Y156.931
X195.859Y157.415
X195.874Y157.459
X195.89Y157.504
X195.907Y157.548
X195.926Y157.591
X196.132Y158.048
X196.152Y158.09
X196.173Y158.132
X196.195Y158.173
X196.219Y158.214
X196.483Y158.653
X196.502Y158.684
X196.523Y158.716
X196.544Y158.747
X196.566Y158.777
X196.588Y158.807
X196.612Y158.836
X196.635Y158.865
X196.66Y158.893
X196.685Y158.921
X196.711Y158.948
X196.738Y158.974
X196.765Y159
X196.794Y159.026
X196.823Y159.051
X196.853Y159.076
X196.884Y159.099
X196.915Y159.122
X196.946Y159.145
X196.978Y159.166
X197.011Y159.187
X197.044Y159.207
X197.078Y159.226
X197.112Y159.244
X197.146Y159.261
X197.181Y159.278
X197.217Y159.294
X197.259Y159.311
X197.302Y159.328
X198.618Y159.806
X198.654Y159.819
X198.691Y159.831
X198.728Y159.842
X198.765Y159.852
X198.803Y159.861
X198.84Y159.87
X198.878Y159.877
X198.916Y159.883
X198.955Y159.889
X198.993Y159.893
X199.031Y159.897
X199.07Y159.9
X199.109Y159.901
X199.148Y159.902
X199.187
X199.225Y159.901
X199.264Y159.899
X199.302Y159.896
X199.341Y159.892
X199.379Y159.887
X199.417Y159.882
X199.455Y159.875
X199.493Y159.867
X199.531Y159.859
X199.568Y159.85
X199.606Y159.839
X199.642Y159.828
X199.679Y159.816
X200.163Y159.649
X200.207Y159.634
X200.251Y159.616
X200.294Y159.598
X200.337Y159.578
X200.788Y159.361
X200.83Y159.339
X200.872Y159.317
X200.913Y159.293
X200.953Y159.269
X201.38Y158.996
X201.418Y158.97
X201.456Y158.944
X201.493Y158.916
X201.53Y158.887
X201.927Y158.563
X201.963Y158.533
X201.998Y158.502
X202.032Y158.469
X202.065Y158.436
X202.424Y158.065
X202.457Y158.03
X202.489Y157.994
X202.52Y157.956
X202.55Y157.918
X202.86Y157.506
X202.889Y157.468
X202.916Y157.428
X202.941Y157.388
X202.966Y157.347
X203.224Y156.903
X203.247Y156.863
X203.269Y156.821
X203.289Y156.779
X203.309Y156.736
X203.521Y156.244
X203.618Y156.009
X203.705Y155.84
X203.806Y155.678
X203.91Y155.539
X204.116Y155.318
X204.335Y155.135
X204.575Y154.982
X204.833Y154.86
X205.104Y154.771
X205.384Y154.717
X205.668Y154.699
X205.953Y154.717
X206.233Y154.771
X206.504Y154.86
X206.761Y154.982
X207.001Y155.135
X207.22Y155.318
X207.426Y155.539
X207.53Y155.678
X207.631Y155.84
X207.718Y156.01
X207.826Y156.27
X208.027Y156.736
X208.047Y156.779
X208.067Y156.821
X208.089Y156.863
X208.112Y156.903
X208.37Y157.347
X208.395Y157.388
X208.42Y157.428
X208.447Y157.468
X208.476Y157.506
X208.786Y157.918
X208.816Y157.956
X208.847Y157.994
X208.879Y158.03
X208.912Y158.065
X209.271Y158.436
X209.304Y158.469
X209.338Y158.502
X209.373Y158.533
X209.409Y158.563
X209.806Y158.887
X209.842Y158.916
X209.88Y158.944
X209.918Y158.971
X209.956Y158.996
X210.383Y159.269
X210.424Y159.293
X210.464Y159.317
X210.506Y159.339
X210.548Y159.361
X210.999Y159.578
X211.042Y159.598
X211.085Y159.616
X211.129Y159.634
X211.173Y159.649
X211.657Y159.816
X211.693Y159.828
X211.73Y159.839
X211.768Y159.85
X211.805Y159.859
X211.843Y159.868
X211.881Y159.875
X211.919Y159.882
X211.957Y159.888
X211.995Y159.892
X212.034Y159.896
X212.072Y159.899
X212.111Y159.901
X212.149Y159.902
X212.189
X212.227
X212.266Y159.9
X212.304Y159.897
X212.343Y159.893
X212.381Y159.889
X212.42Y159.883
X212.458Y159.877
X212.496Y159.87
X212.533Y159.861
X212.571Y159.852
X212.608Y159.842
X212.645Y159.831
X212.682Y159.819
X212.718Y159.807
X214.034Y159.328
X214.077Y159.311
X214.12Y159.294
X214.155Y159.278
X214.19Y159.261
X214.224Y159.244
X214.258Y159.226
X214.292Y159.207
X214.325Y159.187
X214.358Y159.166
X214.39Y159.145
X214.421Y159.122
X214.452Y159.099
X214.483Y159.076
X214.513Y159.051
X214.542Y159.026
X214.571Y159
X214.598Y158.974
X214.625Y158.948
X214.651Y158.921
X214.676Y158.893
X214.701Y158.865
X214.724Y158.836
X214.748Y158.807
X214.77Y158.777
X214.792Y158.747
X214.813Y158.716
X214.834Y158.684
X214.853Y158.653
X215.117Y158.214
X215.141Y158.173
X215.163Y158.132
X215.184Y158.09
X215.204Y158.048
X215.41Y157.591
X215.429Y157.548
X215.446Y157.504
X215.462Y157.459
X215.477Y157.414
X215.629Y156.931
X215.642Y156.887
X215.654Y156.842
X215.665Y156.797
X215.674Y156.752
X215.77Y156.248
X215.778Y156.202
X215.785Y156.155
X215.79Y156.109
X215.794Y156.062
X215.83Y155.547
X215.833Y155.499
X215.834Y155.45
Y155.402
X215.832Y155.354
X215.806Y154.838
X215.803Y154.791
X215.798Y154.743
X215.792Y154.696
X215.784Y154.649
X215.697Y154.143
X215.688Y154.097
X215.678Y154.051
X215.667Y154.005
X215.654Y153.96
X215.501Y153.447
X215.424Y153.205
X215.382Y153.019
X215.355Y152.83
X215.346Y152.657
X215.361Y152.355
X215.411Y152.074
X215.496Y151.802
X215.615Y151.543
X215.766Y151.301
X215.946Y151.08
X216.152Y150.883
X216.382Y150.714
X216.631Y150.575
X216.895Y150.469
X217.171Y150.397
X217.454Y150.36
X217.739
X218.039Y150.397
X218.207Y150.437
X218.389Y150.496
X218.565Y150.569
X218.815Y150.7
X219.269Y150.927
X219.311Y150.947
X219.354Y150.967
X219.397Y150.984
X219.441Y151.001
X219.924Y151.175
X219.969Y151.191
X220.015Y151.205
X220.061Y151.218
X220.107Y151.229
X220.61Y151.345
X220.657Y151.355
X220.705Y151.364
X220.753Y151.371
X220.801Y151.377
X221.314Y151.43
X221.361Y151.434
X221.408Y151.437
X221.454Y151.439
X221.501
X222.014Y151.432
X222.061Y151.43
X222.107Y151.428
X222.153Y151.424
X222.199Y151.418
X222.701Y151.353
X222.748Y151.346
X222.795Y151.338
X222.841Y151.328
X222.887Y151.317
X223.372Y151.194
X223.417Y151.182
X223.462Y151.168
X223.507Y151.153
X223.551Y151.137
X224.029Y150.953
X224.065Y150.939
X224.1Y150.924
X224.135Y150.908
X224.17Y150.891
X224.204Y150.873
X224.238Y150.855
X224.272Y150.836
X224.305Y150.815
X224.337Y150.794
X224.369Y150.773
X224.4Y150.75
X224.431Y150.727
X224.462Y150.703
X224.492Y150.678
X224.521Y150.652
X224.549Y150.626
X224.577Y150.599
X224.604Y150.572
X224.631Y150.544
X224.656Y150.515
X224.681Y150.486
X224.706Y150.456
X224.729Y150.425
X224.752Y150.394
X224.774Y150.362
X224.796Y150.33
X224.816Y150.297
X224.836Y150.264
X225.536Y149.051
X225.558Y149.011
X225.58Y148.97
X225.597Y148.936
X225.613Y148.901
X225.628Y148.865
X225.642Y148.829
X225.656Y148.793
X225.668Y148.756
X225.68Y148.72
X225.691Y148.682
X225.701Y148.645
X225.71Y148.608
X225.718Y148.57
X225.725Y148.532
X225.731Y148.494
X225.737Y148.455
X225.741Y148.418
X225.744Y148.38
X225.747Y148.343
X225.748Y148.306
X225.749Y148.268
Y148.231
X225.748Y148.193
X225.746Y148.156
X225.743Y148.119
X225.74Y148.082
X225.735Y148.044
X225.73Y148.007
X225.65Y147.502
X225.642Y147.456
X225.632Y147.41
X225.622Y147.364
X225.61Y147.319
X225.474Y146.837
X225.46Y146.792
X225.445Y146.747
X225.429Y146.702
X225.412Y146.658
X225.217Y146.19
X225.199Y146.148
X225.179Y146.106
X225.159Y146.065
X225.137Y146.024
X224.886Y145.576
X224.863Y145.536
X224.838Y145.496
X224.812Y145.457
X224.785Y145.418
X224.482Y145.001
X224.453Y144.962
X224.423Y144.924
X224.391Y144.887
X224.359Y144.851
X224.007Y144.474
X223.974Y144.439
X223.94Y144.406
X223.905Y144.373
X223.869Y144.342
X223.477Y144.011
X223.441Y143.981
X223.403Y143.952
X223.365Y143.925
X223.327Y143.898
X222.879Y143.604
X222.665Y143.468
X222.513Y143.352
X222.371Y143.225
X222.253Y143.098
X222.07Y142.857
X221.929Y142.61
X221.819Y142.347
X221.743Y142.072
X221.703Y141.79
X221.699Y141.505
X221.73Y141.221
X221.798Y140.944
X221.899Y140.678
X222.034Y140.426
X222.199Y140.194
X222.392Y139.984
X222.61Y139.8
X222.863Y139.636
X223.018Y139.558
X223.195Y139.486
X223.377Y139.43
X223.653Y139.369
X224.146Y139.251
X224.192Y139.24
X224.237Y139.227
X224.281Y139.213
X224.326Y139.197
X224.808Y139.02
X224.852Y139.003
X224.896Y138.985
X224.94Y138.965
X224.983Y138.944
X225.442Y138.709
X225.485Y138.686
X225.527Y138.662
X225.568Y138.637
X225.609Y138.611
X226.037Y138.322
X226.075Y138.295
X226.113Y138.267
X226.149Y138.238
X226.185Y138.208
X226.574Y137.873
X226.608Y137.842
X226.642Y137.811
X226.675Y137.778
X226.707Y137.744
X227.049Y137.371
X227.081Y137.336
X227.111Y137.3
X227.14Y137.263
X227.169Y137.225
X227.461Y136.818
X227.488Y136.78
X227.514Y136.74
X227.538Y136.7
X227.562Y136.66
X227.809Y136.212
X227.827Y136.179
X227.844Y136.146
X227.86Y136.112
X227.876Y136.078
X227.89Y136.043
X227.904Y136.009
X227.917Y135.973
X227.929Y135.938
X227.94Y135.902
X227.951Y135.866
X227.96Y135.83
X227.969Y135.793
X227.977Y135.756
X227.984Y135.718
X227.991Y135.68
X227.996Y135.641
X228Y135.603
X228.004Y135.564
X228.006Y135.526
X228.008Y135.487
X228.009Y135.449
X228.008Y135.41
X228.007Y135.371
X228.005Y135.333
X228.002Y135.294
X227.998Y135.256
X227.992Y135.21
X227.985Y135.165
X227.741Y133.786
X227.734Y133.748
X227.726Y133.71
X227.717Y133.673
X227.707Y133.635
X227.696Y133.598
X227.685Y133.561
X227.672Y133.525
X227.659Y133.489
X227.644Y133.453
X227.629Y133.417
X227.613Y133.382
X227.596Y133.348
X227.578Y133.313
X227.559Y133.279
X227.54Y133.245
X227.52Y133.213
X227.499Y133.18
X227.477Y133.148
X227.454Y133.117
X227.431Y133.086
X227.407Y133.056
X227.382Y133.026
X227.357Y132.997
X227.33Y132.969
X227.303Y132.941
X227.276Y132.914
X227.248Y132.888
X227.219Y132.862
X226.833Y132.526
X226.797Y132.496
X226.76Y132.466
X226.722Y132.438
X226.684Y132.411
X226.27Y132.13
X226.231Y132.104
X226.19Y132.079
X226.15Y132.055
X226.108Y132.033
X225.658Y131.799
X225.617Y131.778
X225.575Y131.759
X225.533Y131.741
X225.489Y131.724
X225.01Y131.542
X224.966Y131.526
X224.921Y131.511
X224.876Y131.498
X224.831Y131.486
X224.33Y131.36
X224.283Y131.349
X224.236Y131.34
X224.188Y131.332
X224.14Y131.325
X223.628Y131.262
X223.581Y131.257
X223.533Y131.253
X223.485Y131.251
X223.437Y131.25
X222.924Y131.248
X222.877Y131.249
X222.83Y131.251
X222.783Y131.254
X222.737Y131.259
X222.205Y131.32
X221.953Y131.354
X221.763Y131.363
X221.572Y131.357
X221.4Y131.336
X221.105Y131.269
X220.838Y131.17
X220.584Y131.039
X220.35Y130.877
X220.138Y130.687
X219.951Y130.471
X219.793Y130.234
X219.667Y129.979
X219.573Y129.709
X219.514Y129.43
X219.491Y129.146
X219.504Y128.861
X219.553Y128.58
X219.642Y128.292
X219.71Y128.132
X219.8Y127.963
X219.903Y127.803
X220.075Y127.58
X220.377Y127.172
X220.405Y127.134
X220.431Y127.095
X220.456Y127.056
X220.48Y127.015
X220.736Y126.57
X220.759Y126.528
X220.781Y126.486
X220.801Y126.443
X220.82Y126.399
X221.022Y125.924
X221.04Y125.879
X221.057Y125.833
X221.072Y125.787
X221.086Y125.741
X221.228Y125.245
X221.24Y125.2
X221.251Y125.154
X221.261Y125.109
X221.269Y125.063
X221.351Y124.556
X221.358Y124.51
X221.363Y124.464
X221.368Y124.418
X221.37Y124.371
X221.393Y123.865
X221.394Y123.818
Y123.771
X221.393Y123.724
X221.39Y123.677
X221.353Y123.177
X221.349Y123.131
X221.343Y123.084
X221.336Y123.038
X221.328Y122.991
X221.23Y122.489
X221.222Y122.452
X221.214Y122.416
X221.205Y122.38
X221.195Y122.344
X221.184Y122.308
X221.172Y122.272
X221.159Y122.237
X221.146Y122.202
X221.131Y122.168
X221.116Y122.134
X221.1Y122.1
X221.083Y122.066
X221.065Y122.032
X221.046Y121.998
X221.027Y121.965
X221.006Y121.932
X220.985Y121.9
X220.963Y121.868
X220.94Y121.837
X220.916Y121.806
X220.892Y121.776
X220.867Y121.747
X220.841Y121.718
X220.815Y121.69
X220.788Y121.662
X220.76Y121.635
X220.726Y121.604
X220.691Y121.574
X219.619Y120.674
X219.589Y120.65
X219.558Y120.626
X219.527Y120.603
X219.496Y120.581
X219.463Y120.559
X219.431Y120.539
X219.398Y120.519
X219.364Y120.5
X219.33Y120.482
X219.296Y120.464
X219.261Y120.448
X219.225Y120.432
X219.19Y120.417
X219.153Y120.403
X219.117Y120.39
X219.08Y120.378
X219.043Y120.366
X219.006Y120.356
X218.968Y120.346
X218.931Y120.338
X218.893Y120.33
X218.855Y120.323
X218.817Y120.318
X218.778Y120.313
X218.74Y120.309
X218.701Y120.306
X218.663Y120.304
X218.624Y120.302
X218.112Y120.293
X218.066
X218.019Y120.294
X217.972Y120.297
X217.925Y120.301
X217.427Y120.351
X217.38Y120.357
X217.333Y120.363
X217.287Y120.372
X217.24Y120.381
X216.746Y120.491
X216.701Y120.502
X216.656Y120.514
X216.612Y120.527
X216.568Y120.542
X216.083Y120.711
X216.039Y120.727
X215.996Y120.744
X215.953Y120.763
X215.91Y120.783
X215.447Y121.009
X215.403Y121.031
X215.361Y121.054
X215.319Y121.078
X215.278Y121.104
X214.845Y121.385
X214.805Y121.411
X214.766Y121.439
X214.728Y121.468
X214.691Y121.498
X214.297Y121.827
X214.261Y121.857
X214.227Y121.889
X214.193Y121.922
X214.16Y121.955
X213.792Y122.345
X213.621Y122.532
X213.481Y122.662
X213.331Y122.779
X213.185Y122.874
X212.917Y123.012
X212.649Y123.108
X212.37Y123.171
X212.087Y123.197
X211.802Y123.188
X211.52Y123.143
X211.247Y123.062
X210.985Y122.948
X210.741Y122.802
X210.516Y122.626
X210.316Y122.423
X210.143Y122.196
X210Y121.95
X209.882Y121.672
X209.832Y121.506
X209.792Y121.319
X209.768Y121.13
X209.756Y120.848
X209.726Y120.341
X209.723Y120.295
X209.718Y120.248
X209.712Y120.201
X209.704Y120.155
X209.613Y119.65
X209.604Y119.603
X209.594Y119.556
X209.582Y119.51
X209.568Y119.464
X209.417Y118.971
X209.402Y118.925
X209.386Y118.879
X209.368Y118.834
X209.349Y118.79
X209.139Y118.318
X209.119Y118.276
X209.098Y118.234
X209.076Y118.193
X209.053Y118.152
X208.79Y117.711
X208.766Y117.672
X208.741Y117.633
X208.714Y117.595
X208.686Y117.558
X208.378Y117.156
X208.349Y117.119
X208.319Y117.082
X208.287Y117.047
X208.255Y117.013
X207.905Y116.654
X207.872Y116.621
X207.838Y116.589
X207.803Y116.558
X207.767Y116.528
X207.369Y116.206
X207.339Y116.182
X207.308Y116.159
X207.276Y116.136
X207.244Y116.115
X207.212Y116.094
X207.179Y116.074
X207.145Y116.054
X207.111Y116.036
X207.077Y116.018
X207.042Y116.001
X207.007Y115.986
X206.971Y115.97
X206.936Y115.956
X206.899Y115.943
X206.862Y115.93
X206.825Y115.919
X206.788Y115.908
X206.751Y115.898
X206.713Y115.889
X206.675Y115.882
X206.637Y115.875
X206.599Y115.868
X206.561Y115.863
X206.522Y115.859
X206.484Y115.856
X206.445Y115.853
X206.407Y115.852
X206.368
X204.968
X204.922
X204.876Y115.854
X204.838Y115.857
X204.799Y115.861
X204.761Y115.865
X204.723Y115.871
X204.684Y115.877
X204.647Y115.884
X204.609Y115.893
X204.571Y115.902
X204.534Y115.912
X204.497Y115.923
X204.46Y115.935
X204.424Y115.948
X204.388Y115.961
X204.351Y115.976
X204.317Y115.991
X204.283Y116.007
X204.249Y116.023
X204.216Y116.04
X204.184Y116.059
X204.151Y116.077
X204.119Y116.097
X204.088Y116.117
X204.057Y116.138
X204.027Y116.16
X203.997Y116.183
X203.967Y116.206
X203.569Y116.528
X203.533Y116.558
X203.498Y116.589
X203.464Y116.621
X203.431Y116.654
X203.081Y117.013
X203.049Y117.047
X203.017Y117.082
X202.987Y117.119
X202.958Y117.156
X202.65Y117.558
X202.622Y117.595
X202.596Y117.633
X202.57Y117.672
X202.546Y117.711
X202.283Y118.152
X202.26Y118.193
X202.238Y118.234
X202.217Y118.276
X202.197Y118.318
X201.987Y118.79
X201.968Y118.834
X201.95Y118.879
X201.934Y118.925
X201.919Y118.971
X201.768Y119.464
X201.755Y119.51
X201.743Y119.556
X201.732Y119.603
X201.723Y119.65
X201.632Y120.155
X201.625Y120.201
X201.618Y120.248
X201.614Y120.294
X201.61Y120.341
X201.579Y120.876
X201.568Y121.13
X201.544Y121.319
X201.504Y121.505
X201.454Y121.672
X201.337Y121.95
X201.193Y122.196
X201.02Y122.423
X200.82Y122.626
X200.596Y122.802
X200.351Y122.948
X200.09Y123.062
X199.816Y123.143
X199.535Y123.188
X199.25Y123.197
X198.966Y123.171
X198.688Y123.108
X198.419Y123.012
X198.151Y122.874
X198.005Y122.779
X197.855Y122.662
X197.715Y122.532
X197.525Y122.324
X197.176Y121.955
X197.143Y121.922
X197.109Y121.889
X197.075Y121.857
X197.039Y121.827
X196.645Y121.498
X196.608Y121.468
X196.57Y121.439
X196.531Y121.411
X196.491Y121.385
X196.059Y121.104
X196.017Y121.078
X195.976Y121.054
X195.933Y121.031
X195.89Y121.009
X195.426Y120.783
X195.383Y120.763
X195.34Y120.744
X195.297Y120.727
X195.253Y120.711
X194.769Y120.542
X194.725Y120.527
X194.68Y120.514
X194.635Y120.502
X194.59Y120.491
X194.096Y120.381
X194.05Y120.372
X194.003Y120.363
X193.956Y120.357
X193.909Y120.351
X193.411Y120.301
X193.364Y120.297
X193.318Y120.294
X193.271Y120.293
X193.224
X192.712Y120.302
X192.673Y120.303
X192.635Y120.306
X192.596Y120.309
X192.558Y120.313
X192.52Y120.317
X192.481Y120.323
X192.443Y120.33
X192.405Y120.338
X192.368Y120.346
X192.33Y120.356
X192.293Y120.366
X192.256Y120.378
X192.22Y120.39
X192.183Y120.403
X192.147Y120.417
X192.111Y120.432
X192.076Y120.448
X192.041Y120.464
X192.006Y120.482
X191.972Y120.5
X191.938Y120.519
X191.905Y120.539
X191.873Y120.559
X191.841Y120.581
X191.809Y120.603
X191.778Y120.626
X191.747Y120.65
X191.718Y120.674
X190.645Y121.574
X190.61Y121.604
X190.576Y121.635
X190.549Y121.662
X190.521Y121.69
X190.495Y121.718
X190.469Y121.747
X190.444Y121.776
X190.42Y121.806
X190.396Y121.837
X190.373Y121.868
X190.351Y121.9
X190.33Y121.932
X190.31Y121.965
X190.29Y121.998
X190.271Y122.031
X190.253Y122.066
X190.236Y122.1
X190.22Y122.133
X190.205Y122.168
X190.191Y122.202
X190.177Y122.237
X190.164Y122.272
X190.153Y122.308
X190.142Y122.344
X190.131Y122.38
X190.122Y122.416
X190.114Y122.452
X190.106Y122.489
X190.008Y122.991
X190Y123.037
X189.993Y123.084
X189.988Y123.131
X189.983Y123.177
X189.946Y123.677
X189.943Y123.724
X189.942Y123.771
Y123.818
X189.943Y123.866
X189.966Y124.372
X189.969Y124.418
X189.973Y124.464
X189.978Y124.51
X189.985Y124.556
X190.067Y125.062
X190.075Y125.108
X190.085Y125.154
X190.096Y125.2
X190.108Y125.245
X190.25Y125.741
X190.264Y125.787
X190.28Y125.833
X190.296Y125.879
X190.315Y125.924
X190.516Y126.399
X190.535Y126.442
X190.556Y126.486
X190.577Y126.528
X190.601Y126.57
X190.856Y127.015
X190.88Y127.056
X190.905Y127.095
X190.931Y127.134
X190.959Y127.172
X191.278Y127.602
X191.433Y127.803
X191.537Y127.963
X191.626Y128.132
X191.694Y128.291
X191.783Y128.58
X191.832Y128.861
X191.845Y129.146
X191.822Y129.43
X191.763Y129.709
X191.67Y129.978
X191.543Y130.234
G0Z1
X204.532Y137.564
G1Z-0.2F50
X204.675Y137.396F100
X204.843Y137.253
X205.031Y137.138
X205.234Y137.054
X205.448Y137.002
X205.668Y136.985
X205.888Y137.002
X206.102Y137.054
X206.306Y137.138
X206.493Y137.253
X206.661Y137.396
X206.804Y137.564
X206.919Y137.751
X207.003Y137.955
X207.055Y138.169
X207.072Y138.389
X207.055Y138.608
X207.003Y138.823
X206.919Y139.026
X206.804Y139.214
X206.661Y139.382
X206.493Y139.525
X206.306Y139.64
X206.102Y139.724
X205.888Y139.776
X205.668Y139.793
X205.448Y139.776
X205.234Y139.724
X205.031Y139.64
X204.843Y139.525
X204.675Y139.382
X204.532Y139.214
X204.417Y139.026
X204.333Y138.823
X204.281Y138.608
X204.264Y138.389
X204.281Y138.169
X204.333Y137.955
X204.417Y137.751
X204.532Y137.564
G0Z1
X191.543Y130.234
G1Z-0.2F50
X191.385Y130.471F100
X191.199Y130.687
X190.986Y130.877
X190.752Y131.039
X190.499Y131.17
X190.231Y131.269
X189.937Y131.336
X189.764Y131.357
X189.573Y131.363
X189.383Y131.354
X189.103Y131.317
X188.599Y131.259
X188.553Y131.254
X188.506Y131.251
X188.459Y131.249
X188.412Y131.248
X187.899Y131.25
X187.851
X187.803Y131.253
X187.756Y131.256
X187.708Y131.262
X187.196Y131.325
X187.148Y131.332
X187.1Y131.34
X187.053Y131.349
X187.006Y131.36
X186.505Y131.485
X186.46Y131.497
X186.415Y131.511
X186.371Y131.525
X186.327Y131.541
X185.847Y131.723
X185.804Y131.74
X185.761Y131.759
X185.719Y131.778
X185.678Y131.799
X185.228Y132.033
X185.187Y132.055
X185.146Y132.079
X185.105Y132.103
X185.066Y132.129
X184.652Y132.411
X184.614Y132.438
X184.576Y132.466
X184.539Y132.496
X184.503Y132.526
X184.117Y132.862
X184.089Y132.887
X184.06Y132.914
X184.033Y132.941
X184.006Y132.969
X183.98Y132.997
X183.954Y133.026
X183.929Y133.056
X183.905Y133.086
X183.882Y133.117
X183.859Y133.148
X183.838Y133.18
X183.817Y133.212
X183.796Y133.245
X183.777Y133.279
X183.758Y133.313
X183.74Y133.347
X183.723Y133.382
X183.707Y133.417
X183.692Y133.453
X183.678Y133.489
X183.664Y133.525
X183.651Y133.561
X183.64Y133.598
X183.629Y133.635
X183.619Y133.672
X183.61Y133.71
X183.602Y133.748
X183.595Y133.786
X183.352Y135.165
X183.344Y135.21
X183.338Y135.256
X183.334Y135.294
X183.331Y135.333
X183.329Y135.371
X183.328Y135.41
X183.327Y135.448
X183.328Y135.487
X183.33Y135.526
X183.332Y135.564
X183.336Y135.603
X183.34Y135.641
X183.345Y135.679
X183.352Y135.718
X183.359Y135.755
X183.367Y135.794
X183.376Y135.83
X183.385Y135.866
X183.396Y135.902
X183.407Y135.938
X183.419Y135.973
X183.432Y136.008
X183.446Y136.043
X183.46Y136.078
X183.476Y136.112
X183.492Y136.146
X183.509Y136.179
X183.527Y136.212
X183.775Y136.659
X183.798Y136.7
X183.823Y136.74
X183.848Y136.78
X183.875Y136.818
X184.168Y137.224
X184.196Y137.262
X184.225Y137.3
X184.255Y137.336
X184.287Y137.371
X184.629Y137.744
X184.661Y137.778
X184.694Y137.81
X184.728Y137.842
X184.762Y137.873
X185.151Y138.208
X185.187Y138.238
X185.224Y138.267
X185.261Y138.295
X185.3Y138.322
X185.727Y138.611
X185.768Y138.637
X185.809Y138.662
X185.851Y138.686
X185.894Y138.709
X186.354Y138.944
X186.396Y138.965
X186.44Y138.984
X186.484Y139.003
X186.529Y139.02
X187.01Y139.197
X187.055Y139.213
X187.099Y139.227
X187.145Y139.24
X187.19Y139.251
X187.711Y139.375
X187.959Y139.43
X188.141Y139.486
X188.318Y139.558
X188.473Y139.636
X188.727Y139.8
X188.945Y139.984
X189.138Y140.194
X189.303Y140.426
X189.437Y140.678
X189.538Y140.944
X189.606Y141.221
X189.637Y141.504
X189.633Y141.79
X189.593Y142.072
X189.517Y142.347
X189.408Y142.61
X189.266Y142.857
X189.084Y143.098
X188.965Y143.225
X188.823Y143.352
X188.671Y143.468
X188.433Y143.619
X188.009Y143.898
X187.971Y143.925
X187.933Y143.952
X187.895Y143.981
X187.859Y144.011
X187.467Y144.342
X187.431Y144.373
X187.396Y144.406
X187.362Y144.439
X187.329Y144.473
X186.977Y144.851
X186.945Y144.887
X186.913Y144.924
X186.883Y144.962
X186.854Y145.001
X186.551Y145.418
X186.524Y145.457
X186.498Y145.496
X186.474Y145.535
X186.45Y145.576
X186.2Y146.024
X186.178Y146.065
X186.157Y146.106
X186.137Y146.148
X186.119Y146.19
X185.924Y146.658
X185.907Y146.702
X185.891Y146.747
X185.876Y146.791
X185.862Y146.837
X185.727Y147.319
X185.714Y147.364
X185.704Y147.41
X185.694Y147.456
X185.686Y147.502
X185.606Y148.008
X185.601Y148.045
X185.597Y148.082
X185.593Y148.119
X185.59Y148.156
X185.588Y148.194
X185.587Y148.231
Y148.268
X185.588Y148.306
X185.589Y148.343
X185.592Y148.38
X185.595Y148.418
X185.6Y148.455
X185.605Y148.494
X185.611Y148.532
X185.618Y148.57
X185.626Y148.608
X185.635Y148.645
X185.645Y148.682
X185.656Y148.72
X185.668Y148.756
X185.68Y148.793
X185.694Y148.829
X185.708Y148.865
X185.723Y148.9
X185.74Y148.936
X185.756Y148.97
X185.778Y149.011
X185.8Y149.051
X186.5Y150.264
X186.52Y150.297
X186.54Y150.33
X186.562Y150.362
X186.584Y150.394
X186.607Y150.425
X186.63Y150.455
X186.655Y150.485
X186.68Y150.515
X186.705Y150.544
X186.732Y150.572
X186.759Y150.599
X186.787Y150.626
X186.815Y150.652
X186.845Y150.678
X186.874Y150.703
X186.905Y150.727
X186.936Y150.75
X186.967Y150.773
X186.999Y150.794
X187.031Y150.815
X187.064Y150.835
X187.098Y150.855
X187.132Y150.873
X187.166Y150.891
X187.201Y150.908
X187.236Y150.924
X187.271Y150.939
X187.307Y150.953
X187.785Y151.137
X187.829Y151.153
X187.874Y151.168
X187.919Y151.182
X187.964Y151.194
X188.449Y151.317
X188.495Y151.328
X188.541Y151.338
X188.588Y151.346
X188.635Y151.353
X189.137Y151.418
X189.183Y151.424
X189.229Y151.428
X189.275Y151.43
X189.322Y151.432
X189.835Y151.439
X189.882
X189.929Y151.437
X189.975Y151.434
X190.022Y151.43
X190.535Y151.376
X190.583Y151.371
X190.631Y151.363
X190.679Y151.355
X190.726Y151.345
X191.229Y151.229
X191.275Y151.218
X191.321Y151.205
X191.367Y151.191
X191.412Y151.175
X191.895Y151.001
X191.939Y150.984
X191.982Y150.966
X192.025Y150.947
X192.067Y150.927
X192.546Y150.687
X192.771Y150.569
X192.947Y150.495
X193.129Y150.436
X193.298Y150.397
X193.597Y150.36
X193.882
X194.165Y150.397
X194.441Y150.469
X194.705Y150.575
X194.954Y150.714
X195.184Y150.883
X195.39Y151.08
X195.57Y151.301
X195.721Y151.543
X195.84Y151.802
X195.925Y152.074
X195.975Y152.355
X195.99Y152.657
X195.981Y152.83
X195.954Y153.019
X195.912Y153.205
X195.827Y153.474
X195.682Y153.96
X195.669Y154.005
X195.658Y154.051
X195.648Y154.097
X195.639Y154.143
X195.552Y154.649
X195.544Y154.696
X195.538Y154.743
X195.534Y154.791
X195.53Y154.838
X195.504Y155.353
X195.502Y155.402
Y155.45
X195.503Y155.499
X195.506Y155.547
X195.542Y156.062
X195.546Y156.109
X195.551Y156.155
X195.558Y156.201
X195.566Y156.248
X195.662Y156.752
X195.671Y156.797
X195.682Y156.842
X195.694Y156.887
X195.707Y156.931
X195.859Y157.415
X195.874Y157.459
X195.89Y157.504
X195.907Y157.548
X195.926Y157.591
X196.132Y158.048
X196.152Y158.09
X196.173Y158.132
X196.195Y158.173
X196.219Y158.214
X196.483Y158.653
X196.502Y158.684
X196.523Y158.716
X196.544Y158.747
X196.566Y158.777
X196.588Y158.807
X196.612Y158.836
X196.635Y158.865
X196.66Y158.893
X196.685Y158.921
X196.711Y158.948
X196.738Y158.974
X196.765Y159
X196.794Y159.026
X196.823Y159.051
X196.853Y159.076
X196.884Y159.099
X196.915Y159.122
X196.946Y159.145
X196.978Y159.166
X197.011Y159.187
X197.044Y159.207
X197.078Y159.226
X197.112Y159.244
X197.146Y159.261
X197.181Y159.278
X197.217Y159.294
X197.259Y159.311
X197.302Y159.328
X198.618Y159.806
X198.654Y159.819
X198.691Y159.831
X198.728Y159.842
X198.765Y159.852
X198.803Y159.861
X198.84Y159.87
X198.878Y159.877
X198.916Y159.883
X198.955Y159.889
X198.993Y159.893
X199.031Y159.897
X199.07Y159.9
X199.109Y159.901
X199.148Y159.902
X199.187
X199.225Y159.901
X199.264Y159.899
X199.302Y159.896
X199.341Y159.892
X199.379Y159.887
X199.417Y159.882
X199.455Y159.875
X199.493Y159.867
X199.531Y159.859
X199.568Y159.85
X199.606Y159.839
X199.642Y159.828
X199.679Y159.816
X200.163Y159.649
X200.207Y159.634
X200.251Y159.616
X200.294Y159.598
X200.337Y159.578
X200.788Y159.361
X200.83Y159.339
X200.872Y159.317
X200.913Y159.293
X200.953Y159.269
X201.38Y158.996
X201.418Y158.97
X201.456Y158.944
X201.493Y158.916
X201.53Y158.887
X201.927Y158.563
X201.963Y158.533
X201.998Y158.502
X202.032Y158.469
X202.065Y158.436
X202.424Y158.065
X202.457Y158.03
X202.489Y157.994
X202.52Y157.956
X202.55Y157.918
X202.86Y157.506
X202.889Y157.468
X202.916Y157.428
X202.941Y157.388
X202.966Y157.347
X203.224Y156.903
X203.247Y156.863
X203.269Y156.821
X203.289Y156.779
X203.309Y156.736
X203.521Y156.244
X203.618Y156.009
X203.705Y155.84
X203.806Y155.678
X203.91Y155.539
X204.116Y155.318
X204.335Y155.135
X204.575Y154.982
X204.833Y154.86
X205.104Y154.771
X205.384Y154.717
X205.668Y154.699
X205.953Y154.717
X206.233Y154.771
X206.504Y154.86
X206.761Y154.982
X207.001Y155.135
X207.22Y155.318
X207.426Y155.539
X207.53Y155.678
X207.631Y155.84
X207.718Y156.01
X207.826Y156.27
X208.027Y156.736
X208.047Y156.779
X208.067Y156.821
X208.089Y156.863
X208.112Y156.903
X208.37Y157.347
X208.395Y157.388
X208.42Y157.428
X208.447Y157.468
X208.476Y157.506
X208.786Y157.918
X208.816Y157.956
X208.847Y157.994
X208.879Y158.03
X208.912Y158.065
X209.271Y158.436
X209.304Y158.469
X209.338Y158.502
X209.373Y158.533
X209.409Y158.563
X209.806Y158.887
X209.842Y158.916
X209.88Y158.944
X209.918Y158.971
X209.956Y158.996
X210.383Y159.269
X210.424Y159.293
X210.464Y159.317
X210.506Y159.339
X210.548Y159.361
X210.999Y159.578
X211.042Y159.598
X211.085Y159.616
X211.129Y159.634
X211.173Y159.649
X211.657Y159.816
X211.693Y159.828
X211.73Y159.839
X211.768Y159.85
X211.805Y159.859
X211.843Y159.868
X211.881Y159.875
X211.919Y159.882
X211.957Y159.888
X211.995Y159.892
X212.034Y159.896
X212.072Y159.899
X212.111Y159.901
X212.149Y159.902
X212.189
X212.227
X212.266Y159.9
X212.304Y159.897
X212.343Y159.893
X212.381Y159.889
X212.42Y159.883
X212.458Y159.877
X212.496Y159.87
X212.533Y159.861
X212.571Y159.852
X212.608Y159.842
X212.645Y159.831
X212.682Y159.819
X212.718Y159.807
X214.034Y159.328
X214.077Y159.311
X214.12Y159.294
X214.155Y159.278
X214.19Y159.261
X214.224Y159.244
X214.258Y159.226
X214.292Y159.207
X214.325Y159.187
X214.358Y159.166
X214.39Y159.145
X214.421Y159.122
X214.452Y159.099
X214.483Y159.076
X214.513Y159.051
X214.542Y159.026
X214.571Y159
X214.598Y158.974
X214.625Y158.948
X214.651Y158.921
X214.676Y158.893
X214.701Y158.865
X214.724Y158.836
X214.748Y158.807
X214.77Y158.777
X214.792Y158.747
X214.813Y158.716
X214.834Y158.684
X214.853Y158.653
X215.117Y158.214
X215.141Y158.173
X215.163Y158.132
X215.184Y158.09
X215.204Y158.048
X215.41Y157.591
X215.429Y157.548
X215.446Y157.504
X215.462Y157.459
X215.477Y157.414
X215.629Y156.931
X215.642Y156.887
X215.654Y156.842
X215.665Y156.797
X215.674Y156.752
X215.77Y156.248
X215.778Y156.202
X215.785Y156.155
X215.79Y156.109
X215.794Y156.062
X215.83Y155.547
X215.833Y155.499
X215.834Y155.45
Y155.402
X215.832Y155.354
X215.806Y154.838
X215.803Y154.791
X215.798Y154.743
X215.792Y154.696
X215.784Y154.649
X215.697Y154.143
X215.688Y154.097
X215.678Y154.051
X215.667Y154.005
X215.654Y153.96
X215.501Y153.447
X215.424Y153.205
X215.382Y153.019
X215.355Y152.83
X215.346Y152.657
X215.361Y152.355
X215.411Y152.074
X215.496Y151.802
X215.615Y151.543
X215.766Y151.301
X215.946Y151.08
X216.152Y150.883
X216.382Y150.714
X216.631Y150.575
X216.895Y150.469
X217.171Y150.397
X217.454Y150.36
X217.739
X218.039Y150.397
X218.207Y150.437
X218.389Y150.496
X218.565Y150.569
X218.815Y150.7
X219.269Y150.927
X219.311Y150.947
X219.354Y150.967
X219.397Y150.984
X219.441Y151.001
X219.924Y151.175
X219.969Y151.191
X220.015Y151.205
X220.061Y151.218
X220.107Y151.229
X220.61Y151.345
X220.657Y151.355
X220.705Y151.364
X220.753Y151.371
X220.801Y151.377
X221.314Y151.43
X221.361Y151.434
X221.408Y151.437
X221.454Y151.439
X221.501
X222.014Y151.432
X222.061Y151.43
X222.107Y151.428
X222.153Y151.424
X222.199Y151.418
X222.701Y151.353
X222.748Y151.346
X222.795Y151.338
X222.841Y151.328
X222.887Y151.317
X223.372Y151.194
X223.417Y151.182
X223.462Y151.168
X223.507Y151.153
X223.551Y151.137
X224.029Y150.953
X224.065Y150.939
X224.1Y150.924
X224.135Y150.908
X224.17Y150.891
X224.204Y150.873
X224.238Y150.855
X224.272Y150.836
X224.305Y150.815
X224.337Y150.794
X224.369Y150.773
X224.4Y150.75
X224.431Y150.727
X224.462Y150.703
X224.492Y150.678
X224.521Y150.652
X224.549Y150.626
X224.577Y150.599
X224.604Y150.572
X224.631Y150.544
X224.656Y150.515
X224.681Y150.486
X224.706Y150.456
X224.729Y150.425
X224.752Y150.394
X224.774Y150.362
X224.796Y150.33
X224.816Y150.297
X224.836Y150.264
X225.536Y149.051
X225.558Y149.011
X225.58Y148.97
X225.597Y148.936
X225.613Y148.901
X225.628Y148.865
X225.642Y148.829
X225.656Y148.793
X225.668Y148.756
X225.68Y148.72
X225.691Y148.682
X225.701Y148.645
X225.71Y148.608
X225.718Y148.57
X225.725Y148.532
X225.731Y148.494
X225.737Y148.455
X225.741Y148.418
X225.744Y148.38
X225.747Y148.343
X225.748Y148.306
X225.749Y148.268
Y148.231
X225.748Y148.193
X225.746Y148.156
X225.743Y148.119
X225.74Y148.082
X225.735Y148.044
X225.73Y148.007
X225.65Y147.502
X225.642Y147.456
X225.632Y147.41
X225.622Y147.364
X225.61Y147.319
X225.474Y146.837
X225.46Y146.792
X225.445Y146.747
X225.429Y146.702
X225.412Y146.658
X225.217Y146.19
X225.199Y146.148
X225.179Y146.106
X225.159Y146.065
X225.137Y146.024
X224.886Y145.576
X224.863Y145.536
X224.838Y145.496
X224.812Y145.457
X224.785Y145.418
X224.482Y145.001
X224.453Y144.962
X224.423Y144.924
X224.391Y144.887
X224.359Y144.851
X224.007Y144.474
X223.974Y144.439
X223.94Y144.406
X223.905Y144.373
X223.869Y144.342
X223.477Y144.011
X223.441Y143.981
X223.403Y143.952
X223.365Y143.925
X223.327Y143.898
X222.879Y143.604
X222.665Y143.468
X222.513Y143.352
X222.371Y143.225
X222.253Y143.098
X222.07Y142.857
X221.929Y142.61
X221.819Y142.347
X221.743Y142.072
X221.703Y141.79
X221.699Y141.505
X221.73Y141.221
X221.798Y140.944
X221.899Y140.678
X222.034Y140.426
X222.199Y140.194
X222.392Y139.984
X222.61Y139.8
X222.863Y139.636
X223.018Y139.558
X223.195Y139.486
X223.377Y139.43
X223.653Y139.369
X224.146Y139.251
X224.192Y139.24
X224.237Y139.227
X224.281Y139.213
X224.326Y139.197
X224.808Y139.02
X224.852Y139.003
X224.896Y138.985
X224.94Y138.965
X224.983Y138.944
X225.442Y138.709
X225.485Y138.686
X225.527Y138.662
X225.568Y138.637
X225.609Y138.611
X226.037Y138.322
X226.075Y138.295
X226.113Y138.267
X226.149Y138.238
X226.185Y138.208
X226.574Y137.873
X226.608Y137.842
X226.642Y137.811
X226.675Y137.778
X226.707Y137.744
X227.049Y137.371
X227.081Y137.336
X227.111Y137.3
X227.14Y137.263
X227.169Y137.225
X227.461Y136.818
X227.488Y136.78
X227.514Y136.74
X227.538Y136.7
X227.562Y136.66
X227.809Y136.212
X227.827Y136.179
X227.844Y136.146
X227.86Y136.112
X227.876Y136.078
X227.89Y136.043
X227.904Y136.009
X227.917Y135.973
X227.929Y135.938
X227.94Y135.902
X227.951Y135.866
X227.96Y135.83
X227.969Y135.793
X227.977Y135.756
X227.984Y135.718
X227.991Y135.68
X227.996Y135.641
X228Y135.603
X228.004Y135.564
X228.006Y135.526
X228.008Y135.487
X228.009Y135.449
X228.008Y135.41
X228.007Y135.371
X228.005Y135.333
X228.002Y135.294
X227.998Y135.256
X227.992Y135.21
X227.985Y135.165
X227.741Y133.786
X227.734Y133.748
X227.726Y133.71
X227.717Y133.673
X227.707Y133.635
X227.696Y133.598
X227.685Y133.561
X227.672Y133.525
X227.659Y133.489
X227.644Y133.453
X227.629Y133.417
X227.613Y133.382
X227.596Y133.348
X227.578Y133.313
X227.559Y133.279
X227.54Y133.245
X227.52Y133.213
X227.499Y133.18
X227.477Y133.148
X227.454Y133.117
X227.431Y133.086
X227.407Y133.056
X227.382Y133.026
X227.357Y132.997
X227.33Y132.969
X227.303Y132.941
X227.276Y132.914
X227.248Y132.888
X227.219Y132.862
X226.833Y132.526
X226.797Y132.496
X226.76Y132.466
X226.722Y132.438
X226.684Y132.411
X226.27Y132.13
X226.231Y132.104
X226.19Y132.079
X226.15Y132.055
X226.108Y132.033
X225.658Y131.799
X225.617Y131.778
X225.575Y131.759
X225.533Y131.741
X225.489Y131.724
X225.01Y131.542
X224.966Y131.526
X224.921Y131.511
X224.876Y131.498
X224.831Y131.486
X224.33Y131.36
X224.283Y131.349
X224.236Y131.34
X224.188Y131.332
X224.14Y131.325
X223.628Y131.262
X223.581Y131.257
X223.533Y131.253
X223.485Y131.251
X223.437Y131.25
X222.924Y131.248
X222.877Y131.249
X222.83Y131.251
X222.783Y131.254
X222.737Y131.259
X222.205Y131.32
X221.953Y131.354
X221.763Y131.363
X221.572Y131.357
X221.4Y131.336
X221.105Y131.269
X220.838Y131.17
X220.584Y131.039
X220.35Y130.877
X220.138Y130.687
X219.951Y130.471
X219.793Y130.234
X219.667Y129.979
X219.573Y129.709
X219.514Y129.43
X219.491Y129.146
X219.504Y128.861
X219.553Y128.58
X219.642Y128.292
X219.71Y128.132
X219.8Y127.963
X219.903Y127.803
X220.075Y127.58
X220.377Y127.172
X220.405Y127.134
X220.431Y127.095
X220.456Y127.056
X220.48Y127.015
X220.736Y126.57
X220.759Y126.528
X220.781Y126.486
X220.801Y126.443
X220.82Y126.399
X221.022Y125.924
X221.04Y125.879
X221.057Y125.833
X221.072Y125.787
X221.086Y125.741
X221.228Y125.245
X221.24Y125.2
X221.251Y125.154
X221.261Y125.109
X221.269Y125.063
X221.351Y124.556
X221.358Y124.51
X221.363Y124.464
X221.368Y124.418
X221.37Y124.371
X221.393Y123.865
X221.394Y123.818
Y123.771
X221.393Y123.724
X221.39Y123.677
X221.353Y123.177
X221.349Y123.131
X221.343Y123.084
X221.336Y123.038
X221.328Y122.991
X221.23Y122.489
X221.222Y122.452
X221.214Y122.416
X221.205Y122.38
X221.195Y122.344
X221.184Y122.308
X221.172Y122.272
X221.159Y122.237
X221.146Y122.202
X221.131Y122.168
X221.116Y122.134
X221.1Y122.1
X221.083Y122.066
X221.065Y122.032
X221.046Y121.998
X221.027Y121.965
X221.006Y121.932
X220.985Y121.9
X220.963Y121.868
X220.94Y121.837
X220.916Y121.806
X220.892Y121.776
X220.867Y121.747
X220.841Y121.718
X220.815Y121.69
X220.788Y121.662
X220.76Y121.635
X220.726Y121.604
X220.691Y121.574
X219.619Y120.674
X219.589Y120.65
X219.558Y120.626
X219.527Y120.603
X219.496Y120.581
X219.463Y120.559
X219.431Y120.539
X219.398Y120.519
X219.364Y120.5
X219.33Y120.482
X219.296Y120.464
X219.261Y120.448
X219.225Y120.432
X219.19Y120.417
X219.153Y120.403
X219.117Y120.39
X219.08Y120.378
X219.043Y120.366
X219.006Y120.356
X218.968Y120.346
X218.931Y120.338
X218.893Y120.33
X218.855Y120.323
X218.817Y120.318
X218.778Y120.313
X218.74Y120.309
X218.701Y120.306
X218.663Y120.304
X218.624Y120.302
X218.112Y120.293
X218.066
X218.019Y120.294
X217.972Y120.297
X217.925Y120.301
X217.427Y120.351
X217.38Y120.357
X217.333Y120.363
X217.287Y120.372
X217.24Y120.381
X216.746Y120.491
X216.701Y120.502
X216.656Y120.514
X216.612Y120.527
X216.568Y120.542
X216.083Y120.711
X216.039Y120.727
X215.996Y120.744
X215.953Y120.763
X215.91Y120.783
X215.447Y121.009
X215.403Y121.031
X215.361Y121.054
X215.319Y121.078
X215.278Y121.104
X214.845Y121.385
X214.805Y121.411
X214.766Y121.439
X214.728Y121.468
X214.691Y121.498
X214.297Y121.827
X214.261Y121.857
X214.227Y121.889
X214.193Y121.922
X214.16Y121.955
X213.792Y122.345
X213.621Y122.532
X213.481Y122.662
X213.331Y122.779
X213.185Y122.874
X212.917Y123.012
X212.649Y123.108
X212.37Y123.171
X212.087Y123.197
X211.802Y123.188
X211.52Y123.143
X211.247Y123.062
X210.985Y122.948
X210.741Y122.802
X210.516Y122.626
X210.316Y122.423
X210.143Y122.196
X210Y121.95
X209.882Y121.672
X209.832Y121.506
X209.792Y121.319
X209.768Y121.13
X209.756Y120.848
X209.726Y120.341
X209.723Y120.295
X209.718Y120.248
X209.712Y120.201
X209.704Y120.155
X209.613Y119.65
X209.604Y119.603
X209.594Y119.556
X209.582Y119.51
X209.568Y119.464
X209.417Y118.971
X209.402Y118.925
X209.386Y118.879
X209.368Y118.834
X209.349Y118.79
X209.139Y118.318
X209.119Y118.276
X209.098Y118.234
X209.076Y118.193
X209.053Y118.152
X208.79Y117.711
X208.766Y117.672
X208.741Y117.633
X208.714Y117.595
X208.686Y117.558
X208.378Y117.156
X208.349Y117.119
X208.319Y117.082
X208.287Y117.047
X208.255Y117.013
X207.905Y116.654
X207.872Y116.621
X207.838Y116.589
X207.803Y116.558
X207.767Y116.528
X207.369Y116.206
X207.339Y116.182
X207.308Y116.159
X207.276Y116.136
X207.244Y116.115
X207.212Y116.094
X207.179Y116.074
X207.145Y116.054
X207.111Y116.036
X207.077Y116.018
X207.042Y116.001
X207.007Y115.986
X206.971Y115.97
X206.936Y115.956
X206.899Y115.943
X206.862Y115.93
X206.825Y115.919
X206.788Y115.908
X206.751Y115.898
X206.713Y115.889
X206.675Y115.882
X206.637Y115.875
X206.599Y115.868
X206.561Y115.863
X206.522Y115.859
X206.484Y115.856
X206.445Y115.853
X206.407Y115.852
X206.368
X204.968
X204.922
X204.876Y115.854
X204.838Y115.857
X204.799Y115.861
X204.761Y115.865
X204.723Y115.871
X204.684Y115.877
X204.647Y115.884
X204.609Y115.893
X204.571Y115.902
X204.534Y115.912
X204.497Y115.923
X204.46Y115.935
X204.424Y115.948
X204.388Y115.961
X204.351Y115.976
X204.317Y115.991
X204.283Y116.007
X204.249Y116.023
X204.216Y116.04
X204.184Y116.059
X204.151Y116.077
X204.119Y116.097
X204.088Y116.117
X204.057Y116.138
X204.027Y116.16
X203.997Y116.183
X203.967Y116.206
X203.569Y116.528
X203.533Y116.558
X203.498Y116.589
X203.464Y116.621
X203.431Y116.654
X203.081Y117.013
X203.049Y117.047
X203.017Y117.082
X202.987Y117.119
X202.958Y117.156
X202.65Y117.558
X202.622Y117.595
X202.596Y117.633
X202.57Y117.672
X202.546Y117.711
X202.283Y118.152
X202.26Y118.193
X202.238Y118.234
X202.217Y118.276
X202.197Y118.318
X201.987Y118.79
X201.968Y118.834
X201.95Y118.879
X201.934Y118.925
X201.919Y118.971
X201.768Y119.464
X201.755Y119.51
X201.743Y119.556
X201.732Y119.603
X201.723Y119.65
X201.632Y120.155
X201.625Y120.201
X201.618Y120.248
X201.614Y120.294
X201.61Y120.341
X201.579Y120.876
X201.568Y121.13
X201.544Y121.319
X201.504Y121.505
X201.454Y121.672
X201.337Y121.95
X201.193Y122.196
X201.02Y122.423
X200.82Y122.626
X200.596Y122.802
X200.351Y122.948
X200.09Y123.062
X199.816Y123.143
X199.535Y123.188
X199.25Y123.197
X198.966Y123.171
X198.688Y123.108
X198.419Y123.012
X198.151Y122.874
X198.005Y122.779
X197.855Y122.662
X197.715Y122.532
X197.525Y122.324
X197.176Y121.955
X197.143Y121.922
X197.109Y121.889
X197.075Y121.857
X197.039Y121.827
X196.645Y121.498
X196.608Y121.468
X196.57Y121.439
X196.531Y121.411
X196.491Y121.385
X196.059Y121.104
X196.017Y121.078
X195.976Y121.054
X195.933Y121.031
X195.89Y121.009
X195.426Y120.783
X195.383Y120.763
X195.34Y120.744
X195.297Y120.727
X195.253Y120.711
X194.769Y120.542
X194.725Y120.527
X194.68Y120.514
X194.635Y120.502
X194.59Y120.491
X194.096Y120.381
X194.05Y120.372
X194.003Y120.363
X193.956Y120.357
X193.909Y120.351
X193.411Y120.301
X193.364Y120.297
X193.318Y120.294
X193.271Y120.293
X193.224
X192.712Y120.302
X192.673Y120.303
X192.635Y120.306
X192.596Y120.309
X192.558Y120.313
X192.52Y120.317
X192.481Y120.323
X192.443Y120.33
X192.405Y120.338
X192.368Y120.346
X192.33Y120.356
X192.293Y120.366
X192.256Y120.378
X192.22Y120.39
X192.183Y120.403
X192.147Y120.417
X192.111Y120.432
X192.076Y120.448
X192.041Y120.464
X192.006Y120.482
X191.972Y120.5
X191.938Y120.519
X191.905Y120.539
X191.873Y120.559
X191.841Y120.581
X191.809Y120.603
X191.778Y120.626
X191.747Y120.65
X191.718Y120.674
X190.645Y121.574
X190.61Y121.604
X190.576Y121.635
X190.549Y121.662
X190.521Y121.69
X190.495Y121.718
X190.469Y121.747
X190.444Y121.776
X190.42Y121.806
X190.396Y121.837
X190.373Y121.868
X190.351Y121.9
X190.33Y121.932
X190.31Y121.965
X190.29Y121.998
X190.271Y122.031
X190.253Y122.066
X190.236Y122.1
X190.22Y122.133
X190.205Y122.168
X190.191Y122.202
X190.177Y122.237
X190.164Y122.272
X190.153Y122.308
X190.142Y122.344
X190.131Y122.38
X190.122Y122.416
X190.114Y122.452
X190.106Y122.489
X190.008Y122.991
X190Y123.037
X189.993Y123.084
X189.988Y123.131
X189.983Y123.177
X189.946Y123.677
X189.943Y123.724
X189.942Y123.771
Y123.818
X189.943Y123.866
X189.966Y124.372
X189.969Y124.418
X189.973Y124.464
X189.978Y124.51
X189.985Y124.556
X190.067Y125.062
X190.075Y125.108
X190.085Y125.154
X190.096Y125.2
X190.108Y125.245
X190.25Y125.741
X190.264Y125.787
X190.28Y125.833
X190.296Y125.879
X190.315Y125.924
X190.516Y126.399
X190.535Y126.442
X190.556Y126.486
X190.577Y126.528
X190.601Y126.57
X190.856Y127.015
X190.88Y127.056
X190.905Y127.095
X190.931Y127.134
X190.959Y127.172
X191.278Y127.602
X191.433Y127.803
X191.537Y127.963
X191.626Y128.132
X191.694Y128.291
X191.783Y128.58
X191.832Y128.861
X191.845Y129.146
X191.822Y129.43
X191.763Y129.709
X191.67Y129.978
X191.543Y130.234
G0Z1
X204.532Y137.564
G1Z-0.3F50
X204.675Y137.396F100
X204.843Y137.253
X205.031Y137.138
X205.234Y137.054
X205.448Y137.002
X205.668Y136.985
X205.888Y137.002
X206.102Y137.054
X206.306Y137.138
X206.493Y137.253
X206.661Y137.396
X206.804Y137.564
X206.919Y137.751
X207.003Y137.955
X207.055Y138.169
X207.072Y138.389
X207.055Y138.608
X207.003Y138.823
X206.919Y139.026
X206.804Y139.214
X206.661Y139.382
X206.493Y139.525
X206.306Y139.64
X206.102Y139.724
X205.888Y139.776
X205.668Y139.793
X205.448Y139.776
X205.234Y139.724
X205.031Y139.64
X204.843Y139.525
X204.675Y139.382
X204.532Y139.214
X204.417Y139.026
X204.333Y138.823
X204.281Y138.608
X204.264Y138.389
X204.281Y138.169
X204.333Y137.955
X204.417Y137.751
X204.532Y137.564
G0Z1
X191.543Y130.234
G1Z-0.3F50
X191.385Y130.471F100
X191.199Y130.687
X190.986Y130.877
X190.752Y131.039
X190.499Y131.17
X190.231Y131.269
X189.937Y131.336
X189.764Y131.357
X189.573Y131.363
X189.383Y131.354
X189.103Y131.317
X188.599Y131.259
X188.553Y131.254
X188.506Y131.251
X188.459Y131.249
X188.412Y131.248
X187.899Y131.25
X187.851
X187.803Y131.253
X187.756Y131.256
X187.708Y131.262
X187.196Y131.325
X187.148Y131.332
X187.1Y131.34
X187.053Y131.349
X187.006Y131.36
X186.505Y131.485
X186.46Y131.497
X186.415Y131.511
X186.371Y131.525
X186.327Y131.541
X185.847Y131.723
X185.804Y131.74
X185.761Y131.759
X185.719Y131.778
X185.678Y131.799
X185.228Y132.033
X185.187Y132.055
X185.146Y132.079
X185.105Y132.103
X185.066Y132.129
X184.652Y132.411
X184.614Y132.438
X184.576Y132.466
X184.539Y132.496
X184.503Y132.526
X184.117Y132.862
X184.089Y132.887
X184.06Y132.914
X184.033Y132.941
X184.006Y132.969
X183.98Y132.997
X183.954Y133.026
X183.929Y133.056
X183.905Y133.086
X183.882Y133.117
X183.859Y133.148
X183.838Y133.18
X183.817Y133.212
X183.796Y133.245
X183.777Y133.279
X183.758Y133.313
X183.74Y133.347
X183.723Y133.382
X183.707Y133.417
X183.692Y133.453
X183.678Y133.489
X183.664Y133.525
X183.651Y133.561
X183.64Y133.598
X183.629Y133.635
X183.619Y133.672
X183.61Y133.71
X183.602Y133.748
X183.595Y133.786
X183.352Y135.165
X183.344Y135.21
X183.338Y135.256
X183.334Y135.294
X183.331Y135.333
X183.329Y135.371
X183.328Y135.41
X183.327Y135.448
X183.328Y135.487
X183.33Y135.526
X183.332Y135.564
X183.336Y135.603
X183.34Y135.641
X183.345Y135.679
X183.352Y135.718
X183.359Y135.755
X183.367Y135.794
X183.376Y135.83
X183.385Y135.866
X183.396Y135.902
X183.407Y135.938
X183.419Y135.973
X183.432Y136.008
X183.446Y136.043
X183.46Y136.078
X183.476Y136.112
X183.492Y136.146
X183.509Y136.179
X183.527Y136.212
X183.775Y136.659
X183.798Y136.7
X183.823Y136.74
X183.848Y136.78
X183.875Y136.818
X184.168Y137.224
X184.196Y137.262
X184.225Y137.3
X184.255Y137.336
X184.287Y137.371
X184.629Y137.744
X184.661Y137.778
X184.694Y137.81
X184.728Y137.842
X184.762Y137.873
X185.151Y138.208
X185.187Y138.238
X185.224Y138.267
X185.261Y138.295
X185.3Y138.322
X185.727Y138.611
X185.768Y138.637
X185.809Y138.662
X185.851Y138.686
X185.894Y138.709
X186.354Y138.944
X186.396Y138.965
X186.44Y138.984
X186.484Y139.003
X186.529Y139.02
X187.01Y139.197
X187.055Y139.213
X187.099Y139.227
X187.145Y139.24
X187.19Y139.251
X187.711Y139.375
X187.959Y139.43
X188.141Y139.486
X188.318Y139.558
X188.473Y139.636
X188.727Y139.8
X188.945Y139.984
X189.138Y140.194
X189.303Y140.426
X189.437Y140.678
X189.538Y140.944
X189.606Y141.221
X189.637Y141.504
X189.633Y141.79
X189.593Y142.072
X189.517Y142.347
X189.408Y142.61
X189.266Y142.857
X189.084Y143.098
X188.965Y143.225
X188.823Y143.352
X188.671Y143.468
X188.433Y143.619
X188.009Y143.898
X187.971Y143.925
X187.933Y143.952
X187.895Y143.981
X187.859Y144.011
X187.467Y144.342
X187.431Y144.373
X187.396Y144.406
X187.362Y144.439
X187.329Y144.473
X186.977Y144.851
X186.945Y144.887
X186.913Y144.924
X186.883Y144.962
X186.854Y145.001
X186.551Y145.418
X186.524Y145.457
X186.498Y145.496
X186.474Y145.535
X186.45Y145.576
X186.2Y146.024
X186.178Y146.065
X186.157Y146.106
X186.137Y146.148
X186.119Y146.19
X185.924Y146.658
X185.907Y146.702
X185.891Y146.747
X185.876Y146.791
X185.862Y146.837
X185.727Y147.319
X185.714Y147.364
X185.704Y147.41
X185.694Y147.456
X185.686Y147.502
X185.606Y148.008
X185.601Y148.045
X185.597Y148.082
X185.593Y148.119
X185.59Y148.156
X185.588Y148.194
X185.587Y148.231
Y148.268
X185.588Y148.306
X185.589Y148.343
X185.592Y148.38
X185.595Y148.418
X185.6Y148.455
X185.605Y148.494
X185.611Y148.532
X185.618Y148.57
X185.626Y148.608
X185.635Y148.645
X185.645Y148.682
X185.656Y148.72
X185.668Y148.756
X185.68Y148.793
X185.694Y148.829
X185.708Y148.865
X185.723Y148.9
X185.74Y148.936
X185.756Y148.97
X185.778Y149.011
X185.8Y149.051
X186.5Y150.264
X186.52Y150.297
X186.54Y150.33
X186.562Y150.362
X186.584Y150.394
X186.607Y150.425
X186.63Y150.455
X186.655Y150.485
X186.68Y150.515
X186.705Y150.544
X186.732Y150.572
X186.759Y150.599
X186.787Y150.626
X186.815Y150.652
X186.845Y150.678
X186.874Y150.703
X186.905Y150.727
X186.936Y150.75
X186.967Y150.773
X186.999Y150.794
X187.031Y150.815
X187.064Y150.835
X187.098Y150.855
X187.132Y150.873
X187.166Y150.891
X187.201Y150.908
X187.236Y150.924
X187.271Y150.939
X187.307Y150.953
X187.785Y151.137
X187.829Y151.153
X187.874Y151.168
X187.919Y151.182
X187.964Y151.194
X188.449Y151.317
X188.495Y151.328
X188.541Y151.338
X188.588Y151.346
X188.635Y151.353
X189.137Y151.418
X189.183Y151.424
X189.229Y151.428
X189.275Y151.43
X189.322Y151.432
X189.835Y151.439
X189.882
X189.929Y151.437
X189.975Y151.434
X190.022Y151.43
X190.535Y151.376
X190.583Y151.371
X190.631Y151.363
X190.679Y151.355
X190.726Y151.345
X191.229Y151.229
X191.275Y151.218
X191.321Y151.205
X191.367Y151.191
X191.412Y151.175
X191.895Y151.001
X191.939Y150.984
X191.982Y150.966
X192.025Y150.947
X192.067Y150.927
X192.546Y150.687
X192.771Y150.569
X192.947Y150.495
X193.129Y150.436
X193.298Y150.397
X193.597Y150.36
X193.882
X194.165Y150.397
X194.441Y150.469
X194.705Y150.575
X194.954Y150.714
X195.184Y150.883
X195.39Y151.08
X195.57Y151.301
X195.721Y151.543
X195.84Y151.802
X195.925Y152.074
X195.975Y152.355
X195.99Y152.657
X195.981Y152.83
X195.954Y153.019
X195.912Y153.205
X195.827Y153.474
X195.682Y153.96
X195.669Y154.005
X195.658Y154.051
X195.648Y154.097
X195.639Y154.143
X195.552Y154.649
X195.544Y154.696
X195.538Y154.743
X195.534Y154.791
X195.53Y154.838
X195.504Y155.353
X195.502Y155.402
Y155.45
X195.503Y155.499
X195.506Y155.547
X195.542Y156.062
X195.546Y156.109
X195.551Y156.155
X195.558Y156.201
X195.566Y156.248
X195.662Y156.752
X195.671Y156.797
X195.682Y156.842
X195.694Y156.887
X195.707Y156.931
X195.859Y157.415
X195.874Y157.459
X195.89Y157.504
X195.907Y157.548
X195.926Y157.591
X196.132Y158.048
X196.152Y158.09
X196.173Y158.132
X196.195Y158.173
X196.219Y158.214
X196.483Y158.653
X196.502Y158.684
X196.523Y158.716
X196.544Y158.747
X196.566Y158.777
X196.588Y158.807
X196.612Y158.836
X196.635Y158.865
X196.66Y158.893
X196.685Y158.921
X196.711Y158.948
X196.738Y158.974
X196.765Y159
X196.794Y159.026
X196.823Y159.051
X196.853Y159.076
X196.884Y159.099
X196.915Y159.122
X196.946Y159.145
X196.978Y159.166
X197.011Y159.187
X197.044Y159.207
X197.078Y159.226
X197.112Y159.244
X197.146Y159.261
X197.181Y159.278
X197.217Y159.294
X197.259Y159.311
X197.302Y159.328
X198.618Y159.806
X198.654Y159.819
X198.691Y159.831
X198.728Y159.842
X198.765Y159.852
X198.803Y159.861
X198.84Y159.87
X198.878Y159.877
X198.916Y159.883
X198.955Y159.889
X198.993Y159.893
X199.031Y159.897
X199.07Y159.9
X199.109Y159.901
X199.148Y159.902
X199.187
X199.225Y159.901
X199.264Y159.899
X199.302Y159.896
X199.341Y159.892
X199.379Y159.887
X199.417Y159.882
X199.455Y159.875
X199.493Y159.867
X199.531Y159.859
X199.568Y159.85
X199.606Y159.839
X199.642Y159.828
X199.679Y159.816
X200.163Y159.649
X200.207Y159.634
X200.251Y159.616
X200.294Y159.598
X200.337Y159.578
X200.788Y159.361
X200.83Y159.339
X200.872Y159.317
X200.913Y159.293
X200.953Y159.269
X201.38Y158.996
X201.418Y158.97
X201.456Y158.944
X201.493Y158.916
X201.53Y158.887
X201.927Y158.563
X201.963Y158.533
X201.998Y158.502
X202.032Y158.469
X202.065Y158.436
X202.424Y158.065
X202.457Y158.03
X202.489Y157.994
X202.52Y157.956
X202.55Y157.918
X202.86Y157.506
X202.889Y157.468
X202.916Y157.428
X202.941Y157.388
X202.966Y157.347
X203.224Y156.903
X203.247Y156.863
X203.269Y156.821
X203.289Y156.779
X203.309Y156.736
X203.521Y156.244
X203.618Y156.009
X203.705Y155.84
X203.806Y155.678
X203.91Y155.539
X204.116Y155.318
X204.335Y155.135
X204.575Y154.982
X204.833Y154.86
X205.104Y154.771
X205.384Y154.717
X205.668Y154.699
X205.953Y154.717
X206.233Y154.771
X206.504Y154.86
X206.761Y154.982
X207.001Y155.135
X207.22Y155.318
X207.426Y155.539
X207.53Y155.678
X207.631Y155.84
X207.718Y156.01
X207.826Y156.27
X208.027Y156.736
X208.047Y156.779
X208.067Y156.821
X208.089Y156.863
X208.112Y156.903
X208.37Y157.347
X208.395Y157.388
X208.42Y157.428
X208.447Y157.468
X208.476Y157.506
X208.786Y157.918
X208.816Y157.956
X208.847Y157.994
X208.879Y158.03
X208.912Y158.065
X209.271Y158.436
X209.304Y158.469
X209.338Y158.502
X209.373Y158.533
X209.409Y158.563
X209.806Y158.887
X209.842Y158.916
X209.88Y158.944
X209.918Y158.971
X209.956Y158.996
X210.383Y159.269
X210.424Y159.293
X210.464Y159.317
X210.506Y159.339
X210.548Y159.361
X210.999Y159.578
X211.042Y159.598
X211.085Y159.616
X211.129Y159.634
X211.173Y159.649
X211.657Y159.816
X211.693Y159.828
X211.73Y159.839
X211.768Y159.85
X211.805Y159.859
X211.843Y159.868
X211.881Y159.875
X211.919Y159.882
X211.957Y159.888
X211.995Y159.892
X212.034Y159.896
X212.072Y159.899
X212.111Y159.901
X212.149Y159.902
X212.189
X212.227
X212.266Y159.9
X212.304Y159.897
X212.343Y159.893
X212.381Y159.889
X212.42Y159.883
X212.458Y159.877
X212.496Y159.87
X212.533Y159.861
X212.571Y159.852
X212.608Y159.842
X212.645Y159.831
X212.682Y159.819
X212.718Y159.807
X214.034Y159.328
X214.077Y159.311
X214.12Y159.294
X214.155Y159.278
X214.19Y159.261
X214.224Y159.244
X214.258Y159.226
X214.292Y159.207
X214.325Y159.187
X214.358Y159.166
X214.39Y159.145
X214.421Y159.122
X214.452Y159.099
X214.483Y159.076
X214.513Y159.051
X214.542Y159.026
X214.571Y159
X214.598Y158.974
X214.625Y158.948
X214.651Y158.921
X214.676Y158.893
X214.701Y158.865
X214.724Y158.836
X214.748Y158.807
X214.77Y158.777
X214.792Y158.747
X214.813Y158.716
X214.834Y158.684
X214.853Y158.653
X215.117Y158.214
X215.141Y158.173
X215.163Y158.132
X215.184Y158.09
X215.204Y158.048
X215.41Y157.591
X215.429Y157.548
X215.446Y157.504
X215.462Y157.459
X215.477Y157.414
X215.629Y156.931
X215.642Y156.887
X215.654Y156.842
X215.665Y156.797
X215.674Y156.752
X215.77Y156.248
X215.778Y156.202
X215.785Y156.155
X215.79Y156.109
X215.794Y156.062
X215.83Y155.547
X215.833Y155.499
X215.834Y155.45
Y155.402
X215.832Y155.354
X215.806Y154.838
X215.803Y154.791
X215.798Y154.743
X215.792Y154.696
X215.784Y154.649
X215.697Y154.143
X215.688Y154.097
X215.678Y154.051
X215.667Y154.005
X215.654Y153.96
X215.501Y153.447
X215.424Y153.205
X215.382Y153.019
X215.355Y152.83
X215.346Y152.657
X215.361Y152.355
X215.411Y152.074
X215.496Y151.802
X215.615Y151.543
X215.766Y151.301
X215.946Y151.08
X216.152Y150.883
X216.382Y150.714
X216.631Y150.575
X216.895Y150.469
X217.171Y150.397
X217.454Y150.36
X217.739
X218.039Y150.397
X218.207Y150.437
X218.389Y150.496
X218.565Y150.569
X218.815Y150.7
X219.269Y150.927
X219.311Y150.947
X219.354Y150.967
X219.397Y150.984
X219.441Y151.001
X219.924Y151.175
X219.969Y151.191
X220.015Y151.205
X220.061Y151.218
X220.107Y151.229
X220.61Y151.345
X220.657Y151.355
X220.705Y151.364
X220.753Y151.371
X220.801Y151.377
X221.314Y151.43
X221.361Y151.434
X221.408Y151.437
X221.454Y151.439
X221.501
X222.014Y151.432
X222.061Y151.43
X222.107Y151.428
X222.153Y151.424
X222.199Y151.418
X222.701Y151.353
X222.748Y151.346
X222.795Y151.338
X222.841Y151.328
X222.887Y151.317
X223.372Y151.194
X223.417Y151.182
X223.462Y151.168
X223.507Y151.153
X223.551Y151.137
X224.029Y150.953
X224.065Y150.939
X224.1Y150.924
X224.135Y150.908
X224.17Y150.891
X224.204Y150.873
X224.238Y150.855
X224.272Y150.836
X224.305Y150.815
X224.337Y150.794
X224.369Y150.773
X224.4Y150.75
X224.431Y150.727
X224.462Y150.703
X224.492Y150.678
X224.521Y150.652
X224.549Y150.626
X224.577Y150.599
X224.604Y150.572
X224.631Y150.544
X224.656Y150.515
X224.681Y150.486
X224.706Y150.456
X224.729Y150.425
X224.752Y150.394
X224.774Y150.362
X224.796Y150.33
X224.816Y150.297
X224.836Y150.264
X225.536Y149.051
X225.558Y149.011
X225.58Y148.97
X225.597Y148.936
X225.613Y148.901
X225.628Y148.865
X225.642Y148.829
X225.656Y148.793
X225.668Y148.756
X225.68Y148.72
X225.691Y148.682
X225.701Y148.645
X225.71Y148.608
X225.718Y148.57
X225.725Y148.532
X225.731Y148.494
X225.737Y148.455
X225.741Y148.418
X225.744Y148.38
X225.747Y148.343
X225.748Y148.306
X225.749Y148.268
Y148.231
X225.748Y148.193
X225.746Y148.156
X225.743Y148.119
X225.74Y148.082
X225.735Y148.044
X225.73Y148.007
X225.65Y147.502
X225.642Y147.456
X225.632Y147.41
X225.622Y147.364
X225.61Y147.319
X225.474Y146.837
X225.46Y146.792
X225.445Y146.747
X225.429Y146.702
X225.412Y146.658
X225.217Y146.19
X225.199Y146.148
X225.179Y146.106
X225.159Y146.065
X225.137Y146.024
X224.886Y145.576
X224.863Y145.536
X224.838Y145.496
X224.812Y145.457
X224.785Y145.418
X224.482Y145.001
X224.453Y144.962
X224.423Y144.924
X224.391Y144.887
X224.359Y144.851
X224.007Y144.474
X223.974Y144.439
X223.94Y144.406
X223.905Y144.373
X223.869Y144.342
X223.477Y144.011
X223.441Y143.981
X223.403Y143.952
X223.365Y143.925
X223.327Y143.898
X222.879Y143.604
X222.665Y143.468
X222.513Y143.352
X222.371Y143.225
X222.253Y143.098
X222.07Y142.857
X221.929Y142.61
X221.819Y142.347
X221.743Y142.072
X221.703Y141.79
X221.699Y141.505
X221.73Y141.221
X221.798Y140.944
X221.899Y140.678
X222.034Y140.426
X222.199Y140.194
X222.392Y139.984
X222.61Y139.8
X222.863Y139.636
X223.018Y139.558
X223.195Y139.486
X223.377Y139.43
X223.653Y139.369
X224.146Y139.251
X224.192Y139.24
X224.237Y139.227
X224.281Y139.213
X224.326Y139.197
X224.808Y139.02
X224.852Y139.003
X224.896Y138.985
X224.94Y138.965
X224.983Y138.944
X225.442Y138.709
X225.485Y138.686
X225.527Y138.662
X225.568Y138.637
X225.609Y138.611
X226.037Y138.322
X226.075Y138.295
X226.113Y138.267
X226.149Y138.238
X226.185Y138.208
X226.574Y137.873
X226.608Y137.842
X226.642Y137.811
X226.675Y137.778
X226.707Y137.744
X227.049Y137.371
X227.081Y137.336
X227.111Y137.3
X227.14Y137.263
X227.169Y137.225
X227.461Y136.818
X227.488Y136.78
X227.514Y136.74
X227.538Y136.7
X227.562Y136.66
X227.809Y136.212
X227.827Y136.179
X227.844Y136.146
X227.86Y136.112
X227.876Y136.078
X227.89Y136.043
X227.904Y136.009
X227.917Y135.973
X227.929Y135.938
X227.94Y135.902
X227.951Y135.866
X227.96Y135.83
X227.969Y135.793
X227.977Y135.756
X227.984Y135.718
X227.991Y135.68
X227.996Y135.641
X228Y135.603
X228.004Y135.564
X228.006Y135.526
X228.008Y135.487
X228.009Y135.449
X228.008Y135.41
X228.007Y135.371
X228.005Y135.333
X228.002Y135.294
X227.998Y135.256
X227.992Y135.21
X227.985Y135.165
X227.741Y133.786
X227.734Y133.748
X227.726Y133.71
X227.717Y133.673
X227.707Y133.635
X227.696Y133.598
X227.685Y133.561
X227.672Y133.525
X227.659Y133.489
X227.644Y133.453
X227.629Y133.417
X227.613Y133.382
X227.596Y133.348
X227.578Y133.313
X227.559Y133.279
X227.54Y133.245
X227.52Y133.213
X227.499Y133.18
X227.477Y133.148
X227.454Y133.117
X227.431Y133.086
X227.407Y133.056
X227.382Y133.026
X227.357Y132.997
X227.33Y132.969
X227.303Y132.941
X227.276Y132.914
X227.248Y132.888
X227.219Y132.862
X226.833Y132.526
X226.797Y132.496
X226.76Y132.466
X226.722Y132.438
X226.684Y132.411
X226.27Y132.13
X226.231Y132.104
X226.19Y132.079
X226.15Y132.055
X226.108Y132.033
X225.658Y131.799
X225.617Y131.778
X225.575Y131.759
X225.533Y131.741
X225.489Y131.724
X225.01Y131.542
X224.966Y131.526
X224.921Y131.511
X224.876Y131.498
X224.831Y131.486
X224.33Y131.36
X224.283Y131.349
X224.236Y131.34
X224.188Y131.332
X224.14Y131.325
X223.628Y131.262
X223.581Y131.257
X223.533Y131.253
X223.485Y131.251
X223.437Y131.25
X222.924Y131.248
X222.877Y131.249
X222.83Y131.251
X222.783Y131.254
X222.737Y131.259
X222.205Y131.32
X221.953Y131.354
X221.763Y131.363
X221.572Y131.357
X221.4Y131.336
X221.105Y131.269
X220.838Y131.17
X220.584Y131.039
X220.35Y130.877
X220.138Y130.687
X219.951Y130.471
X219.793Y130.234
X219.667Y129.979
X219.573Y129.709
X219.514Y129.43
X219.491Y129.146
X219.504Y128.861
X219.553Y128.58
X219.642Y128.292
X219.71Y128.132
X219.8Y127.963
X219.903Y127.803
X220.075Y127.58
X220.377Y127.172
X220.405Y127.134
X220.431Y127.095
X220.456Y127.056
X220.48Y127.015
X220.736Y126.57
X220.759Y126.528
X220.781Y126.486
X220.801Y126.443
X220.82Y126.399
X221.022Y125.924
X221.04Y125.879
X221.057Y125.833
X221.072Y125.787
X221.086Y125.741
X221.228Y125.245
X221.24Y125.2
X221.251Y125.154
X221.261Y125.109
X221.269Y125.063
X221.351Y124.556
X221.358Y124.51
X221.363Y124.464
X221.368Y124.418
X221.37Y124.371
X221.393Y123.865
X221.394Y123.818
Y123.771
X221.393Y123.724
X221.39Y123.677
X221.353Y123.177
X221.349Y123.131
X221.343Y123.084
X221.336Y123.038
X221.328Y122.991
X221.23Y122.489
X221.222Y122.452
X221.214Y122.416
X221.205Y122.38
X221.195Y122.344
X221.184Y122.308
X221.172Y122.272
X221.159Y122.237
X221.146Y122.202
X221.131Y122.168
X221.116Y122.134
X221.1Y122.1
X221.083Y122.066
X221.065Y122.032
X221.046Y121.998
X221.027Y121.965
X221.006Y121.932
X220.985Y121.9
X220.963Y121.868
X220.94Y121.837
X220.916Y121.806
X220.892Y121.776
X220.867Y121.747
X220.841Y121.718
X220.815Y121.69
X220.788Y121.662
X220.76Y121.635
X220.726Y121.604
X220.691Y121.574
X219.619Y120.674
X219.589Y120.65
X219.558Y120.626
X219.527Y120.603
X219.496Y120.581
X219.463Y120.559
X219.431Y120.539
X219.398Y120.519
X219.364Y120.5
X219.33Y120.482
X219.296Y120.464
X219.261Y120.448
X219.225Y120.432
X219.19Y120.417
X219.153Y120.403
X219.117Y120.39
X219.08Y120.378
X219.043Y120.366
X219.006Y120.356
X218.968Y120.346
X218.931Y120.338
X218.893Y120.33
X218.855Y120.323
X218.817Y120.318
X218.778Y120.313
X218.74Y120.309
X218.701Y120.306
X218.663Y120.304
X218.624Y120.302
X218.112Y120.293
X218.066
X218.019Y120.294
X217.972Y120.297
X217.925Y120.301
X217.427Y120.351
X217.38Y120.357
X217.333Y120.363
X217.287Y120.372
X217.24Y120.381
X216.746Y120.491
X216.701Y120.502
X216.656Y120.514
X216.612Y120.527
X216.568Y120.542
X216.083Y120.711
X216.039Y120.727
X215.996Y120.744
X215.953Y120.763
X215.91Y120.783
X215.447Y121.009
X215.403Y121.031
X215.361Y121.054
X215.319Y121.078
X215.278Y121.104
X214.845Y121.385
X214.805Y121.411
X214.766Y121.439
X214.728Y121.468
X214.691Y121.498
X214.297Y121.827
X214.261Y121.857
X214.227Y121.889
X214.193Y121.922
X214.16Y121.955
X213.792Y122.345
X213.621Y122.532
X213.481Y122.662
X213.331Y122.779
X213.185Y122.874
X212.917Y123.012
X212.649Y123.108
X212.37Y123.171
X212.087Y123.197
X211.802Y123.188
X211.52Y123.143
X211.247Y123.062
X210.985Y122.948
X210.741Y122.802
X210.516Y122.626
X210.316Y122.423
X210.143Y122.196
X210Y121.95
X209.882Y121.672
X209.832Y121.506
X209.792Y121.319
X209.768Y121.13
X209.756Y120.848
X209.726Y120.341
X209.723Y120.295
X209.718Y120.248
X209.712Y120.201
X209.704Y120.155
X209.613Y119.65
X209.604Y119.603
X209.594Y119.556
X209.582Y119.51
X209.568Y119.464
X209.417Y118.971
X209.402Y118.925
X209.386Y118.879
X209.368Y118.834
X209.349Y118.79
X209.139Y118.318
X209.119Y118.276
X209.098Y118.234
X209.076Y118.193
X209.053Y118.152
X208.79Y117.711
X208.766Y117.672
X208.741Y117.633
X208.714Y117.595
X208.686Y117.558
X208.378Y117.156
X208.349Y117.119
X208.319Y117.082
X208.287Y117.047
X208.255Y117.013
X207.905Y116.654
X207.872Y116.621
X207.838Y116.589
X207.803Y116.558
X207.767Y116.528
X207.369Y116.206
X207.339Y116.182
X207.308Y116.159
X207.276Y116.136
X207.244Y116.115
X207.212Y116.094
X207.179Y116.074
X207.145Y116.054
X207.111Y116.036
X207.077Y116.018
X207.042Y116.001
X207.007Y115.986
X206.971Y115.97
X206.936Y115.956
X206.899Y115.943
X206.862Y115.93
X206.825Y115.919
X206.788Y115.908
X206.751Y115.898
X206.713Y115.889
X206.675Y115.882
X206.637Y115.875
X206.599Y115.868
X206.561Y115.863
X206.522Y115.859
X206.484Y115.856
X206.445Y115.853
X206.407Y115.852
X206.368
X204.968
X204.922
X204.876Y115.854
X204.838Y115.857
X204.799Y115.861
X204.761Y115.865
X204.723Y115.871
X204.684Y115.877
X204.647Y115.884
X204.609Y115.893
X204.571Y115.902
X204.534Y115.912
X204.497Y115.923
X204.46Y115.935
X204.424Y115.948
X204.388Y115.961
X204.351Y115.976
X204.317Y115.991
X204.283Y116.007
X204.249Y116.023
X204.216Y116.04
X204.184Y116.059
X204.151Y116.077
X204.119Y116.097
X204.088Y116.117
X204.057Y116.138
X204.027Y116.16
X203.997Y116.183
X203.967Y116.206
X203.569Y116.528
X203.533Y116.558
X203.498Y116.589
X203.464Y116.621
X203.431Y116.654
X203.081Y117.013
X203.049Y117.047
X203.017Y117.082
X202.987Y117.119
X202.958Y117.156
X202.65Y117.558
X202.622Y117.595
X202.596Y117.633
X202.57Y117.672
X202.546Y117.711
X202.283Y118.152
X202.26Y118.193
X202.238Y118.234
X202.217Y118.276
X202.197Y118.318
X201.987Y118.79
X201.968Y118.834
X201.95Y118.879
X201.934Y118.925
X201.919Y118.971
X201.768Y119.464
X201.755Y119.51
X201.743Y119.556
X201.732Y119.603
X201.723Y119.65
X201.632Y120.155
X201.625Y120.201
X201.618Y120.248
X201.614Y120.294
X201.61Y120.341
X201.579Y120.876
X201.568Y121.13
X201.544Y121.319
X201.504Y121.505
X201.454Y121.672
X201.337Y121.95
X201.193Y122.196
X201.02Y122.423
X200.82Y122.626
X200.596Y122.802
X200.351Y122.948
X200.09Y123.062
X199.816Y123.143
X199.535Y123.188
X199.25Y123.197
X198.966Y123.171
X198.688Y123.108
X198.419Y123.012
X198.151Y122.874
X198.005Y122.779
X197.855Y122.662
X197.715Y122.532
X197.525Y122.324
X197.176Y121.955
X197.143Y121.922
X197.109Y121.889
X197.075Y121.857
X197.039Y121.827
X196.645Y121.498
X196.608Y121.468
X196.57Y121.439
X196.531Y121.411
X196.491Y121.385
X196.059Y121.104
X196.017Y121.078
X195.976Y121.054
X195.933Y121.031
X195.89Y121.009
X195.426Y120.783
X195.383Y120.763
X195.34Y120.744
X195.297Y120.727
X195.253Y120.711
X194.769Y120.542
X194.725Y120.527
X194.68Y120.514
X194.635Y120.502
X194.59Y120.491
X194.096Y120.381
X194.05Y120.372
X194.003Y120.363
X193.956Y120.357
X193.909Y120.351
X193.411Y120.301
X193.364Y120.297
X193.318Y120.294
X193.271Y120.293
X193.224
X192.712Y120.302
X192.673Y120.303
X192.635Y120.306
X192.596Y120.309
X192.558Y120.313
X192.52Y120.317
X192.481Y120.323
X192.443Y120.33
X192.405Y120.338
X192.368Y120.346
X192.33Y120.356
X192.293Y120.366
X192.256Y120.378
X192.22Y120.39
X192.183Y120.403
X192.147Y120.417
X192.111Y120.432
X192.076Y120.448
X192.041Y120.464
X192.006Y120.482
X191.972Y120.5
X191.938Y120.519
X191.905Y120.539
X191.873Y120.559
X191.841Y120.581
X191.809Y120.603
X191.778Y120.626
X191.747Y120.65
X191.718Y120.674
X190.645Y121.574
X190.61Y121.604
X190.576Y121.635
X190.549Y121.662
X190.521Y121.69
X190.495Y121.718
X190.469Y121.747
X190.444Y121.776
X190.42Y121.806
X190.396Y121.837
X190.373Y121.868
X190.351Y121.9
X190.33Y121.932
X190.31Y121.965
X190.29Y121.998
X190.271Y122.031
X190.253Y122.066
X190.236Y122.1
X190.22Y122.133
X190.205Y122.168
X190.191Y122.202
X190.177Y122.237
X190.164Y122.272
X190.153Y122.308
X190.142Y122.344
X190.131Y122.38
X190.122Y122.416
X190.114Y122.452
X190.106Y122.489
X190.008Y122.991
X190Y123.037
X189.993Y123.084
X189.988Y123.131
X189.983Y123.177
X189.946Y123.677
X189.943Y123.724
X189.942Y123.771
Y123.818
X189.943Y123.866
X189.966Y124.372
X189.969Y124.418
X189.973Y124.464
X189.978Y124.51
X189.985Y124.556
X190.067Y125.062
X190.075Y125.108
X190.085Y125.154
X190.096Y125.2
X190.108Y125.245
X190.25Y125.741
X190.264Y125.787
X190.28Y125.833
X190.296Y125.879
X190.315Y125.924
X190.516Y126.399
X190.535Y126.442
X190.556Y126.486
X190.577Y126.528
X190.601Y126.57
X190.856Y127.015
X190.88Y127.056
X190.905Y127.095
X190.931Y127.134
X190.959Y127.172
X191.278Y127.602
X191.433Y127.803
X191.537Y127.963
X191.626Y128.132
X191.694Y128.291
X191.783Y128.58
X191.832Y128.861
X191.845Y129.146
X191.822Y129.43
X191.763Y129.709
X191.67Y129.978
X191.543Y130.234
G0Z1
X204.532Y137.564
G1Z-0.4F50
X204.675Y137.396F100
X204.843Y137.253
X205.031Y137.138
X205.234Y137.054
X205.448Y137.002
X205.668Y136.985
X205.888Y137.002
X206.102Y137.054
X206.306Y137.138
X206.493Y137.253
X206.661Y137.396
X206.804Y137.564
X206.919Y137.751
X207.003Y137.955
X207.055Y138.169
X207.072Y138.389
X207.055Y138.608
X207.003Y138.823
X206.919Y139.026
X206.804Y139.214
X206.661Y139.382
X206.493Y139.525
X206.306Y139.64
X206.102Y139.724
X205.888Y139.776
X205.668Y139.793
X205.448Y139.776
X205.234Y139.724
X205.031Y139.64
X204.843Y139.525
X204.675Y139.382
X204.532Y139.214
X204.417Y139.026
X204.333Y138.823
X204.281Y138.608
X204.264Y138.389
X204.281Y138.169
X204.333Y137.955
X204.417Y137.751
X204.532Y137.564
G0Z1
X191.543Y130.234
G1Z-0.4F50
X191.385Y130.471F100
X191.199Y130.687
X190.986Y130.877
X190.752Y131.039
X190.499Y131.17
X190.231Y131.269
X189.937Y131.336
X189.764Y131.357
X189.573Y131.363
X189.383Y131.354
X189.103Y131.317
X188.599Y131.259
X188.553Y131.254
X188.506Y131.251
X188.459Y131.249
X188.412Y131.248
X187.899Y131.25
X187.851
X187.803Y131.253
X187.756Y131.256
X187.708Y131.262
X187.196Y131.325
X187.148Y131.332
X187.1Y131.34
X187.053Y131.349
X187.006Y131.36
X186.505Y131.485
X186.46Y131.497
X186.415Y131.511
X186.371Y131.525
X186.327Y131.541
X185.847Y131.723
X185.804Y131.74
X185.761Y131.759
X185.719Y131.778
X185.678Y131.799
X185.228Y132.033
X185.187Y132.055
X185.146Y132.079
X185.105Y132.103
X185.066Y132.129
X184.652Y132.411
X184.614Y132.438
X184.576Y132.466
X184.539Y132.496
X184.503Y132.526
X184.117Y132.862
X184.089Y132.887
X184.06Y132.914
X184.033Y132.941
X184.006Y132.969
X183.98Y132.997
X183.954Y133.026
X183.929Y133.056
X183.905Y133.086
X183.882Y133.117
X183.859Y133.148
X183.838Y133.18
X183.817Y133.212
X183.796Y133.245
X183.777Y133.279
X183.758Y133.313
X183.74Y133.347
X183.723Y133.382
X183.707Y133.417
X183.692Y133.453
X183.678Y133.489
X183.664Y133.525
X183.651Y133.561
X183.64Y133.598
X183.629Y133.635
X183.619Y133.672
X183.61Y133.71
X183.602Y133.748
X183.595Y133.786
X183.352Y135.165
X183.344Y135.21
X183.338Y135.256
X183.334Y135.294
X183.331Y135.333
X183.329Y135.371
X183.328Y135.41
X183.327Y135.448
X183.328Y135.487
X183.33Y135.526
X183.332Y135.564
X183.336Y135.603
X183.34Y135.641
X183.345Y135.679
X183.352Y135.718
X183.359Y135.755
X183.367Y135.794
X183.376Y135.83
X183.385Y135.866
X183.396Y135.902
X183.407Y135.938
X183.419Y135.973
X183.432Y136.008
X183.446Y136.043
X183.46Y136.078
X183.476Y136.112
X183.492Y136.146
X183.509Y136.179
X183.527Y136.212
X183.775Y136.659
X183.798Y136.7
X183.823Y136.74
X183.848Y136.78
X183.875Y136.818
X184.168Y137.224
X184.196Y137.262
X184.225Y137.3
X184.255Y137.336
X184.287Y137.371
X184.629Y137.744
X184.661Y137.778
X184.694Y137.81
X184.728Y137.842
X184.762Y137.873
X185.151Y138.208
X185.187Y138.238
X185.224Y138.267
X185.261Y138.295
X185.3Y138.322
X185.727Y138.611
X185.768Y138.637
X185.809Y138.662
X185.851Y138.686
X185.894Y138.709
X186.354Y138.944
X186.396Y138.965
X186.44Y138.984
X186.484Y139.003
X186.529Y139.02
X187.01Y139.197
X187.055Y139.213
X187.099Y139.227
X187.145Y139.24
X187.19Y139.251
X187.711Y139.375
X187.959Y139.43
X188.141Y139.486
X188.318Y139.558
X188.473Y139.636
X188.727Y139.8
X188.945Y139.984
X189.138Y140.194
X189.303Y140.426
X189.437Y140.678
X189.538Y140.944
X189.606Y141.221
X189.637Y141.504
X189.633Y141.79
X189.593Y142.072
X189.517Y142.347
X189.408Y142.61
X189.266Y142.857
X189.084Y143.098
X188.965Y143.225
X188.823Y143.352
X188.671Y143.468
X188.433Y143.619
X188.009Y143.898
X187.971Y143.925
X187.933Y143.952
X187.895Y143.981
X187.859Y144.011
X187.467Y144.342
X187.431Y144.373
X187.396Y144.406
X187.362Y144.439
X187.329Y144.473
X186.977Y144.851
X186.945Y144.887
X186.913Y144.924
X186.883Y144.962
X186.854Y145.001
X186.551Y145.418
X186.524Y145.457
X186.498Y145.496
X186.474Y145.535
X186.45Y145.576
X186.2Y146.024
X186.178Y146.065
X186.157Y146.106
X186.137Y146.148
X186.119Y146.19
X185.924Y146.658
X185.907Y146.702
X185.891Y146.747
X185.876Y146.791
X185.862Y146.837
X185.727Y147.319
X185.714Y147.364
X185.704Y147.41
X185.694Y147.456
X185.686Y147.502
X185.606Y148.008
X185.601Y148.045
X185.597Y148.082
X185.593Y148.119
X185.59Y148.156
X185.588Y148.194
X185.587Y148.231
Y148.268
X185.588Y148.306
X185.589Y148.343
X185.592Y148.38
X185.595Y148.418
X185.6Y148.455
X185.605Y148.494
X185.611Y148.532
X185.618Y148.57
X185.626Y148.608
X185.635Y148.645
X185.645Y148.682
X185.656Y148.72
X185.668Y148.756
X185.68Y148.793
X185.694Y148.829
X185.708Y148.865
X185.723Y148.9
X185.74Y148.936
X185.756Y148.97
X185.778Y149.011
X185.8Y149.051
X186.5Y150.264
X186.52Y150.297
X186.54Y150.33
X186.562Y150.362
X186.584Y150.394
X186.607Y150.425
X186.63Y150.455
X186.655Y150.485
X186.68Y150.515
X186.705Y150.544
X186.732Y150.572
X186.759Y150.599
X186.787Y150.626
X186.815Y150.652
X186.845Y150.678
X186.874Y150.703
X186.905Y150.727
X186.936Y150.75
X186.967Y150.773
X186.999Y150.794
X187.031Y150.815
X187.064Y150.835
X187.098Y150.855
X187.132Y150.873
X187.166Y150.891
X187.201Y150.908
X187.236Y150.924
X187.271Y150.939
X187.307Y150.953
X187.785Y151.137
X187.829Y151.153
X187.874Y151.168
X187.919Y151.182
X187.964Y151.194
X188.449Y151.317
X188.495Y151.328
X188.541Y151.338
X188.588Y151.346
X188.635Y151.353
X189.137Y151.418
X189.183Y151.424
X189.229Y151.428
X189.275Y151.43
X189.322Y151.432
X189.835Y151.439
X189.882
X189.929Y151.437
X189.975Y151.434
X190.022Y151.43
X190.535Y151.376
X190.583Y151.371
X190.631Y151.363
X190.679Y151.355
X190.726Y151.345
X191.229Y151.229
X191.275Y151.218
X191.321Y151.205
X191.367Y151.191
X191.412Y151.175
X191.895Y151.001
X191.939Y150.984
X191.982Y150.966
X192.025Y150.947
X192.067Y150.927
X192.546Y150.687
X192.771Y150.569
X192.947Y150.495
X193.129Y150.436
X193.298Y150.397
X193.597Y150.36
X193.882
X194.165Y150.397
X194.441Y150.469
X194.705Y150.575
X194.954Y150.714
X195.184Y150.883
X195.39Y151.08
X195.57Y151.301
X195.721Y151.543
X195.84Y151.802
X195.925Y152.074
X195.975Y152.355
X195.99Y152.657
X195.981Y152.83
X195.954Y153.019
X195.912Y153.205
X195.827Y153.474
X195.682Y153.96
X195.669Y154.005
X195.658Y154.051
X195.648Y154.097
X195.639Y154.143
X195.552Y154.649
X195.544Y154.696
X195.538Y154.743
X195.534Y154.791
X195.53Y154.838
X195.504Y155.353
X195.502Y155.402
Y155.45
X195.503Y155.499
X195.506Y155.547
X195.542Y156.062
X195.546Y156.109
X195.551Y156.155
X195.558Y156.201
X195.566Y156.248
X195.662Y156.752
X195.671Y156.797
X195.682Y156.842
X195.694Y156.887
X195.707Y156.931
X195.859Y157.415
X195.874Y157.459
X195.89Y157.504
X195.907Y157.548
X195.926Y157.591
X196.132Y158.048
X196.152Y158.09
X196.173Y158.132
X196.195Y158.173
X196.219Y158.214
X196.483Y158.653
X196.502Y158.684
X196.523Y158.716
X196.544Y158.747
X196.566Y158.777
X196.588Y158.807
X196.612Y158.836
X196.635Y158.865
X196.66Y158.893
X196.685Y158.921
X196.711Y158.948
X196.738Y158.974
X196.765Y159
X196.794Y159.026
X196.823Y159.051
X196.853Y159.076
X196.884Y159.099
X196.915Y159.122
X196.946Y159.145
X196.978Y159.166
X197.011Y159.187
X197.044Y159.207
X197.078Y159.226
X197.112Y159.244
X197.146Y159.261
X197.181Y159.278
X197.217Y159.294
X197.259Y159.311
X197.302Y159.328
X198.618Y159.806
X198.654Y159.819
X198.691Y159.831
X198.728Y159.842
X198.765Y159.852
X198.803Y159.861
X198.84Y159.87
X198.878Y159.877
X198.916Y159.883
X198.955Y159.889
X198.993Y159.893
X199.031Y159.897
X199.07Y159.9
X199.109Y159.901
X199.148Y159.902
X199.187
X199.225Y159.901
X199.264Y159.899
X199.302Y159.896
X199.341Y159.892
X199.379Y159.887
X199.417Y159.882
X199.455Y159.875
X199.493Y159.867
X199.531Y159.859
X199.568Y159.85
X199.606Y159.839
X199.642Y159.828
X199.679Y159.816
X200.163Y159.649
X200.207Y159.634
X200.251Y159.616
X200.294Y159.598
X200.337Y159.578
X200.788Y159.361
X200.83Y159.339
X200.872Y159.317
X200.913Y159.293
X200.953Y159.269
X201.38Y158.996
X201.418Y158.97
X201.456Y158.944
X201.493Y158.916
X201.53Y158.887
X201.927Y158.563
X201.963Y158.533
X201.998Y158.502
X202.032Y158.469
X202.065Y158.436
X202.424Y158.065
X202.457Y158.03
X202.489Y157.994
X202.52Y157.956
X202.55Y157.918
X202.86Y157.506
X202.889Y157.468
X202.916Y157.428
X202.941Y157.388
X202.966Y157.347
X203.224Y156.903
X203.247Y156.863
X203.269Y156.821
X203.289Y156.779
X203.309Y156.736
X203.521Y156.244
X203.618Y156.009
X203.705Y155.84
X203.806Y155.678
X203.91Y155.539
X204.116Y155.318
X204.335Y155.135
X204.575Y154.982
X204.833Y154.86
X205.104Y154.771
X205.384Y154.717
X205.668Y154.699
X205.953Y154.717
X206.233Y154.771
X206.504Y154.86
X206.761Y154.982
X207.001Y155.135
X207.22Y155.318
X207.426Y155.539
X207.53Y155.678
X207.631Y155.84
X207.718Y156.01
X207.826Y156.27
X208.027Y156.736
X208.047Y156.779
X208.067Y156.821
X208.089Y156.863
X208.112Y156.903
X208.37Y157.347
X208.395Y157.388
X208.42Y157.428
X208.447Y157.468
X208.476Y157.506
X208.786Y157.918
X208.816Y157.956
X208.847Y157.994
X208.879Y158.03
X208.912Y158.065
X209.271Y158.436
X209.304Y158.469
X209.338Y158.502
X209.373Y158.533
X209.409Y158.563
X209.806Y158.887
X209.842Y158.916
X209.88Y158.944
X209.918Y158.971
X209.956Y158.996
X210.383Y159.269
X210.424Y159.293
X210.464Y159.317
X210.506Y159.339
X210.548Y159.361
X210.999Y159.578
X211.042Y159.598
X211.085Y159.616
X211.129Y159.634
X211.173Y159.649
X211.657Y159.816
X211.693Y159.828
X211.73Y159.839
X211.768Y159.85
X211.805Y159.859
X211.843Y159.868
X211.881Y159.875
X211.919Y159.882
X211.957Y159.888
X211.995Y159.892
X212.034Y159.896
X212.072Y159.899
X212.111Y159.901
X212.149Y159.902
X212.189
X212.227
X212.266Y159.9
X212.304Y159.897
X212.343Y159.893
X212.381Y159.889
X212.42Y159.883
X212.458Y159.877
X212.496Y159.87
X212.533Y159.861
X212.571Y159.852
X212.608Y159.842
X212.645Y159.831
X212.682Y159.819
X212.718Y159.807
X214.034Y159.328
X214.077Y159.311
X214.12Y159.294
X214.155Y159.278
X214.19Y159.261
X214.224Y159.244
X214.258Y159.226
X214.292Y159.207
X214.325Y159.187
X214.358Y159.166
X214.39Y159.145
X214.421Y159.122
X214.452Y159.099
X214.483Y159.076
X214.513Y159.051
X214.542Y159.026
X214.571Y159
X214.598Y158.974
X214.625Y158.948
X214.651Y158.921
X214.676Y158.893
X214.701Y158.865
X214.724Y158.836
X214.748Y158.807
X214.77Y158.777
X214.792Y158.747
X214.813Y158.716
X214.834Y158.684
X214.853Y158.653
X215.117Y158.214
X215.141Y158.173
X215.163Y158.132
X215.184Y158.09
X215.204Y158.048
X215.41Y157.591
X215.429Y157.548
X215.446Y157.504
X215.462Y157.459
X215.477Y157.414
X215.629Y156.931
X215.642Y156.887
X215.654Y156.842
X215.665Y156.797
X215.674Y156.752
X215.77Y156.248
X215.778Y156.202
X215.785Y156.155
X215.79Y156.109
X215.794Y156.062
X215.83Y155.547
X215.833Y155.499
X215.834Y155.45
Y155.402
X215.832Y155.354
X215.806Y154.838
X215.803Y154.791
X215.798Y154.743
X215.792Y154.696
X215.784Y154.649
X215.697Y154.143
X215.688Y154.097
X215.678Y154.051
X215.667Y154.005
X215.654Y153.96
X215.501Y153.447
X215.424Y153.205
X215.382Y153.019
X215.355Y152.83
X215.346Y152.657
X215.361Y152.355
X215.411Y152.074
X215.496Y151.802
X215.615Y151.543
X215.766Y151.301
X215.946Y151.08
X216.152Y150.883
X216.382Y150.714
X216.631Y150.575
X216.895Y150.469
X217.171Y150.397
X217.454Y150.36
X217.739
X218.039Y150.397
X218.207Y150.437
X218.389Y150.496
X218.565Y150.569
X218.815Y150.7
X219.269Y150.927
X219.311Y150.947
X219.354Y150.967
X219.397Y150.984
X219.441Y151.001
X219.924Y151.175
X219.969Y151.191
X220.015Y151.205
X220.061Y151.218
X220.107Y151.229
X220.61Y151.345
X220.657Y151.355
X220.705Y151.364
X220.753Y151.371
X220.801Y151.377
X221.314Y151.43
X221.361Y151.434
X221.408Y151.437
X221.454Y151.439
X221.501
X222.014Y151.432
X222.061Y151.43
X222.107Y151.428
X222.153Y151.424
X222.199Y151.418
X222.701Y151.353
X222.748Y151.346
X222.795Y151.338
X222.841Y151.328
X222.887Y151.317
X223.372Y151.194
X223.417Y151.182
X223.462Y151.168
X223.507Y151.153
X223.551Y151.137
X224.029Y150.953
X224.065Y150.939
X224.1Y150.924
X224.135Y150.908
X224.17Y150.891
X224.204Y150.873
X224.238Y150.855
X224.272Y150.836
X224.305Y150.815
X224.337Y150.794
X224.369Y150.773
X224.4Y150.75
X224.431Y150.727
X224.462Y150.703
X224.492Y150.678
X224.521Y150.652
X224.549Y150.626
X224.577Y150.599
X224.604Y150.572
X224.631Y150.544
X224.656Y150.515
X224.681Y150.486
X224.706Y150.456
X224.729Y150.425
X224.752Y150.394
X224.774Y150.362
X224.796Y150.33
X224.816Y150.297
X224.836Y150.264
X225.536Y149.051
X225.558Y149.011
X225.58Y148.97
X225.597Y148.936
X225.613Y148.901
X225.628Y148.865
X225.642Y148.829
X225.656Y148.793
X225.668Y148.756
X225.68Y148.72
X225.691Y148.682
X225.701Y148.645
X225.71Y148.608
X225.718Y148.57
X225.725Y148.532
X225.731Y148.494
X225.737Y148.455
X225.741Y148.418
X225.744Y148.38
X225.747Y148.343
X225.748Y148.306
X225.749Y148.268
Y148.231
X225.748Y148.193
X225.746Y148.156
X225.743Y148.119
X225.74Y148.082
X225.735Y148.044
X225.73Y148.007
X225.65Y147.502
X225.642Y147.456
X225.632Y147.41
X225.622Y147.364
X225.61Y147.319
X225.474Y146.837
X225.46Y146.792
X225.445Y146.747
X225.429Y146.702
X225.412Y146.658
X225.217Y146.19
X225.199Y146.148
X225.179Y146.106
X225.159Y146.065
X225.137Y146.024
X224.886Y145.576
X224.863Y145.536
X224.838Y145.496
X224.812Y145.457
X224.785Y145.418
X224.482Y145.001
X224.453Y144.962
X224.423Y144.924
X224.391Y144.887
X224.359Y144.851
X224.007Y144.474
X223.974Y144.439
X223.94Y144.406
X223.905Y144.373
X223.869Y144.342
X223.477Y144.011
X223.441Y143.981
X223.403Y143.952
X223.365Y143.925
X223.327Y143.898
X222.879Y143.604
X222.665Y143.468
X222.513Y143.352
X222.371Y143.225
X222.253Y143.098
X222.07Y142.857
X221.929Y142.61
X221.819Y142.347
X221.743Y142.072
X221.703Y141.79
X221.699Y141.505
X221.73Y141.221
X221.798Y140.944
X221.899Y140.678
X222.034Y140.426
X222.199Y140.194
X222.392Y139.984
X222.61Y139.8
X222.863Y139.636
X223.018Y139.558
X223.195Y139.486
X223.377Y139.43
X223.653Y139.369
X224.146Y139.251
X224.192Y139.24
X224.237Y139.227
X224.281Y139.213
X224.326Y139.197
X224.808Y139.02
X224.852Y139.003
X224.896Y138.985
X224.94Y138.965
X224.983Y138.944
X225.442Y138.709
X225.485Y138.686
X225.527Y138.662
X225.568Y138.637
X225.609Y138.611
X226.037Y138.322
X226.075Y138.295
X226.113Y138.267
X226.149Y138.238
X226.185Y138.208
X226.574Y137.873
X226.608Y137.842
X226.642Y137.811
X226.675Y137.778
X226.707Y137.744
X227.049Y137.371
X227.081Y137.336
X227.111Y137.3
X227.14Y137.263
X227.169Y137.225
X227.461Y136.818
X227.488Y136.78
X227.514Y136.74
X227.538Y136.7
X227.562Y136.66
X227.809Y136.212
X227.827Y136.179
X227.844Y136.146
X227.86Y136.112
X227.876Y136.078
X227.89Y136.043
X227.904Y136.009
X227.917Y135.973
X227.929Y135.938
X227.94Y135.902
X227.951Y135.866
X227.96Y135.83
X227.969Y135.793
X227.977Y135.756
X227.984Y135.718
X227.991Y135.68
X227.996Y135.641
X228Y135.603
X228.004Y135.564
X228.006Y135.526
X228.008Y135.487
X228.009Y135.449
X228.008Y135.41
X228.007Y135.371
X228.005Y135.333
X228.002Y135.294
X227.998Y135.256
X227.992Y135.21
X227.985Y135.165
X227.741Y133.786
X227.734Y133.748
X227.726Y133.71
X227.717Y133.673
X227.707Y133.635
X227.696Y133.598
X227.685Y133.561
X227.672Y133.525
X227.659Y133.489
X227.644Y133.453
X227.629Y133.417
X227.613Y133.382
X227.596Y133.348
X227.578Y133.313
X227.559Y133.279
X227.54Y133.245
X227.52Y133.213
X227.499Y133.18
X227.477Y133.148
X227.454Y133.117
X227.431Y133.086
X227.407Y133.056
X227.382Y133.026
X227.357Y132.997
X227.33Y132.969
X227.303Y132.941
X227.276Y132.914
X227.248Y132.888
X227.219Y132.862
X226.833Y132.526
X226.797Y132.496
X226.76Y132.466
X226.722Y132.438
X226.684Y132.411
X226.27Y132.13
X226.231Y132.104
X226.19Y132.079
X226.15Y132.055
X226.108Y132.033
X225.658Y131.799
X225.617Y131.778
X225.575Y131.759
X225.533Y131.741
X225.489Y131.724
X225.01Y131.542
X224.966Y131.526
X224.921Y131.511
X224.876Y131.498
X224.831Y131.486
X224.33Y131.36
X224.283Y131.349
X224.236Y131.34
X224.188Y131.332
X224.14Y131.325
X223.628Y131.262
X223.581Y131.257
X223.533Y131.253
X223.485Y131.251
X223.437Y131.25
X222.924Y131.248
X222.877Y131.249
X222.83Y131.251
X222.783Y131.254
X222.737Y131.259
X222.205Y131.32
X221.953Y131.354
X221.763Y131.363
X221.572Y131.357
X221.4Y131.336
X221.105Y131.269
X220.838Y131.17
X220.584Y131.039
X220.35Y130.877
X220.138Y130.687
X219.951Y130.471
X219.793Y130.234
X219.667Y129.979
X219.573Y129.709
X219.514Y129.43
X219.491Y129.146
X219.504Y128.861
X219.553Y128.58
X219.642Y128.292
X219.71Y128.132
X219.8Y127.963
X219.903Y127.803
X220.075Y127.58
X220.377Y127.172
X220.405Y127.134
X220.431Y127.095
X220.456Y127.056
X220.48Y127.015
X220.736Y126.57
X220.759Y126.528
X220.781Y126.486
X220.801Y126.443
X220.82Y126.399
X221.022Y125.924
X221.04Y125.879
X221.057Y125.833
X221.072Y125.787
X221.086Y125.741
X221.228Y125.245
X221.24Y125.2
X221.251Y125.154
X221.261Y125.109
X221.269Y125.063
X221.351Y124.556
X221.358Y124.51
X221.363Y124.464
X221.368Y124.418
X221.37Y124.371
X221.393Y123.865
X221.394Y123.818
Y123.771
X221.393Y123.724
X221.39Y123.677
X221.353Y123.177
X221.349Y123.131
X221.343Y123.084
X221.336Y123.038
X221.328Y122.991
X221.23Y122.489
X221.222Y122.452
X221.214Y122.416
X221.205Y122.38
X221.195Y122.344
X221.184Y122.308
X221.172Y122.272
X221.159Y122.237
X221.146Y122.202
X221.131Y122.168
X221.116Y122.134
X221.1Y122.1
X221.083Y122.066
X221.065Y122.032
X221.046Y121.998
X221.027Y121.965
X221.006Y121.932
X220.985Y121.9
X220.963Y121.868
X220.94Y121.837
X220.916Y121.806
X220.892Y121.776
X220.867Y121.747
X220.841Y121.718
X220.815Y121.69
X220.788Y121.662
X220.76Y121.635
X220.726Y121.604
X220.691Y121.574
X219.619Y120.674
X219.589Y120.65
X219.558Y120.626
X219.527Y120.603
X219.496Y120.581
X219.463Y120.559
X219.431Y120.539
X219.398Y120.519
X219.364Y120.5
X219.33Y120.482
X219.296Y120.464
X219.261Y120.448
X219.225Y120.432
X219.19Y120.417
X219.153Y120.403
X219.117Y120.39
X219.08Y120.378
X219.043Y120.366
X219.006Y120.356
X218.968Y120.346
X218.931Y120.338
X218.893Y120.33
X218.855Y120.323
X218.817Y120.318
X218.778Y120.313
X218.74Y120.309
X218.701Y120.306
X218.663Y120.304
X218.624Y120.302
X218.112Y120.293
X218.066
X218.019Y120.294
X217.972Y120.297
X217.925Y120.301
X217.427Y120.351
X217.38Y120.357
X217.333Y120.363
X217.287Y120.372
X217.24Y120.381
X216.746Y120.491
X216.701Y120.502
X216.656Y120.514
X216.612Y120.527
X216.568Y120.542
X216.083Y120.711
X216.039Y120.727
X215.996Y120.744
X215.953Y120.763
X215.91Y120.783
X215.447Y121.009
X215.403Y121.031
X215.361Y121.054
X215.319Y121.078
X215.278Y121.104
X214.845Y121.385
X214.805Y121.411
X214.766Y121.439
X214.728Y121.468
X214.691Y121.498
X214.297Y121.827
X214.261Y121.857
X214.227Y121.889
X214.193Y121.922
X214.16Y121.955
X213.792Y122.345
X213.621Y122.532
X213.481Y122.662
X213.331Y122.779
X213.185Y122.874
X212.917Y123.012
X212.649Y123.108
X212.37Y123.171
X212.087Y123.197
X211.802Y123.188
X211.52Y123.143
X211.247Y123.062
X210.985Y122.948
X210.741Y122.802
X210.516Y122.626
X210.316Y122.423
X210.143Y122.196
X210Y121.95
X209.882Y121.672
X209.832Y121.506
X209.792Y121.319
X209.768Y121.13
X209.756Y120.848
X209.726Y120.341
X209.723Y120.295
X209.718Y120.248
X209.712Y120.201
X209.704Y120.155
X209.613Y119.65
X209.604Y119.603
X209.594Y119.556
X209.582Y119.51
X209.568Y119.464
X209.417Y118.971
X209.402Y118.925
X209.386Y118.879
X209.368Y118.834
X209.349Y118.79
X209.139Y118.318
X209.119Y118.276
X209.098Y118.234
X209.076Y118.193
X209.053Y118.152
X208.79Y117.711
X208.766Y117.672
X208.741Y117.633
X208.714Y117.595
X208.686Y117.558
X208.378Y117.156
X208.349Y117.119
X208.319Y117.082
X208.287Y117.047
X208.255Y117.013
X207.905Y116.654
X207.872Y116.621
X207.838Y116.589
X207.803Y116.558
X207.767Y116.528
X207.369Y116.206
X207.339Y116.182
X207.308Y116.159
X207.276Y116.136
X207.244Y116.115
X207.212Y116.094
X207.179Y116.074
X207.145Y116.054
X207.111Y116.036
X207.077Y116.018
X207.042Y116.001
X207.007Y115.986
X206.971Y115.97
X206.936Y115.956
X206.899Y115.943
X206.862Y115.93
X206.825Y115.919
X206.788Y115.908
X206.751Y115.898
X206.713Y115.889
X206.675Y115.882
X206.637Y115.875
X206.599Y115.868
X206.561Y115.863
X206.522Y115.859
X206.484Y115.856
X206.445Y115.853
X206.407Y115.852
X206.368
X204.968
X204.922
X204.876Y115.854
X204.838Y115.857
X204.799Y115.861
X204.761Y115.865
X204.723Y115.871
X204.684Y115.877
X204.647Y115.884
X204.609Y115.893
X204.571Y115.902
X204.534Y115.912
X204.497Y115.923
X204.46Y115.935
X204.424Y115.948
X204.388Y115.961
X204.351Y115.976
X204.317Y115.991
X204.283Y116.007
X204.249Y116.023
X204.216Y116.04
X204.184Y116.059
X204.151Y116.077
X204.119Y116.097
X204.088Y116.117
X204.057Y116.138
X204.027Y116.16
X203.997Y116.183
X203.967Y116.206
X203.569Y116.528
X203.533Y116.558
X203.498Y116.589
X203.464Y116.621
X203.431Y116.654
X203.081Y117.013
X203.049Y117.047
X203.017Y117.082
X202.987Y117.119
X202.958Y117.156
X202.65Y117.558
X202.622Y117.595
X202.596Y117.633
X202.57Y117.672
X202.546Y117.711
X202.283Y118.152
X202.26Y118.193
X202.238Y118.234
X202.217Y118.276
X202.197Y118.318
X201.987Y118.79
X201.968Y118.834
X201.95Y118.879
X201.934Y118.925
X201.919Y118.971
X201.768Y119.464
X201.755Y119.51
X201.743Y119.556
X201.732Y119.603
X201.723Y119.65
X201.632Y120.155
X201.625Y120.201
X201.618Y120.248
X201.614Y120.294
X201.61Y120.341
X201.579Y120.876
X201.568Y121.13
X201.544Y121.319
X201.504Y121.505
X201.454Y121.672
X201.337Y121.95
X201.193Y122.196
X201.02Y122.423
X200.82Y122.626
X200.596Y122.802
X200.351Y122.948
X200.09Y123.062
X199.816Y123.143
X199.535Y123.188
X199.25Y123.197
X198.966Y123.171
X198.688Y123.108
X198.419Y123.012
X198.151Y122.874
X198.005Y122.779
X197.855Y122.662
X197.715Y122.532
X197.525Y122.324
X197.176Y121.955
X197.143Y121.922
X197.109Y121.889
X197.075Y121.857
X197.039Y121.827
X196.645Y121.498
X196.608Y121.468
X196.57Y121.439
X196.531Y121.411
X196.491Y121.385
X196.059Y121.104
X196.017Y121.078
X195.976Y121.054
X195.933Y121.031
X195.89Y121.009
X195.426Y120.783
X195.383Y120.763
X195.34Y120.744
X195.297Y120.727
X195.253Y120.711
X194.769Y120.542
X194.725Y120.527
X194.68Y120.514
X194.635Y120.502
X194.59Y120.491
X194.096Y120.381
X194.05Y120.372
X194.003Y120.363
X193.956Y120.357
X193.909Y120.351
X193.411Y120.301
X193.364Y120.297
X193.318Y120.294
X193.271Y120.293
X193.224
X192.712Y120.302
X192.673Y120.303
X192.635Y120.306
X192.596Y120.309
X192.558Y120.313
X192.52Y120.317
X192.481Y120.323
X192.443Y120.33
X192.405Y120.338
X192.368Y120.346
X192.33Y120.356
X192.293Y120.366
X192.256Y120.378
X192.22Y120.39
X192.183Y120.403
X192.147Y120.417
X192.111Y120.432
X192.076Y120.448
X192.041Y120.464
X192.006Y120.482
X191.972Y120.5
X191.938Y120.519
X191.905Y120.539
X191.873Y120.559
X191.841Y120.581
X191.809Y120.603
X191.778Y120.626
X191.747Y120.65
X191.718Y120.674
X190.645Y121.574
X190.61Y121.604
X190.576Y121.635
X190.549Y121.662
X190.521Y121.69
X190.495Y121.718
X190.469Y121.747
X190.444Y121.776
X190.42Y121.806
X190.396Y121.837
X190.373Y121.868
X190.351Y121.9
X190.33Y121.932
X190.31Y121.965
X190.29Y121.998
X190.271Y122.031
X190.253Y122.066
X190.236Y122.1
X190.22Y122.133
X190.205Y122.168
X190.191Y122.202
X190.177Y122.237
X190.164Y122.272
X190.153Y122.308
X190.142Y122.344
X190.131Y122.38
X190.122Y122.416
X190.114Y122.452
X190.106Y122.489
X190.008Y122.991
X190Y123.037
X189.993Y123.084
X189.988Y123.131
X189.983Y123.177
X189.946Y123.677
X189.943Y123.724
X189.942Y123.771
Y123.818
X189.943Y123.866
X189.966Y124.372
X189.969Y124.418
X189.973Y124.464
X189.978Y124.51
X189.985Y124.556
X190.067Y125.062
X190.075Y125.108
X190.085Y125.154
X190.096Y125.2
X190.108Y125.245
X190.25Y125.741
X190.264Y125.787
X190.28Y125.833
X190.296Y125.879
X190.315Y125.924
X190.516Y126.399
X190.535Y126.442
X190.556Y126.486
X190.577Y126.528
X190.601Y126.57
X190.856Y127.015
X190.88Y127.056
X190.905Y127.095
X190.931Y127.134
X190.959Y127.172
X191.278Y127.602
X191.433Y127.803
X191.537Y127.963
X191.626Y128.132
X191.694Y128.291
X191.783Y128.58
X191.832Y128.861
X191.845Y129.146
X191.822Y129.43
X191.763Y129.709
X191.67Y129.978
X191.543Y130.234
G0Z1
X204.532Y137.564
G1Z-0.5F50
X204.675Y137.396F100
X204.843Y137.253
X205.031Y137.138
X205.234Y137.054
X205.448Y137.002
X205.668Y136.985
X205.888Y137.002
X206.102Y137.054
X206.306Y137.138
X206.493Y137.253
X206.661Y137.396
X206.804Y137.564
X206.919Y137.751
X207.003Y137.955
X207.055Y138.169
X207.072Y138.389
X207.055Y138.608
X207.003Y138.823
X206.919Y139.026
X206.804Y139.214
X206.661Y139.382
X206.493Y139.525
X206.306Y139.64
X206.102Y139.724
X205.888Y139.776
X205.668Y139.793
X205.448Y139.776
X205.234Y139.724
X205.031Y139.64
X204.843Y139.525
X204.675Y139.382
X204.532Y139.214
X204.417Y139.026
X204.333Y138.823
X204.281Y138.608
X204.264Y138.389
X204.281Y138.169
X204.333Y137.955
X204.417Y137.751
X204.532Y137.564
G0Z1
X191.543Y130.234
G1Z-0.5F50
X191.385Y130.471F100
X191.199Y130.687
X190.986Y130.877
X190.752Y131.039
X190.499Y131.17
X190.231Y131.269
X189.937Y131.336
X189.764Y131.357
X189.573Y131.363
X189.383Y131.354
X189.103Y131.317
X188.599Y131.259
X188.553Y131.254
X188.506Y131.251
X188.459Y131.249
X188.412Y131.248
X187.899Y131.25
X187.851
X187.803Y131.253
X187.756Y131.256
X187.708Y131.262
X187.196Y131.325
X187.148Y131.332
X187.1Y131.34
X187.053Y131.349
X187.006Y131.36
X186.505Y131.485
X186.46Y131.497
X186.415Y131.511
X186.371Y131.525
X186.327Y131.541
X185.847Y131.723
X185.804Y131.74
X185.761Y131.759
X185.719Y131.778
X185.678Y131.799
X185.228Y132.033
X185.187Y132.055
X185.146Y132.079
X185.105Y132.103
X185.066Y132.129
X184.652Y132.411
X184.614Y132.438
X184.576Y132.466
X184.539Y132.496
X184.503Y132.526
X184.117Y132.862
X184.089Y132.887
X184.06Y132.914
X184.033Y132.941
X184.006Y132.969
X183.98Y132.997
X183.954Y133.026
X183.929Y133.056
X183.905Y133.086
X183.882Y133.117
X183.859Y133.148
X183.838Y133.18
X183.817Y133.212
X183.796Y133.245
X183.777Y133.279
X183.758Y133.313
X183.74Y133.347
X183.723Y133.382
X183.707Y133.417
X183.692Y133.453
X183.678Y133.489
X183.664Y133.525
X183.651Y133.561
X183.64Y133.598
X183.629Y133.635
X183.619Y133.672
X183.61Y133.71
X183.602Y133.748
X183.595Y133.786
X183.352Y135.165
X183.344Y135.21
X183.338Y135.256
X183.334Y135.294
X183.331Y135.333
X183.329Y135.371
X183.328Y135.41
X183.327Y135.448
X183.328Y135.487
X183.33Y135.526
X183.332Y135.564
X183.336Y135.603
X183.34Y135.641
X183.345Y135.679
X183.352Y135.718
X183.359Y135.755
X183.367Y135.794
X183.376Y135.83
X183.385Y135.866
X183.396Y135.902
X183.407Y135.938
X183.419Y135.973
X183.432Y136.008
X183.446Y136.043
X183.46Y136.078
X183.476Y136.112
X183.492Y136.146
X183.509Y136.179
X183.527Y136.212
X183.775Y136.659
X183.798Y136.7
X183.823Y136.74
X183.848Y136.78
X183.875Y136.818
X184.168Y137.224
X184.196Y137.262
X184.225Y137.3
X184.255Y137.336
X184.287Y137.371
X184.629Y137.744
X184.661Y137.778
X184.694Y137.81
X184.728Y137.842
X184.762Y137.873
X185.151Y138.208
X185.187Y138.238
X185.224Y138.267
X185.261Y138.295
X185.3Y138.322
X185.727Y138.611
X185.768Y138.637
X185.809Y138.662
X185.851Y138.686
X185.894Y138.709
X186.354Y138.944
X186.396Y138.965
X186.44Y138.984
X186.484Y139.003
X186.529Y139.02
X187.01Y139.197
X187.055Y139.213
X187.099Y139.227
X187.145Y139.24
X187.19Y139.251
X187.711Y139.375
X187.959Y139.43
X188.141Y139.486
X188.318Y139.558
X188.473Y139.636
X188.727Y139.8
X188.945Y139.984
X189.138Y140.194
X189.303Y140.426
X189.437Y140.678
X189.538Y140.944
X189.606Y141.221
X189.637Y141.504
X189.633Y141.79
X189.593Y142.072
X189.517Y142.347
X189.408Y142.61
X189.266Y142.857
X189.084Y143.098
X188.965Y143.225
X188.823Y143.352
X188.671Y143.468
X188.433Y143.619
X188.009Y143.898
X187.971Y143.925
X187.933Y143.952
X187.895Y143.981
X187.859Y144.011
X187.467Y144.342
X187.431Y144.373
X187.396Y144.406
X187.362Y144.439
X187.329Y144.473
X186.977Y144.851
X186.945Y144.887
X186.913Y144.924
X186.883Y144.962
X186.854Y145.001
X186.551Y145.418
X186.524Y145.457
X186.498Y145.496
X186.474Y145.535
X186.45Y145.576
X186.2Y146.024
X186.178Y146.065
X186.157Y146.106
X186.137Y146.148
X186.119Y146.19
X185.924Y146.658
X185.907Y146.702
X185.891Y146.747
X185.876Y146.791
X185.862Y146.837
X185.727Y147.319
X185.714Y147.364
X185.704Y147.41
X185.694Y147.456
X185.686Y147.502
X185.606Y148.008
X185.601Y148.045
X185.597Y148.082
X185.593Y148.119
X185.59Y148.156
X185.588Y148.194
X185.587Y148.231
Y148.268
X185.588Y148.306
X185.589Y148.343
X185.592Y148.38
X185.595Y148.418
X185.6Y148.455
X185.605Y148.494
X185.611Y148.532
X185.618Y148.57
X185.626Y148.608
X185.635Y148.645
X185.645Y148.682
X185.656Y148.72
X185.668Y148.756
X185.68Y148.793
X185.694Y148.829
X185.708Y148.865
X185.723Y148.9
X185.74Y148.936
X185.756Y148.97
X185.778Y149.011
X185.8Y149.051
X186.5Y150.264
X186.52Y150.297
X186.54Y150.33
X186.562Y150.362
X186.584Y150.394
X186.607Y150.425
X186.63Y150.455
X186.655Y150.485
X186.68Y150.515
X186.705Y150.544
X186.732Y150.572
X186.759Y150.599
X186.787Y150.626
X186.815Y150.652
X186.845Y150.678
X186.874Y150.703
X186.905Y150.727
X186.936Y150.75
X186.967Y150.773
X186.999Y150.794
X187.031Y150.815
X187.064Y150.835
X187.098Y150.855
X187.132Y150.873
X187.166Y150.891
X187.201Y150.908
X187.236Y150.924
X187.271Y150.939
X187.307Y150.953
X187.785Y151.137
X187.829Y151.153
X187.874Y151.168
X187.919Y151.182
X187.964Y151.194
X188.449Y151.317
X188.495Y151.328
X188.541Y151.338
X188.588Y151.346
X188.635Y151.353
X189.137Y151.418
X189.183Y151.424
X189.229Y151.428
X189.275Y151.43
X189.322Y151.432
X189.835Y151.439
X189.882
X189.929Y151.437
X189.975Y151.434
X190.022Y151.43
X190.535Y151.376
X190.583Y151.371
X190.631Y151.363
X190.679Y151.355
X190.726Y151.345
X191.229Y151.229
X191.275Y151.218
X191.321Y151.205
X191.367Y151.191
X191.412Y151.175
X191.895Y151.001
X191.939Y150.984
X191.982Y150.966
X192.025Y150.947
X192.067Y150.927
X192.546Y150.687
X192.771Y150.569
X192.947Y150.495
X193.129Y150.436
X193.298Y150.397
X193.597Y150.36
X193.882
X194.165Y150.397
X194.441Y150.469
X194.705Y150.575
X194.954Y150.714
X195.184Y150.883
X195.39Y151.08
X195.57Y151.301
X195.721Y151.543
X195.84Y151.802
X195.925Y152.074
X195.975Y152.355
X195.99Y152.657
X195.981Y152.83
X195.954Y153.019
X195.912Y153.205
X195.827Y153.474
X195.682Y153.96
X195.669Y154.005
X195.658Y154.051
X195.648Y154.097
X195.639Y154.143
X195.552Y154.649
X195.544Y154.696
X195.538Y154.743
X195.534Y154.791
X195.53Y154.838
X195.504Y155.353
X195.502Y155.402
Y155.45
X195.503Y155.499
X195.506Y155.547
X195.542Y156.062
X195.546Y156.109
X195.551Y156.155
X195.558Y156.201
X195.566Y156.248
X195.662Y156.752
