(Created with grbl post processor 2025/01/20 06:12)
G21
(G-code generated with BlenderCAM and NC library)
G17G90
(Tool: D = 3.18 mm  type END flutes 2)
S1000M03
G00 Z1.0

G0X0Y0Z1
X157.995Y137.501
G1Z-0.1F50
X158.162Y137.358F100
X158.35Y137.243
X158.554Y137.158
X158.768Y137.107
X158.988Y137.09
X159.207Y137.107
X159.422Y137.158
X159.625Y137.243
X159.813Y137.358
X159.98Y137.501
X160.124Y137.668
X160.239Y137.856
X160.323Y138.06
X160.374Y138.274
X160.392Y138.494
X160.374Y138.713
X160.323Y138.928
X160.239Y139.131
X160.124Y139.319
X159.98Y139.487
X159.813Y139.63
X159.625Y139.745
X159.422Y139.829
X159.207Y139.881
X158.988Y139.898
X158.768Y139.881
X158.554Y139.829
X158.35Y139.745
X158.162Y139.63
X157.995Y139.487
X157.852Y139.319
X157.737Y139.131
X157.652Y138.928
X157.601Y138.713
X157.584Y138.494
X157.601Y138.274
X157.652Y138.06
X157.737Y137.856
X157.852Y137.668
X157.995Y137.501
G0Z1
X144.863Y130.339
G1Z-0.1F50
X144.705Y130.576F100
X144.518Y130.792
X144.306Y130.982
X144.071Y131.144
X143.818Y131.275
X143.55Y131.373
X143.256Y131.441
X143.084Y131.461
X142.893Y131.468
X142.703Y131.459
X142.423Y131.422
X141.919Y131.363
X141.872Y131.359
X141.825Y131.355
X141.779Y131.353
X141.732
X141.218Y131.354
X141.171Y131.355
X141.123Y131.358
X141.075Y131.361
X141.028Y131.366
X140.516Y131.43
X140.478Y131.435
X140.439Y131.441
X140.401Y131.448
X140.363Y131.456
X140.325Y131.465
X139.825Y131.59
X139.779Y131.602
X139.734Y131.616
X139.69Y131.63
X139.646Y131.646
X139.166Y131.828
X139.123Y131.845
X139.081Y131.864
X139.039Y131.883
X138.997Y131.904
X138.548Y132.137
X138.506Y132.16
X138.465Y132.183
X138.425Y132.208
X138.385Y132.234
X137.972Y132.516
X137.933Y132.543
X137.896Y132.571
X137.859Y132.6
X137.823Y132.631
X137.437Y132.967
X137.408Y132.992
X137.38Y133.019
X137.352Y133.046
X137.325Y133.074
X137.299Y133.102
X137.274Y133.131
X137.249Y133.161
X137.225Y133.191
X137.202Y133.222
X137.179Y133.253
X137.157Y133.285
X137.136Y133.317
X137.116Y133.35
X137.096Y133.384
X137.078Y133.418
X137.06Y133.452
X137.043Y133.487
X137.027Y133.522
X137.011Y133.558
X136.997Y133.593
X136.984Y133.63
X136.971Y133.666
X136.959Y133.703
X136.948Y133.74
X136.939Y133.777
X136.93Y133.815
X136.921Y133.853
X136.914Y133.891
X136.671Y135.27
X136.664Y135.315
X136.658Y135.361
X136.654Y135.399
X136.651Y135.437
X136.648Y135.476
X136.647Y135.515
Y135.553
X136.648Y135.592
X136.649Y135.631
X136.652Y135.669
X136.655Y135.708
X136.66Y135.746
X136.665Y135.784
X136.671Y135.822
X136.678Y135.86
X136.687Y135.899
X136.695Y135.935
X136.705Y135.971
X136.715Y136.007
X136.727Y136.043
X136.739Y136.078
X136.752Y136.113
X136.765Y136.148
X136.78Y136.182
X136.795Y136.217
X136.811Y136.25
X136.828Y136.284
X136.846Y136.317
X137.094Y136.764
X137.117Y136.805
X137.142Y136.845
X137.168Y136.884
X137.195Y136.923
X137.487Y137.329
X137.515Y137.367
X137.545Y137.404
X137.575Y137.441
X137.606Y137.476
X137.949Y137.849
X137.981Y137.883
X138.014Y137.915
X138.047Y137.947
X138.082Y137.978
X138.47Y138.313
X138.506Y138.343
X138.543Y138.372
X138.581Y138.4
X138.619Y138.427
X139.047Y138.715
X139.087Y138.742
X139.129Y138.767
X139.171Y138.791
X139.214Y138.814
X139.673Y139.048
X139.716Y139.07
X139.76Y139.089
X139.804Y139.108
X139.848Y139.125
X140.33Y139.302
X140.374Y139.317
X140.419Y139.332
X140.464Y139.345
X140.509Y139.356
X141.031Y139.48
X141.279Y139.535
X141.461Y139.591
X141.638Y139.662
X141.793Y139.741
X142.046Y139.905
X142.264Y140.089
X142.457Y140.298
X142.622Y140.531
X142.756Y140.782
X142.858Y141.049
X142.925Y141.326
X142.957Y141.609
X142.953Y141.894
X142.912Y142.177
X142.837Y142.451
X142.727Y142.715
X142.585Y142.962
X142.403Y143.203
X142.284Y143.329
X142.142Y143.457
X141.991Y143.572
X141.753Y143.724
X141.329Y144.003
X141.29Y144.03
X141.252Y144.057
X141.215Y144.086
X141.179Y144.115
X140.786Y144.447
X140.75Y144.478
X140.715Y144.51
X140.681Y144.544
X140.648Y144.578
X140.297Y144.956
X140.264Y144.992
X140.233Y145.029
X140.203Y145.067
X140.173Y145.106
X139.87Y145.523
X139.844Y145.561
X139.818Y145.601
X139.793Y145.64
X139.77Y145.681
X139.519Y146.129
X139.497Y146.169
X139.476Y146.211
X139.457Y146.253
X139.438Y146.295
X139.244Y146.763
X139.226Y146.807
X139.21Y146.851
X139.195Y146.896
X139.182Y146.941
X139.046Y147.423
X139.034Y147.469
X139.023Y147.515
X139.014Y147.561
X139.006Y147.607
X138.926Y148.112
X138.921Y148.149
X138.916Y148.186
X138.912Y148.224
X138.91Y148.261
X138.908Y148.298
X138.907Y148.336
Y148.373
Y148.411
X138.909Y148.448
X138.911Y148.485
X138.915Y148.522
X138.919Y148.56
X138.924Y148.598
X138.931Y148.637
X138.938Y148.675
X138.946Y148.712
X138.955Y148.75
X138.965Y148.787
X138.976Y148.824
X138.987Y148.861
X139Y148.898
X139.013Y148.934
X139.028Y148.97
X139.043Y149.005
X139.059Y149.04
X139.076Y149.075
X139.097Y149.116
X139.12Y149.156
X139.82Y150.369
X139.839Y150.402
X139.86Y150.435
X139.881Y150.467
X139.903Y150.499
X139.926Y150.53
X139.95Y150.56
X139.974Y150.59
X139.999Y150.62
X140.025Y150.648
X140.051Y150.677
X140.079Y150.704
X140.106Y150.731
X140.135Y150.757
X140.164Y150.783
X140.194Y150.808
X140.224Y150.832
X140.255Y150.855
X140.287Y150.877
X140.318Y150.899
X140.351Y150.92
X140.384Y150.94
X140.417Y150.96
X140.451Y150.978
X140.486Y150.996
X140.52Y151.013
X140.555Y151.029
X140.591Y151.044
X140.627Y151.058
X141.105Y151.242
X141.149Y151.258
X141.193Y151.273
X141.238Y151.286
X141.283Y151.299
X141.769Y151.422
X141.815Y151.433
X141.861Y151.442
X141.908Y151.451
X141.954Y151.457
X142.456Y151.523
X142.502Y151.528
X142.549Y151.532
X142.595Y151.535
X142.641Y151.536
X143.154Y151.543
X143.201
X143.248Y151.542
X143.295Y151.539
X143.341Y151.535
X143.854Y151.481
X143.903Y151.475
X143.951Y151.468
X143.998Y151.46
X144.046Y151.449
X144.548Y151.334
X144.595Y151.322
X144.641Y151.31
X144.686Y151.295
X144.732Y151.28
X145.215Y151.106
X145.258Y151.089
X145.302Y151.071
X145.345Y151.052
X145.387Y151.032
X145.866Y150.792
X146.091Y150.674
X146.266Y150.6
X146.448Y150.541
X146.617Y150.502
X146.917Y150.464
X147.202Y150.465
X147.485Y150.502
X147.76Y150.574
X148.025Y150.68
X148.274Y150.819
X148.504Y150.988
X148.71Y151.185
X148.89Y151.406
X149.04Y151.648
X149.159Y151.907
X149.245Y152.179
X149.295Y152.46
X149.31Y152.761
X149.3Y152.935
X149.274Y153.124
X149.232Y153.31
X149.147Y153.579
X149.002Y154.065
X148.989Y154.11
X148.978Y154.156
X148.968Y154.202
X148.959Y154.248
X148.871Y154.753
X148.864Y154.801
X148.858Y154.848
X148.853Y154.895
X148.85Y154.943
X148.823Y155.458
X148.822Y155.507
X148.821Y155.555
X148.822Y155.604
X148.825Y155.652
X148.861Y156.167
X148.865Y156.214
X148.871Y156.26
X148.877Y156.306
X148.886Y156.352
X148.981Y156.856
X148.991Y156.902
X149.001Y156.947
X149.013Y156.992
X149.027Y157.036
X149.179Y157.519
X149.193Y157.564
X149.21Y157.609
X149.227Y157.653
X149.246Y157.696
X149.451Y158.152
X149.471Y158.195
X149.493Y158.237
X149.515Y158.278
X149.539Y158.319
X149.802Y158.757
X149.822Y158.789
X149.842Y158.821
X149.863Y158.851
X149.885Y158.882
X149.908Y158.912
X149.931Y158.941
X149.955Y158.97
X149.98Y158.998
X150.005Y159.025
X150.031Y159.052
X150.057Y159.079
X150.085Y159.105
X150.114Y159.131
X150.143Y159.156
X150.173Y159.18
X150.203Y159.204
X150.234Y159.227
X150.266Y159.249
X150.298Y159.271
X150.331Y159.292
X150.364Y159.311
X150.397Y159.331
X150.431Y159.349
X150.466Y159.366
X150.501Y159.383
X150.536Y159.399
X150.579Y159.416
X150.622Y159.432
X151.937Y159.911
X151.974Y159.924
X152.01Y159.936
X152.047Y159.947
X152.085Y159.957
X152.122Y159.966
X152.16Y159.974
X152.198Y159.982
X152.236Y159.988
X152.274Y159.994
X152.313Y159.998
X152.351Y160.002
X152.39Y160.005
X152.428Y160.006
X152.467Y160.007
X152.506
X152.545Y160.006
X152.583Y160.004
X152.622Y160.001
X152.66Y159.997
X152.699Y159.992
X152.737Y159.987
X152.775Y159.98
X152.813Y159.972
X152.85Y159.964
X152.888Y159.954
X152.925Y159.944
X152.962Y159.933
X152.999Y159.921
X153.483Y159.754
X153.527Y159.738
X153.571Y159.721
X153.614Y159.703
X153.656Y159.683
X154.107Y159.465
X154.149Y159.444
X154.191Y159.422
X154.232Y159.398
X154.272Y159.373
X154.699Y159.101
X154.738Y159.075
X154.776Y159.049
X154.813Y159.021
X154.849Y158.992
X155.247Y158.668
X155.283Y158.638
X155.318Y158.606
X155.352Y158.574
X155.385Y158.541
X155.743Y158.17
X155.776Y158.135
X155.808Y158.098
X155.839Y158.061
X155.869Y158.023
X156.18Y157.611
X156.208Y157.573
X156.235Y157.533
X156.261Y157.493
X156.286Y157.452
X156.544Y157.008
X156.567Y156.967
X156.588Y156.926
X156.609Y156.884
X156.628Y156.841
X156.841Y156.349
X156.938Y156.114
X157.024Y155.945
X157.126Y155.783
X157.23Y155.644
X157.435Y155.423
X157.654Y155.24
X157.894Y155.086
X158.152Y154.964
X158.423Y154.876
X158.703Y154.822
X158.988Y154.804
X159.272Y154.822
X159.552Y154.876
X159.823Y154.964
X160.081Y155.086
X160.321Y155.24
X160.54Y155.423
X160.745Y155.644
X160.849Y155.783
X160.951Y155.945
X161.038Y156.114
X161.145Y156.375
X161.347Y156.841
X161.366Y156.884
X161.387Y156.926
X161.409Y156.967
X161.431Y157.008
X161.69Y157.452
X161.714Y157.493
X161.74Y157.533
X161.767Y157.572
X161.795Y157.611
X162.106Y158.023
X162.136Y158.061
X162.167Y158.098
X162.199Y158.135
X162.232Y158.17
X162.591Y158.541
X162.624Y158.574
X162.658Y158.607
X162.692Y158.638
X162.728Y158.668
X163.126Y158.992
X163.162Y159.021
X163.199Y159.049
X163.237Y159.075
X163.276Y159.101
X163.703Y159.373
X163.743Y159.398
X163.784Y159.422
X163.826Y159.444
X163.868Y159.465
X164.319Y159.683
X164.361Y159.703
X164.405Y159.721
X164.448Y159.738
X164.492Y159.754
X164.976Y159.921
X165.013Y159.933
X165.05Y159.944
X165.087Y159.954
X165.125Y159.964
X165.162Y159.972
X165.2Y159.98
X165.238Y159.987
X165.276Y159.992
X165.315Y159.997
X165.353Y160.001
X165.392Y160.004
X165.43Y160.006
X165.469Y160.007
X165.508
X165.547Y160.006
X165.585Y160.005
X165.624Y160.002
X165.663Y159.998
X165.701Y159.994
X165.739Y159.988
X165.777Y159.982
X165.815Y159.974
X165.853Y159.966
X165.89Y159.957
X165.928Y159.947
X165.965Y159.936
X166.001Y159.924
X166.038Y159.911
X167.354Y159.433
X167.397Y159.416
X167.439Y159.399
X167.474Y159.383
X167.509Y159.366
X167.544Y159.349
X167.578Y159.331
X167.611Y159.312
X167.645Y159.292
X167.677Y159.271
X167.709Y159.249
X167.741Y159.227
X167.772Y159.204
X167.802Y159.18
X167.832Y159.156
X167.862Y159.131
X167.891Y159.105
X167.918Y159.079
X167.944Y159.052
X167.97Y159.025
X167.995Y158.998
X168.02Y158.97
X168.044Y158.941
X168.067Y158.912
X168.09Y158.882
X168.112Y158.851
X168.133Y158.821
X168.153Y158.789
X168.173Y158.757
X168.437Y158.319
X168.46Y158.278
X168.483Y158.237
X168.504Y158.195
X168.524Y158.152
X168.729Y157.696
X168.748Y157.653
X168.766Y157.609
X168.782Y157.564
X168.797Y157.519
X168.949Y157.036
X168.962Y156.992
X168.974Y156.947
X168.984Y156.902
X168.994Y156.857
X169.09Y156.353
X169.098Y156.306
X169.104Y156.26
X169.11Y156.213
X169.114Y156.167
X169.15Y155.652
X169.153Y155.604
X169.154Y155.555
Y155.507
X169.152Y155.458
X169.125Y154.943
X169.122Y154.896
X169.117Y154.848
X169.111Y154.801
X169.104Y154.753
X169.016Y154.248
X169.008Y154.202
X168.998Y154.156
X168.986Y154.11
X168.973Y154.065
X168.82Y153.552
X168.743Y153.31
X168.701Y153.124
X168.675Y152.935
X168.665Y152.762
X168.68Y152.46
X168.731Y152.179
X168.816Y151.907
X168.935Y151.648
X169.085Y151.406
X169.265Y151.185
X169.472Y150.988
X169.701Y150.819
X169.95Y150.68
X170.215Y150.574
X170.491Y150.502
X170.773Y150.465
X171.058
X171.358Y150.502
X171.527Y150.541
X171.709Y150.6
X171.884Y150.674
X172.134Y150.805
X172.588Y151.032
X172.63Y151.052
X172.673Y151.071
X172.717Y151.089
X172.761Y151.106
X173.244Y151.28
X173.289Y151.295
X173.334Y151.31
X173.38Y151.322
X173.427Y151.334
X173.929Y151.449
X173.977Y151.46
X174.025Y151.468
X174.072Y151.476
X174.121Y151.481
X174.634Y151.535
X174.68Y151.539
X174.727Y151.542
X174.774Y151.543
X174.821
X175.334Y151.537
X175.38Y151.535
X175.427Y151.533
X175.473Y151.529
X175.519Y151.523
X176.021Y151.458
X176.068Y151.451
X176.114Y151.443
X176.16Y151.433
X176.206Y151.422
X176.692Y151.299
X176.737Y151.287
X176.782Y151.273
X176.827Y151.258
X176.871Y151.242
X177.348Y151.058
X177.384Y151.044
X177.42Y151.029
X177.455Y151.013
X177.49Y150.996
X177.524Y150.978
X177.558Y150.96
X177.591Y150.94
X177.624Y150.92
X177.657Y150.899
X177.689Y150.878
X177.72Y150.855
X177.751Y150.832
X177.781Y150.808
X177.811Y150.783
X177.84Y150.757
X177.869Y150.731
X177.897Y150.704
X177.924Y150.677
X177.95Y150.648
X177.976Y150.62
X178.001Y150.59
X178.025Y150.56
X178.049Y150.53
X178.072Y150.499
X178.094Y150.467
X178.115Y150.435
X178.136Y150.402
X178.155Y150.369
X178.855Y149.156
X178.878Y149.116
X178.899Y149.075
X178.916Y149.041
X178.932Y149.005
X178.947Y148.97
X178.962Y148.934
X178.975Y148.898
X178.988Y148.861
X179Y148.824
X179.01Y148.787
X179.02Y148.75
X179.029Y148.712
X179.037Y148.675
X179.045Y148.637
X179.051Y148.598
X179.056Y148.56
X179.06Y148.522
X179.064Y148.485
X179.066Y148.448
X179.068Y148.41
X179.069Y148.373
X179.068Y148.336
X179.067Y148.298
X179.066Y148.261
X179.063Y148.224
X179.059Y148.186
X179.055Y148.149
X179.049Y148.112
X178.969Y147.607
X178.961Y147.561
X178.952Y147.515
X178.941Y147.469
X178.929Y147.424
X178.793Y146.942
X178.78Y146.896
X178.765Y146.851
X178.749Y146.807
X178.731Y146.763
X178.537Y146.295
X178.519Y146.253
X178.499Y146.211
X178.478Y146.17
X178.456Y146.129
X178.206Y145.681
X178.182Y145.64
X178.157Y145.601
X178.132Y145.561
X178.105Y145.523
X177.802Y145.106
X177.773Y145.067
X177.742Y145.029
X177.711Y144.992
X177.679Y144.956
X177.327Y144.578
X177.294Y144.544
X177.26Y144.51
X177.225Y144.478
X177.189Y144.447
X176.796Y144.116
X176.76Y144.086
X176.723Y144.057
X176.685Y144.03
X176.646Y144.003
X176.199Y143.709
X175.985Y143.572
X175.833Y143.457
X175.691Y143.33
X175.572Y143.203
X175.39Y142.962
X175.248Y142.715
X175.138Y142.452
X175.063Y142.177
X175.023Y141.895
X175.018Y141.609
X175.05Y141.326
X175.117Y141.049
X175.219Y140.783
X175.353Y140.531
X175.518Y140.299
X175.711Y140.089
X175.929Y139.905
X176.183Y139.741
X176.337Y139.663
X176.514Y139.591
X176.696Y139.535
X176.972Y139.474
X177.466Y139.356
X177.511Y139.345
X177.556Y139.332
X177.601Y139.318
X177.645Y139.302
X178.127Y139.125
X178.172Y139.108
X178.216Y139.089
X178.259Y139.07
X178.302Y139.049
X178.762Y138.814
X178.804Y138.791
X178.847Y138.767
X178.888Y138.742
X178.928Y138.716
X179.356Y138.427
X179.394Y138.4
X179.432Y138.372
X179.469Y138.343
X179.505Y138.313
X179.893Y137.978
X179.928Y137.947
X179.962Y137.915
X179.994Y137.883
X180.026Y137.849
X180.369Y137.476
X180.4Y137.441
X180.431Y137.404
X180.46Y137.367
X180.488Y137.329
X180.781Y136.923
X180.807Y136.885
X180.833Y136.845
X180.858Y136.805
X180.881Y136.764
X181.129Y136.317
X181.147Y136.284
X181.164Y136.25
X181.18Y136.217
X181.195Y136.183
X181.21Y136.148
X181.224Y136.113
X181.237Y136.078
X181.249Y136.043
X181.26Y136.007
X181.27Y135.971
X181.28Y135.935
X181.289Y135.898
X181.297Y135.86
X181.304Y135.822
X181.31Y135.784
X181.316Y135.746
X181.32Y135.708
X181.323Y135.669
X181.326Y135.631
X181.328Y135.592
Y135.553
Y135.515
X181.327Y135.476
X181.325Y135.438
X181.321Y135.399
X181.317Y135.361
X181.311Y135.315
X181.304Y135.27
X181.061Y133.891
X181.054Y133.853
X181.046Y133.815
X181.037Y133.778
X181.027Y133.74
X181.016Y133.703
X181.004Y133.666
X180.992Y133.63
X180.978Y133.594
X180.964Y133.558
X180.949Y133.522
X180.933Y133.487
X180.916Y133.452
X180.898Y133.418
X180.879Y133.384
X180.859Y133.35
X180.839Y133.317
X180.818Y133.285
X180.796Y133.253
X180.774Y133.222
X180.75Y133.191
X180.726Y133.161
X180.702Y133.131
X180.676Y133.102
X180.65Y133.074
X180.623Y133.046
X180.595Y133.019
X180.567Y132.992
X180.538Y132.967
X180.152Y132.631
X180.116Y132.601
X180.08Y132.571
X180.042Y132.543
X180.004Y132.516
X179.59Y132.234
X179.55Y132.208
X179.51Y132.183
X179.469Y132.16
X179.427Y132.137
X178.978Y131.904
X178.937Y131.883
X178.895Y131.864
X178.852Y131.845
X178.809Y131.828
X178.329Y131.646
X178.285Y131.63
X178.241Y131.616
X178.196Y131.602
X178.151Y131.59
X177.65Y131.465
X177.603Y131.454
X177.555Y131.445
X177.507Y131.436
X177.459Y131.43
X176.948Y131.367
X176.9Y131.361
X176.852Y131.358
X176.805Y131.355
X176.757
X176.244Y131.353
X176.197Y131.354
X176.15Y131.356
X176.103Y131.359
X176.056Y131.364
X175.524Y131.425
X175.273Y131.459
X175.082Y131.468
X174.891Y131.462
X174.719Y131.441
X174.425Y131.373
X174.157Y131.275
X173.904Y131.144
X173.669Y130.982
X173.457Y130.792
X173.271Y130.576
X173.113Y130.339
X172.986Y130.083
X172.893Y129.814
X172.834Y129.535
X172.811Y129.251
X172.824Y128.966
X172.873Y128.685
X172.961Y128.396
X173.03Y128.237
X173.119Y128.068
X173.223Y127.908
X173.394Y127.684
X173.697Y127.277
X173.724Y127.239
X173.751Y127.2
X173.776Y127.16
X173.8Y127.12
X174.055Y126.675
X174.078Y126.633
X174.1Y126.59
X174.121Y126.547
X174.14Y126.504
X174.341Y126.029
X174.359Y125.984
X174.376Y125.938
X174.392Y125.892
X174.406Y125.846
X174.548Y125.35
X174.56Y125.305
X174.571Y125.259
X174.58Y125.213
X174.588Y125.167
X174.671Y124.661
X174.678Y124.615
X174.683Y124.569
X174.687Y124.523
X174.69Y124.476
X174.712Y123.97
X174.714Y123.923
Y123.876
X174.712Y123.829
X174.71Y123.782
X174.672Y123.282
X174.668Y123.235
X174.663Y123.189
X174.656Y123.142
X174.647Y123.096
X174.55Y122.594
X174.542Y122.557
X174.534Y122.521
X174.524Y122.485
X174.514Y122.449
X174.503Y122.413
X174.491Y122.377
X174.479Y122.342
X174.465Y122.307
X174.451Y122.273
X174.436Y122.238
X174.42Y122.205
X174.403Y122.171
X174.385Y122.136
X174.366Y122.103
X174.346Y122.069
X174.326Y122.037
X174.304Y122.005
X174.282Y121.973
X174.259Y121.942
X174.236Y121.911
X174.212Y121.881
X174.187Y121.852
X174.161Y121.823
X174.134Y121.795
X174.107Y121.767
X174.079Y121.74
X174.045Y121.709
X174.011Y121.679
X172.938Y120.779
X172.908Y120.755
X172.878Y120.731
X172.847Y120.708
X172.815Y120.686
X172.783Y120.664
X172.75Y120.644
X172.717Y120.624
X172.684Y120.605
X172.65Y120.586
X172.615Y120.569
X172.58Y120.553
X172.545Y120.537
X172.509Y120.522
X172.473Y120.508
X172.436Y120.495
X172.4Y120.482
X172.363Y120.471
X172.325Y120.461
X172.288Y120.451
X172.25Y120.443
X172.212Y120.435
X172.174Y120.428
X172.136Y120.422
X172.098Y120.417
X172.059Y120.414
X172.021Y120.41
X171.982Y120.408
X171.944Y120.407
X171.432Y120.398
X171.385
X171.338Y120.399
X171.291Y120.402
X171.245Y120.406
X170.746Y120.456
X170.699Y120.461
X170.653Y120.468
X170.606Y120.476
X170.56Y120.486
X170.065Y120.596
X170.02Y120.607
X169.976Y120.619
X169.931Y120.632
X169.887Y120.647
X169.403Y120.816
X169.359Y120.832
X169.315Y120.849
X169.272Y120.868
X169.23Y120.888
X168.766Y121.114
X168.723Y121.136
X168.68Y121.159
X168.638Y121.183
X168.597Y121.209
X168.165Y121.49
X168.125Y121.516
X168.086Y121.544
X168.048Y121.573
X168.011Y121.603
X167.617Y121.932
X167.581Y121.962
X167.546Y121.994
X167.512Y122.027
X167.48Y122.06
X167.112Y122.449
X166.941Y122.637
X166.801Y122.766
X166.65Y122.884
X166.505Y122.979
X166.236Y123.116
X165.968Y123.213
X165.69Y123.276
X165.406Y123.302
X165.121Y123.293
X164.84Y123.248
X164.566Y123.167
X164.311Y123.056
X164.059Y122.906
X163.836Y122.731
X163.635Y122.528
X163.462Y122.301
X163.319Y122.055
X163.202Y121.777
X163.151Y121.61
X163.112Y121.424
X163.088Y121.235
X163.076Y120.953
X163.046Y120.446
X163.042Y120.399
X163.037Y120.353
X163.031Y120.306
X163.023Y120.26
X162.933Y119.755
X162.924Y119.708
X162.913Y119.661
X162.901Y119.615
X162.888Y119.569
X162.737Y119.076
X162.722Y119.03
X162.705Y118.984
X162.688Y118.939
X162.669Y118.894
X162.459Y118.423
X162.439Y118.381
X162.418Y118.339
X162.396Y118.297
X162.372Y118.257
X162.11Y117.816
X162.086Y117.777
X162.06Y117.738
X162.034Y117.7
X162.006Y117.663
X161.698Y117.261
X161.669Y117.224
X161.638Y117.187
X161.607Y117.152
X161.574Y117.118
X161.225Y116.759
X161.192Y116.726
X161.157Y116.694
X161.122Y116.663
X161.086Y116.633
X160.689Y116.311
X160.658Y116.287
X160.627Y116.264
X160.596Y116.241
X160.564Y116.219
X160.531Y116.199
X160.498Y116.178
X160.465Y116.159
X160.431Y116.141
X160.397Y116.123
X160.362Y116.106
X160.327Y116.09
X160.291Y116.075
X160.255Y116.061
X160.218Y116.048
X160.182Y116.035
X160.145Y116.024
X160.108Y116.013
X160.07Y116.003
X160.033Y115.994
X159.995Y115.986
X159.957Y115.979
X159.919Y115.973
X159.88Y115.968
X159.842Y115.964
X159.803Y115.961
X159.765Y115.958
X159.726Y115.957
X159.688Y115.956
X158.288
X158.242Y115.957
X158.196Y115.959
X158.157Y115.962
X158.119Y115.965
X158.08Y115.97
X158.042Y115.975
X158.004Y115.982
X157.966Y115.989
X157.928Y115.998
X157.891Y116.007
X157.854Y116.017
X157.816Y116.028
X157.78Y116.04
X157.743Y116.052
X157.707Y116.066
X157.671Y116.081
X157.637Y116.096
X157.603Y116.111
X157.569Y116.128
X157.536Y116.145
X157.503Y116.163
X157.471Y116.182
X157.439Y116.202
X157.407Y116.222
X157.377Y116.243
X157.346Y116.265
X157.316Y116.287
X157.287Y116.311
X156.889Y116.633
X156.853Y116.663
X156.818Y116.694
X156.784Y116.726
X156.75Y116.759
X156.401Y117.118
X156.368Y117.152
X156.337Y117.187
X156.307Y117.223
X156.277Y117.261
X155.969Y117.663
X155.942Y117.7
X155.915Y117.738
X155.89Y117.777
X155.865Y117.816
X155.603Y118.257
X155.58Y118.298
X155.557Y118.339
X155.536Y118.381
X155.517Y118.423
X155.307Y118.894
X155.288Y118.939
X155.27Y118.984
X155.254Y119.03
X155.239Y119.076
X155.087Y119.569
X155.074Y119.615
X155.062Y119.661
X155.052Y119.708
X155.043Y119.755
X154.952Y120.26
X154.944Y120.306
X154.938Y120.353
X154.933Y120.399
X154.93Y120.446
X154.898Y120.981
X154.887Y121.235
X154.864Y121.424
X154.824Y121.61
X154.774Y121.776
X154.656Y122.055
X154.513Y122.301
X154.34Y122.528
X154.139Y122.731
X153.915Y122.907
X153.67Y123.053
X153.409Y123.167
X153.136Y123.248
X152.854Y123.293
X152.569Y123.302
X152.285Y123.275
X152.007Y123.213
X151.739Y123.116
X151.47Y122.979
X151.325Y122.884
X151.174Y122.766
X151.035Y122.637
X150.844Y122.429
X150.495Y122.06
X150.463Y122.026
X150.429Y121.994
X150.394Y121.962
X150.359Y121.932
X149.964Y121.603
X149.927Y121.573
X149.889Y121.544
X149.851Y121.516
X149.811Y121.49
X149.378Y121.209
X149.337Y121.183
X149.295Y121.159
X149.252Y121.135
X149.209Y121.114
X148.745Y120.888
X148.703Y120.868
X148.66Y120.849
X148.617Y120.832
X148.573Y120.816
X148.088Y120.647
X148.044Y120.632
X148Y120.619
X147.955Y120.607
X147.91Y120.596
X147.415Y120.486
X147.369Y120.476
X147.323Y120.468
X147.276Y120.461
X147.229Y120.456
X146.731Y120.406
X146.684Y120.402
X146.637Y120.399
X146.59Y120.398
X146.543
X146.032Y120.407
X145.993Y120.408
X145.954Y120.41
X145.916Y120.413
X145.877Y120.417
X145.839Y120.422
X145.801Y120.428
X145.763Y120.435
X145.725Y120.443
X145.687Y120.451
X145.65Y120.461
X145.613Y120.471
X145.576Y120.482
X145.539Y120.495
X145.502Y120.508
X145.466Y120.522
X145.43Y120.537
X145.395Y120.552
X145.36Y120.569
X145.326Y120.586
X145.292Y120.605
X145.258Y120.624
X145.225Y120.644
X145.192Y120.664
X145.16Y120.686
X145.129Y120.708
X145.098Y120.731
X145.067Y120.755
X145.037Y120.779
X143.965Y121.679
X143.93Y121.709
X143.896Y121.74
X143.868Y121.767
X143.841Y121.795
X143.815Y121.823
X143.789Y121.852
X143.764Y121.881
X143.739Y121.911
X143.716Y121.942
X143.693Y121.973
X143.671Y122.004
X143.65Y122.037
X143.629Y122.069
X143.609Y122.103
X143.59Y122.136
X143.572Y122.171
X143.555Y122.204
X143.54Y122.238
X143.524Y122.272
X143.51Y122.307
X143.497Y122.342
X143.484Y122.377
X143.472Y122.413
X143.461Y122.448
X143.451Y122.484
X143.442Y122.521
X143.433Y122.557
X143.426Y122.594
X143.328Y123.096
X143.32Y123.142
X143.313Y123.189
X143.307Y123.235
X143.303Y123.282
X143.266Y123.781
X143.263Y123.829
X143.262Y123.876
Y123.923
X143.263Y123.97
X143.286Y124.476
X143.288Y124.523
X143.292Y124.569
X143.298Y124.615
X143.305Y124.661
X143.387Y125.167
X143.395Y125.213
X143.405Y125.259
X143.415Y125.305
X143.428Y125.35
X143.57Y125.846
X143.584Y125.892
X143.599Y125.938
X143.616Y125.984
X143.634Y126.028
X143.835Y126.503
X143.855Y126.547
X143.875Y126.59
X143.897Y126.633
X143.92Y126.675
X144.176Y127.12
X144.2Y127.16
X144.225Y127.2
X144.251Y127.239
X144.278Y127.277
X144.598Y127.707
X144.753Y127.908
X144.856Y128.068
X144.946Y128.237
X145.014Y128.396
X145.103Y128.685
X145.151Y128.966
X145.164Y129.251
X145.141Y129.535
X145.083Y129.814
X144.989Y130.083
X144.863Y130.339
G0Z1
X157.995Y137.501
G1Z-0.2F50
X158.162Y137.358F100
X158.35Y137.243
X158.554Y137.158
X158.768Y137.107
X158.988Y137.09
X159.207Y137.107
X159.422Y137.158
X159.625Y137.243
X159.813Y137.358
X159.98Y137.501
X160.124Y137.668
X160.239Y137.856
X160.323Y138.06
X160.374Y138.274
X160.392Y138.494
X160.374Y138.713
X160.323Y138.928
X160.239Y139.131
X160.124Y139.319
X159.98Y139.487
X159.813Y139.63
X159.625Y139.745
X159.422Y139.829
X159.207Y139.881
X158.988Y139.898
X158.768Y139.881
X158.554Y139.829
X158.35Y139.745
X158.162Y139.63
X157.995Y139.487
X157.852Y139.319
X157.737Y139.131
X157.652Y138.928
X157.601Y138.713
X157.584Y138.494
X157.601Y138.274
X157.652Y138.06
X157.737Y137.856
X157.852Y137.668
X157.995Y137.501
G0Z1
X144.863Y130.339
G1Z-0.2F50
X144.705Y130.576F100
X144.518Y130.792
X144.306Y130.982
X144.071Y131.144
X143.818Y131.275
X143.55Y131.373
X143.256Y131.441
X143.084Y131.461
X142.893Y131.468
X142.703Y131.459
X142.423Y131.422
X141.919Y131.363
X141.872Y131.359
X141.825Y131.355
X141.779Y131.353
X141.732
X141.218Y131.354
X141.171Y131.355
X141.123Y131.358
X141.075Y131.361
X141.028Y131.366
X140.516Y131.43
X140.478Y131.435
X140.439Y131.441
X140.401Y131.448
X140.363Y131.456
X140.325Y131.465
X139.825Y131.59
X139.779Y131.602
X139.734Y131.616
X139.69Y131.63
X139.646Y131.646
X139.166Y131.828
X139.123Y131.845
X139.081Y131.864
X139.039Y131.883
X138.997Y131.904
X138.548Y132.137
X138.506Y132.16
X138.465Y132.183
X138.425Y132.208
X138.385Y132.234
X137.972Y132.516
X137.933Y132.543
X137.896Y132.571
X137.859Y132.6
X137.823Y132.631
X137.437Y132.967
X137.408Y132.992
X137.38Y133.019
X137.352Y133.046
X137.325Y133.074
X137.299Y133.102
X137.274Y133.131
X137.249Y133.161
X137.225Y133.191
X137.202Y133.222
X137.179Y133.253
X137.157Y133.285
X137.136Y133.317
X137.116Y133.35
X137.096Y133.384
X137.078Y133.418
X137.06Y133.452
X137.043Y133.487
X137.027Y133.522
X137.011Y133.558
X136.997Y133.593
X136.984Y133.63
X136.971Y133.666
X136.959Y133.703
X136.948Y133.74
X136.939Y133.777
X136.93Y133.815
X136.921Y133.853
X136.914Y133.891
X136.671Y135.27
X136.664Y135.315
X136.658Y135.361
X136.654Y135.399
X136.651Y135.437
X136.648Y135.476
X136.647Y135.515
Y135.553
X136.648Y135.592
X136.649Y135.631
X136.652Y135.669
X136.655Y135.708
X136.66Y135.746
X136.665Y135.784
X136.671Y135.822
X136.678Y135.86
X136.687Y135.899
X136.695Y135.935
X136.705Y135.971
X136.715Y136.007
X136.727Y136.043
X136.739Y136.078
X136.752Y136.113
X136.765Y136.148
X136.78Y136.182
X136.795Y136.217
X136.811Y136.25
X136.828Y136.284
X136.846Y136.317
X137.094Y136.764
X137.117Y136.805
X137.142Y136.845
X137.168Y136.884
X137.195Y136.923
X137.487Y137.329
X137.515Y137.367
X137.545Y137.404
X137.575Y137.441
X137.606Y137.476
X137.949Y137.849
X137.981Y137.883
X138.014Y137.915
X138.047Y137.947
X138.082Y137.978
X138.47Y138.313
X138.506Y138.343
X138.543Y138.372
X138.581Y138.4
X138.619Y138.427
X139.047Y138.715
X139.087Y138.742
X139.129Y138.767
X139.171Y138.791
X139.214Y138.814
X139.673Y139.048
X139.716Y139.07
X139.76Y139.089
X139.804Y139.108
X139.848Y139.125
X140.33Y139.302
X140.374Y139.317
X140.419Y139.332
X140.464Y139.345
X140.509Y139.356
X141.031Y139.48
X141.279Y139.535
X141.461Y139.591
X141.638Y139.662
X141.793Y139.741
X142.046Y139.905
X142.264Y140.089
X142.457Y140.298
X142.622Y140.531
X142.756Y140.782
X142.858Y141.049
X142.925Y141.326
X142.957Y141.609
X142.953Y141.894
X142.912Y142.177
X142.837Y142.451
X142.727Y142.715
X142.585Y142.962
X142.403Y143.203
X142.284Y143.329
X142.142Y143.457
X141.991Y143.572
X141.753Y143.724
X141.329Y144.003
X141.29Y144.03
X141.252Y144.057
X141.215Y144.086
X141.179Y144.115
X140.786Y144.447
X140.75Y144.478
X140.715Y144.51
X140.681Y144.544
X140.648Y144.578
X140.297Y144.956
X140.264Y144.992
X140.233Y145.029
X140.203Y145.067
X140.173Y145.106
X139.87Y145.523
X139.844Y145.561
X139.818Y145.601
X139.793Y145.64
X139.77Y145.681
X139.519Y146.129
X139.497Y146.169
X139.476Y146.211
X139.457Y146.253
X139.438Y146.295
X139.244Y146.763
X139.226Y146.807
X139.21Y146.851
X139.195Y146.896
X139.182Y146.941
X139.046Y147.423
X139.034Y147.469
X139.023Y147.515
X139.014Y147.561
X139.006Y147.607
X138.926Y148.112
X138.921Y148.149
X138.916Y148.186
X138.912Y148.224
X138.91Y148.261
X138.908Y148.298
X138.907Y148.336
Y148.373
Y148.411
X138.909Y148.448
X138.911Y148.485
X138.915Y148.522
X138.919Y148.56
X138.924Y148.598
X138.931Y148.637
X138.938Y148.675
X138.946Y148.712
X138.955Y148.75
X138.965Y148.787
X138.976Y148.824
X138.987Y148.861
X139Y148.898
X139.013Y148.934
X139.028Y148.97
X139.043Y149.005
X139.059Y149.04
X139.076Y149.075
X139.097Y149.116
X139.12Y149.156
X139.82Y150.369
X139.839Y150.402
X139.86Y150.435
X139.881Y150.467
X139.903Y150.499
X139.926Y150.53
X139.95Y150.56
X139.974Y150.59
X139.999Y150.62
X140.025Y150.648
X140.051Y150.677
X140.079Y150.704
X140.106Y150.731
X140.135Y150.757
X140.164Y150.783
X140.194Y150.808
X140.224Y150.832
X140.255Y150.855
X140.287Y150.877
X140.318Y150.899
X140.351Y150.92
X140.384Y150.94
X140.417Y150.96
X140.451Y150.978
X140.486Y150.996
X140.52Y151.013
X140.555Y151.029
X140.591Y151.044
X140.627Y151.058
X141.105Y151.242
X141.149Y151.258
X141.193Y151.273
X141.238Y151.286
X141.283Y151.299
X141.769Y151.422
X141.815Y151.433
X141.861Y151.442
X141.908Y151.451
X141.954Y151.457
X142.456Y151.523
X142.502Y151.528
X142.549Y151.532
X142.595Y151.535
X142.641Y151.536
X143.154Y151.543
X143.201
X143.248Y151.542
X143.295Y151.539
X143.341Y151.535
X143.854Y151.481
X143.903Y151.475
X143.951Y151.468
X143.998Y151.46
X144.046Y151.449
X144.548Y151.334
X144.595Y151.322
X144.641Y151.31
X144.686Y151.295
X144.732Y151.28
X145.215Y151.106
X145.258Y151.089
X145.302Y151.071
X145.345Y151.052
X145.387Y151.032
X145.866Y150.792
X146.091Y150.674
X146.266Y150.6
X146.448Y150.541
X146.617Y150.502
X146.917Y150.464
X147.202Y150.465
X147.485Y150.502
X147.76Y150.574
X148.025Y150.68
X148.274Y150.819
X148.504Y150.988
X148.71Y151.185
X148.89Y151.406
X149.04Y151.648
X149.159Y151.907
X149.245Y152.179
X149.295Y152.46
X149.31Y152.761
X149.3Y152.935
X149.274Y153.124
X149.232Y153.31
X149.147Y153.579
X149.002Y154.065
X148.989Y154.11
X148.978Y154.156
X148.968Y154.202
X148.959Y154.248
X148.871Y154.753
X148.864Y154.801
X148.858Y154.848
X148.853Y154.895
X148.85Y154.943
X148.823Y155.458
X148.822Y155.507
X148.821Y155.555
X148.822Y155.604
X148.825Y155.652
X148.861Y156.167
X148.865Y156.214
X148.871Y156.26
X148.877Y156.306
X148.886Y156.352
X148.981Y156.856
X148.991Y156.902
X149.001Y156.947
X149.013Y156.992
X149.027Y157.036
X149.179Y157.519
X149.193Y157.564
X149.21Y157.609
X149.227Y157.653
X149.246Y157.696
X149.451Y158.152
X149.471Y158.195
X149.493Y158.237
X149.515Y158.278
X149.539Y158.319
X149.802Y158.757
X149.822Y158.789
X149.842Y158.821
X149.863Y158.851
X149.885Y158.882
X149.908Y158.912
X149.931Y158.941
X149.955Y158.97
X149.98Y158.998
X150.005Y159.025
X150.031Y159.052
X150.057Y159.079
X150.085Y159.105
X150.114Y159.131
X150.143Y159.156
X150.173Y159.18
X150.203Y159.204
X150.234Y159.227
X150.266Y159.249
X150.298Y159.271
X150.331Y159.292
X150.364Y159.311
X150.397Y159.331
X150.431Y159.349
X150.466Y159.366
X150.501Y159.383
X150.536Y159.399
X150.579Y159.416
X150.622Y159.432
X151.937Y159.911
X151.974Y159.924
X152.01Y159.936
X152.047Y159.947
X152.085Y159.957
X152.122Y159.966
X152.16Y159.974
X152.198Y159.982
X152.236Y159.988
X152.274Y159.994
X152.313Y159.998
X152.351Y160.002
X152.39Y160.005
X152.428Y160.006
X152.467Y160.007
X152.506
X152.545Y160.006
X152.583Y160.004
X152.622Y160.001
X152.66Y159.997
X152.699Y159.992
X152.737Y159.987
X152.775Y159.98
X152.813Y159.972
X152.85Y159.964
X152.888Y159.954
X152.925Y159.944
X152.962Y159.933
X152.999Y159.921
X153.483Y159.754
X153.527Y159.738
X153.571Y159.721
X153.614Y159.703
X153.656Y159.683
X154.107Y159.465
X154.149Y159.444
X154.191Y159.422
X154.232Y159.398
X154.272Y159.373
X154.699Y159.101
X154.738Y159.075
X154.776Y159.049
X154.813Y159.021
X154.849Y158.992
X155.247Y158.668
X155.283Y158.638
X155.318Y158.606
X155.352Y158.574
X155.385Y158.541
X155.743Y158.17
X155.776Y158.135
X155.808Y158.098
X155.839Y158.061
X155.869Y158.023
X156.18Y157.611
X156.208Y157.573
X156.235Y157.533
X156.261Y157.493
X156.286Y157.452
X156.544Y157.008
X156.567Y156.967
X156.588Y156.926
X156.609Y156.884
X156.628Y156.841
X156.841Y156.349
X156.938Y156.114
X157.024Y155.945
X157.126Y155.783
X157.23Y155.644
X157.435Y155.423
X157.654Y155.24
X157.894Y155.086
X158.152Y154.964
X158.423Y154.876
X158.703Y154.822
X158.988Y154.804
X159.272Y154.822
X159.552Y154.876
X159.823Y154.964
X160.081Y155.086
X160.321Y155.24
X160.54Y155.423
X160.745Y155.644
X160.849Y155.783
X160.951Y155.945
X161.038Y156.114
X161.145Y156.375
X161.347Y156.841
X161.366Y156.884
X161.387Y156.926
X161.409Y156.967
X161.431Y157.008
X161.69Y157.452
X161.714Y157.493
X161.74Y157.533
X161.767Y157.572
X161.795Y157.611
X162.106Y158.023
X162.136Y158.061
X162.167Y158.098
X162.199Y158.135
X162.232Y158.17
X162.591Y158.541
X162.624Y158.574
X162.658Y158.607
X162.692Y158.638
X162.728Y158.668
X163.126Y158.992
X163.162Y159.021
X163.199Y159.049
X163.237Y159.075
X163.276Y159.101
X163.703Y159.373
X163.743Y159.398
X163.784Y159.422
X163.826Y159.444
X163.868Y159.465
X164.319Y159.683
X164.361Y159.703
X164.405Y159.721
X164.448Y159.738
X164.492Y159.754
X164.976Y159.921
X165.013Y159.933
X165.05Y159.944
X165.087Y159.954
X165.125Y159.964
X165.162Y159.972
X165.2Y159.98
X165.238Y159.987
X165.276Y159.992
X165.315Y159.997
X165.353Y160.001
X165.392Y160.004
X165.43Y160.006
X165.469Y160.007
X165.508
X165.547Y160.006
X165.585Y160.005
X165.624Y160.002
X165.663Y159.998
X165.701Y159.994
X165.739Y159.988
X165.777Y159.982
X165.815Y159.974
X165.853Y159.966
X165.89Y159.957
X165.928Y159.947
X165.965Y159.936
X166.001Y159.924
X166.038Y159.911
X167.354Y159.433
X167.397Y159.416
X167.439Y159.399
X167.474Y159.383
X167.509Y159.366
X167.544Y159.349
X167.578Y159.331
X167.611Y159.312
X167.645Y159.292
X167.677Y159.271
X167.709Y159.249
X167.741Y159.227
X167.772Y159.204
X167.802Y159.18
X167.832Y159.156
X167.862Y159.131
X167.891Y159.105
X167.918Y159.079
X167.944Y159.052
X167.97Y159.025
X167.995Y158.998
X168.02Y158.97
X168.044Y158.941
X168.067Y158.912
X168.09Y158.882
X168.112Y158.851
X168.133Y158.821
X168.153Y158.789
X168.173Y158.757
X168.437Y158.319
X168.46Y158.278
X168.483Y158.237
X168.504Y158.195
X168.524Y158.152
X168.729Y157.696
X168.748Y157.653
X168.766Y157.609
X168.782Y157.564
X168.797Y157.519
X168.949Y157.036
X168.962Y156.992
X168.974Y156.947
X168.984Y156.902
X168.994Y156.857
X169.09Y156.353
X169.098Y156.306
X169.104Y156.26
X169.11Y156.213
X169.114Y156.167
X169.15Y155.652
X169.153Y155.604
X169.154Y155.555
Y155.507
X169.152Y155.458
X169.125Y154.943
X169.122Y154.896
X169.117Y154.848
X169.111Y154.801
X169.104Y154.753
X169.016Y154.248
X169.008Y154.202
X168.998Y154.156
X168.986Y154.11
X168.973Y154.065
X168.82Y153.552
X168.743Y153.31
X168.701Y153.124
X168.675Y152.935
X168.665Y152.762
X168.68Y152.46
X168.731Y152.179
X168.816Y151.907
X168.935Y151.648
X169.085Y151.406
X169.265Y151.185
X169.472Y150.988
X169.701Y150.819
X169.95Y150.68
X170.215Y150.574
X170.491Y150.502
X170.773Y150.465
X171.058
X171.358Y150.502
X171.527Y150.541
X171.709Y150.6
X171.884Y150.674
X172.134Y150.805
X172.588Y151.032
X172.63Y151.052
X172.673Y151.071
X172.717Y151.089
X172.761Y151.106
X173.244Y151.28
X173.289Y151.295
X173.334Y151.31
X173.38Y151.322
X173.427Y151.334
X173.929Y151.449
X173.977Y151.46
X174.025Y151.468
X174.072Y151.476
X174.121Y151.481
X174.634Y151.535
X174.68Y151.539
X174.727Y151.542
X174.774Y151.543
X174.821
X175.334Y151.537
X175.38Y151.535
X175.427Y151.533
X175.473Y151.529
X175.519Y151.523
X176.021Y151.458
X176.068Y151.451
X176.114Y151.443
X176.16Y151.433
X176.206Y151.422
X176.692Y151.299
X176.737Y151.287
X176.782Y151.273
X176.827Y151.258
X176.871Y151.242
X177.348Y151.058
X177.384Y151.044
X177.42Y151.029
X177.455Y151.013
X177.49Y150.996
X177.524Y150.978
X177.558Y150.96
X177.591Y150.94
X177.624Y150.92
X177.657Y150.899
X177.689Y150.878
X177.72Y150.855
X177.751Y150.832
X177.781Y150.808
X177.811Y150.783
X177.84Y150.757
X177.869Y150.731
X177.897Y150.704
X177.924Y150.677
X177.95Y150.648
X177.976Y150.62
X178.001Y150.59
X178.025Y150.56
X178.049Y150.53
X178.072Y150.499
X178.094Y150.467
X178.115Y150.435
X178.136Y150.402
X178.155Y150.369
X178.855Y149.156
X178.878Y149.116
X178.899Y149.075
X178.916Y149.041
X178.932Y149.005
X178.947Y148.97
X178.962Y148.934
X178.975Y148.898
X178.988Y148.861
X179Y148.824
X179.01Y148.787
X179.02Y148.75
X179.029Y148.712
X179.037Y148.675
X179.045Y148.637
X179.051Y148.598
X179.056Y148.56
X179.06Y148.522
X179.064Y148.485
X179.066Y148.448
X179.068Y148.41
X179.069Y148.373
X179.068Y148.336
X179.067Y148.298
X179.066Y148.261
X179.063Y148.224
X179.059Y148.186
X179.055Y148.149
X179.049Y148.112
X178.969Y147.607
X178.961Y147.561
X178.952Y147.515
X178.941Y147.469
X178.929Y147.424
X178.793Y146.942
X178.78Y146.896
X178.765Y146.851
X178.749Y146.807
X178.731Y146.763
X178.537Y146.295
X178.519Y146.253
X178.499Y146.211
X178.478Y146.17
X178.456Y146.129
X178.206Y145.681
X178.182Y145.64
X178.157Y145.601
X178.132Y145.561
X178.105Y145.523
X177.802Y145.106
X177.773Y145.067
X177.742Y145.029
X177.711Y144.992
X177.679Y144.956
X177.327Y144.578
X177.294Y144.544
X177.26Y144.51
X177.225Y144.478
X177.189Y144.447
X176.796Y144.116
X176.76Y144.086
X176.723Y144.057
X176.685Y144.03
X176.646Y144.003
X176.199Y143.709
X175.985Y143.572
X175.833Y143.457
X175.691Y143.33
X175.572Y143.203
X175.39Y142.962
X175.248Y142.715
X175.138Y142.452
X175.063Y142.177
X175.023Y141.895
X175.018Y141.609
X175.05Y141.326
X175.117Y141.049
X175.219Y140.783
X175.353Y140.531
X175.518Y140.299
X175.711Y140.089
X175.929Y139.905
X176.183Y139.741
X176.337Y139.663
X176.514Y139.591
X176.696Y139.535
X176.972Y139.474
X177.466Y139.356
X177.511Y139.345
X177.556Y139.332
X177.601Y139.318
X177.645Y139.302
X178.127Y139.125
X178.172Y139.108
X178.216Y139.089
X178.259Y139.07
X178.302Y139.049
X178.762Y138.814
X178.804Y138.791
X178.847Y138.767
X178.888Y138.742
X178.928Y138.716
X179.356Y138.427
X179.394Y138.4
X179.432Y138.372
X179.469Y138.343
X179.505Y138.313
X179.893Y137.978
X179.928Y137.947
X179.962Y137.915
X179.994Y137.883
X180.026Y137.849
X180.369Y137.476
X180.4Y137.441
X180.431Y137.404
X180.46Y137.367
X180.488Y137.329
X180.781Y136.923
X180.807Y136.885
X180.833Y136.845
X180.858Y136.805
X180.881Y136.764
X181.129Y136.317
X181.147Y136.284
X181.164Y136.25
X181.18Y136.217
X181.195Y136.183
X181.21Y136.148
X181.224Y136.113
X181.237Y136.078
X181.249Y136.043
X181.26Y136.007
X181.27Y135.971
X181.28Y135.935
X181.289Y135.898
X181.297Y135.86
X181.304Y135.822
X181.31Y135.784
X181.316Y135.746
X181.32Y135.708
X181.323Y135.669
X181.326Y135.631
X181.328Y135.592
Y135.553
Y135.515
X181.327Y135.476
X181.325Y135.438
X181.321Y135.399
X181.317Y135.361
X181.311Y135.315
X181.304Y135.27
X181.061Y133.891
X181.054Y133.853
X181.046Y133.815
X181.037Y133.778
X181.027Y133.74
X181.016Y133.703
X181.004Y133.666
X180.992Y133.63
X180.978Y133.594
X180.964Y133.558
X180.949Y133.522
X180.933Y133.487
X180.916Y133.452
X180.898Y133.418
X180.879Y133.384
X180.859Y133.35
X180.839Y133.317
X180.818Y133.285
X180.796Y133.253
X180.774Y133.222
X180.75Y133.191
X180.726Y133.161
X180.702Y133.131
X180.676Y133.102
X180.65Y133.074
X180.623Y133.046
X180.595Y133.019
X180.567Y132.992
X180.538Y132.967
X180.152Y132.631
X180.116Y132.601
X180.08Y132.571
X180.042Y132.543
X180.004Y132.516
X179.59Y132.234
X179.55Y132.208
X179.51Y132.183
X179.469Y132.16
X179.427Y132.137
X178.978Y131.904
X178.937Y131.883
X178.895Y131.864
X178.852Y131.845
X178.809Y131.828
X178.329Y131.646
X178.285Y131.63
X178.241Y131.616
X178.196Y131.602
X178.151Y131.59
X177.65Y131.465
X177.603Y131.454
X177.555Y131.445
X177.507Y131.436
X177.459Y131.43
X176.948Y131.367
X176.9Y131.361
X176.852Y131.358
X176.805Y131.355
X176.757
X176.244Y131.353
X176.197Y131.354
X176.15Y131.356
X176.103Y131.359
X176.056Y131.364
X175.524Y131.425
X175.273Y131.459
X175.082Y131.468
X174.891Y131.462
X174.719Y131.441
X174.425Y131.373
X174.157Y131.275
X173.904Y131.144
X173.669Y130.982
X173.457Y130.792
X173.271Y130.576
X173.113Y130.339
X172.986Y130.083
X172.893Y129.814
X172.834Y129.535
X172.811Y129.251
X172.824Y128.966
X172.873Y128.685
X172.961Y128.396
X173.03Y128.237
X173.119Y128.068
X173.223Y127.908
X173.394Y127.684
X173.697Y127.277
X173.724Y127.239
X173.751Y127.2
X173.776Y127.16
X173.8Y127.12
X174.055Y126.675
X174.078Y126.633
X174.1Y126.59
X174.121Y126.547
X174.14Y126.504
X174.341Y126.029
X174.359Y125.984
X174.376Y125.938
X174.392Y125.892
X174.406Y125.846
X174.548Y125.35
X174.56Y125.305
X174.571Y125.259
X174.58Y125.213
X174.588Y125.167
X174.671Y124.661
X174.678Y124.615
X174.683Y124.569
X174.687Y124.523
X174.69Y124.476
X174.712Y123.97
X174.714Y123.923
Y123.876
X174.712Y123.829
X174.71Y123.782
X174.672Y123.282
X174.668Y123.235
X174.663Y123.189
X174.656Y123.142
X174.647Y123.096
X174.55Y122.594
X174.542Y122.557
X174.534Y122.521
X174.524Y122.485
X174.514Y122.449
X174.503Y122.413
X174.491Y122.377
X174.479Y122.342
X174.465Y122.307
X174.451Y122.273
X174.436Y122.238
X174.42Y122.205
X174.403Y122.171
X174.385Y122.136
X174.366Y122.103
X174.346Y122.069
X174.326Y122.037
X174.304Y122.005
X174.282Y121.973
X174.259Y121.942
X174.236Y121.911
X174.212Y121.881
X174.187Y121.852
X174.161Y121.823
X174.134Y121.795
X174.107Y121.767
X174.079Y121.74
X174.045Y121.709
X174.011Y121.679
X172.938Y120.779
X172.908Y120.755
X172.878Y120.731
X172.847Y120.708
X172.815Y120.686
X172.783Y120.664
X172.75Y120.644
X172.717Y120.624
X172.684Y120.605
X172.65Y120.586
X172.615Y120.569
X172.58Y120.553
X172.545Y120.537
X172.509Y120.522
X172.473Y120.508
X172.436Y120.495
X172.4Y120.482
X172.363Y120.471
X172.325Y120.461
X172.288Y120.451
X172.25Y120.443
X172.212Y120.435
X172.174Y120.428
X172.136Y120.422
X172.098Y120.417
X172.059Y120.414
X172.021Y120.41
X171.982Y120.408
X171.944Y120.407
X171.432Y120.398
X171.385
X171.338Y120.399
X171.291Y120.402
X171.245Y120.406
X170.746Y120.456
X170.699Y120.461
X170.653Y120.468
X170.606Y120.476
X170.56Y120.486
X170.065Y120.596
X170.02Y120.607
X169.976Y120.619
X169.931Y120.632
X169.887Y120.647
X169.403Y120.816
X169.359Y120.832
X169.315Y120.849
X169.272Y120.868
X169.23Y120.888
X168.766Y121.114
X168.723Y121.136
X168.68Y121.159
X168.638Y121.183
X168.597Y121.209
X168.165Y121.49
X168.125Y121.516
X168.086Y121.544
X168.048Y121.573
X168.011Y121.603
X167.617Y121.932
X167.581Y121.962
X167.546Y121.994
X167.512Y122.027
X167.48Y122.06
X167.112Y122.449
X166.941Y122.637
X166.801Y122.766
X166.65Y122.884
X166.505Y122.979
X166.236Y123.116
X165.968Y123.213
X165.69Y123.276
X165.406Y123.302
X165.121Y123.293
X164.84Y123.248
X164.566Y123.167
X164.311Y123.056
X164.059Y122.906
X163.836Y122.731
X163.635Y122.528
X163.462Y122.301
X163.319Y122.055
X163.202Y121.777
X163.151Y121.61
X163.112Y121.424
X163.088Y121.235
X163.076Y120.953
X163.046Y120.446
X163.042Y120.399
X163.037Y120.353
X163.031Y120.306
X163.023Y120.26
X162.933Y119.755
X162.924Y119.708
X162.913Y119.661
X162.901Y119.615
X162.888Y119.569
X162.737Y119.076
X162.722Y119.03
X162.705Y118.984
X162.688Y118.939
X162.669Y118.894
X162.459Y118.423
X162.439Y118.381
X162.418Y118.339
X162.396Y118.297
X162.372Y118.257
X162.11Y117.816
X162.086Y117.777
X162.06Y117.738
X162.034Y117.7
X162.006Y117.663
X161.698Y117.261
X161.669Y117.224
X161.638Y117.187
X161.607Y117.152
X161.574Y117.118
X161.225Y116.759
X161.192Y116.726
X161.157Y116.694
X161.122Y116.663
X161.086Y116.633
X160.689Y116.311
X160.658Y116.287
X160.627Y116.264
X160.596Y116.241
X160.564Y116.219
X160.531Y116.199
X160.498Y116.178
X160.465Y116.159
X160.431Y116.141
X160.397Y116.123
X160.362Y116.106
X160.327Y116.09
X160.291Y116.075
X160.255Y116.061
X160.218Y116.048
X160.182Y116.035
X160.145Y116.024
X160.108Y116.013
X160.07Y116.003
X160.033Y115.994
X159.995Y115.986
X159.957Y115.979
X159.919Y115.973
X159.88Y115.968
X159.842Y115.964
X159.803Y115.961
X159.765Y115.958
X159.726Y115.957
X159.688Y115.956
X158.288
X158.242Y115.957
X158.196Y115.959
X158.157Y115.962
X158.119Y115.965
X158.08Y115.97
X158.042Y115.975
X158.004Y115.982
X157.966Y115.989
X157.928Y115.998
X157.891Y116.007
X157.854Y116.017
X157.816Y116.028
X157.78Y116.04
X157.743Y116.052
X157.707Y116.066
X157.671Y116.081
X157.637Y116.096
X157.603Y116.111
X157.569Y116.128
X157.536Y116.145
X157.503Y116.163
X157.471Y116.182
X157.439Y116.202
X157.407Y116.222
X157.377Y116.243
X157.346Y116.265
X157.316Y116.287
X157.287Y116.311
X156.889Y116.633
X156.853Y116.663
X156.818Y116.694
X156.784Y116.726
X156.75Y116.759
X156.401Y117.118
X156.368Y117.152
X156.337Y117.187
X156.307Y117.223
X156.277Y117.261
X155.969Y117.663
X155.942Y117.7
X155.915Y117.738
X155.89Y117.777
X155.865Y117.816
X155.603Y118.257
X155.58Y118.298
X155.557Y118.339
X155.536Y118.381
X155.517Y118.423
X155.307Y118.894
X155.288Y118.939
X155.27Y118.984
X155.254Y119.03
X155.239Y119.076
X155.087Y119.569
X155.074Y119.615
X155.062Y119.661
X155.052Y119.708
X155.043Y119.755
X154.952Y120.26
X154.944Y120.306
X154.938Y120.353
X154.933Y120.399
X154.93Y120.446
X154.898Y120.981
X154.887Y121.235
X154.864Y121.424
X154.824Y121.61
X154.774Y121.776
X154.656Y122.055
X154.513Y122.301
X154.34Y122.528
X154.139Y122.731
X153.915Y122.907
X153.67Y123.053
X153.409Y123.167
X153.136Y123.248
X152.854Y123.293
X152.569Y123.302
X152.285Y123.275
X152.007Y123.213
X151.739Y123.116
X151.47Y122.979
X151.325Y122.884
X151.174Y122.766
X151.035Y122.637
X150.844Y122.429
X150.495Y122.06
X150.463Y122.026
X150.429Y121.994
X150.394Y121.962
X150.359Y121.932
X149.964Y121.603
X149.927Y121.573
X149.889Y121.544
X149.851Y121.516
X149.811Y121.49
X149.378Y121.209
X149.337Y121.183
X149.295Y121.159
X149.252Y121.135
X149.209Y121.114
X148.745Y120.888
X148.703Y120.868
X148.66Y120.849
X148.617Y120.832
X148.573Y120.816
X148.088Y120.647
X148.044Y120.632
X148Y120.619
X147.955Y120.607
X147.91Y120.596
X147.415Y120.486
X147.369Y120.476
X147.323Y120.468
X147.276Y120.461
X147.229Y120.456
X146.731Y120.406
X146.684Y120.402
X146.637Y120.399
X146.59Y120.398
X146.543
X146.032Y120.407
X145.993Y120.408
X145.954Y120.41
X145.916Y120.413
X145.877Y120.417
X145.839Y120.422
X145.801Y120.428
X145.763Y120.435
X145.725Y120.443
X145.687Y120.451
X145.65Y120.461
X145.613Y120.471
X145.576Y120.482
X145.539Y120.495
X145.502Y120.508
X145.466Y120.522
X145.43Y120.537
X145.395Y120.552
X145.36Y120.569
X145.326Y120.586
X145.292Y120.605
X145.258Y120.624
X145.225Y120.644
X145.192Y120.664
X145.16Y120.686
X145.129Y120.708
X145.098Y120.731
X145.067Y120.755
X145.037Y120.779
X143.965Y121.679
X143.93Y121.709
X143.896Y121.74
X143.868Y121.767
X143.841Y121.795
X143.815Y121.823
X143.789Y121.852
X143.764Y121.881
X143.739Y121.911
X143.716Y121.942
X143.693Y121.973
X143.671Y122.004
X143.65Y122.037
X143.629Y122.069
X143.609Y122.103
X143.59Y122.136
X143.572Y122.171
X143.555Y122.204
X143.54Y122.238
X143.524Y122.272
X143.51Y122.307
X143.497Y122.342
X143.484Y122.377
X143.472Y122.413
X143.461Y122.448
X143.451Y122.484
X143.442Y122.521
X143.433Y122.557
X143.426Y122.594
X143.328Y123.096
X143.32Y123.142
X143.313Y123.189
X143.307Y123.235
X143.303Y123.282
X143.266Y123.781
X143.263Y123.829
X143.262Y123.876
Y123.923
X143.263Y123.97
X143.286Y124.476
X143.288Y124.523
X143.292Y124.569
X143.298Y124.615
X143.305Y124.661
X143.387Y125.167
X143.395Y125.213
X143.405Y125.259
X143.415Y125.305
X143.428Y125.35
X143.57Y125.846
X143.584Y125.892
X143.599Y125.938
X143.616Y125.984
X143.634Y126.028
X143.835Y126.503
X143.855Y126.547
X143.875Y126.59
X143.897Y126.633
X143.92Y126.675
X144.176Y127.12
X144.2Y127.16
X144.225Y127.2
X144.251Y127.239
X144.278Y127.277
X144.598Y127.707
X144.753Y127.908
X144.856Y128.068
X144.946Y128.237
X145.014Y128.396
X145.103Y128.685
X145.151Y128.966
X145.164Y129.251
X145.141Y129.535
X145.083Y129.814
X144.989Y130.083
X144.863Y130.339
G0Z1
X157.995Y137.501
G1Z-0.3F50
X158.162Y137.358F100
X158.35Y137.243
X158.554Y137.158
X158.768Y137.107
X158.988Y137.09
X159.207Y137.107
X159.422Y137.158
X159.625Y137.243
X159.813Y137.358
X159.98Y137.501
X160.124Y137.668
X160.239Y137.856
X160.323Y138.06
X160.374Y138.274
X160.392Y138.494
X160.374Y138.713
X160.323Y138.928
X160.239Y139.131
X160.124Y139.319
X159.98Y139.487
X159.813Y139.63
X159.625Y139.745
X159.422Y139.829
X159.207Y139.881
X158.988Y139.898
X158.768Y139.881
X158.554Y139.829
X158.35Y139.745
X158.162Y139.63
X157.995Y139.487
X157.852Y139.319
X157.737Y139.131
X157.652Y138.928
X157.601Y138.713
X157.584Y138.494
X157.601Y138.274
X157.652Y138.06
X157.737Y137.856
X157.852Y137.668
X157.995Y137.501
G0Z1
X144.863Y130.339
G1Z-0.3F50
X144.705Y130.576F100
X144.518Y130.792
X144.306Y130.982
X144.071Y131.144
X143.818Y131.275
X143.55Y131.373
X143.256Y131.441
X143.084Y131.461
X142.893Y131.468
X142.703Y131.459
X142.423Y131.422
X141.919Y131.363
X141.872Y131.359
X141.825Y131.355
X141.779Y131.353
X141.732
X141.218Y131.354
X141.171Y131.355
X141.123Y131.358
X141.075Y131.361
X141.028Y131.366
X140.516Y131.43
X140.478Y131.435
X140.439Y131.441
X140.401Y131.448
X140.363Y131.456
X140.325Y131.465
X139.825Y131.59
X139.779Y131.602
X139.734Y131.616
X139.69Y131.63
X139.646Y131.646
X139.166Y131.828
X139.123Y131.845
X139.081Y131.864
X139.039Y131.883
X138.997Y131.904
X138.548Y132.137
X138.506Y132.16
X138.465Y132.183
X138.425Y132.208
X138.385Y132.234
X137.972Y132.516
X137.933Y132.543
X137.896Y132.571
X137.859Y132.6
X137.823Y132.631
X137.437Y132.967
X137.408Y132.992
X137.38Y133.019
X137.352Y133.046
X137.325Y133.074
X137.299Y133.102
X137.274Y133.131
X137.249Y133.161
X137.225Y133.191
X137.202Y133.222
X137.179Y133.253
X137.157Y133.285
X137.136Y133.317
X137.116Y133.35
X137.096Y133.384
X137.078Y133.418
X137.06Y133.452
X137.043Y133.487
X137.027Y133.522
X137.011Y133.558
X136.997Y133.593
X136.984Y133.63
X136.971Y133.666
X136.959Y133.703
X136.948Y133.74
X136.939Y133.777
X136.93Y133.815
X136.921Y133.853
X136.914Y133.891
X136.671Y135.27
X136.664Y135.315
X136.658Y135.361
X136.654Y135.399
X136.651Y135.437
X136.648Y135.476
X136.647Y135.515
Y135.553
X136.648Y135.592
X136.649Y135.631
X136.652Y135.669
X136.655Y135.708
X136.66Y135.746
X136.665Y135.784
X136.671Y135.822
X136.678Y135.86
X136.687Y135.899
X136.695Y135.935
X136.705Y135.971
X136.715Y136.007
X136.727Y136.043
X136.739Y136.078
X136.752Y136.113
X136.765Y136.148
X136.78Y136.182
X136.795Y136.217
X136.811Y136.25
X136.828Y136.284
X136.846Y136.317
X137.094Y136.764
X137.117Y136.805
X137.142Y136.845
X137.168Y136.884
X137.195Y136.923
X137.487Y137.329
X137.515Y137.367
X137.545Y137.404
X137.575Y137.441
X137.606Y137.476
X137.949Y137.849
X137.981Y137.883
X138.014Y137.915
X138.047Y137.947
X138.082Y137.978
X138.47Y138.313
X138.506Y138.343
X138.543Y138.372
X138.581Y138.4
X138.619Y138.427
X139.047Y138.715
X139.087Y138.742
X139.129Y138.767
X139.171Y138.791
X139.214Y138.814
X139.673Y139.048
X139.716Y139.07
X139.76Y139.089
X139.804Y139.108
X139.848Y139.125
X140.33Y139.302
X140.374Y139.317
X140.419Y139.332
X140.464Y139.345
X140.509Y139.356
X141.031Y139.48
X141.279Y139.535
X141.461Y139.591
X141.638Y139.662
X141.793Y139.741
X142.046Y139.905
X142.264Y140.089
X142.457Y140.298
X142.622Y140.531
X142.756Y140.782
X142.858Y141.049
X142.925Y141.326
X142.957Y141.609
X142.953Y141.894
X142.912Y142.177
X142.837Y142.451
X142.727Y142.715
X142.585Y142.962
X142.403Y143.203
X142.284Y143.329
X142.142Y143.457
X141.991Y143.572
X141.753Y143.724
X141.329Y144.003
X141.29Y144.03
X141.252Y144.057
X141.215Y144.086
X141.179Y144.115
X140.786Y144.447
X140.75Y144.478
X140.715Y144.51
X140.681Y144.544
X140.648Y144.578
X140.297Y144.956
X140.264Y144.992
X140.233Y145.029
X140.203Y145.067
X140.173Y145.106
X139.87Y145.523
X139.844Y145.561
X139.818Y145.601
X139.793Y145.64
X139.77Y145.681
X139.519Y146.129
X139.497Y146.169
X139.476Y146.211
X139.457Y146.253
X139.438Y146.295
X139.244Y146.763
X139.226Y146.807
X139.21Y146.851
X139.195Y146.896
X139.182Y146.941
X139.046Y147.423
X139.034Y147.469
X139.023Y147.515
X139.014Y147.561
X139.006Y147.607
X138.926Y148.112
X138.921Y148.149
X138.916Y148.186
X138.912Y148.224
X138.91Y148.261
X138.908Y148.298
X138.907Y148.336
Y148.373
Y148.411
X138.909Y148.448
X138.911Y148.485
X138.915Y148.522
X138.919Y148.56
X138.924Y148.598
X138.931Y148.637
X138.938Y148.675
X138.946Y148.712
X138.955Y148.75
X138.965Y148.787
X138.976Y148.824
X138.987Y148.861
X139Y148.898
X139.013Y148.934
X139.028Y148.97
X139.043Y149.005
X139.059Y149.04
X139.076Y149.075
X139.097Y149.116
X139.12Y149.156
X139.82Y150.369
X139.839Y150.402
X139.86Y150.435
X139.881Y150.467
X139.903Y150.499
X139.926Y150.53
X139.95Y150.56
X139.974Y150.59
X139.999Y150.62
X140.025Y150.648
X140.051Y150.677
X140.079Y150.704
X140.106Y150.731
X140.135Y150.757
X140.164Y150.783
X140.194Y150.808
X140.224Y150.832
X140.255Y150.855
X140.287Y150.877
X140.318Y150.899
X140.351Y150.92
X140.384Y150.94
X140.417Y150.96
X140.451Y150.978
X140.486Y150.996
X140.52Y151.013
X140.555Y151.029
X140.591Y151.044
X140.627Y151.058
X141.105Y151.242
X141.149Y151.258
X141.193Y151.273
X141.238Y151.286
X141.283Y151.299
X141.769Y151.422
X141.815Y151.433
X141.861Y151.442
X141.908Y151.451
X141.954Y151.457
X142.456Y151.523
X142.502Y151.528
X142.549Y151.532
X142.595Y151.535
X142.641Y151.536
X143.154Y151.543
X143.201
X143.248Y151.542
X143.295Y151.539
X143.341Y151.535
X143.854Y151.481
X143.903Y151.475
X143.951Y151.468
X143.998Y151.46
X144.046Y151.449
X144.548Y151.334
X144.595Y151.322
X144.641Y151.31
X144.686Y151.295
X144.732Y151.28
X145.215Y151.106
X145.258Y151.089
X145.302Y151.071
X145.345Y151.052
X145.387Y151.032
X145.866Y150.792
X146.091Y150.674
X146.266Y150.6
X146.448Y150.541
X146.617Y150.502
X146.917Y150.464
X147.202Y150.465
X147.485Y150.502
X147.76Y150.574
X148.025Y150.68
X148.274Y150.819
X148.504Y150.988
X148.71Y151.185
X148.89Y151.406
X149.04Y151.648
X149.159Y151.907
X149.245Y152.179
X149.295Y152.46
X149.31Y152.761
X149.3Y152.935
X149.274Y153.124
X149.232Y153.31
X149.147Y153.579
X149.002Y154.065
X148.989Y154.11
X148.978Y154.156
X148.968Y154.202
X148.959Y154.248
X148.871Y154.753
X148.864Y154.801
X148.858Y154.848
X148.853Y154.895
X148.85Y154.943
X148.823Y155.458
X148.822Y155.507
X148.821Y155.555
X148.822Y155.604
X148.825Y155.652
X148.861Y156.167
X148.865Y156.214
X148.871Y156.26
X148.877Y156.306
X148.886Y156.352
X148.981Y156.856
X148.991Y156.902
X149.001Y156.947
X149.013Y156.992
X149.027Y157.036
X149.179Y157.519
X149.193Y157.564
X149.21Y157.609
X149.227Y157.653
X149.246Y157.696
X149.451Y158.152
X149.471Y158.195
X149.493Y158.237
X149.515Y158.278
X149.539Y158.319
X149.802Y158.757
X149.822Y158.789
X149.842Y158.821
X149.863Y158.851
X149.885Y158.882
X149.908Y158.912
X149.931Y158.941
X149.955Y158.97
X149.98Y158.998
X150.005Y159.025
X150.031Y159.052
X150.057Y159.079
X150.085Y159.105
X150.114Y159.131
X150.143Y159.156
X150.173Y159.18
X150.203Y159.204
X150.234Y159.227
X150.266Y159.249
X150.298Y159.271
X150.331Y159.292
X150.364Y159.311
X150.397Y159.331
X150.431Y159.349
X150.466Y159.366
X150.501Y159.383
X150.536Y159.399
X150.579Y159.416
X150.622Y159.432
X151.937Y159.911
X151.974Y159.924
X152.01Y159.936
X152.047Y159.947
X152.085Y159.957
X152.122Y159.966
X152.16Y159.974
X152.198Y159.982
X152.236Y159.988
X152.274Y159.994
X152.313Y159.998
X152.351Y160.002
X152.39Y160.005
X152.428Y160.006
X152.467Y160.007
X152.506
X152.545Y160.006
X152.583Y160.004
X152.622Y160.001
X152.66Y159.997
X152.699Y159.992
X152.737Y159.987
X152.775Y159.98
X152.813Y159.972
X152.85Y159.964
X152.888Y159.954
X152.925Y159.944
X152.962Y159.933
X152.999Y159.921
X153.483Y159.754
X153.527Y159.738
X153.571Y159.721
X153.614Y159.703
X153.656Y159.683
X154.107Y159.465
X154.149Y159.444
X154.191Y159.422
X154.232Y159.398
X154.272Y159.373
X154.699Y159.101
X154.738Y159.075
X154.776Y159.049
X154.813Y159.021
X154.849Y158.992
X155.247Y158.668
X155.283Y158.638
X155.318Y158.606
X155.352Y158.574
X155.385Y158.541
X155.743Y158.17
X155.776Y158.135
X155.808Y158.098
X155.839Y158.061
X155.869Y158.023
X156.18Y157.611
X156.208Y157.573
X156.235Y157.533
X156.261Y157.493
X156.286Y157.452
X156.544Y157.008
X156.567Y156.967
X156.588Y156.926
X156.609Y156.884
X156.628Y156.841
X156.841Y156.349
X156.938Y156.114
X157.024Y155.945
X157.126Y155.783
X157.23Y155.644
X157.435Y155.423
X157.654Y155.24
X157.894Y155.086
X158.152Y154.964
X158.423Y154.876
X158.703Y154.822
X158.988Y154.804
X159.272Y154.822
X159.552Y154.876
X159.823Y154.964
X160.081Y155.086
X160.321Y155.24
X160.54Y155.423
X160.745Y155.644
X160.849Y155.783
X160.951Y155.945
X161.038Y156.114
X161.145Y156.375
X161.347Y156.841
X161.366Y156.884
X161.387Y156.926
X161.409Y156.967
X161.431Y157.008
X161.69Y157.452
X161.714Y157.493
X161.74Y157.533
X161.767Y157.572
X161.795Y157.611
X162.106Y158.023
X162.136Y158.061
X162.167Y158.098
X162.199Y158.135
X162.232Y158.17
X162.591Y158.541
X162.624Y158.574
X162.658Y158.607
X162.692Y158.638
X162.728Y158.668
X163.126Y158.992
X163.162Y159.021
X163.199Y159.049
X163.237Y159.075
X163.276Y159.101
X163.703Y159.373
X163.743Y159.398
X163.784Y159.422
X163.826Y159.444
X163.868Y159.465
X164.319Y159.683
X164.361Y159.703
X164.405Y159.721
X164.448Y159.738
X164.492Y159.754
X164.976Y159.921
X165.013Y159.933
X165.05Y159.944
X165.087Y159.954
X165.125Y159.964
X165.162Y159.972
X165.2Y159.98
X165.238Y159.987
X165.276Y159.992
X165.315Y159.997
X165.353Y160.001
X165.392Y160.004
X165.43Y160.006
X165.469Y160.007
X165.508
X165.547Y160.006
X165.585Y160.005
X165.624Y160.002
X165.663Y159.998
X165.701Y159.994
X165.739Y159.988
X165.777Y159.982
X165.815Y159.974
X165.853Y159.966
X165.89Y159.957
X165.928Y159.947
X165.965Y159.936
X166.001Y159.924
X166.038Y159.911
X167.354Y159.433
X167.397Y159.416
X167.439Y159.399
X167.474Y159.383
X167.509Y159.366
X167.544Y159.349
X167.578Y159.331
X167.611Y159.312
X167.645Y159.292
X167.677Y159.271
X167.709Y159.249
X167.741Y159.227
X167.772Y159.204
X167.802Y159.18
X167.832Y159.156
X167.862Y159.131
X167.891Y159.105
X167.918Y159.079
X167.944Y159.052
X167.97Y159.025
X167.995Y158.998
X168.02Y158.97
X168.044Y158.941
X168.067Y158.912
X168.09Y158.882
X168.112Y158.851
X168.133Y158.821
X168.153Y158.789
X168.173Y158.757
X168.437Y158.319
X168.46Y158.278
X168.483Y158.237
X168.504Y158.195
X168.524Y158.152
X168.729Y157.696
X168.748Y157.653
X168.766Y157.609
X168.782Y157.564
X168.797Y157.519
X168.949Y157.036
X168.962Y156.992
X168.974Y156.947
X168.984Y156.902
X168.994Y156.857
X169.09Y156.353
X169.098Y156.306
X169.104Y156.26
X169.11Y156.213
X169.114Y156.167
X169.15Y155.652
X169.153Y155.604
X169.154Y155.555
Y155.507
X169.152Y155.458
X169.125Y154.943
X169.122Y154.896
X169.117Y154.848
X169.111Y154.801
X169.104Y154.753
X169.016Y154.248
X169.008Y154.202
X168.998Y154.156
X168.986Y154.11
X168.973Y154.065
X168.82Y153.552
X168.743Y153.31
X168.701Y153.124
X168.675Y152.935
X168.665Y152.762
X168.68Y152.46
X168.731Y152.179
X168.816Y151.907
X168.935Y151.648
X169.085Y151.406
X169.265Y151.185
X169.472Y150.988
X169.701Y150.819
X169.95Y150.68
X170.215Y150.574
X170.491Y150.502
X170.773Y150.465
X171.058
X171.358Y150.502
X171.527Y150.541
X171.709Y150.6
X171.884Y150.674
X172.134Y150.805
X172.588Y151.032
X172.63Y151.052
X172.673Y151.071
X172.717Y151.089
X172.761Y151.106
X173.244Y151.28
X173.289Y151.295
X173.334Y151.31
X173.38Y151.322
X173.427Y151.334
X173.929Y151.449
X173.977Y151.46
X174.025Y151.468
X174.072Y151.476
X174.121Y151.481
X174.634Y151.535
X174.68Y151.539
X174.727Y151.542
X174.774Y151.543
X174.821
X175.334Y151.537
X175.38Y151.535
X175.427Y151.533
X175.473Y151.529
X175.519Y151.523
X176.021Y151.458
X176.068Y151.451
X176.114Y151.443
X176.16Y151.433
X176.206Y151.422
X176.692Y151.299
X176.737Y151.287
X176.782Y151.273
X176.827Y151.258
X176.871Y151.242
X177.348Y151.058
X177.384Y151.044
X177.42Y151.029
X177.455Y151.013
X177.49Y150.996
X177.524Y150.978
X177.558Y150.96
X177.591Y150.94
X177.624Y150.92
X177.657Y150.899
X177.689Y150.878
X177.72Y150.855
X177.751Y150.832
X177.781Y150.808
X177.811Y150.783
X177.84Y150.757
X177.869Y150.731
X177.897Y150.704
X177.924Y150.677
X177.95Y150.648
X177.976Y150.62
X178.001Y150.59
X178.025Y150.56
X178.049Y150.53
X178.072Y150.499
X178.094Y150.467
X178.115Y150.435
X178.136Y150.402
X178.155Y150.369
X178.855Y149.156
X178.878Y149.116
X178.899Y149.075
X178.916Y149.041
X178.932Y149.005
X178.947Y148.97
X178.962Y148.934
X178.975Y148.898
X178.988Y148.861
X179Y148.824
X179.01Y148.787
X179.02Y148.75
X179.029Y148.712
X179.037Y148.675
X179.045Y148.637
X179.051Y148.598
X179.056Y148.56
X179.06Y148.522
X179.064Y148.485
X179.066Y148.448
X179.068Y148.41
X179.069Y148.373
X179.068Y148.336
X179.067Y148.298
X179.066Y148.261
X179.063Y148.224
X179.059Y148.186
X179.055Y148.149
X179.049Y148.112
X178.969Y147.607
X178.961Y147.561
X178.952Y147.515
X178.941Y147.469
X178.929Y147.424
X178.793Y146.942
X178.78Y146.896
X178.765Y146.851
X178.749Y146.807
X178.731Y146.763
X178.537Y146.295
X178.519Y146.253
X178.499Y146.211
X178.478Y146.17
X178.456Y146.129
X178.206Y145.681
X178.182Y145.64
X178.157Y145.601
X178.132Y145.561
X178.105Y145.523
X177.802Y145.106
X177.773Y145.067
X177.742Y145.029
X177.711Y144.992
X177.679Y144.956
X177.327Y144.578
X177.294Y144.544
X177.26Y144.51
X177.225Y144.478
X177.189Y144.447
X176.796Y144.116
X176.76Y144.086
X176.723Y144.057
X176.685Y144.03
X176.646Y144.003
X176.199Y143.709
X175.985Y143.572
X175.833Y143.457
X175.691Y143.33
X175.572Y143.203
X175.39Y142.962
X175.248Y142.715
X175.138Y142.452
X175.063Y142.177
X175.023Y141.895
X175.018Y141.609
X175.05Y141.326
X175.117Y141.049
X175.219Y140.783
X175.353Y140.531
X175.518Y140.299
X175.711Y140.089
X175.929Y139.905
X176.183Y139.741
X176.337Y139.663
X176.514Y139.591
X176.696Y139.535
X176.972Y139.474
X177.466Y139.356
X177.511Y139.345
X177.556Y139.332
X177.601Y139.318
X177.645Y139.302
X178.127Y139.125
X178.172Y139.108
X178.216Y139.089
X178.259Y139.07
X178.302Y139.049
X178.762Y138.814
X178.804Y138.791
X178.847Y138.767
X178.888Y138.742
X178.928Y138.716
X179.356Y138.427
X179.394Y138.4
X179.432Y138.372
X179.469Y138.343
X179.505Y138.313
X179.893Y137.978
X179.928Y137.947
X179.962Y137.915
X179.994Y137.883
X180.026Y137.849
X180.369Y137.476
X180.4Y137.441
X180.431Y137.404
X180.46Y137.367
X180.488Y137.329
X180.781Y136.923
X180.807Y136.885
X180.833Y136.845
X180.858Y136.805
X180.881Y136.764
X181.129Y136.317
X181.147Y136.284
X181.164Y136.25
X181.18Y136.217
X181.195Y136.183
X181.21Y136.148
X181.224Y136.113
X181.237Y136.078
X181.249Y136.043
X181.26Y136.007
X181.27Y135.971
X181.28Y135.935
X181.289Y135.898
X181.297Y135.86
X181.304Y135.822
X181.31Y135.784
X181.316Y135.746
X181.32Y135.708
X181.323Y135.669
X181.326Y135.631
X181.328Y135.592
Y135.553
Y135.515
X181.327Y135.476
X181.325Y135.438
X181.321Y135.399
X181.317Y135.361
X181.311Y135.315
X181.304Y135.27
X181.061Y133.891
X181.054Y133.853
X181.046Y133.815
X181.037Y133.778
X181.027Y133.74
X181.016Y133.703
X181.004Y133.666
X180.992Y133.63
X180.978Y133.594
X180.964Y133.558
X180.949Y133.522
X180.933Y133.487
X180.916Y133.452
X180.898Y133.418
X180.879Y133.384
X180.859Y133.35
X180.839Y133.317
X180.818Y133.285
X180.796Y133.253
X180.774Y133.222
X180.75Y133.191
X180.726Y133.161
X180.702Y133.131
X180.676Y133.102
X180.65Y133.074
X180.623Y133.046
X180.595Y133.019
X180.567Y132.992
X180.538Y132.967
X180.152Y132.631
X180.116Y132.601
X180.08Y132.571
X180.042Y132.543
X180.004Y132.516
X179.59Y132.234
X179.55Y132.208
X179.51Y132.183
X179.469Y132.16
X179.427Y132.137
X178.978Y131.904
X178.937Y131.883
X178.895Y131.864
X178.852Y131.845
X178.809Y131.828
X178.329Y131.646
X178.285Y131.63
X178.241Y131.616
X178.196Y131.602
X178.151Y131.59
X177.65Y131.465
X177.603Y131.454
X177.555Y131.445
X177.507Y131.436
X177.459Y131.43
X176.948Y131.367
X176.9Y131.361
X176.852Y131.358
X176.805Y131.355
X176.757
X176.244Y131.353
X176.197Y131.354
X176.15Y131.356
X176.103Y131.359
X176.056Y131.364
X175.524Y131.425
X175.273Y131.459
X175.082Y131.468
X174.891Y131.462
X174.719Y131.441
X174.425Y131.373
X174.157Y131.275
X173.904Y131.144
X173.669Y130.982
X173.457Y130.792
X173.271Y130.576
X173.113Y130.339
X172.986Y130.083
X172.893Y129.814
X172.834Y129.535
X172.811Y129.251
X172.824Y128.966
X172.873Y128.685
X172.961Y128.396
X173.03Y128.237
X173.119Y128.068
X173.223Y127.908
X173.394Y127.684
X173.697Y127.277
X173.724Y127.239
X173.751Y127.2
X173.776Y127.16
X173.8Y127.12
X174.055Y126.675
X174.078Y126.633
X174.1Y126.59
X174.121Y126.547
X174.14Y126.504
X174.341Y126.029
X174.359Y125.984
X174.376Y125.938
X174.392Y125.892
X174.406Y125.846
X174.548Y125.35
X174.56Y125.305
X174.571Y125.259
X174.58Y125.213
X174.588Y125.167
X174.671Y124.661
X174.678Y124.615
X174.683Y124.569
X174.687Y124.523
X174.69Y124.476
X174.712Y123.97
X174.714Y123.923
Y123.876
X174.712Y123.829
X174.71Y123.782
X174.672Y123.282
X174.668Y123.235
X174.663Y123.189
X174.656Y123.142
X174.647Y123.096
X174.55Y122.594
X174.542Y122.557
X174.534Y122.521
X174.524Y122.485
X174.514Y122.449
X174.503Y122.413
X174.491Y122.377
X174.479Y122.342
X174.465Y122.307
X174.451Y122.273
X174.436Y122.238
X174.42Y122.205
X174.403Y122.171
X174.385Y122.136
X174.366Y122.103
X174.346Y122.069
X174.326Y122.037
X174.304Y122.005
X174.282Y121.973
X174.259Y121.942
X174.236Y121.911
X174.212Y121.881
X174.187Y121.852
X174.161Y121.823
X174.134Y121.795
X174.107Y121.767
X174.079Y121.74
X174.045Y121.709
X174.011Y121.679
X172.938Y120.779
X172.908Y120.755
X172.878Y120.731
X172.847Y120.708
X172.815Y120.686
X172.783Y120.664
X172.75Y120.644
X172.717Y120.624
X172.684Y120.605
X172.65Y120.586
X172.615Y120.569
X172.58Y120.553
X172.545Y120.537
X172.509Y120.522
X172.473Y120.508
X172.436Y120.495
X172.4Y120.482
X172.363Y120.471
X172.325Y120.461
X172.288Y120.451
X172.25Y120.443
X172.212Y120.435
X172.174Y120.428
X172.136Y120.422
X172.098Y120.417
X172.059Y120.414
X172.021Y120.41
X171.982Y120.408
X171.944Y120.407
X171.432Y120.398
X171.385
X171.338Y120.399
X171.291Y120.402
X171.245Y120.406
X170.746Y120.456
X170.699Y120.461
X170.653Y120.468
X170.606Y120.476
X170.56Y120.486
X170.065Y120.596
X170.02Y120.607
X169.976Y120.619
X169.931Y120.632
X169.887Y120.647
X169.403Y120.816
X169.359Y120.832
X169.315Y120.849
X169.272Y120.868
X169.23Y120.888
X168.766Y121.114
X168.723Y121.136
X168.68Y121.159
X168.638Y121.183
X168.597Y121.209
X168.165Y121.49
X168.125Y121.516
X168.086Y121.544
X168.048Y121.573
X168.011Y121.603
X167.617Y121.932
X167.581Y121.962
X167.546Y121.994
X167.512Y122.027
X167.48Y122.06
X167.112Y122.449
X166.941Y122.637
X166.801Y122.766
X166.65Y122.884
X166.505Y122.979
X166.236Y123.116
X165.968Y123.213
X165.69Y123.276
X165.406Y123.302
X165.121Y123.293
X164.84Y123.248
X164.566Y123.167
X164.311Y123.056
X164.059Y122.906
X163.836Y122.731
X163.635Y122.528
X163.462Y122.301
X163.319Y122.055
X163.202Y121.777
X163.151Y121.61
X163.112Y121.424
X163.088Y121.235
X163.076Y120.953
X163.046Y120.446
X163.042Y120.399
X163.037Y120.353
X163.031Y120.306
X163.023Y120.26
X162.933Y119.755
X162.924Y119.708
X162.913Y119.661
X162.901Y119.615
X162.888Y119.569
X162.737Y119.076
X162.722Y119.03
X162.705Y118.984
X162.688Y118.939
X162.669Y118.894
X162.459Y118.423
X162.439Y118.381
X162.418Y118.339
X162.396Y118.297
X162.372Y118.257
X162.11Y117.816
X162.086Y117.777
X162.06Y117.738
X162.034Y117.7
X162.006Y117.663
X161.698Y117.261
X161.669Y117.224
X161.638Y117.187
X161.607Y117.152
X161.574Y117.118
X161.225Y116.759
X161.192Y116.726
X161.157Y116.694
X161.122Y116.663
X161.086Y116.633
X160.689Y116.311
X160.658Y116.287
X160.627Y116.264
X160.596Y116.241
X160.564Y116.219
X160.531Y116.199
X160.498Y116.178
X160.465Y116.159
X160.431Y116.141
X160.397Y116.123
X160.362Y116.106
X160.327Y116.09
X160.291Y116.075
X160.255Y116.061
X160.218Y116.048
X160.182Y116.035
X160.145Y116.024
X160.108Y116.013
X160.07Y116.003
X160.033Y115.994
X159.995Y115.986
X159.957Y115.979
X159.919Y115.973
X159.88Y115.968
X159.842Y115.964
X159.803Y115.961
X159.765Y115.958
X159.726Y115.957
X159.688Y115.956
X158.288
X158.242Y115.957
X158.196Y115.959
X158.157Y115.962
X158.119Y115.965
X158.08Y115.97
X158.042Y115.975
X158.004Y115.982
X157.966Y115.989
X157.928Y115.998
X157.891Y116.007
X157.854Y116.017
X157.816Y116.028
X157.78Y116.04
X157.743Y116.052
X157.707Y116.066
X157.671Y116.081
X157.637Y116.096
X157.603Y116.111
X157.569Y116.128
X157.536Y116.145
X157.503Y116.163
X157.471Y116.182
X157.439Y116.202
X157.407Y116.222
X157.377Y116.243
X157.346Y116.265
X157.316Y116.287
X157.287Y116.311
X156.889Y116.633
X156.853Y116.663
X156.818Y116.694
X156.784Y116.726
X156.75Y116.759
X156.401Y117.118
X156.368Y117.152
X156.337Y117.187
X156.307Y117.223
X156.277Y117.261
X155.969Y117.663
X155.942Y117.7
X155.915Y117.738
X155.89Y117.777
X155.865Y117.816
X155.603Y118.257
X155.58Y118.298
X155.557Y118.339
X155.536Y118.381
X155.517Y118.423
X155.307Y118.894
X155.288Y118.939
X155.27Y118.984
X155.254Y119.03
X155.239Y119.076
X155.087Y119.569
X155.074Y119.615
X155.062Y119.661
X155.052Y119.708
X155.043Y119.755
X154.952Y120.26
X154.944Y120.306
X154.938Y120.353
X154.933Y120.399
X154.93Y120.446
X154.898Y120.981
X154.887Y121.235
X154.864Y121.424
X154.824Y121.61
X154.774Y121.776
X154.656Y122.055
X154.513Y122.301
X154.34Y122.528
X154.139Y122.731
X153.915Y122.907
X153.67Y123.053
X153.409Y123.167
X153.136Y123.248
X152.854Y123.293
X152.569Y123.302
X152.285Y123.275
X152.007Y123.213
X151.739Y123.116
X151.47Y122.979
X151.325Y122.884
X151.174Y122.766
X151.035Y122.637
X150.844Y122.429
X150.495Y122.06
X150.463Y122.026
X150.429Y121.994
X150.394Y121.962
X150.359Y121.932
X149.964Y121.603
X149.927Y121.573
X149.889Y121.544
X149.851Y121.516
X149.811Y121.49
X149.378Y121.209
X149.337Y121.183
X149.295Y121.159
X149.252Y121.135
X149.209Y121.114
X148.745Y120.888
X148.703Y120.868
X148.66Y120.849
X148.617Y120.832
X148.573Y120.816
X148.088Y120.647
X148.044Y120.632
X148Y120.619
X147.955Y120.607
X147.91Y120.596
X147.415Y120.486
X147.369Y120.476
X147.323Y120.468
X147.276Y120.461
X147.229Y120.456
X146.731Y120.406
X146.684Y120.402
X146.637Y120.399
X146.59Y120.398
X146.543
X146.032Y120.407
X145.993Y120.408
X145.954Y120.41
X145.916Y120.413
X145.877Y120.417
X145.839Y120.422
X145.801Y120.428
X145.763Y120.435
X145.725Y120.443
X145.687Y120.451
X145.65Y120.461
X145.613Y120.471
X145.576Y120.482
X145.539Y120.495
X145.502Y120.508
X145.466Y120.522
X145.43Y120.537
X145.395Y120.552
X145.36Y120.569
X145.326Y120.586
X145.292Y120.605
X145.258Y120.624
X145.225Y120.644
X145.192Y120.664
X145.16Y120.686
X145.129Y120.708
X145.098Y120.731
X145.067Y120.755
X145.037Y120.779
X143.965Y121.679
X143.93Y121.709
X143.896Y121.74
X143.868Y121.767
X143.841Y121.795
X143.815Y121.823
X143.789Y121.852
X143.764Y121.881
X143.739Y121.911
X143.716Y121.942
X143.693Y121.973
X143.671Y122.004
X143.65Y122.037
X143.629Y122.069
X143.609Y122.103
X143.59Y122.136
X143.572Y122.171
X143.555Y122.204
X143.54Y122.238
X143.524Y122.272
X143.51Y122.307
X143.497Y122.342
X143.484Y122.377
X143.472Y122.413
X143.461Y122.448
X143.451Y122.484
X143.442Y122.521
X143.433Y122.557
X143.426Y122.594
X143.328Y123.096
X143.32Y123.142
X143.313Y123.189
X143.307Y123.235
X143.303Y123.282
X143.266Y123.781
X143.263Y123.829
X143.262Y123.876
Y123.923
X143.263Y123.97
X143.286Y124.476
X143.288Y124.523
X143.292Y124.569
X143.298Y124.615
X143.305Y124.661
X143.387Y125.167
X143.395Y125.213
X143.405Y125.259
X143.415Y125.305
X143.428Y125.35
X143.57Y125.846
X143.584Y125.892
X143.599Y125.938
X143.616Y125.984
X143.634Y126.028
X143.835Y126.503
X143.855Y126.547
X143.875Y126.59
X143.897Y126.633
X143.92Y126.675
X144.176Y127.12
X144.2Y127.16
X144.225Y127.2
X144.251Y127.239
X144.278Y127.277
X144.598Y127.707
X144.753Y127.908
X144.856Y128.068
X144.946Y128.237
X145.014Y128.396
X145.103Y128.685
X145.151Y128.966
X145.164Y129.251
X145.141Y129.535
X145.083Y129.814
X144.989Y130.083
X144.863Y130.339
G0Z1
X157.995Y137.501
G1Z-0.4F50
X158.162Y137.358F100
X158.35Y137.243
X158.554Y137.158
X158.768Y137.107
X158.988Y137.09
X159.207Y137.107
X159.422Y137.158
X159.625Y137.243
X159.813Y137.358
X159.98Y137.501
X160.124Y137.668
X160.239Y137.856
X160.323Y138.06
X160.374Y138.274
X160.392Y138.494
X160.374Y138.713
X160.323Y138.928
X160.239Y139.131
X160.124Y139.319
X159.98Y139.487
X159.813Y139.63
X159.625Y139.745
X159.422Y139.829
X159.207Y139.881
X158.988Y139.898
X158.768Y139.881
X158.554Y139.829
X158.35Y139.745
X158.162Y139.63
X157.995Y139.487
X157.852Y139.319
X157.737Y139.131
X157.652Y138.928
X157.601Y138.713
X157.584Y138.494
X157.601Y138.274
X157.652Y138.06
X157.737Y137.856
X157.852Y137.668
X157.995Y137.501
G0Z1
X144.863Y130.339
G1Z-0.4F50
X144.705Y130.576F100
X144.518Y130.792
X144.306Y130.982
X144.071Y131.144
X143.818Y131.275
X143.55Y131.373
X143.256Y131.441
X143.084Y131.461
X142.893Y131.468
X142.703Y131.459
X142.423Y131.422
X141.919Y131.363
X141.872Y131.359
X141.825Y131.355
X141.779Y131.353
X141.732
X141.218Y131.354
X141.171Y131.355
X141.123Y131.358
X141.075Y131.361
X141.028Y131.366
X140.516Y131.43
X140.478Y131.435
X140.439Y131.441
X140.401Y131.448
X140.363Y131.456
X140.325Y131.465
X139.825Y131.59
X139.779Y131.602
X139.734Y131.616
X139.69Y131.63
X139.646Y131.646
X139.166Y131.828
X139.123Y131.845
X139.081Y131.864
X139.039Y131.883
X138.997Y131.904
X138.548Y132.137
X138.506Y132.16
X138.465Y132.183
X138.425Y132.208
X138.385Y132.234
X137.972Y132.516
X137.933Y132.543
X137.896Y132.571
X137.859Y132.6
X137.823Y132.631
X137.437Y132.967
X137.408Y132.992
X137.38Y133.019
X137.352Y133.046
X137.325Y133.074
X137.299Y133.102
X137.274Y133.131
X137.249Y133.161
X137.225Y133.191
X137.202Y133.222
X137.179Y133.253
X137.157Y133.285
X137.136Y133.317
X137.116Y133.35
X137.096Y133.384
X137.078Y133.418
X137.06Y133.452
X137.043Y133.487
X137.027Y133.522
X137.011Y133.558
X136.997Y133.593
X136.984Y133.63
X136.971Y133.666
X136.959Y133.703
X136.948Y133.74
X136.939Y133.777
X136.93Y133.815
X136.921Y133.853
X136.914Y133.891
X136.671Y135.27
X136.664Y135.315
X136.658Y135.361
X136.654Y135.399
X136.651Y135.437
X136.648Y135.476
X136.647Y135.515
Y135.553
X136.648Y135.592
X136.649Y135.631
X136.652Y135.669
X136.655Y135.708
X136.66Y135.746
X136.665Y135.784
X136.671Y135.822
X136.678Y135.86
X136.687Y135.899
X136.695Y135.935
X136.705Y135.971
X136.715Y136.007
X136.727Y136.043
X136.739Y136.078
X136.752Y136.113
X136.765Y136.148
X136.78Y136.182
X136.795Y136.217
X136.811Y136.25
X136.828Y136.284
X136.846Y136.317
X137.094Y136.764
X137.117Y136.805
X137.142Y136.845
X137.168Y136.884
X137.195Y136.923
X137.487Y137.329
X137.515Y137.367
X137.545Y137.404
X137.575Y137.441
X137.606Y137.476
X137.949Y137.849
X137.981Y137.883
X138.014Y137.915
X138.047Y137.947
X138.082Y137.978
X138.47Y138.313
X138.506Y138.343
X138.543Y138.372
X138.581Y138.4
X138.619Y138.427
X139.047Y138.715
X139.087Y138.742
X139.129Y138.767
X139.171Y138.791
X139.214Y138.814
X139.673Y139.048
X139.716Y139.07
X139.76Y139.089
X139.804Y139.108
X139.848Y139.125
X140.33Y139.302
X140.374Y139.317
X140.419Y139.332
X140.464Y139.345
X140.509Y139.356
X141.031Y139.48
X141.279Y139.535
X141.461Y139.591
X141.638Y139.662
X141.793Y139.741
X142.046Y139.905
X142.264Y140.089
X142.457Y140.298
X142.622Y140.531
X142.756Y140.782
X142.858Y141.049
X142.925Y141.326
X142.957Y141.609
X142.953Y141.894
X142.912Y142.177
X142.837Y142.451
X142.727Y142.715
X142.585Y142.962
X142.403Y143.203
X142.284Y143.329
X142.142Y143.457
X141.991Y143.572
X141.753Y143.724
X141.329Y144.003
X141.29Y144.03
X141.252Y144.057
X141.215Y144.086
X141.179Y144.115
X140.786Y144.447
X140.75Y144.478
X140.715Y144.51
X140.681Y144.544
X140.648Y144.578
X140.297Y144.956
X140.264Y144.992
X140.233Y145.029
X140.203Y145.067
X140.173Y145.106
X139.87Y145.523
X139.844Y145.561
X139.818Y145.601
X139.793Y145.64
X139.77Y145.681
X139.519Y146.129
X139.497Y146.169
X139.476Y146.211
X139.457Y146.253
X139.438Y146.295
X139.244Y146.763
X139.226Y146.807
X139.21Y146.851
X139.195Y146.896
X139.182Y146.941
X139.046Y147.423
X139.034Y147.469
X139.023Y147.515
X139.014Y147.561
X139.006Y147.607
X138.926Y148.112
X138.921Y148.149
X138.916Y148.186
X138.912Y148.224
X138.91Y148.261
X138.908Y148.298
X138.907Y148.336
Y148.373
Y148.411
X138.909Y148.448
X138.911Y148.485
X138.915Y148.522
X138.919Y148.56
X138.924Y148.598
X138.931Y148.637
X138.938Y148.675
X138.946Y148.712
X138.955Y148.75
X138.965Y148.787
X138.976Y148.824
X138.987Y148.861
X139Y148.898
X139.013Y148.934
X139.028Y148.97
X139.043Y149.005
X139.059Y149.04
X139.076Y149.075
X139.097Y149.116
X139.12Y149.156
X139.82Y150.369
X139.839Y150.402
X139.86Y150.435
X139.881Y150.467
X139.903Y150.499
X139.926Y150.53
X139.95Y150.56
X139.974Y150.59
X139.999Y150.62
X140.025Y150.648
X140.051Y150.677
X140.079Y150.704
X140.106Y150.731
X140.135Y150.757
X140.164Y150.783
X140.194Y150.808
X140.224Y150.832
X140.255Y150.855
X140.287Y150.877
X140.318Y150.899
X140.351Y150.92
X140.384Y150.94
X140.417Y150.96
X140.451Y150.978
X140.486Y150.996
X140.52Y151.013
X140.555Y151.029
X140.591Y151.044
X140.627Y151.058
X141.105Y151.242
X141.149Y151.258
X141.193Y151.273
X141.238Y151.286
X141.283Y151.299
X141.769Y151.422
X141.815Y151.433
X141.861Y151.442
X141.908Y151.451
X141.954Y151.457
X142.456Y151.523
X142.502Y151.528
X142.549Y151.532
X142.595Y151.535
X142.641Y151.536
X143.154Y151.543
X143.201
X143.248Y151.542
X143.295Y151.539
X143.341Y151.535
X143.854Y151.481
X143.903Y151.475
X143.951Y151.468
X143.998Y151.46
X144.046Y151.449
X144.548Y151.334
X144.595Y151.322
X144.641Y151.31
X144.686Y151.295
X144.732Y151.28
X145.215Y151.106
X145.258Y151.089
X145.302Y151.071
X145.345Y151.052
X145.387Y151.032
X145.866Y150.792
X146.091Y150.674
X146.266Y150.6
X146.448Y150.541
X146.617Y150.502
X146.917Y150.464
X147.202Y150.465
X147.485Y150.502
X147.76Y150.574
X148.025Y150.68
X148.274Y150.819
X148.504Y150.988
X148.71Y151.185
X148.89Y151.406
X149.04Y151.648
X149.159Y151.907
X149.245Y152.179
X149.295Y152.46
X149.31Y152.761
X149.3Y152.935
X149.274Y153.124
X149.232Y153.31
X149.147Y153.579
X149.002Y154.065
X148.989Y154.11
X148.978Y154.156
X148.968Y154.202
X148.959Y154.248
X148.871Y154.753
X148.864Y154.801
X148.858Y154.848
X148.853Y154.895
X148.85Y154.943
X148.823Y155.458
X148.822Y155.507
X148.821Y155.555
X148.822Y155.604
X148.825Y155.652
X148.861Y156.167
X148.865Y156.214
X148.871Y156.26
X148.877Y156.306
X148.886Y156.352
X148.981Y156.856
X148.991Y156.902
X149.001Y156.947
X149.013Y156.992
X149.027Y157.036
X149.179Y157.519
X149.193Y157.564
X149.21Y157.609
X149.227Y157.653
X149.246Y157.696
X149.451Y158.152
X149.471Y158.195
X149.493Y158.237
X149.515Y158.278
X149.539Y158.319
X149.802Y158.757
X149.822Y158.789
X149.842Y158.821
X149.863Y158.851
X149.885Y158.882
X149.908Y158.912
X149.931Y158.941
X149.955Y158.97
X149.98Y158.998
X150.005Y159.025
X150.031Y159.052
X150.057Y159.079
X150.085Y159.105
X150.114Y159.131
X150.143Y159.156
X150.173Y159.18
X150.203Y159.204
X150.234Y159.227
X150.266Y159.249
X150.298Y159.271
X150.331Y159.292
X150.364Y159.311
X150.397Y159.331
X150.431Y159.349
X150.466Y159.366
X150.501Y159.383
X150.536Y159.399
X150.579Y159.416
X150.622Y159.432
X151.937Y159.911
X151.974Y159.924
X152.01Y159.936
X152.047Y159.947
X152.085Y159.957
X152.122Y159.966
X152.16Y159.974
X152.198Y159.982
X152.236Y159.988
X152.274Y159.994
X152.313Y159.998
X152.351Y160.002
X152.39Y160.005
X152.428Y160.006
X152.467Y160.007
X152.506
X152.545Y160.006
X152.583Y160.004
X152.622Y160.001
X152.66Y159.997
X152.699Y159.992
X152.737Y159.987
X152.775Y159.98
X152.813Y159.972
X152.85Y159.964
X152.888Y159.954
X152.925Y159.944
X152.962Y159.933
X152.999Y159.921
X153.483Y159.754
X153.527Y159.738
X153.571Y159.721
X153.614Y159.703
X153.656Y159.683
X154.107Y159.465
X154.149Y159.444
X154.191Y159.422
X154.232Y159.398
X154.272Y159.373
X154.699Y159.101
X154.738Y159.075
X154.776Y159.049
X154.813Y159.021
X154.849Y158.992
X155.247Y158.668
X155.283Y158.638
X155.318Y158.606
X155.352Y158.574
X155.385Y158.541
X155.743Y158.17
X155.776Y158.135
X155.808Y158.098
X155.839Y158.061
X155.869Y158.023
X156.18Y157.611
X156.208Y157.573
X156.235Y157.533
X156.261Y157.493
X156.286Y157.452
X156.544Y157.008
X156.567Y156.967
X156.588Y156.926
X156.609Y156.884
X156.628Y156.841
X156.841Y156.349
X156.938Y156.114
X157.024Y155.945
X157.126Y155.783
X157.23Y155.644
X157.435Y155.423
X157.654Y155.24
X157.894Y155.086
X158.152Y154.964
X158.423Y154.876
X158.703Y154.822
X158.988Y154.804
X159.272Y154.822
X159.552Y154.876
X159.823Y154.964
X160.081Y155.086
X160.321Y155.24
X160.54Y155.423
X160.745Y155.644
X160.849Y155.783
X160.951Y155.945
X161.038Y156.114
X161.145Y156.375
X161.347Y156.841
X161.366Y156.884
X161.387Y156.926
X161.409Y156.967
X161.431Y157.008
X161.69Y157.452
X161.714Y157.493
X161.74Y157.533
X161.767Y157.572
X161.795Y157.611
X162.106Y158.023
X162.136Y158.061
X162.167Y158.098
X162.199Y158.135
X162.232Y158.17
X162.591Y158.541
X162.624Y158.574
X162.658Y158.607
X162.692Y158.638
X162.728Y158.668
X163.126Y158.992
X163.162Y159.021
X163.199Y159.049
X163.237Y159.075
X163.276Y159.101
X163.703Y159.373
X163.743Y159.398
X163.784Y159.422
X163.826Y159.444
X163.868Y159.465
X164.319Y159.683
X164.361Y159.703
X164.405Y159.721
X164.448Y159.738
X164.492Y159.754
X164.976Y159.921
X165.013Y159.933
X165.05Y159.944
X165.087Y159.954
X165.125Y159.964
X165.162Y159.972
X165.2Y159.98
X165.238Y159.987
X165.276Y159.992
X165.315Y159.997
X165.353Y160.001
X165.392Y160.004
X165.43Y160.006
X165.469Y160.007
X165.508
X165.547Y160.006
X165.585Y160.005
X165.624Y160.002
X165.663Y159.998
X165.701Y159.994
X165.739Y159.988
X165.777Y159.982
X165.815Y159.974
X165.853Y159.966
X165.89Y159.957
X165.928Y159.947
X165.965Y159.936
X166.001Y159.924
X166.038Y159.911
X167.354Y159.433
X167.397Y159.416
X167.439Y159.399
X167.474Y159.383
X167.509Y159.366
X167.544Y159.349
X167.578Y159.331
X167.611Y159.312
X167.645Y159.292
X167.677Y159.271
X167.709Y159.249
X167.741Y159.227
X167.772Y159.204
X167.802Y159.18
X167.832Y159.156
X167.862Y159.131
X167.891Y159.105
X167.918Y159.079
X167.944Y159.052
X167.97Y159.025
X167.995Y158.998
X168.02Y158.97
X168.044Y158.941
X168.067Y158.912
X168.09Y158.882
X168.112Y158.851
X168.133Y158.821
X168.153Y158.789
X168.173Y158.757
X168.437Y158.319
X168.46Y158.278
X168.483Y158.237
X168.504Y158.195
X168.524Y158.152
X168.729Y157.696
X168.748Y157.653
X168.766Y157.609
X168.782Y157.564
X168.797Y157.519
X168.949Y157.036
X168.962Y156.992
X168.974Y156.947
X168.984Y156.902
X168.994Y156.857
X169.09Y156.353
X169.098Y156.306
X169.104Y156.26
X169.11Y156.213
X169.114Y156.167
X169.15Y155.652
X169.153Y155.604
X169.154Y155.555
Y155.507
X169.152Y155.458
X169.125Y154.943
X169.122Y154.896
X169.117Y154.848
X169.111Y154.801
X169.104Y154.753
X169.016Y154.248
X169.008Y154.202
X168.998Y154.156
X168.986Y154.11
X168.973Y154.065
X168.82Y153.552
X168.743Y153.31
X168.701Y153.124
X168.675Y152.935
X168.665Y152.762
X168.68Y152.46
X168.731Y152.179
X168.816Y151.907
X168.935Y151.648
X169.085Y151.406
X169.265Y151.185
X169.472Y150.988
X169.701Y150.819
X169.95Y150.68
X170.215Y150.574
X170.491Y150.502
X170.773Y150.465
X171.058
X171.358Y150.502
X171.527Y150.541
X171.709Y150.6
X171.884Y150.674
X172.134Y150.805
X172.588Y151.032
X172.63Y151.052
X172.673Y151.071
X172.717Y151.089
X172.761Y151.106
X173.244Y151.28
X173.289Y151.295
X173.334Y151.31
X173.38Y151.322
X173.427Y151.334
X173.929Y151.449
X173.977Y151.46
X174.025Y151.468
X174.072Y151.476
X174.121Y151.481
X174.634Y151.535
X174.68Y151.539
X174.727Y151.542
X174.774Y151.543
X174.821
X175.334Y151.537
X175.38Y151.535
X175.427Y151.533
X175.473Y151.529
X175.519Y151.523
X176.021Y151.458
X176.068Y151.451
X176.114Y151.443
X176.16Y151.433
X176.206Y151.422
X176.692Y151.299
X176.737Y151.287
X176.782Y151.273
X176.827Y151.258
X176.871Y151.242
X177.348Y151.058
X177.384Y151.044
X177.42Y151.029
X177.455Y151.013
X177.49Y150.996
X177.524Y150.978
X177.558Y150.96
X177.591Y150.94
X177.624Y150.92
X177.657Y150.899
X177.689Y150.878
X177.72Y150.855
X177.751Y150.832
X177.781Y150.808
X177.811Y150.783
X177.84Y150.757
X177.869Y150.731
X177.897Y150.704
X177.924Y150.677
X177.95Y150.648
X177.976Y150.62
X178.001Y150.59
X178.025Y150.56
X178.049Y150.53
X178.072Y150.499
X178.094Y150.467
X178.115Y150.435
X178.136Y150.402
X178.155Y150.369
X178.855Y149.156
X178.878Y149.116
X178.899Y149.075
X178.916Y149.041
X178.932Y149.005
X178.947Y148.97
X178.962Y148.934
X178.975Y148.898
X178.988Y148.861
X179Y148.824
X179.01Y148.787
X179.02Y148.75
X179.029Y148.712
X179.037Y148.675
X179.045Y148.637
X179.051Y148.598
X179.056Y148.56
X179.06Y148.522
X179.064Y148.485
X179.066Y148.448
X179.068Y148.41
X179.069Y148.373
X179.068Y148.336
X179.067Y148.298
X179.066Y148.261
X179.063Y148.224
X179.059Y148.186
X179.055Y148.149
X179.049Y148.112
X178.969Y147.607
X178.961Y147.561
X178.952Y147.515
X178.941Y147.469
X178.929Y147.424
X178.793Y146.942
X178.78Y146.896
X178.765Y146.851
X178.749Y146.807
X178.731Y146.763
X178.537Y146.295
X178.519Y146.253
X178.499Y146.211
X178.478Y146.17
X178.456Y146.129
X178.206Y145.681
X178.182Y145.64
X178.157Y145.601
X178.132Y145.561
X178.105Y145.523
X177.802Y145.106
X177.773Y145.067
X177.742Y145.029
X177.711Y144.992
X177.679Y144.956
X177.327Y144.578
X177.294Y144.544
X177.26Y144.51
X177.225Y144.478
X177.189Y144.447
X176.796Y144.116
X176.76Y144.086
X176.723Y144.057
X176.685Y144.03
X176.646Y144.003
X176.199Y143.709
X175.985Y143.572
X175.833Y143.457
X175.691Y143.33
X175.572Y143.203
X175.39Y142.962
X175.248Y142.715
X175.138Y142.452
X175.063Y142.177
X175.023Y141.895
X175.018Y141.609
X175.05Y141.326
X175.117Y141.049
X175.219Y140.783
X175.353Y140.531
X175.518Y140.299
X175.711Y140.089
X175.929Y139.905
X176.183Y139.741
X176.337Y139.663
X176.514Y139.591
X176.696Y139.535
X176.972Y139.474
X177.466Y139.356
X177.511Y139.345
X177.556Y139.332
X177.601Y139.318
X177.645Y139.302
X178.127Y139.125
X178.172Y139.108
X178.216Y139.089
X178.259Y139.07
X178.302Y139.049
X178.762Y138.814
X178.804Y138.791
X178.847Y138.767
X178.888Y138.742
X178.928Y138.716
X179.356Y138.427
X179.394Y138.4
X179.432Y138.372
X179.469Y138.343
X179.505Y138.313
X179.893Y137.978
X179.928Y137.947
X179.962Y137.915
X179.994Y137.883
X180.026Y137.849
X180.369Y137.476
X180.4Y137.441
X180.431Y137.404
X180.46Y137.367
X180.488Y137.329
X180.781Y136.923
X180.807Y136.885
X180.833Y136.845
X180.858Y136.805
X180.881Y136.764
X181.129Y136.317
X181.147Y136.284
X181.164Y136.25
X181.18Y136.217
X181.195Y136.183
X181.21Y136.148
X181.224Y136.113
X181.237Y136.078
X181.249Y136.043
X181.26Y136.007
X181.27Y135.971
X181.28Y135.935
X181.289Y135.898
X181.297Y135.86
X181.304Y135.822
X181.31Y135.784
X181.316Y135.746
X181.32Y135.708
X181.323Y135.669
X181.326Y135.631
X181.328Y135.592
Y135.553
Y135.515
X181.327Y135.476
X181.325Y135.438
X181.321Y135.399
X181.317Y135.361
X181.311Y135.315
X181.304Y135.27
X181.061Y133.891
X181.054Y133.853
X181.046Y133.815
X181.037Y133.778
X181.027Y133.74
X181.016Y133.703
X181.004Y133.666
X180.992Y133.63
X180.978Y133.594
X180.964Y133.558
X180.949Y133.522
X180.933Y133.487
X180.916Y133.452
X180.898Y133.418
X180.879Y133.384
X180.859Y133.35
X180.839Y133.317
X180.818Y133.285
X180.796Y133.253
X180.774Y133.222
X180.75Y133.191
X180.726Y133.161
X180.702Y133.131
X180.676Y133.102
X180.65Y133.074
X180.623Y133.046
X180.595Y133.019
X180.567Y132.992
X180.538Y132.967
X180.152Y132.631
X180.116Y132.601
X180.08Y132.571
X180.042Y132.543
X180.004Y132.516
X179.59Y132.234
X179.55Y132.208
X179.51Y132.183
X179.469Y132.16
X179.427Y132.137
X178.978Y131.904
X178.937Y131.883
X178.895Y131.864
X178.852Y131.845
X178.809Y131.828
X178.329Y131.646
X178.285Y131.63
X178.241Y131.616
X178.196Y131.602
X178.151Y131.59
X177.65Y131.465
X177.603Y131.454
X177.555Y131.445
X177.507Y131.436
X177.459Y131.43
X176.948Y131.367
X176.9Y131.361
X176.852Y131.358
X176.805Y131.355
X176.757
X176.244Y131.353
X176.197Y131.354
X176.15Y131.356
X176.103Y131.359
X176.056Y131.364
X175.524Y131.425
X175.273Y131.459
X175.082Y131.468
X174.891Y131.462
X174.719Y131.441
X174.425Y131.373
X174.157Y131.275
X173.904Y131.144
X173.669Y130.982
X173.457Y130.792
X173.271Y130.576
X173.113Y130.339
X172.986Y130.083
X172.893Y129.814
X172.834Y129.535
X172.811Y129.251
X172.824Y128.966
X172.873Y128.685
X172.961Y128.396
X173.03Y128.237
X173.119Y128.068
X173.223Y127.908
X173.394Y127.684
X173.697Y127.277
X173.724Y127.239
X173.751Y127.2
X173.776Y127.16
X173.8Y127.12
X174.055Y126.675
X174.078Y126.633
X174.1Y126.59
X174.121Y126.547
X174.14Y126.504
X174.341Y126.029
X174.359Y125.984
X174.376Y125.938
X174.392Y125.892
X174.406Y125.846
X174.548Y125.35
X174.56Y125.305
X174.571Y125.259
X174.58Y125.213
X174.588Y125.167
X174.671Y124.661
X174.678Y124.615
X174.683Y124.569
X174.687Y124.523
X174.69Y124.476
X174.712Y123.97
X174.714Y123.923
Y123.876
X174.712Y123.829
X174.71Y123.782
X174.672Y123.282
X174.668Y123.235
X174.663Y123.189
X174.656Y123.142
X174.647Y123.096
X174.55Y122.594
X174.542Y122.557
X174.534Y122.521
X174.524Y122.485
X174.514Y122.449
X174.503Y122.413
X174.491Y122.377
X174.479Y122.342
X174.465Y122.307
X174.451Y122.273
X174.436Y122.238
X174.42Y122.205
X174.403Y122.171
X174.385Y122.136
X174.366Y122.103
X174.346Y122.069
X174.326Y122.037
X174.304Y122.005
X174.282Y121.973
X174.259Y121.942
X174.236Y121.911
X174.212Y121.881
X174.187Y121.852
X174.161Y121.823
X174.134Y121.795
X174.107Y121.767
X174.079Y121.74
X174.045Y121.709
X174.011Y121.679
X172.938Y120.779
X172.908Y120.755
X172.878Y120.731
X172.847Y120.708
X172.815Y120.686
X172.783Y120.664
X172.75Y120.644
X172.717Y120.624
X172.684Y120.605
X172.65Y120.586
X172.615Y120.569
X172.58Y120.553
X172.545Y120.537
X172.509Y120.522
X172.473Y120.508
X172.436Y120.495
X172.4Y120.482
X172.363Y120.471
X172.325Y120.461
X172.288Y120.451
X172.25Y120.443
X172.212Y120.435
X172.174Y120.428
X172.136Y120.422
X172.098Y120.417
X172.059Y120.414
X172.021Y120.41
X171.982Y120.408
X171.944Y120.407
X171.432Y120.398
X171.385
X171.338Y120.399
X171.291Y120.402
X171.245Y120.406
X170.746Y120.456
X170.699Y120.461
X170.653Y120.468
X170.606Y120.476
X170.56Y120.486
X170.065Y120.596
X170.02Y120.607
X169.976Y120.619
X169.931Y120.632
X169.887Y120.647
X169.403Y120.816
X169.359Y120.832
X169.315Y120.849
X169.272Y120.868
X169.23Y120.888
X168.766Y121.114
X168.723Y121.136
X168.68Y121.159
X168.638Y121.183
X168.597Y121.209
X168.165Y121.49
X168.125Y121.516
X168.086Y121.544
X168.048Y121.573
X168.011Y121.603
X167.617Y121.932
X167.581Y121.962
X167.546Y121.994
X167.512Y122.027
X167.48Y122.06
X167.112Y122.449
X166.941Y122.637
X166.801Y122.766
X166.65Y122.884
X166.505Y122.979
X166.236Y123.116
X165.968Y123.213
X165.69Y123.276
X165.406Y123.302
X165.121Y123.293
X164.84Y123.248
X164.566Y123.167
X164.311Y123.056
X164.059Y122.906
X163.836Y122.731
X163.635Y122.528
X163.462Y122.301
X163.319Y122.055
X163.202Y121.777
X163.151Y121.61
X163.112Y121.424
X163.088Y121.235
X163.076Y120.953
X163.046Y120.446
X163.042Y120.399
X163.037Y120.353
X163.031Y120.306
X163.023Y120.26
X162.933Y119.755
X162.924Y119.708
X162.913Y119.661
X162.901Y119.615
X162.888Y119.569
X162.737Y119.076
X162.722Y119.03
X162.705Y118.984
X162.688Y118.939
X162.669Y118.894
X162.459Y118.423
X162.439Y118.381
X162.418Y118.339
X162.396Y118.297
X162.372Y118.257
X162.11Y117.816
X162.086Y117.777
X162.06Y117.738
X162.034Y117.7
X162.006Y117.663
X161.698Y117.261
X161.669Y117.224
X161.638Y117.187
X161.607Y117.152
X161.574Y117.118
X161.225Y116.759
X161.192Y116.726
X161.157Y116.694
X161.122Y116.663
X161.086Y116.633
X160.689Y116.311
X160.658Y116.287
X160.627Y116.264
X160.596Y116.241
X160.564Y116.219
X160.531Y116.199
X160.498Y116.178
X160.465Y116.159
X160.431Y116.141
X160.397Y116.123
X160.362Y116.106
X160.327Y116.09
X160.291Y116.075
X160.255Y116.061
X160.218Y116.048
X160.182Y116.035
X160.145Y116.024
X160.108Y116.013
X160.07Y116.003
X160.033Y115.994
X159.995Y115.986
X159.957Y115.979
X159.919Y115.973
X159.88Y115.968
X159.842Y115.964
X159.803Y115.961
X159.765Y115.958
X159.726Y115.957
X159.688Y115.956
X158.288
X158.242Y115.957
X158.196Y115.959
X158.157Y115.962
X158.119Y115.965
X158.08Y115.97
X158.042Y115.975
X158.004Y115.982
X157.966Y115.989
X157.928Y115.998
X157.891Y116.007
X157.854Y116.017
X157.816Y116.028
X157.78Y116.04
X157.743Y116.052
X157.707Y116.066
X157.671Y116.081
X157.637Y116.096
X157.603Y116.111
X157.569Y116.128
X157.536Y116.145
X157.503Y116.163
X157.471Y116.182
X157.439Y116.202
X157.407Y116.222
X157.377Y116.243
X157.346Y116.265
X157.316Y116.287
X157.287Y116.311
X156.889Y116.633
X156.853Y116.663
X156.818Y116.694
X156.784Y116.726
X156.75Y116.759
X156.401Y117.118
X156.368Y117.152
X156.337Y117.187
X156.307Y117.223
X156.277Y117.261
X155.969Y117.663
X155.942Y117.7
X155.915Y117.738
X155.89Y117.777
X155.865Y117.816
X155.603Y118.257
X155.58Y118.298
X155.557Y118.339
X155.536Y118.381
X155.517Y118.423
X155.307Y118.894
X155.288Y118.939
X155.27Y118.984
X155.254Y119.03
X155.239Y119.076
X155.087Y119.569
X155.074Y119.615
X155.062Y119.661
X155.052Y119.708
X155.043Y119.755
X154.952Y120.26
X154.944Y120.306
X154.938Y120.353
X154.933Y120.399
X154.93Y120.446
X154.898Y120.981
X154.887Y121.235
X154.864Y121.424
X154.824Y121.61
X154.774Y121.776
X154.656Y122.055
X154.513Y122.301
X154.34Y122.528
X154.139Y122.731
X153.915Y122.907
X153.67Y123.053
X153.409Y123.167
X153.136Y123.248
X152.854Y123.293
X152.569Y123.302
X152.285Y123.275
X152.007Y123.213
X151.739Y123.116
X151.47Y122.979
X151.325Y122.884
X151.174Y122.766
X151.035Y122.637
X150.844Y122.429
X150.495Y122.06
X150.463Y122.026
X150.429Y121.994
X150.394Y121.962
X150.359Y121.932
X149.964Y121.603
X149.927Y121.573
X149.889Y121.544
X149.851Y121.516
X149.811Y121.49
X149.378Y121.209
X149.337Y121.183
X149.295Y121.159
X149.252Y121.135
X149.209Y121.114
X148.745Y120.888
X148.703Y120.868
X148.66Y120.849
X148.617Y120.832
X148.573Y120.816
X148.088Y120.647
X148.044Y120.632
X148Y120.619
X147.955Y120.607
X147.91Y120.596
X147.415Y120.486
X147.369Y120.476
X147.323Y120.468
X147.276Y120.461
X147.229Y120.456
X146.731Y120.406
X146.684Y120.402
X146.637Y120.399
X146.59Y120.398
X146.543
X146.032Y120.407
X145.993Y120.408
X145.954Y120.41
X145.916Y120.413
X145.877Y120.417
X145.839Y120.422
X145.801Y120.428
X145.763Y120.435
X145.725Y120.443
X145.687Y120.451
X145.65Y120.461
X145.613Y120.471
X145.576Y120.482
X145.539Y120.495
X145.502Y120.508
X145.466Y120.522
X145.43Y120.537
X145.395Y120.552
X145.36Y120.569
X145.326Y120.586
X145.292Y120.605
X145.258Y120.624
X145.225Y120.644
X145.192Y120.664
X145.16Y120.686
X145.129Y120.708
X145.098Y120.731
X145.067Y120.755
X145.037Y120.779
X143.965Y121.679
X143.93Y121.709
X143.896Y121.74
X143.868Y121.767
X143.841Y121.795
X143.815Y121.823
X143.789Y121.852
X143.764Y121.881
X143.739Y121.911
X143.716Y121.942
X143.693Y121.973
X143.671Y122.004
X143.65Y122.037
X143.629Y122.069
X143.609Y122.103
X143.59Y122.136
X143.572Y122.171
X143.555Y122.204
X143.54Y122.238
X143.524Y122.272
X143.51Y122.307
X143.497Y122.342
X143.484Y122.377
X143.472Y122.413
X143.461Y122.448
X143.451Y122.484
X143.442Y122.521
X143.433Y122.557
X143.426Y122.594
X143.328Y123.096
X143.32Y123.142
X143.313Y123.189
X143.307Y123.235
X143.303Y123.282
X143.266Y123.781
X143.263Y123.829
X143.262Y123.876
Y123.923
X143.263Y123.97
X143.286Y124.476
X143.288Y124.523
X143.292Y124.569
X143.298Y124.615
X143.305Y124.661
X143.387Y125.167
X143.395Y125.213
X143.405Y125.259
X143.415Y125.305
X143.428Y125.35
X143.57Y125.846
X143.584Y125.892
X143.599Y125.938
X143.616Y125.984
X143.634Y126.028
X143.835Y126.503
X143.855Y126.547
X143.875Y126.59
X143.897Y126.633
X143.92Y126.675
X144.176Y127.12
X144.2Y127.16
X144.225Y127.2
X144.251Y127.239
X144.278Y127.277
X144.598Y127.707
X144.753Y127.908
X144.856Y128.068
X144.946Y128.237
X145.014Y128.396
X145.103Y128.685
X145.151Y128.966
X145.164Y129.251
X145.141Y129.535
X145.083Y129.814
X144.989Y130.083
X144.863Y130.339
G0Z1
X157.995Y137.501
G1Z-0.5F50
X158.162Y137.358F100
X158.35Y137.243
X158.554Y137.158
X158.768Y137.107
X158.988Y137.09
X159.207Y137.107
X159.422Y137.158
X159.625Y137.243
X159.813Y137.358
X159.98Y137.501
X160.124Y137.668
X160.239Y137.856
X160.323Y138.06
X160.374Y138.274
X160.392Y138.494
X160.374Y138.713
X160.323Y138.928
X160.239Y139.131
X160.124Y139.319
X159.98Y139.487
X159.813Y139.63
X159.625Y139.745
X159.422Y139.829
X159.207Y139.881
X158.988Y139.898
X158.768Y139.881
X158.554Y139.829
X158.35Y139.745
X158.162Y139.63
X157.995Y139.487
X157.852Y139.319
X157.737Y139.131
X157.652Y138.928
X157.601Y138.713
X157.584Y138.494
X157.601Y138.274
X157.652Y138.06
X157.737Y137.856
X157.852Y137.668
X157.995Y137.501
G0Z1
X144.863Y130.339
G1Z-0.5F50
X144.705Y130.576F100
X144.518Y130.792
X144.306Y130.982
X144.071Y131.144
X143.818Y131.275
X143.55Y131.373
X143.256Y131.441
X143.084Y131.461
X142.893Y131.468
X142.703Y131.459
X142.423Y131.422
X141.919Y131.363
X141.872Y131.359
X141.825Y131.355
X141.779Y131.353
X141.732
X141.218Y131.354
X141.171Y131.355
X141.123Y131.358
X141.075Y131.361
X141.028Y131.366
X140.516Y131.43
X140.478Y131.435
X140.439Y131.441
X140.401Y131.448
X140.363Y131.456
X140.325Y131.465
X139.825Y131.59
X139.779Y131.602
X139.734Y131.616
X139.69Y131.63
X139.646Y131.646
X139.166Y131.828
X139.123Y131.845
X139.081Y131.864
X139.039Y131.883
X138.997Y131.904
X138.548Y132.137
X138.506Y132.16
X138.465Y132.183
X138.425Y132.208
X138.385Y132.234
X137.972Y132.516
X137.933Y132.543
X137.896Y132.571
X137.859Y132.6
X137.823Y132.631
X137.437Y132.967
X137.408Y132.992
X137.38Y133.019
X137.352Y133.046
X137.325Y133.074
X137.299Y133.102
X137.274Y133.131
X137.249Y133.161
X137.225Y133.191
X137.202Y133.222
X137.179Y133.253
X137.157Y133.285
X137.136Y133.317
X137.116Y133.35
X137.096Y133.384
X137.078Y133.418
X137.06Y133.452
X137.043Y133.487
X137.027Y133.522
X137.011Y133.558
X136.997Y133.593
X136.984Y133.63
X136.971Y133.666
X136.959Y133.703
X136.948Y133.74
X136.939Y133.777
X136.93Y133.815
X136.921Y133.853
X136.914Y133.891
X136.671Y135.27
X136.664Y135.315
X136.658Y135.361
X136.654Y135.399
X136.651Y135.437
X136.648Y135.476
X136.647Y135.515
Y135.553
X136.648Y135.592
X136.649Y135.631
X136.652Y135.669
X136.655Y135.708
X136.66Y135.746
X136.665Y135.784
X136.671Y135.822
X136.678Y135.86
X136.687Y135.899
X136.695Y135.935
X136.705Y135.971
X136.715Y136.007
X136.727Y136.043
X136.739Y136.078
X136.752Y136.113
X136.765Y136.148
X136.78Y136.182
X136.795Y136.217
X136.811Y136.25
X136.828Y136.284
X136.846Y136.317
X137.094Y136.764
X137.117Y136.805
X137.142Y136.845
X137.168Y136.884
X137.195Y136.923
X137.487Y137.329
X137.515Y137.367
X137.545Y137.404
X137.575Y137.441
X137.606Y137.476
X137.949Y137.849
X137.981Y137.883
X138.014Y137.915
X138.047Y137.947
X138.082Y137.978
X138.47Y138.313
X138.506Y138.343
X138.543Y138.372
X138.581Y138.4
X138.619Y138.427
X139.047Y138.715
X139.087Y138.742
X139.129Y138.767
X139.171Y138.791
X139.214Y138.814
X139.673Y139.048
X139.716Y139.07
X139.76Y139.089
X139.804Y139.108
X139.848Y139.125
X140.33Y139.302
X140.374Y139.317
X140.419Y139.332
X140.464Y139.345
X140.509Y139.356
X141.031Y139.48
X141.279Y139.535
X141.461Y139.591
X141.638Y139.662
X141.793Y139.741
X142.046Y139.905
X142.264Y140.089
X142.457Y140.298
X142.622Y140.531
X142.756Y140.782
X142.858Y141.049
X142.925Y141.326
X142.957Y141.609
X142.953Y141.894
X142.912Y142.177
X142.837Y142.451
X142.727Y142.715
X142.585Y142.962
X142.403Y143.203
X142.284Y143.329
X142.142Y143.457
X141.991Y143.572
X141.753Y143.724
X141.329Y144.003
X141.29Y144.03
X141.252Y144.057
X141.215Y144.086
X141.179Y144.115
X140.786Y144.447
X140.75Y144.478
X140.715Y144.51
X140.681Y144.544
X140.648Y144.578
X140.297Y144.956
X140.264Y144.992
X140.233Y145.029
X140.203Y145.067
X140.173Y145.106
X139.87Y145.523
X139.844Y145.561
X139.818Y145.601
X139.793Y145.64
X139.77Y145.681
X139.519Y146.129
X139.497Y146.169
X139.476Y146.211
X139.457Y146.253
X139.438Y146.295
X139.244Y146.763
X139.226Y146.807
X139.21Y146.851
X139.195Y146.896
X139.182Y146.941
X139.046Y147.423
X139.034Y147.469
X139.023Y147.515
X139.014Y147.561
X139.006Y147.607
X138.926Y148.112
X138.921Y148.149
X138.916Y148.186
X138.912Y148.224
X138.91Y148.261
X138.908Y148.298
X138.907Y148.336
Y148.373
Y148.411
X138.909Y148.448
X138.911Y148.485
X138.915Y148.522
X138.919Y148.56
X138.924Y148.598
X138.931Y148.637
X138.938Y148.675
X138.946Y148.712
X138.955Y148.75
X138.965Y148.787
X138.976Y148.824
X138.987Y148.861
X139Y148.898
X139.013Y148.934
X139.028Y148.97
X139.043Y149.005
X139.059Y149.04
X139.076Y149.075
X139.097Y149.116
X139.12Y149.156
X139.82Y150.369
X139.839Y150.402
X139.86Y150.435
X139.881Y150.467
X139.903Y150.499
X139.926Y150.53
X139.95Y150.56
X139.974Y150.59
X139.999Y150.62
X140.025Y150.648
X140.051Y150.677
X140.079Y150.704
X140.106Y150.731
X140.135Y150.757
X140.164Y150.783
X140.194Y150.808
X140.224Y150.832
X140.255Y150.855
X140.287Y150.877
X140.318Y150.899
X140.351Y150.92
X140.384Y150.94
X140.417Y150.96
X140.451Y150.978
X140.486Y150.996
X140.52Y151.013
X140.555Y151.029
X140.591Y151.044
X140.627Y151.058
X141.105Y151.242
X141.149Y151.258
X141.193Y151.273
X141.238Y151.286
X141.283Y151.299
X141.769Y151.422
X141.815Y151.433
X141.861Y151.442
X141.908Y151.451
X141.954Y151.457
X142.456Y151.523
X142.502Y151.528
X142.549Y151.532
X142.595Y151.535
X142.641Y151.536
X143.154Y151.543
X143.201
X143.248Y151.542
X143.295Y151.539
X143.341Y151.535
X143.854Y151.481
X143.903Y151.475
X143.951Y151.468
X143.998Y151.46
X144.046Y151.449
X144.548Y151.334
X144.595Y151.322
X144.641Y151.31
X144.686Y151.295
X144.732Y151.28
X145.215Y151.106
X145.258Y151.089
X145.302Y151.071
X145.345Y151.052
X145.387Y151.032
X145.866Y150.792
X146.091Y150.674
X146.266Y150.6
X146.448Y150.541
X146.617Y150.502
X146.917Y150.464
X147.202Y150.465
X147.485Y150.502
X147.76Y150.574
X148.025Y150.68
X148.274Y150.819
X148.504Y150.988
X148.71Y151.185
X148.89Y151.406
X149.04Y151.648
X149.159Y151.907
X149.245Y152.179
X149.295Y152.46
X149.31Y152.761
X149.3Y152.935
X149.274Y153.124
X149.232Y153.31
X149.147Y153.579
X149.002Y154.065
X148.989Y154.11
X148.978Y154.156
X148.968Y154.202
X148.959Y154.248
X148.871Y154.753
