; generated by PrusaSlicer 2.7.1+linux-x64-GTK3 on 2025-01-06 at 00:09:13 UTC

; 

; external perimeters extrusion width = 0.90mm
; perimeters extrusion width = 0.90mm
; infill extrusion width = 0.90mm
; solid infill extrusion width = 0.90mm
; top infill extrusion width = 0.80mm

;TYPE:Custom
G90 ; use absolute coordinates
M83 ; extruder relative mode
M104 S240 ; set extruder temp
M140 S80 ; set bed temp
M190 S80 ; wait for bed temp
M109 S240 ; wait for extruder temp
G28 ; home all
G1 Z2 F240
G1 X10 Y10 F3000
G1 Z0.28 F240
G92 E0.0
G1 Y40 E15.0 F1500.0 ; intro line
G1 X10.3 F5000
G1 Y10 E15.0 F1200.0 ; intro line
G92 E0.0
G21 ; set units to millimeters
G90 ; use absolute coordinates
M83 ; use relative distances for extrusion
; Filament gcode
M107
;LAYER_CHANGE
;Z:0.49
;HEIGHT:0.49
;BEFORE_LAYER_CHANGE
G92 E0
;0.49


G1 Z.49 F600
;AFTER_LAYER_CHANGE
;0.49
G1 X80.126 Y62.722
;TYPE:Skirt/Brim
;WIDTH:0.9
G1 F1200
G1 X80.82 Y61.84 E.18173
G1 X81.723 Y60.935 E.20701
G1 X82.532 Y60.292 E.16733
G1 X83.613 Y59.614 E.20662
G1 X84.664 Y59.107 E.18895
G1 X85.958 Y58.655 E.22195
G1 X87.364 Y58.331 E.23363
G1 X90.925 Y57.916 E.58052
G1 X96.417 Y57.417 E.89295
G1 X98.209 Y57.867 E.29918
G1 X101.132 Y59.794 E.5669
G1 X102.092 Y60.875 E.2341
G1 X141.868 Y140.218 E14.3716
G1 X146.066 Y153.036 E2.18403
G1 X146.134 Y154.517 E.24006
G1 X145.669 Y155.543 E.1824
G1 X142.674 Y159.665 E.82504
G1 X141.517 Y160.59 E.23986
G1 X140.425 Y160.817 E.1806
G1 X91.479 Y161.017 E7.92562
G1 X87.542 Y161.015 E.6375
G1 X82.387 Y160.815 E.83535
G1 X81.502 Y160.635 E.14624
G1 X79.785 Y159.982 E.29745
G1 X78.922 Y159.459 E.1634
G1 X76.695 Y157.423 E.48859
G1 X75.96 Y156.302 E.21706
G1 X75.14 Y153.969 E.40042
G1 X74.984 Y152.932 E.16981
G1 X78.336 Y67.889 E13.78124
G1 X78.548 Y66.312 E.25765
G1 X78.864 Y65.187 E.18921
G1 X79.503 Y63.733 E.25717
G1 X80.063 Y62.824 E.17288
G1 X82.926 Y64.717 F600
G1 F1200
G1 X83.085 Y64.476 E.04675
G1 X83.743 Y63.732 E.16083
G1 X84.541 Y63.065 E.16841
G1 X85.386 Y62.547 E.16049
G1 X86.336 Y62.13 E.168
G1 X87.339 Y61.831 E.16947
G1 X88.47 Y61.621 E.18627
G1 X95.521 Y60.935 E1.14712
G1 X95.968 Y60.952 E.07243
G1 X96.704 Y61.114 E.12203
G1 X97.272 Y61.357 E.10004
G1 X98.361 Y62.083 E.21193
G1 X98.73 Y62.445 E.0837
G1 X99.338 Y63.397 E.18291
G1 X100.187 Y65.964 E.4378
G1 X100.831 Y67.333 E.24498
G1 X102.015 Y70.98 E.62088
G1 X102.205 Y72.147 E.19145
G1 X102.401 Y72.801 E.11055
G1 X112.209 Y102.985 E5.13908
G1 X112.99 Y104.742 E.31134
G1 X113.988 Y107.814 E.52302
G1 X114.407 Y109.749 E.32059
G1 X125.402 Y143.591 E5.76181
G1 X134.772 Y140.575 E1.59389
G1 X135.913 Y140.586 E.18476
G1 X136.422 Y140.705 E.08464
G1 X137.882 Y141.427 E.26374
G1 X138.375 Y141.817 E.10179
G1 X138.875 Y142.404 E.12486
G1 X139.213 Y143.022 E.11406
G1 X142.323 Y152.725 E1.64989
G1 X142.338 Y153.351 E.10139
G1 X142.22 Y154.095 E.12198
G1 X141.857 Y154.966 E.15279
G1 X140.746 Y156.439 E.29875
G1 X140.228 Y156.834 E.10548
G1 X139.557 Y157.176 E.12195
G1 X138.649 Y157.394 E.15121
G1 X93.371 Y157.394 E7.33162
G1 X91.426 Y157.594 E.3166
G1 X87.674 Y157.594 E.60754
G1 X86.149 Y157.4 E.24892
G1 X83.076 Y157.393 E.4976
G1 X82.218 Y157.241 E.14109
G1 X81.444 Y156.939 E.13453
G1 X80.744 Y156.5 E.13379
G1 X79.604 Y155.453 E.25063
G1 X78.907 Y154.377 E.20759
G1 X78.605 Y153.461 E.15618
G1 X78.502 Y152.604 E.13977
G1 X78.74 Y151.006 E.26161
G1 X78.941 Y150.25 E.12667
G1 X79.251 Y149.409 E.14514
G1 X79.763 Y148.379 E.18625
G1 X80.356 Y147.492 E.17277
G1 X81.535 Y146.222 E.2806
G1 X82.605 Y145.414 E.21711
G1 X83.477 Y144.921 E.1622
G1 X84.468 Y144.506 E.17397
G1 X85.626 Y144.143 E.19651
G1 X86.152 Y143.838 E.09846
G1 X86.867 Y143.572 E.12353
G1 X87.76 Y143.408 E.14702
G1 X89.157 Y143.389 E.22623
G1 X90.061 Y143.223 E.14883
G1 X91.262 Y143.155 E.19478
G1 X93.702 Y142.379 E.4146
G1 X95.855 Y141.293 E.39046
G1 X97.598 Y140.015 E.34997
G1 X98.342 Y139.3 E.16709
G1 X99.23 Y138.215 E.22703
G1 X99.919 Y137.057 E.21819
G1 X100.282 Y136.215 E.14847
G1 X100.767 Y134.374 E.30827
G1 X100.888 Y133.342 E.16825
G1 X100.907 Y131.611 E.28031
G1 X100.71 Y129.65 E.31913
G1 X100.313 Y127.641 E.3316
G1 X82.019 Y70.25 E9.75371
G1 X81.769 Y68.925 E.21834
G1 X81.762 Y67.973 E.15416
G1 X81.881 Y67.097 E.14315
G1 X82.052 Y66.449 E.10852
G1 X82.582 Y65.237 E.2142
G1 X82.86 Y64.817 E.08156
G1 X83.521 Y65.253 F600
G1 F1200
G1 X83.701 Y64.979 E.05308
G1 X84.28 Y64.319 E.14217
G1 X84.982 Y63.726 E.1488
G1 X85.778 Y63.239 E.1511
G1 X86.588 Y62.884 E.1432
G1 X87.506 Y62.608 E.15522
G1 X88.578 Y62.408 E.17658
G1 X95.566 Y61.729 E1.13686
G1 X96.486 Y61.879 E.15094
G1 X96.918 Y62.069 E.07642
G1 X98.116 Y62.95 E.24079
G1 X98.62 Y63.737 E.15133
G1 X99.447 Y66.259 E.42977
G1 X100.083 Y67.603 E.24076
G1 X101.249 Y71.195 E.61151
G1 X101.428 Y72.323 E.18494
G1 X101.642 Y73.038 E.12085
G1 X111.458 Y103.245 E5.14303
G1 X112.242 Y105.015 E.31346
G1 X113.226 Y108.043 E.51555
G1 X113.645 Y109.976 E.32027
G1 X124.892 Y144.592 E5.89361
G1 X134.884 Y141.363 E1.70033
G1 X135.817 Y141.376 E.15109
G1 X136.188 Y141.466 E.06182
G1 X137.487 Y142.118 E.23535
G1 X137.8 Y142.367 E.06476
G1 X138.203 Y142.831 E.09952
G1 X138.469 Y143.306 E.08815
G1 X141.53 Y152.784 E1.61277
G1 X141.547 Y153.266 E.0781
G1 X141.442 Y153.924 E.10789
G1 X141.191 Y154.529 E.10606
G1 X140.193 Y155.862 E.26964
G1 X139.832 Y156.144 E.07418
G1 X139.238 Y156.446 E.1079
G1 X138.602 Y156.599 E.10592
G1 X93.354 Y156.599 E7.32676
G1 X91.404 Y156.799 E.31741
G1 X87.7 Y156.799 E.59977
G1 X86.202 Y156.606 E.24457
G1 X83.112 Y156.598 E.50035
G1 X82.47 Y156.486 E.10553
G1 X81.771 Y156.214 E.12145
G1 X81.204 Y155.851 E.10901
G1 X80.18 Y154.904 E.22585
G1 X79.643 Y154.074 E.16007
G1 X79.388 Y153.319 E.12904
G1 X79.297 Y152.604 E.11671
G1 X79.52 Y151.157 E.23707
G1 X79.704 Y150.474 E.11454
G1 X80.44 Y148.797 E.29655
G1 X80.98 Y147.985 E.1579
G1 X82.076 Y146.804 E.26089
G1 X83.041 Y146.078 E.19554
G1 X83.846 Y145.626 E.14949
G1 X84.723 Y145.259 E.15394
G1 X85.954 Y144.873 E.2089
G1 X86.465 Y144.569 E.09628
G1 X87.109 Y144.329 E.11129
G1 X87.863 Y144.197 E.12395
G1 X89.233 Y144.184 E.22185
G1 X90.172 Y144.01 E.15464
G1 X91.422 Y143.935 E.20277
G1 X93.998 Y143.117 E.43764
G1 X95.2 Y142.57 E.21384
G1 X96.271 Y141.972 E.19862
G1 X98.123 Y140.613 E.37196
G1 X98.913 Y139.854 E.17739
G1 X99.882 Y138.672 E.24749
G1 X100.636 Y137.401 E.2393
G1 X101.028 Y136.493 E.16014
G1 X101.325 Y135.557 E.15901
G1 X101.553 Y134.49 E.17667
G1 X101.682 Y133.401 E.17757
G1 X101.701 Y131.566 E.29715
G1 X101.496 Y129.531 E.33118
G1 X101.082 Y127.437 E.34563
G1 X82.783 Y70.031 E9.75627
G1 X82.563 Y68.879 E.18991
G1 X82.554 Y68.047 E.13473
G1 X82.656 Y67.273 E.12641
G1 X83.015 Y66.148 E.19122
G1 X83.283 Y65.613 E.09689
G1 X83.454 Y65.353 E.05039
G1 X84.095 Y65.845 F600
G1 F1200
G1 X84.817 Y64.906 E.1918
G1 X85.471 Y64.355 E.13847
G1 X86.166 Y63.933 E.13166
G1 X87.714 Y63.376 E.26639
G1 X88.685 Y63.196 E.15991
G1 X95.81 Y62.535 E1.15867
G1 X96.507 Y62.75 E.11811
G1 X97.359 Y63.317 E.16572
G1 X97.75 Y63.781 E.09825
G1 X98.708 Y66.555 E.47521
G1 X99.335 Y67.874 E.23648
G1 X100.483 Y71.409 E.60183
G1 X100.651 Y72.498 E.17842
G1 X100.884 Y73.275 E.13135
G1 X110.706 Y103.505 E5.14687
G1 X111.496 Y105.288 E.31578
G1 X112.465 Y108.272 E.50802
G1 X112.883 Y110.204 E.32008
G1 X124.381 Y145.593 E6.02521
G1 X135.004 Y142.15 E1.80821
G1 X135.945 Y142.224 E.15284
G1 X137.082 Y142.803 E.20661
G1 X137.573 Y143.316 E.11498
G1 X137.725 Y143.588 E.05045
G1 X140.741 Y152.904 E1.58557
G1 X140.665 Y153.754 E.13818
G1 X140.522 Y154.098 E.06032
G1 X139.652 Y155.278 E.23739
G1 X138.919 Y155.717 E.13835
G1 X138.555 Y155.804 E.0606
G1 X93.338 Y155.805 E7.32174
G1 X91.382 Y156.004 E.31836
G1 X87.73 Y156.004 E.59135
G1 X86.221 Y155.811 E.24633
G1 X83.146 Y155.803 E.49792
G1 X82.714 Y155.729 E.07097
G1 X82.157 Y155.517 E.0965
G1 X81.715 Y155.241 E.08438
G1 X80.757 Y154.354 E.21141
G1 X80.38 Y153.773 E.11215
G1 X80.155 Y153.104 E.11429
G1 X80.092 Y152.595 E.08305
G1 X80.457 Y150.73 E.30772
G1 X81.117 Y149.213 E.26788
G1 X81.604 Y148.478 E.14277
G1 X82.616 Y147.388 E.24084
G1 X83.477 Y146.744 E.1741
G1 X84.213 Y146.331 E.13666
G1 X86.321 Y145.582 E.36224
G1 X86.781 Y145.3 E.08737
G1 X87.349 Y145.088 E.09817
G1 X87.96 Y144.986 E.10031
G1 X89.307 Y144.978 E.21812
G1 X90.283 Y144.798 E.1607
G1 X91.11 Y144.785 E.13393
G1 X92.493 Y144.475 E.2295
G1 X94.979 Y143.558 E.42906
G1 X96.119 Y142.981 E.20689
G1 X97.211 Y142.312 E.20737
G1 X98.194 Y141.591 E.1974
G1 X99.094 Y140.8 E.19402
G1 X99.868 Y139.982 E.18235
G1 X100.532 Y139.128 E.17516
G1 X101.346 Y137.759 E.2579
G1 X101.772 Y136.771 E.17422
G1 X102.095 Y135.756 E.17247
G1 X102.337 Y134.624 E.18744
G1 X102.476 Y133.446 E.19207
G1 X102.495 Y131.522 E.31156
G1 X102.282 Y129.413 E.34324
G1 X101.852 Y127.233 E.3598
G1 X83.547 Y69.811 E9.75904
G1 X83.358 Y68.833 E.16129
G1 X83.432 Y67.448 E.22459
G1 X83.751 Y66.449 E.16981
G1 X83.982 Y65.992 E.08292
G1 X84.021 Y65.94 E.01053
G1 X84.68 Y66.373 F600
G1 F1200
G1 X85.358 Y65.489 E.18039
G1 X85.914 Y65.015 E.11831
G1 X86.513 Y64.649 E.11367
G1 X87.922 Y64.143 E.24242
G1 X88.793 Y63.984 E.14337
G1 X95.643 Y63.318 E1.11441
G1 X96.099 Y63.433 E.07615
G1 X96.846 Y63.924 E.14475
G1 X97.099 Y64.237 E.06517
G1 X97.958 Y66.822 E.44108
G1 X98.586 Y68.139 E.23626
G1 X99.716 Y71.622 E.59292
G1 X99.873 Y72.671 E.17175
G1 X100.125 Y73.512 E.14216
G1 X109.955 Y103.765 E5.15081
G1 X110.237 Y104.533 E.13248
G1 X110.749 Y105.562 E.18611
G1 X111.703 Y108.5 E.50019
G1 X112.122 Y110.431 E.31995
G1 X123.871 Y146.595 E6.15712
G1 X135.141 Y142.933 E1.91881
G1 X135.687 Y142.976 E.08868
G1 X136.625 Y143.454 E.17047
G1 X136.981 Y143.871 E.08878
G1 X139.954 Y153.019 E1.55755
G1 X139.851 Y153.67 E.10672
G1 X139.095 Y154.71 E.20819
G1 X138.6 Y154.987 E.09185
G1 X93.321 Y155.01 E7.33178
G1 X91.359 Y155.209 E.31933
G1 X87.759 Y155.209 E.58293
G1 X86.251 Y155.016 E.24617
G1 X82.959 Y154.972 E.5331
G1 X82.228 Y154.632 E.13054
G1 X81.333 Y153.805 E.19732
G1 X81.118 Y153.472 E.06418
G1 X80.891 Y152.595 E.14669
G1 X81.082 Y151.458 E.18669
G1 X81.421 Y150.399 E.18005
G1 X81.796 Y149.628 E.13883
G1 X82.23 Y148.968 E.12791
G1 X83.13 Y147.994 E.21474
G1 X83.911 Y147.41 E.15791
G1 X84.58 Y147.037 E.12403
G1 X86.682 Y146.294 E.361
G1 X87.101 Y146.029 E.08028
G1 X87.59 Y145.847 E.08449
G1 X89.383 Y145.772 E.29058
G1 X90.391 Y145.586 E.16598
G1 X91.443 Y145.554 E.17042
G1 X92.716 Y145.238 E.21239
G1 X93.884 Y144.862 E.19869
G1 X95.309 Y144.282 E.24912
G1 X96.507 Y143.675 E.21746
G1 X97.654 Y142.972 E.21784
G1 X98.691 Y142.211 E.20828
G1 X99.645 Y141.373 E.20561
G1 X100.471 Y140.501 E.19449
G1 X101.183 Y139.585 E.18786
G1 X102.058 Y138.112 E.27742
G1 X102.517 Y137.05 E.18734
G1 X102.863 Y135.96 E.18518
G1 X103.121 Y134.754 E.1997
G1 X103.268 Y133.508 E.20316
G1 X103.289 Y131.478 E.32872
G1 X103.068 Y129.295 E.35529
G1 X102.621 Y127.03 E.37383
G1 X84.311 Y69.591 E9.76191
G1 X84.152 Y68.787 E.13271
G1 X84.208 Y67.621 E.18902
G1 X84.637 Y66.485 E.19663
G1 X85.374 Y66.851 F600
G1 F1200
G1 X85.564 Y66.469 E.06908
G1 X86.36 Y65.673 E.18228
G1 X87.347 Y65.146 E.18117
G1 X88.129 Y64.911 E.13222
G1 X90.044 Y64.632 E.31336
G1 X95.746 Y64.152 E.92656
G1 X96.406 Y64.64 E.13291
G1 X97.212 Y67.098 E.41886
G1 X97.838 Y68.409 E.23524
G1 X98.947 Y71.827 E.58186
G1 X99.102 Y72.867 E.17026
G1 X99.366 Y73.749 E.14908
G1 X109.204 Y104.025 E5.15475
G1 X109.507 Y104.85 E.14231
G1 X110.002 Y105.837 E.17879
G1 X110.942 Y108.728 E.49225
G1 X111.365 Y110.675 E.32262
G1 X123.361 Y147.596 E6.28606
G1 X135.274 Y143.725 E2.02829
G1 X135.432 Y143.738 E.02567
G1 X136.159 Y144.108 E.13209
G1 X136.262 Y144.229 E.02573
G1 X139.154 Y153.13 E1.51546
G1 X139.124 Y153.318 E.03083
G1 X138.536 Y154.128 E.16207
G1 X138.366 Y154.214 E.03085
G1 X93.304 Y154.215 E7.29664
G1 X91.335 Y154.414 E.32045
G1 X87.789 Y154.414 E.57418
G1 X86.281 Y154.221 E.24617
G1 X83.151 Y154.2 E.50684
G1 X82.74 Y154.024 E.0724
G1 X81.855 Y153.171 E.19903
G1 X81.686 Y152.594 E.09736
G1 X81.86 Y151.617 E.16069
G1 X82.147 Y150.724 E.15188
G1 X82.476 Y150.039 E.12305
G1 X83.255 Y148.979 E.21301
G1 X84.344 Y148.076 E.22907
G1 X84.907 Y147.761 E.10446
G1 X87.053 Y147.003 E.36853
G1 X87.425 Y146.756 E.0723
G1 X87.828 Y146.606 E.06963
G1 X89.458 Y146.567 E.26401
G1 X90.498 Y146.375 E.17125
G1 X91.557 Y146.342 E.17156
G1 X94.147 Y145.612 E.43572
G1 X95.64 Y145.005 E.26097
G1 X96.894 Y144.369 E.22768
G1 X98.097 Y143.632 E.22844
G1 X99.189 Y142.831 E.21929
G1 X100.197 Y141.946 E.2172
G1 X101.074 Y141.019 E.20663
G1 X101.834 Y140.041 E.20056
G1 X102.481 Y139.014 E.19655
G1 X103.262 Y137.328 E.30087
G1 X103.632 Y136.164 E.19777
G1 X103.906 Y134.884 E.21196
G1 X104.061 Y133.566 E.21489
G1 X104.083 Y131.444 E.34362
G1 X103.854 Y129.176 E.36911
G1 X103.39 Y126.826 E.38787
G1 X85.075 Y69.369 E9.76493
G1 X84.946 Y68.739 E.10413
G1 X84.939 Y68.109 E.10202
G1 X85.06 Y67.485 E.10292
G1 X85.321 Y66.958 E.09523
G1 X86.021 Y67.31 F600
G1 F1200
G1 X86.214 Y66.927 E.06945
G1 X86.853 Y66.298 E.14519
G1 X87.644 Y65.884 E.14456
G1 X89.007 Y65.559 E.22689
G1 X95.482 Y64.93 E1.0534
G1 X95.715 Y65.083 E.04514
G1 X96.467 Y67.374 E.39044
G1 X97.09 Y68.681 E.23445
G1 X97.566 Y70.133 E.24743
G1 X98.178 Y72.031 E.32291
G1 X98.329 Y73.056 E.16776
G1 X98.607 Y73.986 E.15717
G1 X108.452 Y104.285 E5.15865
G1 X108.777 Y105.169 E.15251
G1 X109.256 Y106.113 E.17141
G1 X110.18 Y108.955 E.4839
G1 X110.607 Y110.913 E.3245
G1 X122.85 Y148.598 E6.41607
G1 X135.288 Y144.557 E2.11765
G1 X135.581 Y144.706 E.05323
G1 X138.306 Y153.092 E1.42779
G1 X138.068 Y153.42 E.06562
G1 X93.304 Y153.42 E7.24839
G1 X92.356 Y153.462 E.15366
G1 X91.31 Y153.62 E.17129
G1 X87.82 Y153.62 E.56512
G1 X86.311 Y153.427 E.24633
G1 X83.337 Y153.419 E.48157
G1 X82.56 Y152.774 E.16352
G1 X82.495 Y152.583 E.03267
G1 X82.633 Y151.806 E.12778
G1 X82.873 Y151.048 E.12874
G1 X83.181 Y150.408 E.11501
G1 X83.481 Y149.95 E.08865
G1 X84.182 Y149.187 E.16778
G1 X85.236 Y148.485 E.20506
G1 X87.464 Y147.723 E.38128
G1 X87.754 Y147.481 E.06116
G1 X88.01 Y147.381 E.0445
G1 X89.533 Y147.361 E.24663
G1 X90.603 Y147.164 E.17617
G1 X91.67 Y147.13 E.17286
G1 X93.163 Y146.764 E.24891
G1 X94.411 Y146.362 E.21231
G1 X95.97 Y145.728 E.27252
G1 X97.282 Y145.063 E.23818
G1 X98.54 Y144.293 E.23883
G1 X99.686 Y143.451 E.23027
G1 X100.748 Y142.519 E.22879
G1 X101.677 Y141.537 E.21889
G1 X102.485 Y140.498 E.21313
G1 X103.174 Y139.403 E.20949
G1 X104.007 Y137.606 E.32072
G1 X104.4 Y136.368 E.21032
G1 X104.69 Y135.013 E.22438
G1 X104.854 Y133.624 E.22648
G1 X104.877 Y131.406 E.35917
G1 X104.64 Y129.058 E.38213
G1 X104.16 Y126.623 E.40187
G1 X85.74 Y68.683 E9.84461
G1 X85.731 Y68.188 E.08017
G1 X85.824 Y67.703 E.07996
G1 X85.968 Y67.417 E.05185
G1 X111.136 Y135.221 F600
;TYPE:Perimeter
;WIDTH:0.9
G1 F1200
G1 X111.752 Y135.187 E.0999
G1 X115.593 Y147.008 E2.01262
G1 X105.325 Y147.009 E1.66264
G1 X105.981 Y146.337 E.15206
G1 X106.633 Y145.604 E.15885
G1 X107.246 Y144.844 E.1581
G1 X107.818 Y144.057 E.15754
G1 X108.349 Y143.244 E.15724
G1 X108.841 Y142.402 E.15791
G1 X109.306 Y141.501 E.16418
G1 X109.706 Y140.619 E.15682
G1 X110.064 Y139.707 E.15865
G1 X110.372 Y138.794 E.15602
G1 X110.632 Y137.875 E.15465
G1 X110.855 Y136.916 E.15943
G1 X111.037 Y135.919 E.16411
G1 X111.119 Y135.34 E.09469
G1 X116.687 Y147.803 F600
G1 F1200
G1 X103.235 Y147.803 E2.17821
G1 X104.015 Y147.145 E.16524
G1 X104.73 Y146.48 E.15811
G1 X105.391 Y145.805 E.15298
G1 X106.017 Y145.101 E.15254
G1 X106.606 Y144.371 E.15188
G1 X107.156 Y143.617 E.15112
G1 X107.666 Y142.838 E.15077
G1 X108.138 Y142.031 E.15138
G1 X108.585 Y141.168 E.15737
G1 X108.968 Y140.323 E.15022
G1 X109.313 Y139.448 E.1523
G1 X109.608 Y138.571 E.14983
G1 X109.859 Y137.69 E.14833
G1 X110.074 Y136.768 E.1533
G1 X110.25 Y135.808 E.15804
G1 X110.35 Y135.101 E.11562
G1 X110.424 Y134.384 E.11672
G1 X110.891 Y134.422 E.07587
G1 X111.618 Y134.402 E.11776
G1 X112.303 Y134.31 E.11191
G1 X116.649 Y147.689 E2.27782
G1 X117.781 Y148.598 F600
G1 F1200
G1 X100.758 Y148.598 E2.75644
G1 X101.303 Y148.244 E.10523
G1 X102.053 Y147.713 E.1488
G1 X102.778 Y147.151 E.14854
G1 X103.477 Y146.559 E.14832
G1 X104.165 Y145.92 E.15204
