; generated by PrusaSlicer 2.7.1+linux-x64-GTK3 on 2025-01-06 at 00:05:38 UTC

; 

; external perimeters extrusion width = 0.90mm
; perimeters extrusion width = 0.90mm
; infill extrusion width = 0.90mm
; solid infill extrusion width = 0.90mm
; top infill extrusion width = 0.80mm

;TYPE:Custom
G90 ; use absolute coordinates
M83 ; extruder relative mode
M104 S240 ; set extruder temp
M140 S80 ; set bed temp
M190 S80 ; wait for bed temp
M109 S240 ; wait for extruder temp
G28 ; home all
G1 Z2 F240
G1 X10 Y10 F3000
G1 Z0.28 F240
G92 E0.0
G1 Y40 E15.0 F1500.0 ; intro line
G1 X10.3 F5000
G1 Y10 E15.0 F1200.0 ; intro line
G92 E0.0
G21 ; set units to millimeters
G90 ; use absolute coordinates
M83 ; use relative distances for extrusion
; Filament gcode
M107
;LAYER_CHANGE
;Z:0.49
;HEIGHT:0.49
;BEFORE_LAYER_CHANGE
G92 E0
;0.49


G1 Z.49 F600
;AFTER_LAYER_CHANGE
;0.49
G1 X85.321 Y62.462
;TYPE:Skirt/Brim
;WIDTH:0.9
G1 F1200
G1 X87.693 Y60.2 E.53073
G1 X88.557 Y59.677 E.16354
G1 X90.273 Y59.024 E.2973
G1 X91.157 Y58.844 E.14608
G1 X96.265 Y58.644 E.82774
G1 X100.167 Y58.642 E.63183
G1 X121.221 Y58.842 E3.40931
G1 X123.17 Y59.66 E.34226
G1 X126.156 Y62.648 E.68401
G1 X133.677 Y70.619 E1.77455
G1 X136.9 Y75.016 E.88277
G1 X137.423 Y76.403 E.24003
G1 X137.302 Y77.509 E.18016
G1 X125.742 Y113.734 E6.15715
G1 X113.23 Y152.241 E6.55612
G1 X110.992 Y158.477 E1.07282
G1 X109.901 Y159.864 E.28574
G1 X106.977 Y161.792 E.56713
G1 X105.186 Y162.242 E.29902
G1 X98.183 Y161.599 E1.13873
G1 X96.197 Y161.339 E.32433
G1 X94.065 Y160.791 E.35644
G1 X93.046 Y160.379 E.17798
G1 X92.145 Y159.909 E.16455
G1 X91.136 Y159.244 E.19567
G1 X90.111 Y158.363 E.21885
G1 X89.185 Y157.328 E.22488
G1 X88.583 Y156.46 E.17105
G1 X87.975 Y155.326 E.20835
G1 X87.579 Y154.309 E.17672
G1 X87.244 Y152.974 E.22287
G1 X87.108 Y151.792 E.19266
G1 X83.77 Y66.771 E13.77759
G1 X83.911 Y65.78 E.16208
G1 X84.651 Y63.55 E.38045
G1 X85.258 Y62.564 E.18749
G1 X88.231 Y64.398 F600
G1 F1200
G1 X88.285 Y64.31 E.01672
G1 X89.487 Y63.181 E.26703
G1 X90.027 Y62.817 E.10545
G1 X90.867 Y62.456 E.14805
G1 X91.84 Y62.266 E.16053
G1 X94.906 Y62.259 E.49646
G1 X96.413 Y62.065 E.24603
G1 X100.152 Y62.067 E.60544
G1 X102.068 Y62.265 E.3119
G1 X119.769 Y62.265 E2.86623
G1 X120.46 Y62.396 E.11388
G1 X121.113 Y62.659 E.11399
G1 X121.765 Y63.096 E.1271
G1 X122.782 Y64.138 E.23577
G1 X123.104 Y64.653 E.09835
G1 X123.359 Y65.28 E.1096
G1 X123.477 Y65.819 E.08934
G1 X123.493 Y73.165 E1.1895
G1 X129.874 Y73.165 E1.03324
G1 X130.679 Y73.341 E.13343
G1 X131.529 Y73.771 E.15425
G1 X132.178 Y74.339 E.13965
G1 X133.236 Y75.853 E.29908
G1 X133.452 Y76.467 E.10539
G1 X133.57 Y77.211 E.12198
G1 X133.497 Y78.142 E.15121
G1 X123.045 Y110.311 E5.477
G1 X122.47 Y112.727 E.40214
G1 X121.932 Y114.36 E.2784
G1 X121.162 Y116.105 E.30884
G1 X110.89 Y147.718 E5.38237
G1 X110.358 Y149.987 E.37737
G1 X109.96 Y151.226 E.21072
G1 X109.151 Y153.086 E.32843
G1 X108.133 Y156.199 E.53034
G1 X107.822 Y156.79 E.10814
G1 X107.183 Y157.533 E.15868
G1 X106.099 Y158.27 E.21225
G1 X105.482 Y158.542 E.10918
G1 X104.519 Y158.724 E.15869
G1 X96.866 Y157.98 E1.24505
G1 X95.414 Y157.635 E.24166
G1 X93.855 Y156.945 E.27606
G1 X92.87 Y156.25 E.1952
G1 X92.08 Y155.458 E.18114
G1 X91.465 Y154.61 E.16962
G1 X91.069 Y153.856 E.13791
G1 X90.777 Y153.059 E.13744
G1 X90.606 Y152.316 E.12346
G1 X90.522 Y151.431 E.14395
G1 X90.574 Y150.427 E.16279
G1 X90.799 Y149.383 E.17293
G1 X109.09 Y91.992 E9.75357
G1 X109.576 Y89.3 E.44295
G1 X109.687 Y86.871 E.39373
G1 X109.619 Y85.89 E.15923
G1 X109.409 Y84.648 E.20396
G1 X108.913 Y83.092 E.26445
G1 X107.993 Y81.437 E.30661
G1 X107.269 Y80.529 E.18804
G1 X106.647 Y79.899 E.14335
G1 X105.222 Y78.756 E.2958
G1 X104.396 Y78.23 E.15857
G1 X103.087 Y77.544 E.2393
G1 X101.936 Y77.072 E.20144
G1 X99.871 Y76.472 E.3482
G1 X99.071 Y76.459 E.12956
G1 X97.328 Y76.25 E.28426
G1 X95.225 Y75.802 E.34817
G1 X92.852 Y75.006 E.40529
G1 X91.909 Y74.559 E.16898
G1 X90.944 Y73.949 E.18486
G1 X90.15 Y73.296 E.16646
G1 X89.421 Y72.534 E.17076
G1 X88.695 Y71.546 E.19853
G1 X88.182 Y70.612 E.17255
G1 X87.799 Y69.678 E.16346
G1 X87.506 Y68.632 E.17589
G1 X87.294 Y67.424 E.19859
G1 X87.309 Y66.555 E.14073
G1 X87.667 Y65.311 E.20961
G1 X88.168 Y64.5 E.15436
G1 X88.834 Y64.911 F600
G1 F1200
G1 X88.877 Y64.841 E.0133
G1 X89.966 Y63.816 E.24216
G1 X90.378 Y63.531 E.08112
G1 X91.141 Y63.204 E.13442
G1 X91.879 Y63.061 E.12172
G1 X94.959 Y63.053 E.49873
G1 X96.439 Y62.86 E.24168
G1 X100.135 Y62.862 E.59847
G1 X102.05 Y63.059 E.31172
G1 X119.728 Y63.06 E2.8625
G1 X120.263 Y63.166 E.08831
G1 X120.771 Y63.377 E.08907
G1 X121.225 Y63.681 E.08847
G1 X122.182 Y64.661 E.2218
G1 X122.382 Y64.986 E.06179
G1 X122.683 Y65.87 E.15121
G1 X122.7 Y73.96 E1.30997
G1 X129.832 Y73.96 E1.15485
G1 X130.375 Y74.077 E.08994
G1 X131.055 Y74.411 E.12267
G1 X131.558 Y74.84 E.10705
G1 X132.517 Y76.201 E.26959
G1 X132.673 Y76.631 E.07407
G1 X132.778 Y77.289 E.10789
G1 X132.726 Y77.941 E.10591
G1 X122.286 Y110.073 E5.4707
G1 X121.71 Y112.493 E.4028
G1 X121.185 Y114.086 E.27159
G1 X120.411 Y115.846 E.31133
G1 X110.131 Y147.482 E5.38631
G1 X109.59 Y149.782 E.38259
G1 X109.211 Y150.959 E.20022
G1 X108.397 Y152.835 E.33113
G1 X107.388 Y155.92 E.52558
G1 X107.171 Y156.334 E.07569
G1 X106.651 Y156.94 E.1293
G1 X105.685 Y157.591 E.18862
G1 X105.256 Y157.779 E.07584
G1 X104.473 Y157.929 E.12909
G1 X97.688 Y157.298 E1.1034
G1 X96.306 Y157.058 E.22713
G1 X95.02 Y156.641 E.21891
G1 X94.238 Y156.248 E.14172
G1 X93.406 Y155.662 E.16478
G1 X92.702 Y154.963 E.16064
G1 X92.153 Y154.211 E.15076
G1 X91.545 Y152.852 E.24107
G1 X91.316 Y151.386 E.24026
G1 X91.365 Y150.504 E.14304
G1 X91.562 Y149.607 E.14871
G1 X109.86 Y92.194 E9.75731
G1 X110.185 Y90.633 E.25818
G1 X110.454 Y88.44 E.35776
G1 X110.481 Y86.845 E.25831
G1 X110.359 Y85.403 E.23433
G1 X110.185 Y84.47 E.15368
G1 X109.65 Y82.795 E.28472
G1 X109.107 Y81.705 E.19719
G1 X108.105 Y80.277 E.28247
G1 X107.191 Y79.318 E.21452
G1 X106.468 Y78.692 E.15486
G1 X104.801 Y77.545 E.32765
G1 X103.418 Y76.821 E.25277
G1 X102.201 Y76.322 E.21298
G1 X99.971 Y75.678 E.37585
G1 X99.17 Y75.67 E.12971
G1 X97.458 Y75.466 E.27918
G1 X95.457 Y75.041 E.33124
G1 X93.138 Y74.264 E.39602
G1 X92.313 Y73.874 E.14776
G1 X91.391 Y73.291 E.17664
G1 X90.675 Y72.699 E.15043
G1 X90.046 Y72.042 E.14728
G1 X89.351 Y71.096 E.19008
G1 X88.908 Y70.288 E.14921
G1 X88.558 Y69.439 E.1487
G1 X88.285 Y68.475 E.16223
G1 X88.084 Y67.325 E.18904
G1 X88.134 Y66.452 E.14159
G1 X88.41 Y65.597 E.14548
G1 X88.771 Y65.013 E.11117
G1 X89.412 Y65.438 F600
G1 F1200
G1 X90.789 Y64.212 E.29854
G1 X91.408 Y63.953 E.10865
G1 X91.918 Y63.855 E.08409
G1 X94.976 Y63.848 E.49517
G1 X96.47 Y63.655 E.24393
G1 X100.118 Y63.656 E.5907
G1 X102.032 Y63.854 E.31158
G1 X119.689 Y63.855 E2.8591
G1 X120.431 Y64.096 E.12633
G1 X121.535 Y65.125 E.24438
G1 X121.897 Y65.999 E.15318
G1 X121.905 Y74.755 E1.41781
G1 X129.793 Y74.755 E1.27726
G1 X130.07 Y74.813 E.04583
G1 X130.66 Y75.103 E.10645
G1 X130.941 Y75.343 E.05984
G1 X131.795 Y76.535 E.23744
G1 X131.985 Y77.368 E.13835
G1 X131.956 Y77.74 E.06042
G1 X121.527 Y109.836 E5.4646
G1 X120.95 Y112.26 E.40347
G1 X120.439 Y113.81 E.26427
G1 X119.659 Y115.587 E.31424
G1 X109.372 Y147.246 E5.3902
G1 X108.822 Y149.576 E.38765
G1 X108.463 Y150.691 E.18967
G1 X107.648 Y152.568 E.33135
G1 X106.519 Y155.878 E.56629
G1 X106.126 Y156.343 E.09858
G1 X105.275 Y156.909 E.16549
G1 X104.435 Y157.135 E.14085
G1 X97.78 Y156.508 E1.08238
G1 X96.477 Y156.281 E.21417
G1 X95.356 Y155.92 E.1907
G1 X94.621 Y155.551 E.13317
G1 X93.939 Y155.072 E.13495
G1 X93.322 Y154.465 E.14015
G1 X92.842 Y153.812 E.13123
G1 X92.312 Y152.643 E.20784
G1 X92.11 Y151.343 E.21303
G1 X92.156 Y150.585 E.12296
G1 X92.324 Y149.832 E.12493
G1 X110.627 Y92.406 E9.75956
G1 X110.969 Y90.762 E.2719
G1 X111.247 Y88.497 E.36951
G1 X111.276 Y86.818 E.27191
G1 X111.144 Y85.281 E.24979
G1 X110.96 Y84.293 E.16273
G1 X110.388 Y82.497 E.30521
G1 X109.796 Y81.307 E.21522
G1 X108.72 Y79.773 E.30341
G1 X107.735 Y78.737 E.23147
G1 X106.966 Y78.072 E.16462
G1 X105.205 Y76.86 E.34616
G1 X103.748 Y76.098 E.26624
G1 X102.466 Y75.573 E.22432
G1 X100.134 Y74.899 E.39306
G1 X99.206 Y74.875 E.15032
G1 X97.551 Y74.676 E.26992
G1 X95.625 Y74.263 E.31896
G1 X93.426 Y73.523 E.37569
G1 X92.676 Y73.167 E.13443
G1 X91.876 Y72.661 E.15328
G1 X91.232 Y72.132 E.13495
G1 X90.638 Y71.511 E.13915
G1 X90.036 Y70.691 E.16472
G1 X89.616 Y69.926 E.14131
G1 X89.064 Y68.318 E.27529
G1 X88.874 Y67.23 E.17884
G1 X88.899 Y66.671 E.09061
G1 X89.153 Y65.883 E.13406
G1 X89.352 Y65.542 E.06393
G1 X90.047 Y65.922 F600
G1 F1200
G1 X91.004 Y65.022 E.21272
G1 X91.668 Y64.705 E.11914
G1 X95.005 Y64.643 E.54044
G1 X96.499 Y64.45 E.24393
G1 X100.1 Y64.451 E.58309
G1 X102.014 Y64.649 E.31158
G1 X119.726 Y64.665 E2.86801
G1 X120.156 Y64.859 E.07639
G1 X120.9 Y65.604 E.17049
G1 X121.11 Y66.11 E.08871
G1 X121.11 Y75.55 E1.52857
G1 X129.74 Y75.55 E1.39741
G1 X130.327 Y75.849 E.10667
G1 X131.082 Y76.889 E.2081
G1 X131.193 Y77.446 E.09197
G1 X120.769 Y109.599 E5.47313
G1 X120.515 Y110.444 E.14287
G1 X120.19 Y112.026 E.26151
G1 X119.693 Y113.534 E.2571
G1 X119.19 Y114.554 E.18415
G1 X118.907 Y115.328 E.13344
G1 X108.613 Y147.011 E5.39425
G1 X108.054 Y149.369 E.3924
G1 X107.714 Y150.423 E.17933
G1 X106.9 Y152.3 E.33128
G1 X105.867 Y155.422 E.53248
G1 X105.613 Y155.735 E.06527
G1 X104.867 Y156.226 E.14461
G1 X104.479 Y156.335 E.06526
G1 X97.887 Y155.721 E1.07203
G1 X96.672 Y155.511 E.19966
G1 X95.692 Y155.199 E.16653
G1 X95.006 Y154.854 E.12434
G1 X94.428 Y154.444 E.11475
G1 X93.907 Y153.926 E.11896
G1 X93.503 Y153.37 E.11129
G1 X93.236 Y152.86 E.09321
G1 X92.972 Y152.002 E.14536
G1 X92.905 Y151.301 E.11403
G1 X92.947 Y150.672 E.10208
G1 X93.087 Y150.058 E.10197
G1 X111.395 Y92.614 E9.76258
G1 X111.753 Y90.895 E.28432
G1 X112.04 Y88.554 E.3819
G1 X112.071 Y86.791 E.28552
G1 X111.993 Y85.658 E.18389
G1 X111.736 Y84.115 E.25329
G1 X111.471 Y83.145 E.16282
G1 X111.125 Y82.2 E.16295
G1 X110.484 Y80.908 E.23354
G1 X109.947 Y80.067 E.16157
G1 X109.017 Y78.905 E.241
G1 X107.464 Y77.452 E.34437
G1 X106.576 Y76.792 E.17915
G1 X105.609 Y76.175 E.18574
G1 X104.078 Y75.375 E.27971
G1 X102.731 Y74.823 E.23572
G1 X101.407 Y74.396 E.22526
G1 X100.277 Y74.116 E.18851
G1 X99.305 Y74.086 E.15747
G1 X97.095 Y73.777 E.36133
G1 X95.794 Y73.486 E.21587
G1 X93.715 Y72.782 E.35542
G1 X92.362 Y72.031 E.25057
G1 X91.756 Y71.533 E.12701
G1 X91.232 Y70.982 E.12312
G1 X90.72 Y70.286 E.13991
G1 X90.047 Y68.881 E.25226
G1 X89.665 Y67.14 E.28862
G1 X89.679 Y66.84 E.04863
G1 X90.003 Y66.034 E.14066
G1 X90.627 Y66.486 F600
G1 F1200
G1 X91.512 Y65.635 E.19881
G1 X91.922 Y65.459 E.07225
G1 X95.034 Y65.438 E.50392
G1 X96.529 Y65.244 E.24411
G1 X100.081 Y65.246 E.57516
G1 X102.014 Y65.444 E.31464
G1 X119.531 Y65.444 E2.83643
G1 X119.677 Y65.505 E.02562
G1 X120.255 Y66.082 E.13225
G1 X120.315 Y66.228 E.02556
G1 X120.315 Y76.344 E1.63803
G1 X129.597 Y76.344 E1.50298
G1 X129.767 Y76.431 E.03092
G1 X130.356 Y77.241 E.16217
G1 X130.385 Y77.429 E.0308
G1 X120.01 Y109.362 E5.4368
G1 X119.74 Y110.26 E.15184
G1 X119.43 Y111.793 E.25325
G1 X118.948 Y113.258 E.24973
G1 X118.458 Y114.239 E.17756
G1 X118.156 Y115.069 E.14302
G1 X107.854 Y146.775 E5.39819
G1 X107.287 Y149.161 E.39711
G1 X106.96 Y150.171 E.1719
G1 X106.151 Y152.033 E.32873
G1 X105.174 Y155.02 E.50888
G1 X104.384 Y155.539 E.15306
G1 X97.995 Y154.933 E1.03918
G1 X96.866 Y154.74 E.18546
G1 X96.022 Y154.476 E.14319
G1 X94.959 Y153.852 E.19959
G1 X94.53 Y153.43 E.09744
G1 X94.164 Y152.929 E.10047
G1 X93.76 Y151.893 E.18006
G1 X93.737 Y150.765 E.18269
G1 X112.163 Y92.822 E9.84537
G1 X112.734 Y89.679 E.51726
G1 X112.864 Y87.998 E.27301
G1 X112.866 Y86.765 E.19965
G1 X112.784 Y85.581 E.19218
G1 X112.511 Y83.938 E.26969
G1 X112.229 Y82.904 E.17355
G1 X111.656 Y81.435 E.25532
G1 X110.599 Y79.611 E.34136
G1 X109.951 Y78.766 E.17243
G1 X108.822 Y77.576 E.26561
G1 X107.962 Y76.831 E.18424
G1 X106.013 Y75.49 E.38308
G1 X104.409 Y74.652 E.29304
G1 X102.996 Y74.073 E.24726
G1 X100.42 Y73.332 E.43403
G1 X99.339 Y73.291 E.17517
G1 X98.482 Y73.135 E.14105
G1 X97.775 Y73.102 E.11461
G1 X95.966 Y72.708 E.29979
G1 X94.006 Y72.042 E.33519
G1 X92.847 Y71.401 E.21446
G1 X91.828 Y70.456 E.22503
G1 X91.378 Y69.839 E.12366
G1 X90.805 Y68.642 E.21489
G1 X90.458 Y67.06 E.26225
G1 X90.593 Y66.601 E.07747
G1 X91.332 Y66.884 F600
G1 F1200
G1 X92.109 Y66.239 E.16352
G1 X95.063 Y66.233 E.47833
G1 X96.561 Y66.039 E.24459
G1 X100.062 Y66.041 E.5669
G1 X102.008 Y66.239 E.31673
G1 X119.288 Y66.239 E2.79806
G1 X119.52 Y66.472 E.05324
G1 X119.52 Y77.139 E1.72725
G1 X129.299 Y77.139 E1.58346
G1 X129.537 Y77.467 E.06562
G1 X119.251 Y109.125 E5.39
G1 X118.971 Y110.059 E.15789
G1 X118.67 Y111.56 E.24789
G1 X118.202 Y112.98 E.2421
G1 X117.728 Y113.923 E.1709
G1 X117.404 Y114.81 E.15291
G1 X107.095 Y146.539 E5.40208
G1 X106.82 Y147.467 E.15672
G1 X106.52 Y148.951 E.24516
G1 X106.206 Y149.92 E.16494
G1 X105.402 Y151.766 E.32603
G1 X104.483 Y154.576 E.47872
G1 X104.25 Y154.729 E.04514
G1 X98.102 Y154.146 E.99998
G1 X97.059 Y153.968 E.17133
G1 X96.352 Y153.752 E.1197
G1 X95.446 Y153.224 E.1698
G1 X94.854 Y152.532 E.14746
G1 X94.539 Y151.733 E.13907
G1 X94.526 Y150.866 E.1404
G1 X112.931 Y93.031 E9.82767
G1 X113.321 Y91.159 E.30963
G1 X113.626 Y88.668 E.40637
G1 X113.661 Y86.738 E.31257
G1 X113.576 Y85.503 E.20045
G1 X113.286 Y83.76 E.28611
G1 X112.987 Y82.662 E.18427
G1 X112.6 Y81.605 E.18227
G1 X111.861 Y80.11 E.27004
G1 X111.251 Y79.154 E.18363
G1 X110.183 Y77.823 E.27633
G1 X109.366 Y76.996 E.18824
G1 X107.479 Y75.482 E.39174
G1 X106.418 Y74.805 E.2038
G1 X104.739 Y73.929 E.30665
G1 X103.261 Y73.323 E.25866
G1 X101.843 Y72.867 E.24119
G1 X100.563 Y72.549 E.21356
G1 X99.44 Y72.501 E.18201
G1 X97.464 Y72.23 E.32296
G1 X97.047 Y72.083 E.0716
G1 X96.14 Y71.932 E.14889
G1 X94.331 Y71.317 E.30939
G1 X93.295 Y70.744 E.1917
G1 X92.454 Y69.965 E.18562
G1 X92.036 Y69.393 E.11472
G1 X91.551 Y68.365 E.18405
G1 X91.267 Y67.075 E.21388
G1 X91.293 Y66.998 E.01316
G1 X119.777 Y83.557 F600
;TYPE:Perimeter
;WIDTH:0.912259
G1 F1200
G1 X120.811 Y83.557 E.17001
G1 X120.35 Y84.975 E.24516
G1 X119.97 Y84.96 E.06253
G1 X119.866 Y84.095 E.14325
G1 X119.796 Y83.675 E.07001
G1 X118.83 Y82.749 F600
;WIDTH:0.9
G1 F1200
G1 X121.913 Y82.756 E.49921
G1 X120.912 Y85.839 E.52487
G1 X120.496 Y85.787 E.06788
G1 X119.893 Y85.761 E.09773
G1 X119.227 Y85.814 E.10818
G1 X119.15 Y84.812 E.16273
G1 X119.025 Y83.896 E.1497
G1 X118.83 Y82.848 E.17261
G1 X118.779 Y81.944 F600
G1 F1200
G1 X119.07 Y81.961 E.0472
G1 X123.007 Y81.961 E.6375
G1 X121.451 Y86.751 E.81552
G1 X120.724 Y86.609 E.11994
G1 X120.016 Y86.555 E.11498
G1 X119.42 Y86.59 E.09667
G1 X118.484 Y86.731 E.15327
G1 X118.361 Y84.911 E.29537
G1 X118.244 Y84.042 E.14198
G1 X117.968 Y82.607 E.23662
G1 X117.745 Y81.749 E.14355
G1 X118.017 Y81.832 E.04605
G1 X118.562 Y81.931 E.08969
G1 X118.659 Y81.937 E.01574
G1 X118.837 Y81.153 F600
G1 F1200
G1 X119.07 Y81.166 E.03779
G1 X124.101 Y81.166 E.81464
G1 X121.954 Y87.776 E1.12537
G1 X121.275 Y87.523 E.11733
G1 X120.643 Y87.4 E.10426
G1 X120.094 Y87.352 E.08924
G1 X119.521 Y87.379 E.09289
G1 X118.662 Y87.506 E.14061
G1 X117.686 Y87.877 E.16907
G1 X117.679 Y86.477 E.2267
G1 X117.573 Y85.011 E.238
G1 X117.462 Y84.187 E.13463
G1 X117.197 Y82.8 E.22865
G1 X117.012 Y82.074 E.12131
G1 X116.772 Y81.288 E.13307
G1 X116.376 Y80.208 E.18626
;WIDTH:0.898892
G1 X116.101 Y79.575 E.1116
G1 X116.532 Y80.109 E.11096
;WIDTH:0.9
G1 X117.392 Y80.748 E.17349
G1 X118.063 Y81.021 E.1173
G1 X118.655 Y81.142 E.09784
G1 X118.717 Y81.146 E.01006
G1 X116.595 Y97.842 F600
;WIDTH:1.16173
G1 F1200
G1 X117.042 Y98.097 E.11077
G1 X117.549 Y98.337 E.12074
G1 X115.61 Y104.331 E1.356
;WIDTH:1.14535
G1 X115.487 Y104.71 E.08444
G1 X115.118 Y104.69 E.07831
G1 X114.386 Y104.748 E.1556
G1 X114.62 Y104.012 E.16366
;WIDTH:1.16173
G1 X116.559 Y97.956 E1.3687
G1 X113.013 Y106.032 F600
;WIDTH:0.9
G1 F1200
G1 X116.129 Y96.257 E1.66129
G1 X116.494 Y96.609 E.08211
G1 X116.969 Y96.992 E.0988
G1 X117.439 Y97.261 E.08769
G1 X117.933 Y97.495 E.08851
G1 X118.428 Y97.686 E.08591
