; generated by PrusaSlicer 2.7.1+linux-x64-GTK3 on 2025-01-05 at 23:29:33 UTC

; 

; external perimeters extrusion width = 0.90mm
; perimeters extrusion width = 0.90mm
; infill extrusion width = 0.90mm
; solid infill extrusion width = 0.90mm
; top infill extrusion width = 0.80mm

;TYPE:Custom
G90 ; use absolute coordinates
M83 ; extruder relative mode
M104 S240 ; set extruder temp
M140 S80 ; set bed temp
M190 S80 ; wait for bed temp
M109 S240 ; wait for extruder temp
G28 ; home all
G1 Z2 F240
G1 X10 Y10 F3000
G1 Z0.28 F240
G92 E0.0
G1 Y40 E15.0 F1500.0 ; intro line
G1 X10.3 F5000
G1 Y10 E15.0 F1200.0 ; intro line
G92 E0.0
G21 ; set units to millimeters
G90 ; use absolute coordinates
M83 ; use relative distances for extrusion
; Filament gcode
M107
;LAYER_CHANGE
;Z:0.49
;HEIGHT:0.49
;BEFORE_LAYER_CHANGE
G92 E0
;0.49


G1 Z.49 F600
;AFTER_LAYER_CHANGE
;0.49
G1 X38.963 Y59.179
;TYPE:Skirt/Brim
;WIDTH:0.9
G1 F1200
G1 X39.931 Y58.909 E.16273
G1 X49.342 Y58.053 E1.53016
G1 X51.28 Y57.952 E.31424
G1 X52.983 Y58.054 E.27625
G1 X54.612 Y58.367 E.2686
G1 X56.207 Y58.917 E.27319
G1 X57.516 Y59.581 E.23767
G1 X182.768 Y136.479 E23.7987
G1 X183.449 Y137.067 E.14569
G1 X185.217 Y139.214 E.45035
G1 X185.677 Y140.035 E.15238
G1 X186.248 Y141.644 E.27646
G1 X186.408 Y142.516 E.14356
G1 X186.479 Y145.86 E.5416
G1 X186.411 Y159.111 E2.14569
G1 X185.592 Y161.073 E.34426
G1 X182.663 Y164.002 E.67073
G1 X180.693 Y164.82 E.3454
G1 X85.95 Y165.02 E15.34125
G1 X74.96 Y164.82 E1.77985
G1 X73.359 Y164.279 E.27364
G1 X70.719 Y162.344 E.53001
G1 X69.987 Y161.548 E.17511
G1 X61.132 Y147.07 E2.74806
G1 X60.859 Y146.479 E.10541
G1 X34.877 Y66.582 E13.60416
G1 X34.809 Y65.101 E.24006
G1 X35.201 Y64.182 E.16178
G1 X37.849 Y60.156 E.78028
G1 X38.873 Y59.258 E.22054
G1 X40.769 Y62.625 F600
G1 F1200
G1 X41.246 Y62.356 E.08867
G1 X41.908 Y62.167 E.11148
G1 X49.617 Y61.465 E1.25344
G1 X51.343 Y61.376 E.27985
G1 X52.349 Y61.429 E.16312
G1 X53.359 Y61.587 E.16553
G1 X54.492 Y61.917 E.19108
G1 X55.5 Y62.376 E.17935
G1 X56.434 Y62.97 E.17923
G1 X57.345 Y63.781 E.1975
G1 X58.132 Y64.789 E.20708
G1 X58.739 Y65.946 E.21156
G1 X77.567 Y125.581 E10.12621
G1 X78.45 Y127.926 E.40574
G1 X79.116 Y130.48 E.42738
G1 X79.655 Y131.829 E.23523
G1 X80.171 Y132.716 E.16616
G1 X80.943 Y133.67 E.19872
G1 X81.787 Y134.407 E.18144
G1 X82.68 Y134.973 E.1712
G1 X83.737 Y135.457 E.18824
G1 X85.041 Y135.874 E.22168
G1 X86.309 Y136.143 E.20989
G1 X107.6 Y138.484 E3.46831
G1 X120.943 Y138.482 E2.16056
G1 X122.746 Y138.289 E.29362
G1 X126.47 Y138.284 E.60301
G1 X128.481 Y138.483 E.32722
G1 X131.215 Y138.477 E.4427
G1 X132.8 Y138.285 E.25853
G1 X136.567 Y138.289 E.60997
G1 X138.476 Y138.485 E.31074
G1 X171.164 Y138.486 E5.29299
G1 X172.556 Y138.289 E.22764
G1 X176.878 Y138.289 E.69984
G1 X179.16 Y138.581 E.37252
G1 X179.8 Y138.796 E.10932
G1 X180.439 Y139.124 E.1163
G1 X181.262 Y139.787 E.17113
G1 X182.358 Y141.158 E.28422
G1 X182.62 Y141.665 E.09241
G1 X182.951 Y142.778 E.18802
G1 X183.055 Y145.762 E.48348
G1 X182.99 Y147.425 E.26949
G1 X182.988 Y157.67 E1.65892
G1 X182.835 Y158.434 E.12617
G1 X182.326 Y159.458 E.18517
G1 X181.048 Y160.736 E.29266
G1 X180.023 Y161.245 E.18531
G1 X179.26 Y161.397 E.12598
G1 X89.503 Y161.397 E14.53386
G1 X86.467 Y161.597 E.49267
G1 X85.215 Y161.575 E.20276
G1 X83.816 Y161.408 E.22814
G1 X75.919 Y161.378 E1.27873
G1 X75.507 Y161.296 E.06802
G1 X74.653 Y160.962 E.14848
G1 X73.652 Y160.249 E.199
G1 X73.208 Y159.801 E.10213
G1 X72.633 Y158.83 E.18273
G1 X68.871 Y146.896 E2.02615
G1 X67.199 Y146.892 E.27074
G1 X66.109 Y146.619 E.18195
G1 X65.662 Y146.39 E.08133
G1 X64.684 Y145.672 E.19646
G1 X64.027 Y144.869 E.168
G1 X63.775 Y144.368 E.09081
G1 X38.649 Y67.096 E13.15708
G1 X38.568 Y66.298 E.12988
G1 X38.667 Y65.498 E.13053
G1 X38.983 Y64.66 E.14502
G1 X39.99 Y63.199 E.28732
G1 X40.456 Y62.801 E.09923
G1 X40.664 Y62.684 E.03864
G1 X41.055 Y63.376 F600
G1 F1200
G1 X41.593 Y63.073 E.09998
G1 X42.014 Y62.955 E.0708
G1 X49.681 Y62.257 E1.24661
G1 X51.319 Y62.171 E.2656
G1 X53.165 Y62.358 E.30044
G1 X54.193 Y62.654 E.17322
G1 X55.1 Y63.063 E.16111
G1 X55.949 Y63.6 E.16267
G1 X56.773 Y64.333 E.17858
G1 X57.481 Y65.246 E.18708
G1 X58.018 Y66.282 E.18895
G1 X76.81 Y125.825 E10.11025
G1 X77.693 Y128.171 E.40589
G1 X78.361 Y130.73 E.42825
G1 X78.938 Y132.174 E.25179
G1 X79.513 Y133.164 E.18538
G1 X80.369 Y134.221 E.22024
G1 X81.312 Y135.045 E.20278
G1 X82.301 Y135.672 E.18961
G1 X83.445 Y136.197 E.20382
G1 X84.834 Y136.642 E.23617
G1 X86.181 Y136.928 E.22297
G1 X107.557 Y139.278 E3.48215
G1 X120.965 Y139.277 E2.17108
G1 X122.786 Y139.083 E.29653
G1 X126.459 Y139.079 E.59475
G1 X128.461 Y139.278 E.32577
G1 X131.278 Y139.272 E.45614
G1 X132.819 Y139.08 E.25146
G1 X136.534 Y139.083 E.60155
G1 X138.455 Y139.28 E.31269
G1 X171.195 Y139.281 E5.30141
G1 X172.592 Y139.084 E.22845
G1 X176.849 Y139.084 E.68931
G1 X178.955 Y139.35 E.34372
G1 X180.04 Y139.813 E.19102
G1 X180.67 Y140.32 E.13094
G1 X181.673 Y141.563 E.25863
G1 X182.068 Y142.471 E.16034
G1 X182.167 Y142.914 E.0735
G1 X182.26 Y145.773 E.46319
G1 X182.195 Y147.409 E.26512
G1 X182.193 Y157.631 E1.65519
G1 X182.086 Y158.165 E.08819
G1 X181.675 Y159 E.1507
G1 X180.59 Y160.085 E.24846
G1 X179.755 Y160.496 E.1507
G1 X179.221 Y160.602 E.08815
G1 X89.498 Y160.602 E14.52835
G1 X86.469 Y160.802 E.49154
G1 X85.289 Y160.783 E.1911
G1 X83.864 Y160.614 E.23236
G1 X76.031 Y160.59 E1.26836
G1 X75.029 Y160.261 E.17077
G1 X74.144 Y159.624 E.17656
G1 X73.835 Y159.311 E.07122
G1 X73.381 Y158.559 E.14224
G1 X69.454 Y146.103 E2.11479
G1 X67.236 Y146.097 E.35915
G1 X66.394 Y145.876 E.14096
G1 X65.188 Y145.056 E.23615
G1 X64.719 Y144.478 E.12053
G1 X64.521 Y144.09 E.07053
G1 X39.419 Y66.895 E13.14402
G1 X39.363 Y66.275 E.1008
G1 X39.448 Y65.65 E.10213
G1 X39.667 Y65.067 E.10084
G1 X40.554 Y63.761 E.25564
G1 X40.884 Y63.472 E.07103
G1 X40.95 Y63.435 E.01225
G1 X41.41 Y64.125 F600
G1 F1200
G1 X41.869 Y63.819 E.08933
G1 X42.128 Y63.743 E.04371
G1 X49.745 Y63.05 E1.23847
G1 X51.297 Y62.966 E.25167
G1 X52.152 Y63.007 E.1386
G1 X52.974 Y63.13 E.13458
G1 X53.896 Y63.391 E.15516
G1 X54.702 Y63.752 E.143
G1 X55.465 Y64.231 E.14588
G1 X56.199 Y64.885 E.15919
G1 X56.829 Y65.702 E.16706
G1 X57.273 Y66.559 E.15629
G1 X76.054 Y126.069 E10.10462
G1 X76.937 Y128.415 E.40589
G1 X77.606 Y130.98 E.42923
G1 X78.221 Y132.519 E.26836
G1 X78.855 Y133.611 E.20446
G1 X79.796 Y134.772 E.24199
G1 X80.837 Y135.683 E.224
G1 X81.923 Y136.371 E.20817
G1 X83.153 Y136.937 E.21924
G1 X84.628 Y137.41 E.25082
G1 X86.054 Y137.713 E.23606
G1 X107.514 Y140.073 E3.49585
G1 X120.986 Y140.072 E2.18145
G1 X122.827 Y139.877 E.29977
G1 X126.447 Y139.873 E.58617
G1 X128.441 Y140.073 E.3245
G1 X131.294 Y140.067 E.46197
G1 X132.84 Y139.875 E.25226
G1 X136.501 Y139.877 E.59281
G1 X138.435 Y140.075 E.3148
G1 X171.225 Y140.076 E5.30951
G1 X172.629 Y139.879 E.22957
G1 X176.82 Y139.879 E.67863
G1 X178.757 Y140.121 E.31609
G1 X179.642 Y140.502 E.15602
G1 X180.081 Y140.855 E.09122
G1 X180.99 Y141.972 E.23319
G1 X181.382 Y143.041 E.18437
G1 X181.465 Y145.789 E.44517
G1 X181.4 Y147.393 E.25994
G1 X181.398 Y157.591 E1.65131
G1 X181.337 Y157.897 E.05052
G1 X181.029 Y158.536 E.11486
G1 X180.126 Y159.439 E.20678
G1 X179.487 Y159.746 E.11479
G1 X179.181 Y159.807 E.05052
G1 X89.494 Y159.807 E14.52252
G1 X86.471 Y160.007 E.49057
G1 X85.327 Y159.989 E.18526
G1 X83.884 Y159.819 E.23527
G1 X76.136 Y159.802 E1.25459
G1 X75.413 Y159.564 E.12325
G1 X74.638 Y159.001 E.15511
G1 X74.13 Y158.29 E.1415
G1 X70.036 Y145.307 E2.20431
G1 X67.08 Y145.268 E.47869
G1 X66.501 Y145.04 E.10076
G1 X65.734 Y144.478 E.15397
G1 X65.267 Y143.813 E.13158
G1 X40.189 Y66.692 E13.13142
G1 X40.157 Y66.338 E.05756
G1 X40.354 Y65.469 E.14428
G1 X41.127 Y64.314 E.22504
G1 X41.31 Y64.192 E.03561
G1 X41.713 Y64.852 F600
G1 F1200
G1 X42.25 Y64.53 E.10139
G1 X51.276 Y63.76 E1.46684
G1 X52.786 Y63.903 E.2456
G1 X53.602 Y64.13 E.13715
G1 X54.307 Y64.442 E.12484
G1 X54.982 Y64.862 E.12873
G1 X55.626 Y65.435 E.13958
G1 X56.142 Y66.104 E.13681
G1 X56.528 Y66.839 E.13443
G1 X75.297 Y126.313 E10.09847
G1 X76.181 Y128.66 E.4061
G1 X76.852 Y131.23 E.4301
G1 X77.505 Y132.864 E.28493
G1 X78.197 Y134.058 E.22346
G1 X79.222 Y135.322 E.26351
G1 X80.361 Y136.321 E.24532
G1 X81.544 Y137.071 E.22681
G1 X82.861 Y137.676 E.23468
G1 X84.421 Y138.178 E.26536
G1 X85.926 Y138.498 E.24914
G1 X107.472 Y140.868 E3.50987
G1 X121.008 Y140.867 E2.19181
G1 X122.867 Y140.671 E.30269
G1 X126.435 Y140.668 E.57775
G1 X128.421 Y140.868 E.32321
G1 X131.326 Y140.862 E.47039
G1 X132.86 Y140.67 E.25033
G1 X136.469 Y140.671 E.58439
G1 X138.415 Y140.87 E.31675
G1 X171.232 Y140.871 E5.31388
G1 X172.668 Y140.674 E.2347
G1 X176.791 Y140.674 E.66761
G1 X178.571 Y140.894 E.29042
G1 X179.244 Y141.191 E.11912
G1 X179.494 Y141.392 E.05194
G1 X180.313 Y142.388 E.2088
G1 X180.595 Y143.16 E.13308
G1 X180.671 Y145.804 E.42831
G1 X180.605 Y147.376 E.25477
G1 X180.603 Y157.552 E1.64774
G1 X180.393 Y158.058 E.08871
G1 X179.649 Y158.803 E.17049
G1 X179.142 Y159.012 E.0888
G1 X89.489 Y159.013 E14.51702
G1 X88.563 Y159.023 E.14995
G1 X86.473 Y159.212 E.3398
G1 X85.363 Y159.195 E.17976
G1 X83.914 Y159.024 E.23626
G1 X76.227 Y159.012 E1.24472
G1 X75.809 Y158.874 E.07128
G1 X75.135 Y158.38 E.13531
G1 X74.879 Y158.021 E.0714
G1 X70.619 Y144.512 E2.29362
G1 X67.296 Y144.503 E.53808
G1 X66.942 Y144.377 E.06084
G1 X66.27 Y143.89 E.13438
G1 X66.013 Y143.537 E.0707
G1 X40.959 Y66.489 E13.11898
G1 X41.043 Y65.868 E.10147
G1 X41.647 Y64.952 E.17767
G1 X42.302 Y65.402 F600
G1 F1200
G1 X42.457 Y65.309 E.02927
G1 X50.617 Y64.576 E1.32662
G1 X51.966 Y64.586 E.21844
G1 X53.312 Y64.871 E.22278
G1 X54.501 Y65.496 E.21751
G1 X55.051 Y65.985 E.11917
G1 X55.49 Y66.559 E.11701
G1 X55.783 Y67.117 E.10205
G1 X74.541 Y126.558 E10.09284
G1 X75.424 Y128.905 E.40604
G1 X76.097 Y131.481 E.43112
G1 X76.788 Y133.208 E.3012
G1 X77.539 Y134.506 E.24282
G1 X78.648 Y135.873 E.28503
G1 X79.886 Y136.959 E.26666
G1 X81.165 Y137.77 E.24523
G1 X82.569 Y138.416 E.25025
G1 X84.215 Y138.946 E.28
G1 X85.799 Y139.283 E.26223
G1 X107.429 Y141.663 E3.52357
G1 X121.01 Y141.662 E2.1991
G1 X122.907 Y141.465 E.30882
G1 X126.423 Y141.463 E.56933
G1 X128.42 Y141.663 E.32498
G1 X131.358 Y141.657 E.47574
G1 X132.882 Y141.464 E.24874
G1 X136.436 Y141.466 E.57548
G1 X138.413 Y141.665 E.32174
G1 X171.247 Y141.666 E5.31663
G1 X172.71 Y141.469 E.23903
G1 X176.76 Y141.469 E.65579
G1 X178.405 Y141.672 E.26839
G1 X178.908 Y141.93 E.09154
G1 X179.643 Y142.818 E.18665
G1 X179.807 Y143.264 E.07695
G1 X179.876 Y145.819 E.41387
G1 X179.811 Y147.359 E.24959
G1 X179.808 Y157.434 E1.63139
G1 X179.748 Y157.58 E.02556
G1 X179.17 Y158.157 E.13225
G1 X179.024 Y158.218 E.02562
G1 X89.485 Y158.218 E14.49856
G1 X88.53 Y158.229 E.15465
G1 X86.475 Y158.418 E.33416
G1 X85.444 Y158.404 E.16696
G1 X83.943 Y158.229 E.2447
G1 X76.203 Y158.178 E1.25332
G1 X75.608 Y157.692 E.1244
G1 X71.202 Y143.718 E2.37254
G1 X67.452 Y143.718 E.60722
G1 X66.739 Y143.201 E.14261
G1 X41.756 Y66.372 E13.0817
G1 X41.781 Y66.192 E.02943
G1 X42.236 Y65.502 E.13383
G1 X42.81 Y66.075 F600
G1 F1200
G1 X51.239 Y65.35 E1.3699
G1 X52.421 Y65.451 E.19209
G1 X53.527 Y65.829 E.18926
G1 X54.02 Y66.13 E.09353
G1 X54.475 Y66.534 E.09853
G1 X55.038 Y67.399 E.16712
G1 X73.784 Y126.802 E10.08639
G1 X74.668 Y129.15 E.40625
G1 X75.342 Y131.731 E.43194
G1 X76.072 Y133.553 E.31783
G1 X76.882 Y134.953 E.2619
G1 X78.074 Y136.424 E.30658
G1 X79.411 Y137.597 E.288
G1 X80.786 Y138.469 E.26364
G1 X82.277 Y139.156 E.26583
G1 X84.009 Y139.713 E.2946
G1 X85.671 Y140.068 E.27519
G1 X107.386 Y142.458 E3.53742
G1 X121.019 Y142.457 E2.20752
G1 X122.947 Y142.259 E.31383
G1 X126.41 Y142.258 E.56074
G1 X128.412 Y142.457 E.32577
G1 X131.391 Y142.451 E.48237
G1 X132.905 Y142.259 E.24712
G1 X136.404 Y142.26 E.56657
G1 X138.406 Y142.46 E.32579
G1 X155.39 Y142.464 E2.75013
G1 X171.262 Y142.461 E2.57007
G1 X172.754 Y142.264 E.24369
G1 X176.728 Y142.264 E.64349
G1 X178.229 Y142.457 E.24505
G1 X178.374 Y142.531 E.02636
G1 X179.013 Y143.374 E.17129
G1 X179.081 Y145.834 E.39849
G1 X179.016 Y147.342 E.24441
G1 X179.013 Y157.19 E1.59463
G1 X178.781 Y157.423 E.05324
G1 X89.48 Y157.423 E14.46002
G1 X88.496 Y157.434 E.15934
G1 X86.477 Y157.623 E.32835
G1 X85.479 Y157.609 E.16162
G1 X83.973 Y157.434 E.2455
G1 X76.517 Y157.423 E1.20731
G1 X76.308 Y157.269 E.04204
G1 X71.785 Y142.923 E2.43569
G1 X67.644 Y142.923 E.67053
G1 X67.435 Y142.771 E.04185
G1 X42.599 Y66.395 E13.00459
G1 X42.744 Y66.175 E.04266
G1 X142.244 Y148.871 F600
;TYPE:Perimeter
;WIDTH:0.9
G1 F1200
G1 X167.319 Y148.872 E4.06026
G1 X167.731 Y149.754 E.15763
G1 X168.024 Y150.243 E.09231
G1 X168.615 Y151.011 E.15692
G1 X140.947 Y151.011 E4.48013
G1 X141.539 Y150.243 E.15702
G1 X142.04 Y149.364 E.16383
G1 X142.198 Y148.982 E.06694
G1 X141.717 Y148.076 F600
G1 F1200
G1 X167.846 Y148.077 E4.23092
G1 X168.263 Y149.063 E.17335
G1 X168.686 Y149.803 E.13802
G1 X169.275 Y150.563 E.15569
G1 X169.991 Y151.279 E.16396
G1 X170.703 Y151.806 E.14344
G1 X138.86 Y151.806 E5.15616
G1 X139.571 Y151.279 E.14331
G1 X140.287 Y150.563 E.16396
G1 X140.567 Y150.222 E.07145
G1 X140.877 Y149.803 E.0844
G1 X141.339 Y148.989 E.15156
G1 X141.671 Y148.187 E.14055
G1 X141.117 Y147.281 F600
G1 F1200
G1 X168.445 Y147.282 E4.42507
G1 X168.597 Y147.822 E.09084
G1 X168.964 Y148.688 E.1523
G1 X169.348 Y149.363 E.12575
G1 X169.89 Y150.059 E.14284
G1 X170.496 Y150.664 E.13866
G1 X170.837 Y150.944 E.07145
G1 X171.55 Y151.421 E.13891
G1 X171.939 Y151.629 E.07143
G1 X172.731 Y151.957 E.13881
G1 X173.154 Y152.085 E.07156
;WIDTH:0.949935
G1 X173.272 Y152.134 E.02199
;WIDTH:0.999871
G1 X173.389 Y152.183 E.02312
;WIDTH:1.04981
G1 X173.507 Y152.231 E.02452
;WIDTH:1.09974
G1 X173.624 Y152.28 E.0257
;WIDTH:1.14968
G1 X173.742 Y152.329 E.02719
;WIDTH:1.19961
G1 X173.86 Y152.378 E.02849
;WIDTH:1.24955
G1 X173.977 Y152.426 E.02948
G1 X173.849 Y152.451 E.03041
;WIDTH:1.19961
G1 X173.72 Y152.476 E.0293
;WIDTH:1.14968
G1 X173.592 Y152.501 E.02775
;WIDTH:1.09974
G1 X173.463 Y152.526 E.02662
;WIDTH:1.04981
G1 X173.335 Y152.551 E.0251
;WIDTH:0.999871
G1 X173.206 Y152.576 E.02395
;WIDTH:0.949935
G1 X173.077 Y152.601 E.02261
;WIDTH:0.9
G1 X136.927 Y152.601 E5.85357
;WIDTH:0.939683
G1 X136.78 Y152.581 E.02522
;WIDTH:0.979365
G1 X136.632 Y152.561 E.0266
;WIDTH:1.01905
G1 X136.485 Y152.542 E.0276
;WIDTH:1.06528
G1 X136.392 Y152.519 E.01874
;WIDTH:1.11151
G1 X136.3 Y152.495 E.01949
;WIDTH:1.15774
G1 X136.207 Y152.472 E.02054
;WIDTH:1.20396
G1 X136.114 Y152.449 E.02145
;WIDTH:1.25019
G1 X136.022 Y152.426 E.02212
;WIDTH:1.29642
G1 X135.929 Y152.403 E.02325
G1 X136.042 Y152.347 E.03061
;WIDTH:1.24687
G1 X136.155 Y152.291 E.02933
;WIDTH:1.19732
G1 X136.267 Y152.236 E.02776
;WIDTH:1.14776
G1 X136.38 Y152.18 E.02679
;WIDTH:1.09821
G1 X136.493 Y152.124 E.02551
;WIDTH:1.04866
G1 X136.606 Y152.068 E.02424
;WIDTH:0.999106
G1 X136.719 Y152.013 E.02289
;WIDTH:0.949553
G1 X136.831 Y151.957 E.02154
;WIDTH:0.9
G1 X137.623 Y151.629 E.13881
G1 X138.013 Y151.421 E.07157
G1 X138.726 Y150.944 E.13891
G1 X139.067 Y150.664 E.07145
G1 X139.672 Y150.059 E.13854
G1 X140.215 Y149.363 E.14294
G1 X140.638 Y148.615 E.13915
G1 X140.966 Y147.822 E.13896
G1 X141.085 Y147.397 E.07146
G1 X174.7 Y143.156 F600
;TYPE:External perimeter
;WIDTH:1.01764
G1 F1200
G1 X175.098 Y143.17 E.07403
;WIDTH:1.0454
G1 X175.496 Y143.184 E.07628
G1 X134.684 Y143.156 F600
;WIDTH:1.04169
G1 F1200
G1 X135.466 Y143.178 E.14926
G1 X129.699 Y151.081 F600
;TYPE:Perimeter
;WIDTH:0.778852
G1 F1200
G1 X130.208 Y151.512 E.09154
G1 X130.739 Y151.867 E.08766
G1 X128.659 Y151.867 E.28547
G1 X129.19 Y151.512 E.08766
G1 X129.608 Y151.159 E.07509
G1 X129.699 Y150.025 F600
;WIDTH:0.9
G1 F1200
G1 X130.045 Y150.406 E.08334
G1 X130.674 Y150.944 E.13402
G1 X131.387 Y151.421 E.13891
G1 X131.777 Y151.629 E.07157
G1 X132.568 Y151.957 E.13866
G1 X132.991 Y152.085 E.07156
;WIDTH:0.949941
G1 X133.109 Y152.134 E.02199
;WIDTH:0.999882
G1 X133.227 Y152.183 E.02329
;WIDTH:1.04982
G1 X133.344 Y152.231 E.02434
;WIDTH:1.09977
G1 X133.462 Y152.28 E.02589
;WIDTH:1.14971
G1 X133.579 Y152.329 E.02699
;WIDTH:1.19965
