; generated by PrusaSlicer 2.7.1+linux-x64-GTK3 on 2025-01-05 at 23:27:56 UTC

; 

; external perimeters extrusion width = 0.90mm
; perimeters extrusion width = 0.90mm
; infill extrusion width = 0.90mm
; solid infill extrusion width = 0.90mm
; top infill extrusion width = 0.80mm

;TYPE:Custom
G90 ; use absolute coordinates
M83 ; extruder relative mode
M104 S240 ; set extruder temp
M140 S80 ; set bed temp
M190 S80 ; wait for bed temp
M109 S240 ; wait for extruder temp
G28 ; home all
G1 Z2 F240
G1 X10 Y10 F3000
G1 Z0.28 F240
G92 E0.0
G1 Y40 E15.0 F1500.0 ; intro line
G1 X10.3 F5000
G1 Y10 E15.0 F1200.0 ; intro line
G92 E0.0
G21 ; set units to millimeters
G90 ; use absolute coordinates
M83 ; use relative distances for extrusion
; Filament gcode
M107
;LAYER_CHANGE
;Z:0.49
;HEIGHT:0.49
;BEFORE_LAYER_CHANGE
G92 E0
;0.49


G1 Z.49 F600
;AFTER_LAYER_CHANGE
;0.49
G1 X72.607 Y58.193
;TYPE:Skirt/Brim
;WIDTH:0.9
G1 F1200
G1 X73.158 Y57.658 E.12436
G1 X75.797 Y55.723 E.52988
G1 X77.384 Y55.182 E.2715
G1 X86.458 Y54.982 E1.46966
G1 X180.693 Y55.182 E15.25899
G1 X182.663 Y56 E.3454
G1 X185.592 Y58.929 E.67073
G1 X186.411 Y60.891 E.34426
G1 X186.479 Y74.205 E2.15589
G1 X186.408 Y77.486 E.5314
G1 X186.248 Y78.358 E.14356
G1 X185.677 Y79.967 E.27646
G1 X185.217 Y80.788 E.15238
G1 X183.45 Y82.934 E.45013
G1 X182.769 Y83.523 E.14579
G1 X57.164 Y160.622 E23.86444
G1 X55.995 Y161.175 E.2094
G1 X54.419 Y161.684 E.26817
G1 X52.809 Y161.965 E.26464
G1 X51.421 Y162.047 E.22514
G1 X49.367 Y161.951 E.33296
G1 X39.931 Y161.093 E1.53422
G1 X38.543 Y160.572 E.24006
G1 X37.849 Y159.845 E.16275
G1 X35.2 Y155.82 E.78023
G1 X34.743 Y154.41 E.24001
G1 X34.877 Y153.42 E.16177
G1 X60.858 Y73.524 E13.60396
G1 X61.311 Y72.672 E.15625
G1 X72.533 Y58.288 E2.9541
G1 X75.646 Y60.201 F600
G1 F1200
G1 X76.091 Y59.753 E.10225
G1 X77.091 Y59.04 E.19887
G1 X77.946 Y58.706 E.14863
G1 X78.357 Y58.624 E.06786
G1 X83.8 Y58.597 E.88137
G1 X85.169 Y58.431 E.2233
G1 X87.087 Y58.415 E.31058
G1 X88.657 Y58.593 E.25585
G1 X89.459 Y58.605 E.12988
G1 X179.52 Y58.633 E14.58309
G1 X180.604 Y58.997 E.18516
G1 X181.257 Y59.435 E.12732
G1 X182.326 Y60.544 E.24942
G1 X182.834 Y61.565 E.18466
G1 X182.959 Y62.072 E.08455
G1 X182.99 Y72.576 E1.70086
G1 X183.055 Y74.24 E.26965
G1 X182.951 Y77.223 E.48331
G1 X182.62 Y78.336 E.18802
G1 X182.358 Y78.844 E.09255
G1 X181.269 Y80.206 E.28237
G1 X180.759 Y80.665 E.1111
G1 X179.83 Y81.191 E.17287
G1 X179.162 Y81.42 E.11434
G1 X176.986 Y81.704 E.35534
G1 X173.092 Y81.712 E.63054
G1 X171.183 Y81.513 E.31079
G1 X138.508 Y81.514 E5.29088
G1 X137.222 Y81.698 E.21036
G1 X136.464 Y81.713 E.12276
G1 X132.781 Y81.708 E.59637
G1 X130.91 Y81.514 E.30459
G1 X128.187 Y81.52 E.44092
G1 X126.609 Y81.713 E.25742
G1 X122.891 Y81.711 E.60204
G1 X120.954 Y81.514 E.31527
G1 X107.601 Y81.518 E2.16218
G1 X86.461 Y83.834 E3.44357
G1 X84.306 Y84.339 E.3584
G1 X82.503 Y85.129 E.31875
G1 X81.532 Y85.795 E.19066
G1 X80.54 Y86.788 E.22728
G1 X79.866 Y87.779 E.19406
G1 X79.237 Y89.164 E.24631
G1 X78.465 Y92.031 E.48077
G1 X77.586 Y94.36 E.40309
G1 X59.677 Y151.201 E9.64998
G1 X58.899 Y153.62 E.41146
G1 X58.561 Y154.46 E.14661
G1 X58.102 Y155.262 E.14963
G1 X57.552 Y155.988 E.14748
G1 X56.859 Y156.681 E.15869
G1 X56.114 Y157.258 E.15258
G1 X55.259 Y157.753 E.15997
G1 X54.279 Y158.162 E.17195
G1 X53.165 Y158.453 E.18644
G1 X52.32 Y158.574 E.13822
G1 X51.483 Y158.622 E.13575
G1 X49.674 Y158.541 E.29321
G1 X41.901 Y157.835 E1.26382
G1 X41.056 Y157.559 E.14394
G1 X40.441 Y157.191 E.11605
G1 X39.972 Y156.787 E.10023
G1 X38.941 Y155.262 E.29807
G1 X38.666 Y154.504 E.13057
G1 X38.57 Y153.789 E.11681
G1 X38.649 Y152.903 E.14403
G1 X56.124 Y99.126 E9.15603
G1 X56.502 Y98.45 E.12541
G1 X56.908 Y97.972 E.10155
G1 X57.382 Y97.577 E.09991
G1 X58.735 Y96.872 E.24704
G1 X59.751 Y96.58 E.17117
G1 X59.075 Y95.704 E.17917
G1 X58.389 Y94.31 E.25157
G1 X58.219 Y93.169 E.1868
G1 X58.294 Y92.468 E.11416
G1 X63.856 Y75.445 E2.89984
G1 X64.353 Y74.676 E.14826
G1 X64.75 Y74.274 E.09149
G1 X65.739 Y73.565 E.19704
G1 X66.186 Y73.352 E.08018
G1 X67.268 Y73.105 E.17971
G1 X71.309 Y73.105 E.65434
G1 X75.072 Y61.172 E2.02604
G1 X75.585 Y60.305 E.16312
G1 X76.26 Y60.712 F600
G1 F1200
G1 X76.273 Y60.691 E.004
G1 X76.583 Y60.378 E.07133
G1 X77.468 Y59.741 E.17656
G1 X78.469 Y59.412 E.17062
G1 X83.816 Y59.392 E.86582
G1 X85.925 Y59.2 E.34291
G1 X87.059 Y59.209 E.18363
G1 X88.606 Y59.387 E.25215
G1 X89.453 Y59.4 E.13717
G1 X179.383 Y59.417 E14.56187
G1 X180.264 Y59.717 E.1507
G1 X180.718 Y60.021 E.08847
G1 X181.674 Y61 E.22157
G1 X181.874 Y61.325 E.06179
G1 X182.175 Y62.209 E.15121
G1 X182.195 Y72.593 E1.68143
G1 X182.26 Y74.229 E.26512
G1 X182.167 Y77.088 E.46319
G1 X182.068 Y77.531 E.0735
G1 X181.673 Y78.439 E.16034
G1 X180.673 Y79.68 E.25807
G1 X180.267 Y80.039 E.08776
G1 X179.479 Y80.477 E.14598
G1 X178.955 Y80.652 E.08946
G1 X176.902 Y80.914 E.33513
G1 X173.12 Y80.918 E.6124
G1 X171.197 Y80.718 E.31306
G1 X138.485 Y80.719 E5.29688
G1 X137.173 Y80.904 E.21455
G1 X136.461 Y80.918 E.11531
G1 X132.823 Y80.915 E.58908
G1 X130.929 Y80.719 E.30832
G1 X128.123 Y80.725 E.45436
G1 X126.589 Y80.918 E.25035
G1 X122.914 Y80.916 E.59507
G1 X120.977 Y80.719 E.31527
G1 X107.558 Y80.723 E2.17287
G1 X86.334 Y83.049 E3.45726
G1 X84.051 Y83.586 E.37976
G1 X83.162 Y83.919 E.15372
G1 X82.107 Y84.439 E.19045
G1 X81.027 Y85.179 E.21199
G1 X79.921 Y86.288 E.25361
G1 X79.171 Y87.393 E.21625
G1 X78.489 Y88.894 E.26696
G1 X77.709 Y91.785 E.48486
G1 X76.83 Y94.115 E.40324
G1 X58.919 Y150.96 E9.6507
G1 X57.834 Y154.136 E.54345
G1 X57.428 Y154.842 E.13187
G1 X56.938 Y155.483 E.13065
G1 X56.318 Y156.098 E.14141
G1 X55.652 Y156.611 E.13612
G1 X54.885 Y157.051 E.14318
G1 X54.051 Y157.4 E.14639
G1 X52.987 Y157.678 E.17807
G1 X51.479 Y157.828 E.24539
G1 X49.731 Y157.748 E.28334
G1 X42.018 Y157.047 E1.25407
G1 X41.426 Y156.854 E.10082
G1 X40.554 Y156.241 E.1726
G1 X39.667 Y154.935 E.25564
G1 X39.448 Y154.351 E.10099
G1 X39.363 Y153.727 E.10197
G1 X39.419 Y153.106 E.10096
G1 X56.868 Y99.408 E9.14256
G1 X57.133 Y98.935 E.08779
G1 X57.85 Y98.221 E.16385
G1 X59.057 Y97.6 E.21979
G1 X59.503 Y97.48 E.07479
G1 X60.048 Y97.434 E.08856
G1 X60.587 Y97.493 E.0878
G1 X65.721 Y99.112 E.87168
G1 X66.084 Y97.96 E.19558
G1 X61.013 Y96.361 E.86097
G1 X60.6 Y96.144 E.07554
G1 X60.111 Y95.742 E.1025
G1 X59.765 Y95.308 E.08987
G1 X59.15 Y94.075 E.22311
G1 X59.014 Y93.147 E.15187
G1 X59.079 Y92.602 E.08887
G1 X64.571 Y75.794 E2.86323
G1 X64.977 Y75.17 E.12055
G1 X65.286 Y74.862 E.07065
G1 X66.169 Y74.234 E.17545
G1 X66.93 Y73.952 E.13141
G1 X71.892 Y73.9 E.80351
G1 X75.82 Y61.443 E2.115
G1 X76.198 Y60.815 E.11869
G1 X76.868 Y61.294 F600
G1 F1200
G1 X77.077 Y61.001 E.05828
G1 X77.851 Y60.438 E.15498
G1 X78.574 Y60.2 E.12325
G1 X83.842 Y60.186 E.85302
G1 X85.267 Y60.018 E.23234
G1 X87.031 Y60.004 E.28564
G1 X88.553 Y60.181 E.24811
G1 X89.447 Y60.194 E.14478
G1 X179.254 Y60.202 E14.54196
G1 X179.924 Y60.436 E.11492
G1 X180.182 Y60.609 E.0503
G1 X181.028 Y61.465 E.19488
G1 X181.39 Y62.338 E.15303
G1 X181.4 Y72.609 E1.66313
G1 X181.465 Y74.213 E.25994
G1 X181.382 Y76.961 E.44517
G1 X180.99 Y78.03 E.18437
G1 X180.08 Y79.149 E.23355
G1 X179.781 Y79.409 E.06416
G1 X178.758 Y79.881 E.18243
G1 X176.817 Y80.123 E.31673
G1 X173.15 Y80.123 E.59378
G1 X171.212 Y79.923 E.31548
G1 X138.463 Y79.924 E5.30287
G1 X137.122 Y80.11 E.21922
G1 X136.458 Y80.123 E.10754
G1 X132.838 Y80.12 E.58617
G1 X130.948 Y79.924 E.30768
G1 X128.106 Y79.93 E.46019
G1 X126.569 Y80.123 E.25083
G1 X122.937 Y80.122 E.58811
G1 X121.001 Y79.925 E.3151
G1 X107.515 Y79.929 E2.18371
G1 X86.206 Y82.264 E3.4711
G1 X83.797 Y82.832 E.40077
G1 X82.859 Y83.184 E.16223
G1 X81.711 Y83.749 E.20718
G1 X80.522 Y84.564 E.23342
G1 X79.301 Y85.787 E.27983
G1 X78.477 Y87.006 E.23825
G1 X77.74 Y88.623 E.28775
G1 X76.954 Y91.537 E.48871
G1 X76.074 Y93.87 E.40375
G1 X58.162 Y150.72 E9.65152
G1 X57.13 Y153.767 E.52091
G1 X56.323 Y154.977 E.23551
G1 X55.192 Y155.962 E.24285
G1 X53.773 Y156.655 E.25571
G1 X52.853 Y156.895 E.15396
G1 X51.474 Y157.033 E.22441
G1 X49.789 Y156.956 E.27313
G1 X42.134 Y156.259 E1.24466
G1 X41.795 Y156.149 E.05771
G1 X41.127 Y155.688 E.13142
G1 X40.354 Y154.533 E.22504
G1 X40.157 Y153.664 E.14428
G1 X40.189 Y153.31 E.05756
G1 X57.612 Y99.691 E9.12909
G1 X57.763 Y99.42 E.05023
G1 X58.31 Y98.87 E.1256
G1 X59.377 Y98.329 E.19371
G1 X60.076 Y98.229 E.11434
G1 X60.385 Y98.263 E.05034
G1 X66.24 Y100.109 E.99407
G1 X67.081 Y97.441 E.45297
G1 X61.072 Y95.503 E1.02236
G1 X60.455 Y94.912 E.13835
G1 X59.848 Y93.602 E.23379
G1 X59.846 Y92.811 E.12808
G1 X65.289 Y76.136 E2.8403
G1 X65.777 Y75.488 E.13135
G1 X66.549 Y74.933 E.15396
G1 X67.135 Y74.72 E.10096
G1 X72.475 Y74.695 E.86469
G1 X76.569 Y61.711 E2.20446
G1 X76.798 Y61.391 E.06372
G1 X77.42 Y61.837 F600
G1 F1200
G1 X77.573 Y61.622 E.04273
G1 X78.247 Y61.128 E.13531
G1 X78.665 Y60.99 E.07128
G1 X83.868 Y60.981 E.84249
G1 X85.93 Y60.789 E.33533
G1 X86.998 Y60.799 E.17294
G1 X88.523 Y60.976 E.24859
G1 X89.441 Y60.989 E.14866
G1 X179.142 Y60.989 E14.52479
G1 X179.649 Y61.199 E.08886
G1 X180.393 Y61.943 E.17037
G1 X180.603 Y62.45 E.08886
G1 X180.605 Y72.626 E1.64774
G1 X180.671 Y74.198 E.25477
G1 X180.595 Y76.842 E.42831
G1 X180.313 Y77.614 E.13308
G1 X179.305 Y78.771 E.24847
G1 X178.572 Y79.107 E.13057
G1 X176.787 Y79.328 E.29124
G1 X173.18 Y79.328 E.58406
G1 X172.044 Y79.159 E.18597
G1 X171.227 Y79.128 E.13239
G1 X138.46 Y79.129 E5.30578
G1 X136.454 Y79.328 E.32641
G1 X132.88 Y79.326 E.57872
G1 X130.966 Y79.129 E.31156
G1 X128.074 Y79.135 E.46829
G1 X126.547 Y79.328 E.24923
G1 X122.96 Y79.327 E.58082
G1 X121.005 Y79.13 E.31817
G1 X107.472 Y79.134 E2.19132
G1 X86.078 Y81.479 E3.48496
G1 X83.542 Y82.079 E.42198
G1 X82.556 Y82.449 E.17053
G1 X81.315 Y83.06 E.22398
G1 X80.018 Y83.949 E.25461
G1 X78.682 Y85.287 E.30617
G1 X77.782 Y86.619 E.2603
G1 X76.992 Y88.352 E.3084
G1 X76.198 Y91.289 E.49264
G1 X75.317 Y93.624 E.40411
G1 X57.404 Y150.48 E9.6525
G1 X56.423 Y153.402 E.4991
G1 X55.71 Y154.471 E.20807
G1 X54.735 Y155.311 E.20839
G1 X53.497 Y155.909 E.22262
G1 X52.099 Y156.2 E.23122
G1 X50.875 Y156.231 E.19826
G1 X49.846 Y156.163 E.16698
G1 X42.165 Y155.444 E1.24918
G1 X41.713 Y155.15 E.08731
G1 X41.043 Y154.134 E.19707
G1 X40.959 Y153.513 E.10147
G1 X58.356 Y99.973 E9.11563
G1 X58.709 Y99.558 E.08822
G1 X59.64 Y99.079 E.16953
G1 X60.183 Y99.033 E.08824
G1 X66.759 Y101.106 E1.11647
G1 X68.078 Y96.922 E.71036
G1 X61.565 Y94.868 E1.10582
G1 X61.143 Y94.513 E.0893
G1 X60.637 Y93.494 E.18422
G1 X60.614 Y93.02 E.07684
G1 X66.012 Y76.466 E2.81941
G1 X66.27 Y76.112 E.07093
G1 X66.941 Y75.624 E.13435
G1 X67.358 Y75.489 E.07097
G1 X73.058 Y75.489 E.92297
G1 X77.317 Y61.98 E2.29357
G1 X77.35 Y61.934 E.00917
G1 X78.12 Y62.207 F600
G1 F1200
G1 X78.761 Y61.785 E.12427
G1 X83.894 Y61.776 E.83116
G1 X85.365 Y61.605 E.23979
G1 X86.966 Y61.593 E.25925
G1 X88.485 Y61.77 E.24763
G1 X89.436 Y61.784 E.15401
G1 X179.024 Y61.784 E14.50649
G1 X179.17 Y61.845 E.02562
G1 X179.748 Y62.422 E.13225
G1 X179.808 Y62.568 E.02556
G1 X179.811 Y72.643 E1.63139
G1 X179.876 Y74.183 E.24959
G1 X179.807 Y76.738 E.41387
G1 X179.643 Y77.184 E.07695
G1 X178.845 Y78.122 E.19941
G1 X178.405 Y78.33 E.07881
G1 X176.757 Y78.533 E.26887
G1 X173.211 Y78.533 E.57418
G1 X172.12 Y78.367 E.17869
G1 X171.242 Y78.334 E.14227
G1 X138.45 Y78.334 E5.30983
G1 X136.45 Y78.533 E.32545
G1 X132.923 Y78.532 E.57111
G1 X130.967 Y78.334 E.31834
G1 X128.042 Y78.341 E.47363
G1 X126.525 Y78.533 E.2476
G1 X122.983 Y78.533 E.57354
G1 X121.016 Y78.335 E.32012
G1 X107.429 Y78.339 E2.20007
G1 X85.951 Y80.694 E3.49866
G1 X84.756 Y80.924 E.19705
G1 X83.287 Y81.326 E.24661
G1 X82.253 Y81.713 E.17877
G1 X80.919 Y82.37 E.24078
G1 X79.522 Y83.327 E.2742
G1 X78.732 Y84.042 E.17253
G1 X78.078 Y84.77 E.15846
G1 X77.087 Y86.232 E.28599
G1 X76.244 Y88.082 E.32919
G1 X75.444 Y91.04 E.49618
G1 X74.561 Y93.379 E.40483
G1 X55.715 Y153.041 E10.13126
G1 X55.131 Y153.926 E.17169
G1 X54.278 Y154.66 E.18222
G1 X53.224 Y155.162 E.18904
G1 X52.033 Y155.408 E.19692
G1 X49.913 Y155.371 E.34333
G1 X42.457 Y154.693 E1.21229
G1 X42.302 Y154.6 E.02927
G1 X41.781 Y153.809 E.15337
G1 X41.756 Y153.63 E.02927
G1 X59.076 Y100.331 E9.07466
G1 X59.178 Y100.211 E.0255
G1 X59.899 Y99.839 E.13137
G1 X60.056 Y99.826 E.02551
G1 X67.278 Y102.103 E1.22617
G1 X69.075 Y96.403 E.96775
G1 X61.917 Y94.146 E1.21531
G1 X61.796 Y94.043 E.02573
G1 X61.42 Y93.312 E.13311
G1 X61.407 Y93.153 E.02583
G1 X66.739 Y76.802 E2.78484
G1 X67.452 Y76.284 E.1427
G1 X73.641 Y76.284 E1.00215
G1 X78.084 Y62.321 E2.37265
G1 X78.747 Y62.733 F600
G1 F1200
G1 X78.956 Y62.579 E.04204
G1 X83.921 Y62.571 E.80396
G1 X85.935 Y62.379 E.32759
G1 X89.43 Y62.579 E.56685
G1 X178.781 Y62.579 E14.46812
G1 X179.013 Y62.812 E.05324
G1 X179.016 Y72.66 E1.59463
G1 X179.081 Y74.168 E.24441
G1 X179.013 Y76.627 E.39832
G1 X178.374 Y77.471 E.17142
G1 X178.229 Y77.545 E.02636
G1 X176.725 Y77.738 E.24553
G1 X173.243 Y77.738 E.56382
G1 X172.198 Y77.574 E.17128
G1 X171.257 Y77.539 E.15248
G1 X138.44 Y77.54 E5.31388
G1 X136.446 Y77.738 E.32447
G1 X132.965 Y77.738 E.56366
G1 X130.973 Y77.539 E.32416
G1 X128.009 Y77.546 E.47995
G1 X126.502 Y77.738 E.24599
G1 X123.005 Y77.738 E.56625
G1 X121.026 Y77.54 E.32205
G1 X107.386 Y77.544 E2.20865
G1 X85.823 Y79.909 E3.51252
G1 X84.586 Y80.147 E.20397
G1 X83.033 Y80.572 E.26072
G1 X81.95 Y80.978 E.18728
G1 X80.523 Y81.68 E.25751
G1 X79.023 Y82.707 E.29436
G1 X78.158 Y83.491 E.18903
G1 X77.469 Y84.259 E.16707
G1 X76.392 Y85.845 E.31043
G1 X75.496 Y87.811 E.34985
G1 X74.689 Y90.789 E.4996
G1 X73.805 Y93.134 E.4058
G1 X55.004 Y152.685 E10.11192
G1 X54.55 Y153.382 E.13469
G1 X53.826 Y154.006 E.15477
G1 X52.956 Y154.414 E.1556
G1 X51.939 Y154.618 E.16796
G1 X49.971 Y154.578 E.31873
G1 X42.81 Y153.927 E1.16432
G1 X42.6 Y153.607 E.06198
G1 X59.757 Y100.807 E8.98966
G1 X60.048 Y100.657 E.05301
G1 X67.797 Y103.1 E1.31563
G1 X70.072 Y95.884 E1.22514
G1 X62.39 Y93.461 E1.30431
G1 X62.239 Y93.167 E.05352
G1 X67.435 Y77.231 E2.71413
G1 X67.644 Y77.079 E.04185
G1 X74.223 Y77.079 E1.0653
G1 X78.711 Y62.848 E2.41622
G1 X140.946 Y68.99 F600
;TYPE:Perimeter
;WIDTH:0.9
G1 F1200
G1 X168.615 Y68.99 E4.48029
G1 X168.024 Y69.759 E.15705
G1 X167.523 Y70.638 E.16383
G1 X167.32 Y71.127 E.08573
G1 X142.243 Y71.128 E4.06058
G1 X141.831 Y70.248 E.15734
G1 X141.535 Y69.753 E.09339
G1 X141.019 Y69.085 E.13668
G1 X138.858 Y68.196 F600
G1 F1200
G1 X170.703 Y68.196 E5.15649
G1 X169.991 Y68.723 E.14344
G1 X169.275 Y69.439 E.16396
G1 X168.995 Y69.781 E.07157
G1 X168.686 Y70.199 E.08417
G1 X168.224 Y71.013 E.15156
G1 X167.847 Y71.922 E.15935
G1 X141.716 Y71.923 E4.23125
G1 X141.299 Y70.938 E.1732
G1 X140.873 Y70.194 E.13882
G1 X140.278 Y69.429 E.15693
G1 X139.904 Y69.022 E.0895
G1 X139.468 Y68.642 E.09365
G1 X138.955 Y68.266 E.10299
G1 X135.069 Y76.856 F600
;TYPE:External perimeter
;WIDTH:1.0055
G1 F1200
G1 X134.788 Y76.838 E.05165
;WIDTH:1.04027
G1 X134.508 Y76.821 E.05344
;WIDTH:1.07503
G1 X134.227 Y76.803 E.05563
G1 X125.183 Y76.802 F600
;WIDTH:1.07715
G1 F1200
G1 X124.653 Y76.825 E.10505
;WIDTH:1.07216
G1 X124.251 Y76.805 E.07929
G1 X117.155 Y71.13 F600
;TYPE:Perimeter
;WIDTH:0.9
G1 F1200
G1 X108.68 Y71.132 E1.37231
G1 X109.355 Y68.99 E.36366
G1 X118.451 Y68.99 E1.47287
G1 X117.859 Y69.759 E.15714
G1 X117.358 Y70.638 E.16383
G1 X117.201 Y71.019 E.06673
G1 X117.682 Y71.925 F600
G1 F1200
G1 X107.596 Y71.927 E1.63317
G1 X108.772 Y68.195 E.63359
G1 X120.538 Y68.195 E1.9052
G1 X119.827 Y68.723 E.1434
G1 X119.111 Y69.438 E.16385
G1 X118.831 Y69.78 E.07157
G1 X118.521 Y70.199 E.0844
G1 X118.06 Y71.013 E.15148
G1 X117.728 Y71.814 E.1404
G1 X118.281 Y72.719 F600
G1 F1200
G1 X107.36 Y72.722 E1.76838
G1 X106.49 Y72.791 E.14132
G1 X108.013 Y67.962 E.8199
G1 X108.132 Y67.401 E.09286
G1 X122.471 Y67.401 E2.32184
;WIDTH:0.939628
G1 X122.618 Y67.42 E.0252
;WIDTH:0.979255
G1 X122.766 Y67.44 E.02659
;WIDTH:1.01888
G1 X122.913 Y67.46 E.02762
;WIDTH:1.06509
G1 X123.006 Y67.483 E.01873
;WIDTH:1.11131
G1 X123.098 Y67.506 E.01944
;WIDTH:1.15752
G1 X123.191 Y67.529 E.02054
;WIDTH:1.20373
G1 X123.284 Y67.553 E.0215
