; generated by PrusaSlicer 2.7.1+linux-x64-GTK3 on 2025-01-06 at 00:02:41 UTC

; 

; external perimeters extrusion width = 0.90mm
; perimeters extrusion width = 0.90mm
; infill extrusion width = 0.90mm
; solid infill extrusion width = 0.90mm
; top infill extrusion width = 0.80mm

;TYPE:Custom
G90 ; use absolute coordinates
M83 ; extruder relative mode
M104 S240 ; set extruder temp
M140 S80 ; set bed temp
M190 S80 ; wait for bed temp
M109 S240 ; wait for extruder temp
G28 ; home all
G1 Z2 F240
G1 X10 Y10 F3000
G1 Z0.28 F240
G92 E0.0
G1 Y40 E15.0 F1500.0 ; intro line
G1 X10.3 F5000
G1 Y10 E15.0 F1200.0 ; intro line
G92 E0.0
G21 ; set units to millimeters
G90 ; use absolute coordinates
M83 ; use relative distances for extrusion
; Filament gcode
M107
;LAYER_CHANGE
;Z:0.49
;HEIGHT:0.49
;BEFORE_LAYER_CHANGE
G92 E0
;0.49


G1 Z.49 F600
;AFTER_LAYER_CHANGE
;0.49
G1 X39.957 Y61.249
;TYPE:Skirt/Brim
;WIDTH:0.9
G1 F1200
G1 X40.923 Y60.981 E.16233
G1 X49.121 Y60.235 E1.33294
G1 X50.182 Y60.197 E.17191
G1 X51.62 Y60.312 E.23359
G1 X52.805 Y60.556 E.19591
G1 X54.242 Y61.044 E.24574
G1 X55.395 Y61.613 E.2082
G1 X179.535 Y134.99 E23.35024
G1 X180.089 Y135.42 E.11356
G1 X183.018 Y138.349 E.67073
G1 X183.837 Y140.325 E.34636
G1 X183.809 Y146.924 E1.06855
G1 X183.676 Y153.38 E1.04561
G1 X182.858 Y155.298 E.33764
G1 X179.929 Y158.227 E.67073
G1 X178.105 Y159.042 E.32349
G1 X105.235 Y163.017 E11.81698
G1 X100.242 Y162.976 E.80852
G1 X98.986 Y162.74 E.20694
G1 X97.78 Y162.309 E.20738
G1 X89.354 Y158.42 E1.50269
G1 X61.018 Y143.486 E5.18652
G1 X59.678 Y141.921 E.33361
G1 X57.813 Y136.487 E.93028
G1 X35.868 Y68.642 E11.54617
G1 X35.802 Y67.162 E.23989
G1 X36.194 Y66.243 E.16178
G1 X38.843 Y62.225 E.77928
G1 X39.867 Y61.328 E.22043
G1 X41.802 Y64.666 F600
G1 F1200
G1 X42.144 Y64.468 E.06399
G1 X42.896 Y64.238 E.12734
G1 X49.467 Y63.64 E1.0684
G1 X50.594 Y63.641 E.18249
G1 X51.653 Y63.799 E.17338
G1 X52.659 Y64.1 E.17003
G1 X53.649 Y64.557 E.17656
G1 X54.6 Y65.192 E.18516
G1 X55.748 Y66.32 E.26061
G1 X56.387 Y67.237 E.18098
G1 X56.879 Y68.238 E.18061
G1 X69.434 Y107.977 E6.74822
G1 X104.884 Y108.02 E5.74023
G1 X107.538 Y108.378 E.43364
G1 X108.86 Y108.696 E.22017
G1 X111.286 Y109.547 E.4163
G1 X112.533 Y110.133 E.2231
G1 X114.75 Y111.47 E.41921
G1 X115.845 Y112.299 E.22239
G1 X117.724 Y114.062 E.41721
G1 X118.612 Y115.097 E.22082
G1 X120.447 Y117.61 E.50385
G1 X121.167 Y118.773 E.22149
G1 X122.191 Y120.911 E.38385
G1 X122.969 Y123.404 E.42288
G1 X123.214 Y124.69 E.21198
G1 X123.36 Y125.989 E.21166
G1 X123.417 Y138.024 E1.94878
G1 X176.681 Y138.024 E8.62475
G1 X177.276 Y138.124 E.0977
G1 X178.016 Y138.411 E.12852
G1 X178.478 Y138.688 E.08723
G1 X179.588 Y139.762 E.2501
G1 X180.026 Y140.416 E.12745
G1 X180.388 Y141.504 E.18567
G1 X180.404 Y145.443 E.63783
G1 X180.253 Y146.186 E.12277
G1 X180.253 Y151.894 E.92427
G1 X180.101 Y152.658 E.12613
G1 X179.592 Y153.683 E.18531
G1 X178.313 Y154.961 E.29277
G1 X177.289 Y155.471 E.18524
G1 X176.524 Y155.622 E.12626
G1 X167.73 Y155.601 E1.42397
G1 X167.286 Y155.506 E.07352
G1 X166.371 Y155.117 E.16099
G1 X165.184 Y154.178 E.24507
G1 X138.798 Y154.178 E4.27254
G1 X138.112 Y154.856 E.15618
G1 X137.654 Y155.166 E.08955
G1 X136.958 Y155.468 E.12285
G1 X136.45 Y155.594 E.08475
G1 X127.627 Y155.622 E1.42867
G1 X126.862 Y155.471 E.12626
G1 X125.838 Y154.961 E.18524
G1 X124.727 Y153.891 E.24976
G1 X124.366 Y153.378 E.10157
G1 X124.05 Y152.659 E.12717
G1 X123.914 Y152.052 E.10072
G1 X123.898 Y149.558 E.40385
G1 X107.721 Y149.558 E2.61945
G1 X107.721 Y152.404 E.46084
G1 X107.613 Y153.02 E.10127
G1 X107.383 Y153.596 E.10043
G1 X107.355 Y156.13 E.41034
G1 X106.993 Y157.209 E.18429
G1 X106.611 Y157.798 E.11368
G1 X105.442 Y158.938 E.2644
G1 X104.979 Y159.215 E.08736
G1 X104.157 Y159.522 E.14208
G1 X103.638 Y159.599 E.08496
G1 X100.78 Y159.586 E.46279
G1 X99.303 Y159.243 E.24553
G1 X98.536 Y158.831 E.14098
G1 X97.939 Y158.363 E.12283
G1 X97.461 Y157.852 E.1133
G1 X96.842 Y156.832 E.1932
G1 X95.527 Y156.711 E.21383
G1 X91.445 Y155.603 E.68489
G1 X90.387 Y155.052 E.19316
G1 X89.506 Y154.274 E.19032
G1 X89.023 Y153.605 E.13361
G1 X88.648 Y152.82 E.14087
G1 X85.462 Y143.397 E1.61067
G1 X85.387 Y142.406 E.16093
G1 X85.527 Y141.618 E.12959
G1 X85.79 Y140.946 E.11685
G1 X86.98 Y139.409 E.31475
G1 X87.492 Y138.975 E.10868
G1 X88.392 Y138.449 E.1688
G1 X89.538 Y138.053 E.19633
G1 X109.476 Y138.025 E3.22845
G1 X109.669 Y137.282 E.1243
G1 X109.725 Y136.606 E.10984
G1 X109.725 Y127.288 E1.50881
G1 X109.65 Y126.294 E.16141
G1 X109.436 Y125.406 E.14791
G1 X109.086 Y124.561 E.1481
G1 X108.609 Y123.782 E.14791
G1 X108.015 Y123.087 E.14804
G1 X107.32 Y122.493 E.14804
G1 X106.126 Y121.824 E.22162
G1 X105.256 Y121.542 E.14809
G1 X104.353 Y121.399 E.14804
G1 X82.358 Y121.377 E3.56153
G1 X80.822 Y121.555 E.25038
G1 X79.427 Y122.066 E.24056
G1 X78.201 Y122.881 E.23838
G1 X77.185 Y123.971 E.24128
G1 X76.461 Y125.249 E.23784
G1 X76.048 Y126.685 E.24195
G1 X75.964 Y127.786 E.1788
G1 X76.154 Y129.241 E.2376
G1 X77.176 Y132.529 E.55753
G1 X77.835 Y134.199 E.29071
G1 X77.986 Y134.913 E.11817
G1 X77.983 Y135.665 E.12177
G1 X77.856 Y136.315 E.10724
G1 X77.227 Y137.72 E.24926
G1 X76.917 Y138.183 E.09022
G1 X76.241 Y138.82 E.1504
G1 X75.51 Y139.235 E.13611
G1 X67.072 Y141.888 E1.43226
G1 X66.379 Y141.958 E.11278
G1 X65.255 Y141.785 E.18415
G1 X63.658 Y140.965 E.29069
G1 X62.863 Y140.153 E.18401
G1 X62.485 Y139.478 E.12527
G1 X61.63 Y136.869 E.44457
G1 X61.062 Y135.409 E.25367
G1 X60.52 Y133.444 E.33006
G1 X59.04 Y128.863 E.77953
G1 X58.964 Y128.325 E.08798
G1 X59.011 Y127.523 E.13009
G1 X59.17 Y126.905 E.10333
G1 X59.866 Y125.536 E.24868
G1 X60.483 Y124.753 E.16142
G1 X59.453 Y124.435 E.17455
G1 X58.119 Y123.737 E.24379
G1 X57.698 Y123.391 E.08824
G1 X57.246 Y122.869 E.11181
G1 X56.866 Y122.19 E.12599
G1 X39.588 Y68.928 E9.06686
G1 X39.56 Y68.28 E.10503
G1 X39.655 Y67.571 E.11583
G1 X39.972 Y66.732 E.14523
G1 X40.979 Y65.271 E.28732
G1 X41.442 Y64.875 E.09865
G1 X41.699 Y64.726 E.0481
G1 X42.097 Y65.413 F600
G1 F1200
G1 X42.502 Y65.179 E.07574
G1 X43.008 Y65.026 E.0856
G1 X49.522 Y64.433 E1.05914
G1 X50.509 Y64.432 E.15982
G1 X51.456 Y64.57 E.15496
G1 X52.355 Y64.835 E.15176
G1 X53.253 Y65.246 E.15991
G1 X54.11 Y65.819 E.16693
G1 X55.118 Y66.805 E.22832
G1 X55.717 Y67.665 E.1697
G1 X56.152 Y68.558 E.16084
G1 X68.852 Y108.772 E6.82864
G1 X104.844 Y108.814 E5.82799
G1 X107.366 Y109.154 E.41207
G1 X108.635 Y109.459 E.21133
G1 X110.985 Y110.282 E.40318
G1 X112.158 Y110.833 E.20985
G1 X114.303 Y112.128 E.40572
G1 X115.332 Y112.906 E.20888
G1 X117.149 Y114.611 E.40347
G1 X117.983 Y115.583 E.20739
G1 X119.779 Y118.04 E.49281
G1 X120.469 Y119.154 E.21218
G1 X121.457 Y121.216 E.37024
G1 X122.198 Y123.597 E.40378
G1 X122.566 Y126.034 E.39908
G1 X122.611 Y137.412 E1.84239
G1 X122.793 Y138.819 E.22973
G1 X176.65 Y138.819 E8.72077
G1 X177.029 Y138.88 E.06216
G1 X178.021 Y139.34 E.17706
G1 X179.002 Y140.299 E.22214
G1 X179.305 Y140.755 E.08865
G1 X179.604 Y141.639 E.15111
G1 X179.609 Y145.41 E.61062
G1 X179.458 Y146.045 E.10569
G1 X179.458 Y151.855 E.94078
G1 X179.352 Y152.39 E.08831
G1 X178.941 Y153.225 E.1507
G1 X177.856 Y154.31 E.24846
G1 X177.021 Y154.721 E.1507
G1 X176.486 Y154.828 E.08835
G1 X167.85 Y154.815 E1.39838
G1 X166.775 Y154.431 E.18484
G1 X165.558 Y153.383 E.26006
G1 X138.472 Y153.383 E4.38589
G1 X137.583 Y154.261 E.20232
G1 X137.25 Y154.481 E.06463
G1 X136.313 Y154.81 E.1608
G1 X127.665 Y154.828 E1.40033
G1 X127.13 Y154.721 E.08835
G1 X126.294 Y154.309 E.15092
G1 X125.312 Y153.351 E.22214
G1 X125.044 Y152.963 E.07636
G1 X124.798 Y152.386 E.10157
G1 X124.7 Y151.93 E.07552
G1 X124.692 Y148.763 E.51282
G1 X106.926 Y148.763 E2.87675
G1 X106.926 Y152.366 E.58341
G1 X106.841 Y152.829 E.07622
G1 X106.589 Y153.432 E.10582
G1 X106.572 Y155.992 E.41454
G1 X106.272 Y156.873 E.1507
G1 X106.02 Y157.265 E.07546
G1 X104.986 Y158.286 E.2353
G1 X103.989 Y158.744 E.17766
G1 X103.608 Y158.804 E.06245
G1 X100.83 Y158.792 E.44983
G1 X99.605 Y158.505 E.20373
G1 X98.994 Y158.181 E.11199
G1 X98.097 Y157.373 E.19548
G1 X97.753 Y156.877 E.09774
G1 X97.365 Y155.964 E.16063
G1 X96.711 Y156.022 E.10631
G1 X95.7 Y155.934 E.16432
G1 X91.694 Y154.846 E.67217
G1 X90.871 Y154.42 E.15006
G1 X90.123 Y153.77 E.16046
G1 X89.689 Y153.169 E.12004
G1 X89.394 Y152.544 E.11191
G1 X86.231 Y143.189 E1.59905
G1 X86.178 Y142.496 E.11254
G1 X86.302 Y141.797 E.11495
G1 X86.492 Y141.32 E.08314
G1 X87.577 Y139.936 E.28476
G1 X87.957 Y139.621 E.07992
G1 X88.74 Y139.165 E.14672
G1 X89.675 Y138.837 E.16044
G1 X109.948 Y138.819 E3.2827
G1 X110.376 Y137.763 E.1845
G1 X110.519 Y136.623 E.18604
G1 X110.519 Y127.272 E1.51416
G1 X110.435 Y126.17 E.17896
G1 X110.193 Y125.16 E.16817
G1 X109.795 Y124.2 E.16828
G1 X109.252 Y123.314 E.16826
G1 X108.578 Y122.524 E.16815
G1 X107.788 Y121.85 E.16815
G1 X106.43 Y121.089 E.25207
G1 X105.442 Y120.768 E.16821
G1 X104.416 Y120.606 E.16819
G1 X82.335 Y120.583 E3.57546
G1 X81.462 Y120.633 E.14159
G1 X80.637 Y120.781 E.13572
G1 X79.067 Y121.355 E.27068
G1 X77.686 Y122.275 E.2687
G1 X76.543 Y123.5 E.27129
G1 X75.726 Y124.941 E.26823
G1 X75.265 Y126.543 E.26993
G1 X75.168 Y127.796 E.2035
G1 X75.381 Y129.434 E.26747
G1 X76.421 Y132.778 E.56706
G1 X77.089 Y134.474 E.29516
G1 X77.191 Y134.953 E.0793
G1 X77.189 Y135.62 E.108
G1 X77.088 Y136.108 E.08069
G1 X76.519 Y137.357 E.22224
G1 X76.289 Y137.693 E.06593
G1 X75.737 Y138.203 E.12169
G1 X75.232 Y138.489 E.09397
G1 X66.944 Y141.102 E1.40715
G1 X66.406 Y141.162 E.08766
G1 X65.492 Y141.025 E.14965
G1 X64.137 Y140.329 E.24666
G1 X63.493 Y139.666 E.14966
G1 X63.228 Y139.194 E.08765
G1 X62.379 Y136.601 E.4418
G1 X61.818 Y135.162 E.25009
G1 X61.284 Y133.221 E.32597
G1 X59.819 Y128.706 E.76861
G1 X59.76 Y128.326 E.06227
G1 X59.802 Y127.612 E.11581
G1 X59.925 Y127.156 E.07648
G1 X60.551 Y125.941 E.22132
G1 X60.847 Y125.58 E.07559
G1 X61.335 Y125.178 E.10238
G1 X61.752 Y124.956 E.0765
G1 X63.35 Y124.453 E.27127
G1 X62.987 Y123.301 E.19558
G1 X61.171 Y123.855 E.30743
G1 X60.159 Y123.821 E.16396
G1 X59.781 Y123.71 E.06379
G1 X58.583 Y123.09 E.21842
G1 X57.874 Y122.38 E.16247
G1 X57.61 Y121.908 E.08757
G1 X40.374 Y68.809 E9.03966
G1 X40.437 Y67.722 E.17631
G1 X40.656 Y67.138 E.10099
G1 X41.543 Y65.833 E.2555
G1 X41.875 Y65.542 E.07149
G1 X41.993 Y65.474 E.02205
G1 X42.452 Y66.162 F600
G1 F1200
G1 X42.858 Y65.891 E.07904
G1 X43.118 Y65.814 E.04391
G1 X49.576 Y65.227 E1.05002
G1 X50.48 Y65.227 E.14638
G1 X51.262 Y65.341 E.12796
G1 X52.053 Y65.571 E.13339
G1 X52.859 Y65.937 E.14334
G1 X53.621 Y66.446 E.14838
G1 X54.49 Y67.294 E.19661
G1 X55.017 Y68.043 E.14829
G1 X55.424 Y68.88 E.1507
G1 X68.269 Y109.567 E6.90874
G1 X103.651 Y109.568 E5.72921
G1 X105.964 Y109.724 E.37538
G1 X107.195 Y109.93 E.2021
G1 X108.41 Y110.221 E.2023
G1 X110.683 Y111.018 E.39002
G1 X111.782 Y111.534 E.19659
G1 X113.857 Y112.785 E.39233
G1 X114.819 Y113.513 E.19535
G1 X116.573 Y115.16 E.3896
G1 X117.353 Y116.067 E.1937
G1 X119.111 Y118.472 E.48238
G1 X119.772 Y119.536 E.20283
G1 X120.723 Y121.521 E.3564
G1 X121.42 Y123.761 E.37986
G1 X121.772 Y126.08 E.3798
G1 X121.816 Y137.43 E1.83786
G1 X121.904 Y138.425 E.16174
G1 X122.257 Y139.614 E.20083
G1 X176.847 Y139.655 E8.83946
G1 X177.556 Y139.985 E.12663
G1 X178.413 Y140.834 E.19534
G1 X178.585 Y141.094 E.05048
G1 X178.818 Y141.766 E.11517
G1 X178.814 Y145.371 E.58374
G1 X178.663 Y145.892 E.08783
G1 X178.663 Y151.816 E.95924
G1 X178.603 Y152.122 E.05049
G1 X178.295 Y152.761 E.11486
G1 X177.392 Y153.664 E.20678
G1 X176.753 Y153.972 E.11486
G1 X176.447 Y154.033 E.05052
G1 X167.962 Y154.027 E1.37393
G1 X167.186 Y153.75 E.13342
G1 X166.373 Y153.094 E.16916
G1 X166.008 Y152.588 E.10103
G1 X138.093 Y152.588 E4.52012
G1 X137.057 Y153.663 E.24175
G1 X136.184 Y154.025 E.15303
G1 X127.704 Y154.033 E1.37312
G1 X127.398 Y153.972 E.05052
G1 X126.758 Y153.663 E.11508
G1 X125.902 Y152.817 E.19488
G1 X125.549 Y152.122 E.12622
G1 X125.488 Y151.816 E.05052
G1 X125.488 Y147.968 E.62309
G1 X106.131 Y147.968 E3.13437
G1 X106.131 Y152.324 E.70534
G1 X105.794 Y153.263 E.16154
G1 X105.786 Y155.864 E.42117
G1 X105.55 Y156.538 E.11563
G1 X104.521 Y157.64 E.24414
G1 X103.81 Y157.969 E.12686
G1 X100.878 Y157.997 E.47478
G1 X99.926 Y157.776 E.15825
G1 X99.447 Y157.527 E.08742
G1 X98.697 Y156.851 E.16349
G1 X98.24 Y156.065 E.14722
G1 X97.887 Y154.967 E.18676
G1 X96.733 Y155.226 E.19151
G1 X95.872 Y155.157 E.13986
G1 X91.946 Y154.092 E.65869
G1 X91.285 Y153.741 E.12119
G1 X90.736 Y153.263 E.11787
G1 X90.389 Y152.791 E.09486
G1 X90.139 Y152.267 E.09401
G1 X87 Y142.982 E1.58706
G1 X86.97 Y142.585 E.06447
G1 X87.192 Y141.704 E.14711
G1 X88.17 Y140.467 E.25534
G1 X89.129 Y139.858 E.18395
G1 X89.804 Y139.622 E.11579
G1 X110.361 Y139.614 E3.32868
G1 X111.017 Y138.375 E.22701
G1 X111.237 Y137.551 E.1381
G1 X111.314 Y136.641 E.14788
G1 X111.314 Y127.256 E1.51966
G1 X111.221 Y126.046 E.19651
G1 X110.949 Y124.914 E.18852
G1 X110.504 Y123.839 E.18839
G1 X109.896 Y122.847 E.1884
G1 X109.14 Y121.962 E.18847
G1 X108.255 Y121.206 E.18847
G1 X106.734 Y120.354 E.28229
G1 X105.628 Y119.995 E.18829
G1 X104.478 Y119.813 E.18853
G1 X81.829 Y119.803 E3.66743
G1 X80.452 Y120.008 E.22543
G1 X79.56 Y120.277 E.15086
G1 X78.709 Y120.646 E.15019
G1 X77.911 Y121.111 E.14955
G1 X77.171 Y121.669 E.15007
G1 X76.497 Y122.313 E.15095
G1 X75.903 Y123.029 E.15064
G1 X75.4 Y123.805 E.14974
G1 X74.994 Y124.633 E.14932
G1 X74.685 Y125.51 E.15056
G1 X74.48 Y126.419 E.15089
G1 X74.381 Y127.342 E.15031
G1 X74.392 Y128.267 E.14979
G1 X74.614 Y129.644 E.22585
G1 X75.666 Y133.027 E.57367
G1 X76.396 Y134.995 E.33988
G1 X76.345 Y135.821 E.134
G1 X75.669 Y137.195 E.24795
G1 X74.954 Y137.744 E.14597
G1 X66.742 Y140.333 E1.39424
G1 X66.434 Y140.367 E.05018
G1 X65.737 Y140.268 E.11399
G1 X64.61 Y139.689 E.20516
G1 X64.123 Y139.18 E.11407
G1 X63.972 Y138.91 E.05009
G1 X63.127 Y136.332 E.43929
G1 X62.574 Y134.916 E.24615
G1 X62.041 Y132.979 E.32531
G1 X60.553 Y128.261 E.80105
G1 X60.677 Y127.415 E.13845
G1 X61.393 Y126.159 E.2341
G1 X62.031 Y125.702 E.12708
G1 X64.347 Y124.972 E.39321
G1 X63.506 Y122.304 E.45297
G1 X61.056 Y123.068 E.41556
G1 X60.281 Y123.034 E.12561
G1 X58.992 Y122.408 E.23203
G1 X58.505 Y121.896 E.11442
G1 X58.354 Y121.625 E.05023
G1 X41.162 Y68.682 E9.01343
G1 X41.219 Y67.873 E.13132
G1 X41.343 Y67.54 E.05754
G1 X42.116 Y66.386 E.22491
G1 X42.352 Y66.228 E.04599
G1 X42.773 Y66.877 F600
G1 F1200
G1 X43.155 Y66.629 E.07375
G1 X49.629 Y66.02 E1.05293
G1 X50.448 Y66.021 E.13262
G1 X51.116 Y66.123 E.10942
G1 X51.753 Y66.307 E.10736
G1 X52.819 Y66.845 E.19335
G1 X53.861 Y67.782 E.22691
G1 X54.347 Y68.472 E.13666
G1 X54.695 Y69.197 E.13022
G1 X67.687 Y110.362 E6.98972
G1 X103.63 Y110.362 E5.82005
G1 X105.872 Y110.514 E.36387
G1 X107.023 Y110.706 E.18895
G1 X109.349 Y111.35 E.39081
G1 X111.407 Y112.235 E.36275
G1 X112.491 Y112.84 E.20101
G1 X114.306 Y114.12 E.35963
G1 X115.234 Y114.934 E.19988
G1 X116.723 Y116.552 E.35605
G1 X118.444 Y118.905 E.47204
G1 X119.075 Y119.918 E.19325
G1 X119.989 Y121.826 E.34257
G1 X120.649 Y123.953 E.36061
G1 X120.981 Y126.154 E.36043
G1 X121.048 Y138.031 E1.92321
G1 X121.245 Y139.101 E.17617
G1 X121.77 Y140.409 E.22822
G1 X176.646 Y140.424 E8.88577
G1 X177.077 Y140.62 E.07667
G1 X177.822 Y141.367 E.17083
G1 X178.031 Y141.875 E.08895
G1 X178.02 Y145.325 E.55864
G1 X177.869 Y145.727 E.06953
G1 X177.869 Y151.777 E.97964
G1 X177.659 Y152.284 E.08886
G1 X176.914 Y153.028 E.17049
G1 X176.408 Y153.238 E.08871
G1 X168.059 Y153.238 E1.35191
G1 X167.61 Y153.078 E.07718
G1 X166.906 Y152.503 E.14719
G1 X166.549 Y151.793 E.12868
G1 X137.543 Y151.793 E4.69678
G1 X137.323 Y152.284 E.08712
G1 X136.579 Y153.028 E.17037
G1 X136.072 Y153.238 E.08886
G1 X127.743 Y153.238 E1.34867
G1 X127.237 Y153.028 E.08871
G1 X126.492 Y152.284 E.17049
G1 X126.298 Y151.854 E.07639
G1 X126.283 Y147.173 E.75797
G1 X105.336 Y147.173 E3.39183
G1 X105.336 Y152.285 E.82776
G1 X104.999 Y152.952 E.12101
G1 X104.999 Y155.752 E.45339
G1 X104.833 Y156.194 E.07645
G1 X104.044 Y157.004 E.1831
G1 X103.534 Y157.214 E.08931
G1 X100.925 Y157.202 E.42247
G1 X100.24 Y157.044 E.11383
